samirx20/RADAR/data/datasets/clean_02.csv
timestamp,actual_q_0,actual_qd_0,actual_current_0,actual_q_1,actual_qd_1,actual_current_1,actual_q_2,actual_qd_2,actual_current_2,actual_q_3,actual_qd_3,actual_current_3,actual_q_4,actual_qd_4,actual_current_4,actual_q_5,actual_qd_5,actual_current_5,protective_stop,fault_code
0.0,0.19823876236229207,0.36585151268511346,0.2,-0.5991569803953781,1.1071626850977512,0.2,-0.9990792141733624,1.209511719221651,0.2,-0.0027414336356680574,2.382437024447094,0.2,0.500367126177257,0.45462073170580986,0.2,-0.2974730131899186,-0.44743339492115536,0.2,0,
0.008002133902373967,0.20116557446377298,0.22362547078167044,0.2,-0.5902996789145961,0.8148128825022429,0.2,-0.9894031204195892,0.9843522350029762,0.2,0.016318062559908694,1.9515130273659431,0.2,0.5040040920309035,0.46500337701491784,0.2,-0.30105248034928783,-0.283453316843478,0.2,0,
0.016004267804747934,0.2018167698947988,0.17515513331708107,0.2,-0.5861199742753422,0.6740996550348988,0.2,-0.9833295784133148,1.2692772999671822,0.2,0.02848277480218703,1.79411442158022,0.2,0.5078071802094957,0.299927731106063,0.2,-0.30200826625941424,0.18966313810988775,0.2,0,
0.0240064017071219,0.20396805659684628,0.35049099727152944,0.2,-0.5795140844340377,0.629719097675549,0.2,-0.9690946836201143,1.42761112819053,0.2,0.045023893305192214,1.5735505740477023,0.2,0.5088029357286005,0.31583353889257093,0.2,-0.29801787013952963,0.3425365438582337,0.2,0,
0.03200853560949587,0.20742462585114327,0.09705302370255527,0.2,-0.5760444687125335,0.5446098138014235,0.2,-0.9604878003622663,1.148492389422391,0.2,0.05365958398695027,1.4846142341681228,0.2,0.5128605168317768,0.4848630124393294,0.2,-0.2965276815576825,0.13482571156878814,0.2,0,
0.04001066951186984,0.20552090497608716,0.23040934567356874,0.2,-0.570800327413215,1.0361969922464547,0.2,-0.950718805389356,1.3954529400056896,0.2,0.06877772105188218,1.5927604144901084,0.2,0.5165607439276297,0.6179963728337664,0.2,-0.295860658754429,0.0075642548194934656,0.2,0,
0.0480128034142438,0.21111117538192037,0.4300974020414686,0.2,-0.5594653168365902,1.0934799933710464,0.2,-0.9381605533221753,1.2644269106119808,0.2,0.079143750618792,1.3692792189886476,0.2,0.5227484587971171,0.4665674562266617,0.2,-0.2964066534805706,-0.06111169037194622,0.2,0,
0.05601493731661777,0.21240246340875066,-0.06489639162011313,0.2,-0.5533046475192782,0.9631421670680818,0.2,-0.9304879748195644,1.1832173891625635,0.2,0.09068618855570054,1.7317221543702792,0.2,0.5240258232272563,-0.07373865451337086,0.2,-0.29683844580038016,0.05614273703696132,0.2,0,
0.06401707121899174,0.21007283311599856,0.06272867416284855,0.2,-0.5440550421635009,0.6083889660239497,0.2,-0.9192290750955743,1.0073093452099557,0.2,0.10685130508871647,1.5769356745055232,0.2,0.5215686403249031,0.3788021843075459,0.2,-0.2955083696879792,0.058971112398276126,0.2,0,
0.0720192051213657,0.21340612219535623,0.261299875145499,0.2,-0.543570424062895,0.7211324368146255,0.2,-0.9143710252962051,0.9544460719558625,0.2,0.11591715934778891,1.474368528558417,0.2,0.5300866581761771,0.8032631431179327,0.2,-0.29589490800200774,0.11315708706882005,0.2,0,
0.08002133902373967,0.21425363111832654,0.244337716204834,0.2,-0.5325169231744669,0.9209176853662084,0.2,-0.9039579379442805,1.3039087514827852,0.2,0.13044120154565114,1.6466331167137678,0.2,0.53442085061479,0.26003474824025374,0.2,-0.2936978562948781,0.014612272545070498,0.2,0,
0.08802347292611364,0.21731552565463358,0.32766141956254086,0.2,-0.5288357410970357,1.0098941464337998,0.2,-0.8935084852724805,1.4699164992819092,0.2,0.1422632892152092,1.7383237655724213,0.2,0.5342472141480211,0.15092903225840532,0.2,-0.2956611116412866,0.03344664173242362,0.2,0,
0.0960256068284876,0.2194962138313272,0.10552547333476936,0.2,-0.5163586168315261,0.6787476335609194,0.2,-0.8804392739557699,1.1716310840446802,0.2,0.15825438179480988,1.6095427624922969,0.2,0.5368357151309245,0.5333407678893148,0.2,-0.2931627100271593,0.13240192546213128,0.2,0,
0.10402774073086157,0.2190039332279899,0.33226240792803147,0.2,-0.517975778960061,0.6613466799859427,0.2,-0.8747623879277656,1.0679939054890897,0.2,0.16801597341508595,1.4074434219469683,0.2,0.5427806664342502,0.5438531878601895,0.2,-0.2935426808338925,0.014633571235111303,0.2,0,
0.11202987463323553,0.2248124123581757,0.4093182683682743,0.2,-0.505777069951751,0.8145659096811738,0.2,-0.8633513714679445,1.2469132922360153,0.2,0.18077347654596138,1.5411433448383245,0.2,0.5455373661366876,0.2384912724723437,0.2,-0.29292857288739754,0.16101596968602985,0.2,0,
0.12003200853560951,0.22555302552188228,-0.04270389059424402,0.2,-0.5049427244051622,0.5032385861001472,0.2,-0.8548117752519894,1.0588729537529955,0.2,0.19267426693249914,1.5499851069133361,0.2,0.5465965267938077,0.43540889272432326,0.2,-0.29096642531891603,0.0016331542688693967,0.2,0,
0.12803414243798347,0.2241291501086678,0.1396913791737557,0.2,-0.4977252525741486,1.04334545763346,0.2,-0.8464094042078966,1.0594443124927326,0.2,0.20557323825657475,1.6209487976531853,0.2,0.5525039084202767,0.21649602268206114,0.2,-0.29290244241909563,-0.19501587863760342,0.2,0,
0.13603627634035745,0.22778808758866237,0.5074833997333414,0.2,-0.48824919708302683,0.7522474999323188,0.2,-0.8378606662521056,0.9758902754797849,0.2,0.2186094476949501,1.2304033930209506,0.2,0.5500604631567206,0.28997472140677993,0.2,-0.2940866793771177,0.25053376857859727,0.2,0,
0.1440384102427314,0.23224888450440126,0.25935128592166795,0.2,-0.4856892925752315,0.33406679028622627,0.2,-0.83079515980022,1.089832997644119,0.2,0.22525969254490996,1.3750946929822152,0.2,0.5571435039627852,0.3984864567527849,0.2,-0.2888939021218381,0.3192096997761233,0.2,0,
0.15204054414510537,0.23193770816340906,-0.10209697279400104,0.2,-0.4829041284384472,0.4708793950778424,0.2,-0.8204233382897997,0.9744527739330363,0.2,0.24061096278266556,1.4771244864325295,0.2,0.5564362464647652,0.29862282628270037,0.2,-0.2889793241806997,0.038843429088868814,0.2,0,
0.16004267804747935,0.23061533293969724,0.15545198585241274,0.2,-0.47815522225398605,0.8681800175562686,0.2,-0.8152039154172914,1.0068538013884367,0.2,0.24889368432783043,1.0950633682190127,0.2,0.5619214691833084,0.541114603209103,0.2,-0.2882724072564162,-0.03349277577591528,0.2,0,
0.1680448119498533,0.23442493993704766,0.5432510177104232,0.2,-0.4690132481575469,0.9523792081208259,0.2,-0.8043136774675848,1.0432747496200017,0.2,0.25813197667416976,1.0085192873276645,0.2,0.5650940801161108,0.28061579488323357,0.2,-0.28951520859311436,0.04168064898937493,0.2,0,
0.17604694585222727,0.23930734922306401,0.26794476110553533,0.2,-0.46291715492405283,0.4621700293832194,0.2,-0.7985115194233714,0.9821988216257779,0.2,0.26502999292507307,1.469591269116506,0.2,0.5664113219014402,0.2378820990364683,0.2,-0.2876055168725862,0.1962139370315849,0.2,0,
0.18404907975460125,0.23871205611473623,-0.2211671846599223,0.2,-0.4616185276874154,0.34065739347819907,0.2,-0.7885984963215723,0.7945039178612057,0.2,0.28164543698003386,1.438389485000035,0.2,0.5689001937006943,0.28123995280236735,0.2,-0.286375785600609,0.011807628222282318,0.2,0,
0.1920512136569752,0.23576867426850526,0.126895195890743,0.2,-0.45746663662840165,0.43863289857500737,0.2,-0.7857994567375921,0.7768883200507115,0.2,0.2880442246850736,1.0218450255104898,0.2,0.570911161146278,0.287241867200895,0.2,-0.28741659482102966,-0.2803887990851031,0.2,0,
0.20005334755934917,0.24074237924898811,0.31930250206430033,0.2,-0.4546004013102153,0.7744476844575923,0.2,-0.7761682832007609,0.9289798655988737,0.2,0.2979949573882017,1.115679796356326,0.2,0.5734960635759087,0.4045122083192812,0.2,-0.29086200638597065,0.03977592034392144,0.2,0,
0.20805548146172315,0.24087751430153406,0.08589158998635951,0.2,-0.44507547367708017,0.7181314076534634,0.2,-0.7709357788880101,0.6239195217038473,0.2,0.30589510142677484,1.070731085468464,0.2,0.5773833564793865,0.10124147575131526,0.2,-0.2867801800955269,0.5240804557195798,0.2,0,
0.21605761536409712,0.24211664468876987,0.36810516446402625,0.2,-0.44311029878775987,0.364874657073716,0.2,-0.7661855708534994,0.7629181244569183,0.2,0.3151266547556971,0.8761214923055337,0.2,0.5751159271879297,0.16765086079733454,0.2,-0.2824767190944574,-0.004796339385625126,0.2,0,
0.22405974926647107,0.24676719693295848,0.22988329276718913,0.2,-0.4392374791639007,0.28441084142205236,0.2,-0.7587290888966994,0.7884836185981167,0.2,0.3199130453036634,0.900018163402818,0.2,0.5800657702521439,0.5676180610971887,0.2,-0.2868569215256969,-0.06060907523395068,0.2,0,
0.23206188316884505,0.2457947773730449,0.11585757236919243,0.2,-0.43855972532500703,0.36203103757963606,0.2,-0.7535698329559295,0.8481859091162904,0.2,0.3295269453701422,1.075701419549508,0.2,0.5841978161654847,0.2705101960928519,0.2,-0.2834464642982006,0.28522400931858816,0.2,0,
0.24006401707121902,0.24862091809086556,0.2955906174925797,0.2,-0.43344498256262654,0.6044751105633329,0.2,-0.7451581143508388,0.9177472486392654,0.2,0.3371242680164555,1.0775155693204772,0.2,0.5843939333896295,0.08086920765017908,0.2,-0.2822933373765995,0.0931025876652683,0.2,0,
0.24806615097359297,0.25052422725292617,0.016873688472125378,0.2,-0.4288881235559937,0.6436025463089113,0.2,-0.7388858769777013,0.6456380919259915,0.2,0.34676719447926985,0.9668530398252683,0.2,0.5854917234878876,0.09550516153171429,0.2,-0.2819568228955563,-0.17086197468212452,0.2,0,
0.25606828487596694,0.24889089710641957,0.240441121964953,0.2,-0.42314734182168395,0.5082932163601068,0.2,-0.7348279048800229,0.3573130791711815,0.2,0.3525939166536598,0.5608273096943533,0.2,0.585922015974137,0.3503023303548722,0.2,-0.2850271289715135,0.19723744651375594,0.2,0,
0.2640704187783409,0.2543712852043654,0.5237263553979511,0.2,-0.420755432094232,0.3437190884146221,0.2,-0.7331688677109623,0.3901805368724809,0.2,0.3557404314343795,0.5840893210225205,0.2,0.5910965607735655,0.39309142350178045,0.2,-0.2788010237513362,0.32567536662283025,0.2,0,
0.2720725526807149,0.2572705187927868,0.18807086841452283,0.2,-0.41764783640705,0.30236745499465434,0.2,-0.7285850162900632,0.7823507224911582,0.2,0.36193934579002013,0.7226271046932402,0.2,0.5922114787501654,0.006790683605172043,0.2,-0.2798163231055482,-0.27093990276541924,0.2,0,
0.28007468658308887,0.2573804190989978,-0.1910779891066451,0.2,-0.4159175528143175,0.45232741621355554,0.2,-0.7206512561511038,0.5755434694540636,0.2,0.36730246510947134,0.8614705448936367,0.2,0.5912052117112483,0.08657547452244757,0.2,-0.2831360621955829,-0.22722425568537027,0.2,0,
0.2880768204854628,0.25421327096708046,0.043064745094436446,0.2,-0.4104105977476331,0.37448527230442286,0.2,-0.7193763207787982,0.24887908806082992,0.2,0.3757228745083183,0.6724128035569439,0.2,0.5935966863425246,0.15682193055677196,0.2,-0.28345191119651414,0.04352549494454974,0.2,0,
0.29607895438783677,0.25806945502050876,0.37559211324470626,0.2,-0.40992578845744676,0.26445083833877625,0.2,-0.7166691907421305,0.5705552200322289,0.2,0.37806106996638245,0.3314812589995317,0.2,0.5937143626001566,0.06738137090411128,0.2,-0.2824396542764701,0.179152793141589,0.2,0,
0.30408108829021074,0.26022274477899576,0.17957501102039072,0.2,-0.4061793843342127,0.20567512615393344,0.2,-0.7102474372582825,0.2699336082908413,0.2,0.3810265746523108,0.3944547129262933,0.2,0.5946747882769904,0.2726645688112955,0.2,-0.2805854665062487,0.10437502481348837,0.2,0,
0.3120832221925847,0.260942655196835,0.3247363258787189,0.2,-0.4066349864389838,-0.00990710794024699,0.2,-0.7123502530094771,0.1928645166155707,0.2,0.38437234537320314,0.7570435058213282,0.2,0.5980769957011374,0.3478346068700594,0.2,-0.2807696538794543,0.06878749523759123,0.2,0,
0.3200853560949587,0.26541852599305527,0.19882594727431077,0.2,-0.40633789806125664,0.2036639294821993,0.2,-0.7071616049924334,0.3559624240998399,0.2,0.3931392707454521,0.31243789932219185,0.2,0.6002401419869113,-0.1632581615510359,0.2,-0.27948486658244726,0.1733883846147359,0.2,0,
0.32808748999733267,0.264123870353224,0.07630674540370572,0.2,-0.40337636356726864,0.11159554696840712,0.2,-0.7066548542238796,-0.058744772560570535,0.2,0.3893713517623582,0.10989638773485633,0.2,0.5954648651163208,-0.20511952114327103,0.2,-0.2779954397256185,0.11309515302293169,0.2,0,
0.3360896238997066,0.26663943391951456,0.2395894411440537,0.2,-0.4045523693097621,0.02380124215826257,0.2,-0.7081015213534025,0.07703035846028106,0.2,0.3948976129492098,0.3660179048964665,0.2,0.596958229648619,0.4732722377198059,0.2,-0.27767534413408035,0.13526640088587505,0.2,0,
0.34409175780208057,0.26795730141152885,0.22263393828899497,0.2,-0.40299554369273644,0.4508414380211857,0.2,-0.7054223684885151,0.41870104723099044,0.2,0.3952276382407017,0.14735695921107989,0.2,0.6030372209198377,-0.05080687721754906,0.2,-0.2758311773114445,0.1633773938658073,0.2,0,
0.35209389170445454,0.2702015769321385,0.2175919532457042,0.2,-0.39733890630142316,0.20403755733555684,0.2,-0.7014023045977067,0.6088948148291681,0.2,0.39725532429658705,0.2385114481609947,0.2,0.5961453196131382,0.09365395517785952,0.2,-0.27506130583222743,0.04973621569755865,0.2,0,
0.3600960256068285,0.2714387726634601,0.048864465941763496,0.2,-0.3997309427753675,-0.13891852512339792,0.2,-0.6956800514512484,0.3058441304883558,0.2,0.3990438214112776,0.13440473932407881,0.2,0.6045356842026834,0.3050086530124452,0.2,-0.2750353978602836,0.3295396615032309,0.2,0,
0.3680981595092025,0.2709834083872067,0.16741476650476705,0.2,-0.3995616027033975,0.20626738958940544,0.2,-0.696508798509893,-0.17692004896727176,0.2,0.3994058001257723,0.04596805073044108,0.2,0.6010254580613373,-0.6263101148078972,0.2,-0.26978867124817574,-0.0467868312585204,0.2,0,
0.37610029341157647,0.2741174089275364,0.45290267547293955,0.2,-0.39643066454193704,-0.1795222024763357,0.2,-0.6985107722347248,-0.4931852517046226,0.2,0.39977931022296465,-0.053558279115680646,0.2,0.5945147223657571,0.08093900359354422,0.2,-0.2757839871604199,-0.22760288638117368,0.2,0,
0.3841024273139504,0.2782298511947737,0.5027043884847198,0.2,-0.4024339579430189,-0.3450030555783821,0.2,-0.704399762537167,-0.20352458608093038,0.2,0.3985488676599214,-0.1378888049671581,0.2,0.602320482118834,0.3420709434497349,0.2,-0.2734303174302745,0.13269206415862309,0.2,0,
0.39210456121632437,0.2821606791432919,0.14182820841445246,0.2,-0.40195071343119115,0.14661835973713358,0.2,-0.7017671656120197,0.2733890908310638,0.2,0.3975730893434901,0.013888755147736104,0.2,0.5999878574609528,-0.051986919065792614,0.2,-0.27366091413388194,0.07374044393501991,0.2,0,
0.40010669511869834,0.28049910252940496,0.02017747720051838,0.2,-0.40008806418722476,0.011305382010148857,0.2,-0.7000255370838699,-0.06072544725273937,0.2,0.3987710877422852,-0.03615264682248209,0.2,0.6014886914137814,-0.006261889526890108,0.2,-0.2722504703273142,-0.03165067645742939,0.2,0,
0.4081088290210723,0.2824835187785002,0.2157860898122886,0.2,-0.40176982731902877,-0.2547491297769447,0.2,-0.7027387727680635,-0.3888223100307203,0.2,0.3969946469943304,-0.36727215077438435,0.2,0.5998876672285226,-0.1041500250536162,0.2,-0.2741673249572008,0.07125627911126406,0.2,0,
0.4161109629234463,0.2839516799664016,-0.1119797573480158,0.2,-0.40416405026365587,-0.17235431775021112,0.2,-0.7062466940443615,-0.19328053454176902,0.2,0.39289473332989505,-0.5214805644334005,0.2,0.5998222910129235,0.015293537991283024,0.2,-0.271110369861534,-0.003967009915926273,0.2,0,
0.42411309682582027,0.28069184266093195,-0.19168803043864008,0.2,-0.40452749640303215,-0.12360184377676817,0.2,-0.7058312613207318,0.0406104006608482,0.2,0.388650957963396,-0.25303656503702227,0.2,0.6001323638363831,-0.15148057465311227,0.2,-0.27423079711585563,0.05982727720969805,0.2,0,
0.43211523072819424,0.28088467147938334,0.32160528891251106,0.2,-0.40614167976408416,-0.3132248143220377,0.2,-0.7055969276337879,-0.233900573276713,0.2,0.3888461482893027,-0.2679433793569656,0.2,0.5973986018184737,-0.2123912206776421,0.2,-0.2701531334261788,0.20614900317070944,0.2,0,
0.44011736463056816,0.2858375272835321,0.7076622497921327,0.2,-0.40953909343218475,-0.26649400431462755,0.2,-0.7095736704931592,-0.5134604073437632,0.2,0.38436386389368454,-0.4017776430141305,0.2,0.5967341043055409,-0.09371118700444991,0.2,-0.2709324130651243,-0.07963652202352609,0.2,0,
0.44811949853294214,0.29220726747605746,0.4980054863508616,0.2,-0.4104055838331182,-0.06212411967916262,0.2,-0.7138122941512881,-0.38772910163116514,0.2,0.3824177060010766,-0.6178420433908468,0.2,0.5958992228264025,-0.19830670798518663,0.2,-0.2714273177785552,0.03385806242065317,0.2,0,
0.4561216324353161,0.2938056150651459,-0.15404928484352015,0.2,-0.41053307934705136,-0.2270495499330366,0.2,-0.7157773361192579,-0.4713874364179263,0.2,0.374478391199431,-0.6535667789789451,0.2,0.5935611969777779,-0.2076081859541598,0.2,-0.2703906840663938,0.2549315554435209,0.2,0,
0.4641237663376901,0.28974247891856114,0.08009966325452436,0.2,-0.4140383766320468,-0.1535448653455368,0.2,-0.7213544931339749,-0.44695137089035414,0.2,0.3719606375374135,-0.5342921755912763,0.2,0.592577491851136,-0.05908060509731555,0.2,-0.2673484128914589,0.15830727245091936,0.2,0,
0.47212590024006407,0.2950872096772183,0.4859174191050031,0.2,-0.41298979719257994,-0.2804662824469235,0.2,-0.7229285580535035,-0.6039111986441831,0.2,0.36592971638997057,-0.5402391203911567,0.2,0.5926159072962208,-0.3526546339452652,0.2,-0.2678577677071791,-0.22645256910430386,0.2,0,
0.48012803414243804,0.2975171576242412,0.22972355240738485,0.2,-0.41852583715119757,-0.5804752430471176,0.2,-0.7310170723122819,-0.5615998544930625,0.2,0.363316811611155,-0.49187699712104416,0.2,0.5869350177080117,-0.1561514875920364,0.2,-0.27097165399712775,0.09520545253356369,0.2,0,
0.48813016804481196,0.29876278651573646,0.09909215446930741,0.2,-0.4222774010813338,-0.37678074377979137,0.2,-0.7319141557253925,-0.5714114876990902,0.2,0.35805968443603386,-1.0352967025271318,0.2,0.5901174834947482,-0.06289230138178253,0.2,-0.2663344804666421,0.35146274621600593,0.2,0,
0.49613230194718594,0.2991026320957501,0.32830622132395265,0.2,-0.42455432905167423,-0.34379732641624805,0.2,-0.7401596561154673,-0.756283746161733,0.2,0.34675206437072087,-0.860512416337035,0.2,0.5859287408859032,-0.3369910469305376,0.2,-0.26534825005767165,0.16127983159620538,0.2,0,
0.50413443584956,0.3040156860569197,0.165196822324222,0.2,-0.4277781583039938,-0.3456152632382234,0.2,-0.7440146956639803,-0.5835119286796836,0.2,0.3442914857746413,-0.9512541400400025,0.2,0.5847256267438596,-0.2424257499207133,0.2,-0.2637540031611028,0.015745381382808316,0.2,0,
0.5121365697519339,0.30174578125293766,0.05401609446584882,0.2,-0.4300841732634858,-0.4513223563553485,0.2,-0.7494958469743422,-0.6118087904339666,0.2,0.33153199813008083,-1.0565605614510885,0.2,0.5820499288871718,-0.11007340896967283,0.2,-0.2650963239555467,-0.08952246374895403,0.2,0,
0.5201387036543078,0.3048799435683733,0.12803517930725164,0.2,-0.43499931600567937,-0.7953229933869155,0.2,-0.7538036363109237,-0.6456152995330949,0.2,0.3273865167914239,-0.583205360975926,0.2,0.5829644522003449,-0.09014340566792373,0.2,-0.2651863625810861,0.09794302937889826,0.2,0,
0.5281408375566818,0.3037943441218537,0.37305487989667746,0.2,-0.44280934115767645,-0.4786077316093935,0.2,-0.7598256917668718,-0.8735624330076658,0.2,0.322200712354466,-0.9906351002348414,0.2,0.580607634396485,-0.12436423779529915,0.2,-0.26352923548548435,0.15252505240466452,0.2,0,
0.5361429714590558,0.3108488216467201,0.3281304808562119,0.2,-0.44265703971142967,-0.3874260772949861,0.2,-0.7677806352390464,-0.7699585362140327,0.2,0.3115363551876664,-1.0334191925673724,0.2,0.5809746243956201,-0.09428710913714222,0.2,-0.26274596174261144,-0.13183787632164642,0.2,0,
0.5441451053614298,0.3090444318155531,-0.012521848909100713,0.2,-0.44900815839439623,-0.4852229984336348,0.2,-0.7721450283462963,-0.6958188159567127,0.2,0.30566600527338805,-1.1127381706875563,0.2,0.5790990406502907,-0.27159675943425055,0.2,-0.2656386415066307,-0.24594333881797908,0.2,0,
0.5521472392638037,0.3106484720641745,0.2649037615193479,0.2,-0.4504206076863678,-0.5141520309410695,0.2,-0.7789137362943538,-1.1178133716953433,0.2,0.2937325444566655,-1.1378646181550365,0.2,0.5766290762446721,-0.30502185521913416,0.2,-0.2666810551636991,0.2229520895665263,0.2,0,
0.5601493731661777,0.31328289199986264,0.15623513999092967,0.2,-0.45723459088945334,-0.728879780328949,0.2,-0.7900300422934218,-0.9358256640052132,0.2,0.28746017138290747,-1.2497821713549488,0.2,0.5742186909667846,-0.3419872996843071,0.2,-0.26207140807356627,0.13161208626759346,0.2,0,
0.5681515070685517,0.3131482343040294,-0.007411676982625043,0.2,-0.462082684171631,-0.5176251518921732,0.2,-0.7938869469184372,-0.5750726128702088,0.2,0.27373602971498634,-1.3619682429835862,0.2,0.5711572794497232,-0.7124921177899465,0.2,-0.2645752617834176,0.013383322675645376,0.2,0,
0.5761536409709256,0.31316430516814064,0.10909640811414961,0.2,-0.4655165933197281,-0.402170499712081,0.2,-0.7992312040993451,-0.7655857335979177,0.2,0.2656686794951701,-1.1971090219820637,0.2,0.5628188170821454,-0.36073438471923014,0.2,-0.26185727491075594,0.19611527448006386,0.2,0,
0.5841557748732996,0.3148937768338558,0.17407996827210545,0.2,-0.4685174121670243,-0.7486833240318014,0.2,-0.8061363186560039,-1.1256470158819767,0.2,0.2545822853632733,-1.0662686201473852,0.2,0.5653855292942155,-0.04355487134943131,0.2,-0.2614374173917366,0.31915490446244793,0.2,0,
0.5921579087756735,0.31594958466049433,0.1675559038929013,0.2,-0.47749552650423693,-0.7836185840265838,0.2,-0.8172415563534567,-1.1066214868261162,0.2,0.24860838157281193,-1.2950584562223393,0.2,0.5621219391405545,-0.2792274761552749,0.2,-0.2567507964393568,0.16295409467071212,0.2,0,
0.6001600426780476,0.3175746712961422,0.34815046799116856,0.2,-0.48105530951144965,-0.5322010474993998,0.2,-0.8238422624452217,-0.8548073182786525,0.2,0.2338613500637159,-1.6122226048424504,0.2,0.5609178896757311,-0.4109588394519484,0.2,-0.2588301518770052,-0.288243042290779,0.2,0,
0.6081621765804215,0.32151999214835303,0.506979224531294,0.2,-0.48601074326422733,-0.7876776593664438,0.2,-0.8309184734459152,-1.0403618293723036,0.2,0.22281281989533272,-1.182548718539938,0.2,0.5555465977093234,-0.5792457838371609,0.2,-0.26136268511600924,-0.17043639302809221,0.2,0,
0.6161643104827954,0.3256863388886429,0.374699084896922,0.2,-0.49365815206131275,-1.1165462026848372,0.2,-0.8404880517151786,-1.104789556572741,0.2,0.21494057056707688,-1.2315884332957538,0.2,0.5516499571343365,-0.3703402296835953,0.2,-0.2615571341654547,0.1855159525736387,0.2,0,
0.6241664443851694,0.3275151775067038,0.015595349635442318,0.2,-0.5038754825071847,-0.6102390672830839,0.2,-0.848595106351079,-0.9151496773777273,0.2,0.20310740496260066,-1.5718828651983783,0.2,0.5496211540343858,-0.35459392422616115,0.2,-0.258394429874831,0.18397065313689037,0.2,0,
0.6321685782875434,0.32593586448281,0.10380817795197644,0.2,-0.5034219771378421,-0.3083901050619717,0.2,-0.8551304465532222,-1.1923419577268417,0.2,0.18979044472390283,-1.5533033716716889,0.2,0.5459764543467179,-0.5045378823402765,0.2,-0.25861360371526443,-0.2026978892328106,0.2,0,
0.6401707121899174,0.3291761083539354,0.28002470365634524,0.2,-0.5088097241881763,-0.9246257557088133,0.2,-0.8676725776747085,-1.2731752973993704,0.2,0.17825455101585364,-1.5638393976004343,0.2,0.5415485479169414,-0.4243989434290843,0.2,-0.261637596102556,0.07896590560739492,0.2,0,
0.6481728460922913,0.3304162597413115,0.2516868320410238,0.2,-0.5182159892291831,-1.0475715017170677,0.2,-0.8755012513116122,-1.253889523066605,0.2,0.16476901436229588,-1.6742273969572001,0.2,0.5391860712518526,-0.08354133421612647,0.2,-0.2573501492255461,0.4832144553144693,0.2,0,
0.6561749799946653,0.3332030976665918,-0.08081231841198383,0.2,-0.5255708682156494,-0.5857088130025861,0.2,-0.8877348100437742,-1.3450937417619004,0.2,0.15146691266453843,-1.4456219127744578,0.2,0.5402118865694834,-0.1498715780671525,0.2,-0.2539061648175245,0.2191514178599488,0.2,0,
0.6641771138970393,0.32912326264671976,0.20193093706277407,0.2,-0.5275873302372245,-0.8502896674369015,0.2,-0.8970227511798026,-1.0197890937340137,0.2,0.14163906375790455,-1.3710030663524226,0.2,0.5367881260027781,-0.5695913754942133,0.2,-0.25384372653978693,-0.07592253026149354,0.2,0,
0.6721792477994132,0.33643399265959617,0.46021487459628124,0.2,-0.5391755028946398,-0.8949994132272584,0.2,-0.9040514355435184,-0.993704012137879,0.2,0.12953086360289967,-1.717293977492317,0.2,0.531098424561576,-0.643165760131223,0.2,-0.2551209253017084,-0.06261128645864214,0.2,0,
0.6801813817017872,0.33648670064026026,0.10640960137643651,0.2,-0.5419073208488606,-0.69314016803005,0.2,-0.9129220153740086,-1.1851402651518115,0.2,0.11416236011802748,-1.4838297931126543,0.2,0.5264974738406786,-0.24997498224922643,0.2,-0.2548455071231252,0.12800808805377498,0.2,0,
0.6881835156041611,0.33813654628161915,0.11679418272511621,0.2,-0.5502657455831206,-1.10298998173778,0.2,-0.9230136797859474,-1.4229893903749125,0.2,0.1057895869130972,-1.512715744374585,0.2,0.5270988248455883,-0.23254100138012102,0.2,-0.253072795892848,-0.10870973544339219,0.2,0,
0.6961856495065352,0.3383554075638621,0.3080626724082068,0.2,-0.5595551605566651,-0.9417857075054228,0.2,-0.9356898456200072,-1.3530883842849741,0.2,0.08995890820803412,-1.4806999902430813,0.2,0.5227768178185966,-0.4452762191018214,0.2,-0.2565848628902195,0.06081067680902344,0.2,0,
0.7041877834089091,0.34306554904015046,0.16457280001391794,0.2,-0.5653343169032073,-0.4594260788588003,0.2,-0.944663093934507,-1.0926295658494483,0.2,0.0820983870692079,-1.6197490338969107,0.2,0.5199744053399592,-0.4475581955954294,0.2,-0.2520998250639036,0.2474479916666321,0.2,0,
0.7121899173112831,0.3409885723640848,-0.008546229886226275,0.2,-0.5669059778184059,-0.7928923823957018,0.2,-0.9531719186735984,-1.0562756001480516,0.2,0.06404292366568355,-1.99679387137929,0.2,0.5156158866890698,-0.6967425811691547,0.2,-0.25262569502355336,-0.08151885517765009,0.2,0,
0.720192051213657,0.34292880936197084,0.3333167682786839,0.2,-0.5780205950215386,-0.7864221775617519,0.2,-0.9615635035368758,-1.0206270144120164,0.2,0.05014968512713926,-1.7110806015408906,0.2,0.5088265240412527,-0.337911553804901,0.2,-0.253404126746746,-0.005307471604810293,0.2,0,
0.728194185116031,0.34632164065654375,0.3113168659253269,0.2,-0.5794887326593939,-0.5018683267860521,0.2,-0.9695019509041907,-1.4699429393709231,0.2,0.0366656340410293,-1.5233487941283137,0.2,0.5102093018281914,0.033759935411471764,0.2,-0.25271061456923033,-0.03713614463209808,0.2,0,
0.736196319018405,0.3479098792167761,0.46290449248634347,0.2,-0.5860504882501154,-1.2462300799705033,0.2,-0.9850825905668106,-1.449364042015351,0.2,0.025776104421086236,-1.7647343880746686,0.2,0.5093666830078363,-0.5279743883279466,0.2,-0.2539983050608596,0.282728122583311,0.2,0,
0.7441984529207789,0.35372811253632525,0.24955497081299502,0.2,-0.599428413938922,-0.980792999892996,0.2,-0.9926917755764363,-1.1250162624353022,0.2,0.008429883831834602,-1.7098180936336624,0.2,0.5017617116149442,-0.8465992234849596,0.2,-0.24818696460789735,0.23524935492788904,0.2,0,
0.7522005868231529,0.351902758749784,-0.028582622023154425,0.2,-0.6017431762484033,-0.6337372821720518,0.2,-1.0030828507657754,-1.3361078595385198,0.2,-0.001580985077052364,-1.7364056542249344,0.2,0.4958210954320769,-0.4383632342077441,0.2,-0.25023431538201335,-0.25182743585827616,0.2,0,
0.7602027207255269,0.3532707905839548,0.22201342730780727,0.2,-0.6095682104536748,-1.0832482861068276,0.2,-1.0140695013290526,-0.8428212548234476,0.2,-0.019352606635764352,-2.094066701963778,0.2,0.4947478998676203,-0.2246147121424992,0.2,-0.25221620358162977,-0.1404513963716679,0.2,0,
0.7682048546279008,0.3554549735867089,0.08653035449534413,0.2,-0.6190751488261126,-0.731153790295147,0.2,-1.0165679908429506,-1.2124249655025703,0.2,-0.035086052308472816,-1.5805251232148092,0.2,0.49222726003779693,-0.5324641702949794,0.2,-0.25248153772396004,0.47164745739369274,0.2,0,
0.7762069885302748,0.3546552762558803,0.00390902949122876,0.2,-0.6212666710983972,-0.8296189533469334,0.2,-1.0334683007770937,-1.4841638236584158,0.2,-0.0446410086072013,-1.473138158205101,0.2,0.48622847314290063,-0.523415852294002,0.2,-0.2446698442633307,0.08870662463896298,0.2,0,
0.7842091224326487,0.35551751805856857,0.22306417473988427,0.2,-0.6323490520796635,-0.742684338182309,0.2,-1.0403146120214852,-1.217025389893947,0.2,-0.05865626283975443,-1.662364948545607,0.2,0.4838526064010929,-0.1735412934463429,0.2,-0.25106223172973663,-0.06036337666632391,0.2,0,
0.7922112563350228,0.35822430305171843,0.49627241021845886,0.2,-0.6331496205093141,-0.5165918366562063,0.2,-1.0529407070153969,-1.2882233736992155,0.2,-0.07123884778393101,-1.7252369705633266,0.2,0.48345181244775914,-0.28772244810309694,0.2,-0.24563565828999187,0.394346940433386,0.2,0,
0.8002133902373967,0.3634578766220639,0.28898423908299203,0.2,-0.6406145214661628,-1.0161458582278875,0.2,-1.0609261860006727,-1.1161100495595266,0.2,-0.08626005436876766,-1.7266188026143752,0.2,0.47924904723144335,-0.2617608941941941,0.2,-0.24475268068280245,-0.06674768356838487,0.2,0,
0.8082155241397707,0.3628480508770463,0.1534632694496635,0.2,-0.6494079542409603,-0.9546896921545575,0.2,-1.0707984678083493,-1.3086917308213208,0.2,-0.09886474862576101,-1.512676421823139,0.2,0.47926363814065204,-0.342527876637317,0.2,-0.24670362122708603,0.20995303199928747,0.2,0,
0.8162176580421446,0.36591328893325853,-0.09567875948857801,0.2,-0.6558895565406357,-0.7659866154802741,0.2,-1.0818652536938138,-1.3003223223622407,0.2,-0.11046287711793788,-1.4919619315664507,0.2,0.4737686012052463,-0.6911204916293725,0.2,-0.24139343217081385,0.07662384519558328,0.2,0,
0.8242197919445186,0.36131719072522905,-0.036919407286256645,0.2,-0.6616637400886447,-0.6564567564258036,0.2,-1.0916036249661452,-1.2248780340689547,0.2,-0.12273613953082423,-1.6008564285143199,0.2,0.4682057102745821,-0.41036604540339167,0.2,-0.2454776397039567,-0.30634346602736484,0.2,0,
0.8322219258468926,0.3653225784166784,0.209186097886397,0.2,-0.6663928646434486,-0.5797995900985106,0.2,-1.101463302238917,-0.9003315672177215,0.2,-0.136076579974167,-1.4095581807460769,0.2,0.467202744478792,-0.25013833361943805,0.2,-0.2462949276272517,0.02807654766513734,0.2,0,
0.8402240597492665,0.3646641682914114,0.3495096344095609,0.2,-0.6709405335302209,-0.7945246663869782,0.2,-1.1060089300416287,-1.2686152893377627,0.2,-0.14528907042276146,-1.4523115799921371,0.2,0.46420349693667107,-0.31841047260991806,0.2,-0.2450284149413145,0.19246022988532624,0.2,0,
0.8482261936516405,0.3709147325672314,0.2723748795751754,0.2,-0.6791052593056403,-0.6880233166514094,0.2,-1.1217611468683213,-1.3479881523023178,0.2,-0.1593135652540412,-1.5481471228151085,0.2,0.4621081769170333,-0.4514749400566301,0.2,-0.24321556394908647,0.16838319203390378,0.2,0,
0.8562283275540145,0.3690221663646142,-0.05417685178430581,0.2,-0.6819489065966434,-0.6981588958477614,0.2,-1.1275767404784658,-1.1742287835494052,0.2,-0.1700594243878032,-1.6428513322673792,0.2,0.456979897895765,-0.4464946129543422,0.2,-0.24233428386877204,-0.11090728569653277,0.2,0,
0.8642304614563885,0.3700479029386825,0.07246972405966154,0.2,-0.6902758016392044,-0.9123306258963029,0.2,-1.1405488074051118,-1.1603714037054929,0.2,-0.18559918657031926,-1.5728191606354351,0.2,0.45496426310976384,-0.3497857776627623,0.2,-0.244990080520231,0.0249729699950494,0.2,0,
0.8722325953587624,0.3701816819495688,0.32872752982105596,0.2,-0.6965461966109843,-0.8601886589427177,0.2,-1.1461426829377537,-1.1566428387645156,0.2,-0.19522453095797015,-1.424556096421706,0.2,0.4513833254531608,-0.6453490094489416,0.2,-0.24193471634885125,0.3430155649929937,0.2,0,
0.8802347292611363,0.3753075434158194,0.4257473099369552,0.2,-0.7040388201822879,-1.0370172025360933,0.2,-1.159055092825344,-1.1999590705300405,0.2,-0.20839208411306656,-1.3074313759493146,0.2,0.4446386789585808,-0.18576361271402386,0.2,-0.2395018314803431,0.017976882926330415,0.2,0,
0.8882368631635104,0.3769936389085601,0.06546749556510245,0.2,-0.7131384718515618,-0.7250497916558851,0.2,-1.1653420280662343,-0.7674526087548261,0.2,-0.2161434329731592,-1.3420211162824374,0.2,0.4484111076497364,-0.050691079410608575,0.2,-0.24164708622202996,-0.2115145298983885,0.2,0,
0.8962389970658843,0.37635502334486104,0.23595352614255022,0.2,-0.7156396168487821,-0.52277886540842,0.2,-1.1713343345654212,-0.9546869564490273,0.2,-0.22986442197358556,-1.4448638687288433,0.2,0.44382762168801104,-0.7185975922836748,0.2,-0.2428860639587173,0.254342282741701,0.2,0,
0.9042411309682583,0.3807688953268409,0.3823295247638407,0.2,-0.7215029336980965,-0.5109266408890034,0.2,-1.1806170193694188,-1.1879874603759333,0.2,-0.23926125487282068,-1.1917430684815298,0.2,0.4369135461731976,-0.2849550712579092,0.2,-0.23757760969816274,0.15396963867276256,0.2,0,
0.9122432648706322,0.3824722957410825,0.32680462981036007,0.2,-0.7238144431030061,-0.5144070838269884,0.2,-1.1903421339314362,-1.0649179229246934,0.2,-0.24893231106929004,-1.3863485664176132,0.2,0.4392683405478845,-0.17644384599590016,0.2,-0.2404225497399531,-0.013647670451149771,0.2,0,
0.9202453987730063,0.38599776940380665,0.15571224286163587,0.2,-0.7297334470393283,-0.6350045506965524,0.2,-1.1976557061362139,-0.5696226662289111,0.2,-0.2614428319355025,-1.2150866722313372,0.2,0.4340904446372632,-0.3846161709078234,0.2,-0.23779597242538114,0.2770326646598636,0.2,0,
0.9282475326753802,0.38496369162686866,0.10628251454889923,0.2,-0.733974515914151,-0.4674201384404775,0.2,-1.1994560965910988,-0.4780634347770346,0.2,-0.26837369782499143,-1.0719898003878416,0.2,0.4331144818133593,-0.03388016954867373,0.2,-0.2359900271053953,0.09552912758959559,0.2,0,
0.9362496665777541,0.38769828963658903,0.3033867868593963,0.2,-0.7372121692543759,-0.645689452096261,0.2,-1.2053047210926464,-1.053250849580245,0.2,-0.27859466874170796,-1.4968620077522101,0.2,0.4335483619244844,-0.17545859709941838,0.2,-0.2362675063839476,-0.02214076981857209,0.2,0,
0.9442518004801281,0.389817880216619,0.0021786244813262745,0.2,-0.7443055471476911,-0.7530083899742746,0.2,-1.2163081101843827,-1.3131225179962014,0.2,-0.2923234899490268,-1.3406373470437396,0.2,0.4303071442597686,-0.42711394567137434,0.2,-0.23634427942249245,0.3197344614917115,0.2,0,
0.952253934382502,0.38773314762829025,0.09856758708813237,0.2,-0.7492603034939643,-0.70733316092874,0.2,-1.2263146813805856,-0.7522418738160064,0.2,-0.3000448662944078,-0.899279117719972,0.2,0.42671453879374244,-0.6235142708754977,0.2,-0.23115175500008023,0.0905573390495313,0.2,0,
0.9602560682848761,0.3913949616100291,0.3480154709690104,0.2,-0.755622877722551,-0.4662633310499667,0.2,-1.2283439801654388,-0.7515543672551583,0.2,-0.30671195583254635,-1.0373394673038259,0.2,0.42033091592576066,-0.5999996985983115,0.2,-0.23489536199769995,-0.44398907316257546,0.2,0,
0.96825820218725,0.3933013951637944,0.3185875929566026,0.2,-0.7567205167907638,-0.5473482056080892,0.2,-1.2383395512566682,-0.8445302874860311,0.2,-0.316642297771269,-1.0798886119623465,0.2,0.41711454361616945,-0.09031116898232036,0.2,-0.23825558017068144,0.012551835251622609,0.2,0,
0.9762603360896239,0.39649236309733477,0.16114795065739693,0.2,-0.7643804490122804,-0.6338726164769048,0.2,-1.2418564647652153,-0.8697610596014732,0.2,-0.3239901736239439,-1.1434631801287807,0.2,0.41888593722204354,0.1215468227603149,0.2,-0.23469453263367399,0.1866388954806248,0.2,0,
0.984262469991998,0.39587976237431277,0.025734432709315774,0.2,-0.7668624786543943,-0.31067348289902375,0.2,-1.2522557282102917,-1.0453608484771308,0.2,-0.3349377086533295,-1.1068932496669688,0.2,0.4190592927803345,-0.3079378607044429,0.2,-0.23526935784299144,0.17994911530337665,0.2,0,
0.9922646038943719,0.3969041140206838,0.04286788268452468,0.2,-0.7693512247386648,-0.4012413363540801,0.2,-1.2585822383408494,-0.4799993565755417,0.2,-0.3417004656186154,-0.6505046604177895,0.2,0.41395893145077245,-0.4561292851582889,0.2,-0.23181534678881996,0.26228813643018944,0.2,0,
1.0002667377967458,0.39656564849726517,0.2234729362625594,0.2,-0.7732823400360596,-0.4191919200105462,0.2,-1.2599357179155004,-0.47486140597641224,0.2,-0.34534578322001414,-0.6994772451285082,0.2,0.41176122421780187,-0.13586867759851975,0.2,-0.2310727476601084,-0.16558268083025246,0.2,0,
1.00826887169912,0.40047968100088477,0.3981028032483888,0.2,-0.7760582954588335,-0.4725080053478159,0.2,-1.266180020836472,-0.5344127419158046,0.2,-0.3528921015406715,-0.7672460386483719,0.2,0.41178503260919613,-0.23972409464476097,0.2,-0.234464669682104,-0.12205416532621964,0.2,0,
1.0162710056014939,0.4029352933492394,0.4205061405072076,0.2,-0.7808424681216246,-0.43842678941426877,0.2,-1.2684863217861533,-0.5137464884578946,0.2,-0.3576217198383881,-0.6898930867530219,0.2,0.4079256387034857,-0.07345167846544223,0.2,-0.23302561430532792,0.1258450085054232,0.2,0,
1.0242731395038678,0.4072077792490001,0.3284725607815564,0.2,-0.7830731240894618,-0.4424345628885329,0.2,-1.2743999646517983,-0.5677545623723468,0.2,-0.36393039092871987,-0.9409309727461297,0.2,0.41060980575374906,-0.028207302691408975,0.2,-0.23245114954601723,0.14677582230039446,0.2,0,
1.0322752734062417,0.4081908543217443,0.13650357574030228,0.2,-0.7879214211278411,-0.23864324645578305,0.2,-1.2775703947841108,-0.3195121973171011,0.2,-0.37267661540232616,-0.5923072815436359,0.2,0.40747432186042315,-0.45018790910674594,0.2,-0.2306772011485216,-0.10206043539617328,0.2,0,
1.0402774073086156,0.4093918364608449,0.08494805474679179,0.2,-0.7868914160327544,-0.1121565179525788,0.2,-1.279512159808872,-0.36926775064637096,0.2,-0.37340730743341805,-0.5834520374026902,0.2,0.4034067992080411,-0.1387422864379019,0.2,-0.234084116512356,-0.20128790835436533,0.2,0,
1.0482795412109898,0.40955002319769296,-0.051438775583684954,0.2,-0.7897159254150824,-0.31217744873237446,0.2,-1.2834786787944528,-0.4709577425412309,0.2,-0.3820118480007692,-0.8180211355270014,0.2,0.4052544452774167,-0.27820587557992466,0.2,-0.23389780768219146,0.3001788553092296,0.2,0,
1.0562816751133637,0.40856881605150597,0.49176010114304614,0.2,-0.7918862552124724,-0.30966288616845333,0.2,-1.2870474836895316,-0.27515333731006897,0.2,-0.38649564560185007,-0.2476102541247721,0.2,0.39895550519876233,-0.26010188783001303,0.2,-0.22928125482740833,0.3014008557873683,0.2,0,
1.0642838090157376,0.4174181848159817,0.3065518305364924,0.2,-0.7946705315937777,-0.18047550805247448,0.2,-1.2878811321914139,-0.04194714159491686,0.2,-0.38597361206676556,-0.1438617255114273,0.2,0.4010928150721365,0.04869561938593628,0.2,-0.22907539398959356,-0.0902309401582483,0.2,0,
1.0722859429181115,0.41347364534008985,-0.046398229825269505,0.2,-0.794773863341312,-0.3226639079669802,0.2,-1.2877186379550503,-0.2438009157608445,0.2,-0.3887974332100329,-0.34542436683107286,0.2,0.3997346351089373,0.010670298737840839,0.2,-0.2307249498699403,0.0016661903291820962,0.2,0,
1.0802880768204854,0.4166758131387774,0.13190140803860662,0.2,-0.7998331541212493,-0.2665375752681845,0.2,-1.2917819468435874,-0.6089273035697895,0.2,-0.3915004019360627,-0.515399390254162,0.2,0.40126353985194196,0.1020240743533525,0.2,-0.22904873494432665,0.1704321838969479,0.2,0,
1.0882902107228596,0.41558406786870755,0.10766375534059305,0.2,-0.7990384645456029,0.2131465503171434,0.2,-1.297461474812167,-0.08862603240211708,0.2,-0.3970438234540995,-0.6084988587312136,0.2,0.40136702029859095,-0.07030515408427626,0.2,-0.22799803492758913,0.2089472520886322,0.2,0,
1.0962923446252335,0.4183984332242269,0.46620781012234047,0.2,-0.796422809316175,-0.20578998983862562,0.2,-1.2931999633620213,-0.13795472828113942,0.2,-0.40123638367576214,0.11620179543965492,0.2,0.40013865738659354,-0.009998861814259491,0.2,-0.22570557891090853,0.010326261623484767,0.2,0,
1.1042944785276074,0.423043392830665,0.12488167216572962,0.2,-0.8023311043830209,-0.322520480921816,0.2,-1.2996687504646651,-0.39442415165998057,0.2,-0.395184594727065,0.15974753612610706,0.2,0.4012070385095628,0.13670788243802523,0.2,-0.22783281474161338,-0.024986618092059584,0.2,0,
1.1122966124299813,0.42039653997887855,0.14907982475245718,0.2,-0.8015831370109241,-0.06257470101000973,0.2,-1.299510749788581,0.029789156425902297,0.2,-0.39868042309774443,-0.4829592371589676,0.2,0.40232598350560195,0.07141068734167061,0.2,-0.2261053648003815,0.2689353005239006,0.2,0,
1.1202987463323555,0.4254286700267043,0.4967356759072415,0.2,-0.8033322995991811,0.2707854026499021,0.2,-1.2991921239618507,0.0005788213999075031,0.2,-0.4029119425216085,-0.1991114911053249,0.2,0.4023496095070295,-0.20359253910474245,0.2,-0.22352984993323097,0.1009702148942488,0.2,0,
1.1283008802347294,0.4283443107933944,0.07841968670211155,0.2,-0.7972505705685257,0.182710596544719,0.2,-1.2995014886461824,-0.04691614703911107,0.2,-0.40186620695542963,0.151197948903177,0.2,0.39906850287992607,-0.27428835932663886,0.2,-0.2244898413620735,-0.014955269048337952,0.2,0,
1.1363030141371033,0.4266833850139381,0.10824247047616642,0.2,-0.8004089300544656,-0.1982362303929036,0.2,-1.2999427823144765,0.04540095704706759,0.2,-0.40049277533915767,0.364860410940325,0.2,0.3979609957578033,0.39179778696657797,0.2,-0.22376913423800437,0.10356904850842251,0.2,0,
1.1443051480394772,0.4300761903210131,0.3677991257495447,0.2,-0.8004223502548121,0.05120856840660354,0.2,-1.2987750733334293,0.25741728856436275,0.2,-0.3960284403803844,0.14832823472655382,0.2,0.4053372674713913,0.0396446892931869,0.2,-0.22283273658593875,0.38263869948863477,0.2,0,
1.1523072819418512,0.4325681710259308,0.15111988162273132,0.2,-0.7995895929599599,0.19741624109297778,0.2,-1.2958241056974467,-0.04405147755250083,0.2,-0.3981195235835328,-0.04643302875533342,0.2,0.3985953107864943,-0.20234203638439321,0.2,-0.21764691504618622,-0.13031798012868787,0.2,0,
1.1603094158442253,0.4324941084269768,0.09872101243025774,0.2,-0.7972636903973245,0.3140698614112758,0.2,-1.2994798969742694,0.022416772818667496,0.2,-0.39677136884046976,0.20470421406819025,0.2,0.402099794889241,0.13846982308167097,0.2,-0.22491782426799775,-0.3449577287756959,0.2,0,
1.1683115497465992,0.43414770722481494,0.04182605472980924,0.2,-0.7945644751773795,0.05336112136016674,0.2,-1.295465437332348,0.2816418416001776,0.2,-0.39484425615844176,0.5880599111071743,0.2,0.40081082795580103,0.04685797409548567,0.2,-0.22316623870659735,0.3180409941944857,0.2,0,
1.1763136836489732,0.4331633253026537,0.25694111912900536,0.2,-0.7964099124555618,-0.028369804380451447,0.2,-1.2949736275086665,0.28767312420396873,0.2,-0.387362410262755,0.5121961808320502,0.2,0.4028495224747688,-0.2318303890225977,0.2,-0.21982916836088598,0.17228764259822824,0.2,0,
1.184315817551347,0.438258765130879,0.42265149117323014,0.2,-0.7950183920474667,0.27258963032045225,0.2,-1.2908626673450845,0.45616706832675435,0.2,-0.38664911726512896,0.08989567364096548,0.2,0.39710154173143947,0.27897158850009873,0.2,-0.2204096364250257,-0.04643719053521074,0.2,0,
1.192317951453721,0.4399257491614254,0.20745950578110808,0.2,-0.7920484783704346,0.6529416604236018,0.2,-1.2876749544154384,0.4450622807332105,0.2,-0.3859240794844995,0.17419826066973967,0.2,0.4073130678907704,0.4461561777114667,0.2,-0.22057216340944935,0.002760235721760776,0.2,0,
1.2003200853560951,0.44157811722337675,0.16470707912022084,0.2,-0.7845713254806891,0.23515418501689894,0.2,-1.2837416708533531,0.43369339282212094,0.2,-0.3838619450944131,0.4907362649905628,0.2,0.40424004057482293,-0.1450166799703348,0.2,-0.22036547265347753,-0.04321266674595092,0.2,0,
1.208322219258469,0.44256106242734894,0.34477451111620744,0.2,-0.7882860114101642,0.10724614065227983,0.2,-1.2807358601302845,0.1674414913642175,0.2,-0.3780722992446505,0.8524204584608764,0.2,0.404992801011245,0.33186858796143553,0.2,-0.22126356607738457,0.04363139956493553,0.2,0,
1.216324353160843,0.4470945094012361,0.2731830141935558,0.2,-0.7828553872302526,0.43611851109434663,0.2,-1.2810626069915256,0.4391478585541453,0.2,-0.3702232177590391,0.6793947892985847,0.2,0.4095499379822059,0.23776476128320803,0.2,-0.21966737026043856,0.11502280404149072,0.2,0,
1.224326487063217,0.44693199065444583,0.06787237570592478,0.2,-0.7813081152326546,0.09047379786385201,0.2,-1.2737094943934182,0.5552218391109282,0.2,-0.36720198261587317,0.7502547356552716,0.2,0.40879703719177635,0.08286182315480478,0.2,-0.21942320121272071,0.18312257747010383,0.2,0,
1.2323286209655908,0.44818046741253087,0.25639229709286876,0.2,-0.781407806464431,0.27400048956610634,0.2,-1.2721790575657508,0.5915451423859769,0.2,-0.35821914198855476,0.975481400423795,0.2,0.4108757271526828,0.3423588109659481,0.2,-0.2167374090209169,0.13212014578488881,0.2,0,
1.240330754867965,0.45103426740793173,0.14104510920202526,0.2,-0.7769241073995969,0.5065787333403127,0.2,-1.2642447721152426,0.7790693088448319,0.2,-0.35159428020909245,0.5240466312369623,0.2,0.4142747781672315,0.19130320647237076,0.2,-0.2173092788801625,-0.0012667770966662967,0.2,0,
1.2483328887703389,0.4504371891597633,-0.022345554482040147,0.2,-0.773302546730986,0.3908666560555815,0.2,-1.2597139486242335,0.5381851486453981,0.2,-0.34983439588876336,0.8704400674949924,0.2,0.4139365784562407,-0.22317818433667883,0.2,-0.21675767745446356,0.06064386984257382,0.2,0,
1.2563350226727128,0.4506767385362191,0.18103605922515156,0.2,-0.7706702409027076,0.5044603397475755,0.2,-1.2556338097369162,0.5031608886114508,0.2,-0.33766723912917257,1.0210410406832662,0.2,0.41070392721784466,0.32617056619098705,0.2,-0.2163389769626813,0.12066066495621842,0.2,0,
1.2643371565750867,0.4533337661073657,0.2160189895805513,0.2,-0.7652311812950248,0.3900625702003141,0.2,-1.2516633744064503,0.80514533439488,0.2,-0.3334977392378311,0.6336271876579077,0.2,0.4191553075152965,0.43026577156660484,0.2,-0.21482710681516407,-0.03365216732581153,0.2,0,
1.2723392904774609,0.4541330423695079,0.35103988517166257,0.2,-0.7644292397795026,0.2353791323094906,0.2,-1.242751484386598,0.575410441571958,0.2,-0.32752920412664605,0.845891384824684,0.2,0.41758817956291033,-0.13928084725584045,0.2,-0.2168774116398943,-0.2761497985298393,0.2,0,
1.2803414243798348,0.4589504042701123,0.18078138594515916,0.2,-0.7614651151780729,0.7714338894589251,0.2,-1.242456807341299,0.6247085969835336,0.2,-0.31996347708063616,1.2305045585015197,0.2,0.41692681395920306,0.3589084978453394,0.2,-0.2192455035916415,0.2018289042468209,0.2,0,
1.2883435582822087,0.45702554454463046,-0.10013784140617404,0.2,-0.7520862975481598,0.6413528488013256,0.2,-1.2327561468348616,1.112780472811478,0.2,-0.30784113119062173,1.167845322386226,0.2,0.42333071552843576,0.6004693226790216,0.2,-0.21364814917194516,0.38616814785430786,0.2,0,
1.2963456921845826,0.4573481988076135,0.2851575354635566,0.2,-0.7512034695972517,0.2060070200557082,0.2,-1.2246523197763153,0.9357200996500392,0.2,-0.30127795192245654,1.0168313047937971,0.2,0.4265343231220674,0.046451774178671995,0.2,-0.21306681322597257,0.005095559817544851,0.2,0,
1.3043478260869565,0.46158806511204736,0.4100546708766112,0.2,-0.7487901852272685,0.4331237811558211,0.2,-1.217784625240461,0.6935636979780863,0.2,-0.291571830313921,1.1110620609129616,0.2,0.4240739439152945,0.29378471917932203,0.2,-0.21356662021486444,0.12887077834835592,0.2,0,
1.3123499599893307,0.4639090735416393,0.29695795464132824,0.2,-0.7442734890987586,0.6504024610465564,0.2,-1.213555300608666,0.8467534755221967,0.2,-0.28350095894784916,1.1155663552466049,0.2,0.43123487862893656,0.3858356303986579,0.2,-0.21100488077239887,-0.028176672153410603,0.2,0,
1.3203520938917046,0.4663393923863086,0.09570559716327864,0.2,-0.7383837458505236,0.9552333605304455,0.2,-1.2042365696321058,0.9356832031486156,0.2,-0.2737227686299753,1.2861725125128607,0.2,0.43024731400167304,0.15870729397892205,0.2,-0.21401744696931901,-0.057657856058514895,0.2,0,
1.3283542277940785,0.46544036309625175,0.14632551238747196,0.2,-0.7289897553302714,0.706644920672704,0.2,-1.198584369358288,0.6359633951580762,0.2,-0.2629221987476434,1.2840668927736263,0.2,0.4337741953325993,0.4162931550248522,0.2,-0.2119274064693351,0.18534708096935337,0.2,0,
1.3363563616964524,0.46868060058450817,0.09563243112327077,0.2,-0.7270774271197603,0.30275662348870636,0.2,-1.1940611553095766,1.0676190739384583,0.2,-0.2531776983455973,1.1517942377844668,0.2,0.4369080044820707,0.5146758370090411,0.2,-0.21105189367380936,0.05580223620093097,0.2,0,
1.3443584955988264,0.4669704819942241,0.09404794756661533,0.2,-0.7241456493544521,0.7114669384827299,0.2,-1.1815024641752727,1.2885596019699408,0.2,-0.24449349094309192,1.1972859545908277,0.2,0.44200900872474397,0.39830846081611093,0.2,-0.21103457069012022,0.038979004339157255,0.2,0,
1.3523606295012005,0.470185367745574,0.3740510718480694,0.2,-0.7156939561040366,0.7473987962508601,0.2,-1.1734442016780575,0.9829515575529996,0.2,-0.23402112307214404,1.4213352493762637,0.2,0.44328093985512845,0.25674154008525557,0.2,-0.21042822960438284,0.1939042582206011,0.2,0,
1.3603627634035744,0.4729552991437932,0.05548873454941372,0.2,-0.7121872686144384,0.682364231344816,0.2,-1.1657752392544247,1.0439802731705417,0.2,-0.2217521269530717,1.3995296240854032,0.2,0.44611687336610806,0.187456279737451,0.2,-0.2079321025585906,0.036195280454219894,0.2,0,
1.3683648973059483,0.47107318749836463,-0.021448296557199237,0.2,-0.7047761284025196,0.8444617939149246,0.2,-1.1567405173073289,1.1124718319413944,0.2,-0.2116286490867776,1.478409104618765,0.2,0.44628024033092767,0.4152551908206299,0.2,-0.20984910511711533,0.0181346609956258,0.2,0,
1.3763670312083223,0.472612126398878,0.13360167764149208,0.2,-0.6986758799117996,0.8456401243933515,0.2,-1.1479756899433624,1.1296957910563177,0.2,-0.19809758127917146,1.5914988022452323,0.2,0.45276095641923814,0.5108030660642762,0.2,-0.20764194798266059,0.12765982133447484,0.2,0,
1.3843691651106962,0.4732108143406285,0.23730332562876127,0.2,-0.691245886412226,0.7392815064615477,0.2,-1.1386653846504278,1.1460750918286937,0.2,-0.18616466825085387,1.618606314704337,0.2,0.4544530893879561,0.1542266831434727,0.2,-0.20780654797576373,-0.04645720115335587,0.2,0,
1.3923712990130703,0.4764089796089382,0.3568328669079565,0.2,-0.6868473758084148,0.5974035080110809,0.2,-1.1296384884741033,1.1606419845366367,0.2,-0.17219988024390206,1.6559792932535655,0.2,0.4552285833495337,0.32244038099382005,0.2,-0.20838526320111428,0.3894509427291495,0.2,0,
1.4003734329154442,0.4789201402111558,0.2822220936977253,0.2,-0.6816874302840487,0.6346296964727174,0.2,-1.1200951128978416,1.11086196949485,0.2,-0.15966899955879682,1.5053165534836284,0.2,0.4596121354838572,0.4053006176243032,0.2,-0.20157533289209734,0.07720932778640041,0.2,0,
1.4083755668178182,0.4809245331081018,0.3340457741746634,0.2,-0.6766933006648513,0.9825721860015485,0.2,-1.1118646969621857,1.0930482571078204,0.2,-0.148114815388164,1.2569689548372585,0.2,0.46171339323152255,0.3285050548168487,0.2,-0.20714991395653187,-0.16930486165426561,0.2,0,
1.416377700720192,0.4842648725979504,0.38762532714314846,0.2,-0.6659662753080239,0.8891546277069381,0.2,-1.1026063407841165,1.1799466134565506,0.2,-0.13955749628140068,1.3133056219420403,0.2,0.4648682163609268,0.31853982879423076,0.2,-0.2042842106785656,-0.12776644912526267,0.2,0,
1.4243798346225662,0.48712653834239217,0.1728397644671538,0.2,-0.6624668266215403,0.6572575419025867,0.2,-1.092985551146881,1.1693212022318988,0.2,-0.12710192543709137,1.646934381857817,0.2,0.46681003049223024,0.36488446367988897,0.2,-0.20919417714253608,-0.112698430141377,0.2,0,
1.4323819685249402,0.4870303088294249,0.06663382521717928,0.2,-0.6554501546375825,0.881610003982576,0.2,-1.083897201548406,1.119260463445612,0.2,-0.11320654617167561,1.84063047178442,0.2,0.470706367779805,0.3183739246980996,0.2,-0.20608738556082762,0.5202874786863244,0.2,0,
1.440384102427314,0.48819267954586704,-0.027174926247878345,0.2,-0.6483610665578191,1.0345659525199251,0.2,-1.075077383731751,1.3595065166636666,0.2,-0.09765183788854065,1.7615054130962005,0.2,0.47190401328739984,0.4447601442934025,0.2,-0.20086957748355488,0.19032159819414377,0.2,0,
1.448386236329688,0.48659551000945883,0.1268753435285097,0.2,-0.6388970993972637,0.8653960828807136,0.2,-1.0621450972817874,1.4196392200226808,0.2,-0.0850224595621364,1.5277120039184728,0.2,0.47782253008849945,0.5874713908122289,0.2,-0.20304223998972132,0.039440585365372455,0.2,0,
1.456388370232062,0.4902226850423232,0.5677595108461442,0.2,-0.6345147292317277,0.4657487036119415,0.2,-1.0523631562113882,0.9634879498463672,0.2,-0.07320844582584508,1.407439166084266,0.2,0.4813035555403955,0.6717218210765887,0.2,-0.20023852811770892,0.02966102753868688,0.2,0,
1.464390504134436,0.49567966218299714,0.14516805024503143,0.2,-0.6314451201394726,0.6187757024826435,0.2,-1.0467292900842455,1.0544777071987281,0.2,-0.06250343290478814,1.6831014055449611,0.2,0.4885700792257249,0.5103103049876566,0.2,-0.20256766354910233,-0.17335095591487942,0.2,0,
1.47239263803681,0.4925453738462437,0.06160620694006802,0.2,-0.6246143179920054,0.7821625096482293,0.2,-1.0354915128962086,1.536479721528136,0.2,-0.046278823337125706,1.9716052113166296,0.2,0.489468520420198,0.18637620223554627,0.2,-0.203012143412347,0.06458837647630583,0.2,0,
1.480394771939184,0.4966653614940382,0.25502105333289476,0.2,-0.618930519985101,0.9583671598443477,0.2,-1.0221456145397954,1.1069051060240698,0.2,-0.030957749523722072,1.6731574061188128,0.2,0.4915520984614936,0.40290161708648325,0.2,-0.20153424952548143,0.11185132258643461,0.2,0,
1.4883969058415578,0.49662571069957,0.17500388871491412,0.2,-0.6092804434344958,1.0456690848806918,0.2,-1.0177810311998234,0.8329533970159314,0.2,-0.0195083048392247,1.697213987302661,0.2,0.49591494629358174,0.4623230011791303,0.2,-0.20122252225096404,0.160096315630031,0.2,0,
1.4963990397439317,0.49946542371347685,0.27985766479437024,0.2,-0.6021998146270099,0.8538733638971813,0.2,-1.0088183601875405,1.4833280804285447,0.2,-0.0038023257268794976,1.5219392235170945,0.2,0.4989492664803597,0.2633746043171382,0.2,-0.19897270847540094,0.013028893907038666,0.2,0,
1.5044011736463059,0.5011034333362799,-0.1195209075680291,0.2,-0.5956184696121409,0.5639992371072877,0.2,-0.9940477819129667,1.481944671479593,0.2,0.004842722737048813,1.531627576264725,0.2,0.500128939962656,0.5086432640781756,0.2,-0.20101405994845142,-0.09672195790736728,0.2,0,
1.5124033075486798,0.4975530891923884,0.4469989933575877,0.2,-0.5931758268332933,1.0847358061670462,0.2,-0.985107245443867,1.3481620564398666,0.2,0.020703715493356104,1.941575868700728,0.2,0.5070875587056105,0.4871602935005992,0.2,-0.20052025980191882,0.006678104440962368,0.2,0,
1.5204054414510537,0.5082554172300013,0.8202381868231203,0.2,-0.5782626967134682,1.0205278122793413,0.2,-0.9724771890099289,1.330288869126124,0.2,0.03590793663626046,1.5865793855313164,0.2,0.5079235046586655,0.5030985864049944,0.2,-0.20090721027739603,0.1237667705021369,0.2,0,
1.5284075753534276,0.5106769001815583,0.10553501374736124,0.2,-0.5768473818368238,0.4931879438645412,0.2,-0.963822623537849,1.0962993668577892,0.2,0.046088985661857165,1.3996831461193826,0.2,0.5151371360880904,0.1254558572044706,0.2,-0.19853999147388462,0.36358407792380987,0.2,0,
1.5364097092558016,0.5099439774499591,0.02236373620335269,0.2,-0.5703716896116355,0.9873877058880833,0.2,-0.9549363991402042,1.2551904808094927,0.2,0.058302866974170586,1.7236388483233338,0.2,0.5099307983739371,0.2720521460812253,0.2,-0.19508986503061507,0.10604527164894718,0.2,0,
1.5444118431581757,0.511034719960812,0.04495965375172356,0.2,-0.5610491785426145,0.743296059280564,0.2,-0.9437395758448971,1.3452992858294237,0.2,0.07366720723503051,1.6266499998508506,0.2,0.51948997042539,0.7600967288271393,0.2,-0.19684326712750147,-0.09762025046191822,0.2,0,
1.5524139770605496,0.5106633319099867,0.09714103317742112,0.2,-0.5584789526631465,0.7951123366989401,0.2,-0.9334116105669334,1.2072227486642704,0.2,0.0843292669717842,1.589508941938259,0.2,0.5220923460351713,0.36115099395517963,0.2,-0.19665178903800576,0.1544853110372925,0.2,0,
1.5604161109629235,0.5125889764916507,0.07530110630601938,0.2,-0.5483273811554314,1.0164243453409383,0.2,-0.9244240118662688,1.1971568272097777,0.2,0.09909935030604265,1.8881437651445085,0.2,0.5252683863286729,0.3298416003715346,0.2,-0.1943715021509048,0.05805273786891468,0.2,0,
1.5684182448652975,0.511868149610883,0.2176889758507758,0.2,-0.5422161631376915,0.7625317298695089,0.2,-0.914257101331577,1.0881279942128175,0.2,0.11453956721409633,1.5196343380929578,0.2,0.5273698116411158,0.38535847051207606,0.2,-0.19572294523210312,-0.06748899029153377,0.2,0,
1.5764203787676716,0.5160720001052631,-0.08521874961633924,0.2,-0.5361268734775193,0.6375851159948487,0.2,-0.9070139639588637,1.1778112674186159,0.2,0.12341349971552998,1.5003200955163651,0.2,0.5314341218568661,0.4850423815961624,0.2,-0.19545132599556933,0.15573510391026119,0.2,0,
1.5844225126700455,0.5105046496170216,0.23311579066983418,0.2,-0.5320148012817739,0.8467001235538951,0.2,-0.8954121210528792,1.1758756226261935,0.2,0.13854468874235817,1.5831092749948212,0.2,0.5351304897466544,0.399227635760932,0.2,-0.19323118356953894,0.11828137848046011,0.2,0,
1.5924246465724194,0.5198018527559805,0.27259584501547474,0.2,-0.522579671500657,0.9916633519305579,0.2,-0.8881999539968446,1.0593803051631572,0.2,0.14874324811544712,1.3451309860474259,0.2,0.537821764029041,0.32082228370520355,0.2,-0.19355882393988197,-0.012718831559189667,0.2,0,
1.6004267804747934,0.5148661831372692,0.10931826509874565,0.2,-0.516148187650885,0.49898123914098036,0.2,-0.8784620361702686,1.1486919981298014,0.2,0.160066784519117,1.6896956616191967,0.2,0.5402636462859377,0.3844287644127961,0.2,-0.19343468487448598,-0.0413928206563028,0.2,0,
1.6084289143771673,0.5215509449975604,0.6210467247793339,0.2,-0.5145959716744013,0.6409635618117998,0.2,-0.8698208820267678,1.2709698657341408,0.2,0.17577837870135427,1.6642121535516228,0.2,0.5439726242596458,0.4353483891640572,0.2,-0.1942211090703828,0.1576065115615824,0.2,0,
1.6164310482795414,0.5248029307337385,-0.06711401036156583,0.2,-0.5058927706618962,0.9704779814952297,0.2,-0.8581265183185224,1.310120581173399,0.2,0.18669417897594295,1.419663030130346,0.2,0.5472292205125626,0.31982407783531785,0.2,-0.19091298068950066,0.08834894536182553,0.2,0,
1.6244331821819153,0.5204771208317753,0.11492103053738906,0.2,-0.4990683239704776,0.6998215396419906,0.2,-0.8488589527279934,1.0671689881574729,0.2,0.1984929871834398,1.4797443596130335,0.2,0.5490898095050109,0.28889821240540153,0.2,-0.1928075259445936,-0.08936066764641398,0.2,0,
1.6324353160842893,0.5266416672223367,0.6984013537444863,0.2,-0.49469562602762435,0.563155303034496,0.2,-0.8410518145080028,0.8651717368938563,0.2,0.2103700887297515,1.606638880966793,0.2,0.551851591911049,0.3666782514888875,0.2,-0.19234275137184328,0.37703945123001953,0.2,0,
1.6404374499866632,0.5316515424916871,0.2829294494290785,0.2,-0.4900578391219257,0.7584768292039807,0.2,-0.8350162049376917,0.9966449936047589,0.2,0.2241992092789085,1.7002300792614138,0.2,0.554956661528833,0.5231630804454559,0.2,-0.1867748947249133,0.263810026999935,0.2,0,
1.648439583889037,0.531168538413202,-0.2762649796531208,0.2,-0.48255999676036065,0.8283851203858064,0.2,-0.8251054946103267,1.202781776919848,0.2,0.23757376999793411,1.1755026092624183,0.2,0.5602222011981763,0.40144144505869367,0.2,-0.18812179093984432,-0.21185451999870297,0.2,0,
1.6564417177914113,0.5272313028172372,0.06851630364484995,0.2,-0.4768036771957528,0.493409661579184,0.2,-0.8157716965069741,0.9592704445445313,0.2,0.24300725102710719,0.8455153613806908,0.2,0.5613797246497721,0.009460288879686862,0.2,-0.19016456704489254,-0.13655062905023468,0.2,0,
1.6644438516937852,0.5322647992715196,0.8280432837161968,0.2,-0.4746654421750937,0.737274481567688,0.2,-0.8097571674976142,0.8100793793880678,0.2,0.25110201578002517,1.684358928211005,0.2,0.5603735658202513,0.17591004944277067,0.2,-0.19030660100464808,0.23436187783559131,0.2,0,
1.672445985596159,0.5404799953566963,0.31590605531488236,0.2,-0.4650072854906698,0.7828720715792117,0.2,-0.802810426436765,1.1980397044886042,0.2,0.26995699387848326,1.4938883817913056,0.2,0.5641942854408565,0.433134912170563,0.2,-0.18641477699952308,0.24075850689846134,0.2,0,
1.680448119498533,0.5373192961565577,-0.5276484523637839,0.2,-0.4621394890298263,0.5432299914651835,0.2,-0.7905885322257965,0.7910573329915834,0.2,0.27500422988868606,0.8510098558368734,0.2,0.5673037244149803,0.3779623804216273,0.2,-0.1864544648942727,-0.005176261275897584,0.2,0,
1.6884502534009072,0.5320376201188758,0.06512680608576626,0.2,-0.45631560562722684,0.563100447684952,0.2,-0.7901535091088997,0.6296694161309346,0.2,0.28357315157187324,1.1805667628565324,0.2,0.5702416835276025,0.1939086873028531,0.2,-0.18649759717993744,-0.2633484532442616,0.2,0,
1.696452387303281,0.53836132505393,0.5482859736943915,0.2,-0.4531298818668671,0.5101612956459022,0.2,-0.7805138215677015,0.853787540165525,0.2,0.2938932980943906,1.1280294957881527,0.2,0.570406263411826,0.1795840130579332,0.2,-0.19066804014618088,0.0852337024374733,0.2,0,
1.704454521205655,0.540810195697986,0.18672859972734823,0.2,-0.4481530248968924,0.525196710337579,0.2,-0.7764929084662513,0.6775238392858207,0.2,0.3016216235044837,1.1751063323254194,0.2,0.5731150277365294,0.46485831824398527,0.2,-0.18513385794093787,0.026221760697924673,0.2,0,
1.712456655108029,0.5413489826495675,0.27302829218646407,0.2,-0.4447267345014658,0.4446304115185498,0.2,-0.7696734401391284,0.9285941608039929,0.2,0.3126949994115973,1.021302892460111,0.2,0.5778439965037298,0.26318773956170854,0.2,-0.1902484919750141,0.04262450612909502,0.2,0,
1.7204587890104028,0.5451786483729695,0.44853177088956253,0.2,-0.4410389383125956,0.5463163956368408,0.2,-0.7616354018933874,1.0362883729169992,0.2,0.31796246978384546,1.0225611565503716,0.2,0.5773260315695168,0.26100981372587095,0.2,-0.18445186584287235,0.43745665880310336,0.2,0,
1.728460922912777,0.5485254909838005,-0.06052128546835123,0.2,-0.4359856721712764,0.37840846620181345,0.2,-0.7530928261724564,0.872751150236245,0.2,0.32905597791640323,1.0415765657050406,0.2,0.5820201535233437,0.3214888931064863,0.2,-0.18324918543416444,-0.17634826335361994,0.2,0,
1.736463056815151,0.5442103078054759,0.06904811339818878,0.2,-0.4349844028533666,0.6168357998836866,0.2,-0.7476713834896075,0.5640096843897296,0.2,0.3346276948351261,0.8917640685052568,0.2,0.5824698538592206,0.34537677720197085,0.2,-0.18727343805653027,-0.1360922146305312,0.2,0,
1.7444651907175248,0.5496302607981716,0.3488386737876825,0.2,-0.4261162993731374,0.5884470134876959,0.2,-0.7440686712222208,0.5520150488362019,0.2,0.34332420301248734,0.6110719432301098,0.2,0.5875461819585752,0.30000985951637166,0.2,-0.18542666086825293,0.37916684073668533,0.2,0,
1.7524673246198987,0.5497917265860788,0.21455528634182347,0.2,-0.42556925063756346,0.34441370654810993,0.2,-0.7388391427082283,0.6212475460706592,0.2,0.34440484592680787,0.612963897702344,0.2,0.5872700116114825,0.0553921137354807,0.2,-0.1812067686047433,0.14287094792185193,0.2,0,
1.7604694585222727,0.5530631453796407,0.21860137583482736,0.2,-0.4206056800683676,0.4437687789335329,0.2,-0.7341287104850902,0.5571123526743534,0.2,0.35313162537572484,0.9076200927963206,0.2,0.5884324557783429,0.07088303088848696,0.2,-0.1831407257015033,0.11222085762241721,0.2,0,
1.7684715924246468,0.553289348599436,0.3839097751148074,0.2,-0.41846895017462693,0.48431055884178353,0.2,-0.7299253450654386,0.5947101733564941,0.2,0.358926767411549,0.7936812338798955,0.2,0.5884041401056983,0.5050427580501338,0.2,-0.17941123488278463,0.0832738815841963,0.2,0,
1.7764737263270207,0.5592057017814777,0.25360209068644307,0.2,-0.4128567111268991,0.1554843376517269,0.2,-0.7246133477113863,0.54915064127211,0.2,0.3658305251178032,0.8867486740939192,0.2,0.596513139907145,0.2108063906220703,0.2,-0.18180834359615616,-0.14028632563499108,0.2,0,
1.7844758602293946,0.5573469820504191,0.19986412725190444,0.2,-0.4159812007721993,0.15430919776547591,0.2,-0.7211389348050848,0.6769473709487897,0.2,0.3731147461970517,0.5359417891205656,0.2,0.5917770423556514,-0.2000902505841784,0.2,-0.18165581609294448,0.013806642467884336,0.2,0,
1.7924779941317686,0.5624035278175081,0.20811093811858028,0.2,-0.4103877639626515,0.26545548012403897,0.2,-0.7137821897762057,0.4099940928077167,0.2,0.3744055937437322,0.35291105208466733,0.2,0.5933116958977982,0.09389761498350413,0.2,-0.18158743731667001,0.16480756129516952,0.2,0,
1.8004801280341425,0.5606767570603164,-0.02988419313952606,0.2,-0.4117339130902147,0.022491414879446253,0.2,-0.7145790293201614,0.1494978734814384,0.2,0.3787613230304064,0.5803517969435803,0.2,0.5932794041953875,0.28858615748032085,0.2,-0.17901889511222177,0.09042645192975339,0.2,0,
1.8084822619365166,0.5619253807272757,0.3376849647035024,0.2,-0.41002790132458034,0.33036875522890125,0.2,-0.7113902238005027,0.3374058311012146,0.2,0.3836912224948295,0.5656827029686777,0.2,0.5979290744174833,0.24875020486608834,0.2,-0.18014061408579396,0.047438613694559054,0.2,0,
1.8164843958388905,0.5660797164955724,0.21080463339787775,0.2,-0.40644801300655226,0.3833246652652465,0.2,-0.7091805360225419,0.18579834090860087,0.2,0.3878122462779052,0.514199346488442,0.2,0.5972594074732449,0.0440369090068185,0.2,-0.17825987729310883,-0.01520836676665617,0.2,0,
1.8244865297412645,0.5652982548616418,0.026621543181247487,0.2,-0.4038947066803364,0.20252240262687987,0.2,-0.708417450345965,0.3455101526534665,0.2,0.3919184120386446,0.2000096429343491,0.2,0.5986336649615924,-0.13728746098033012,0.2,-0.18038394795406046,0.20817932620393817,0.2,0,
1.8324886636436384,0.5665056611864724,0.13671480271609804,0.2,-0.4032076545645222,0.07634947932253638,0.2,-0.7036523735800865,0.19100056937889492,0.2,0.3910124005648548,0.25167174810768533,0.2,0.5950628080975596,0.20236123973183667,0.2,-0.17492900807384582,0.17175108035829936,0.2,0,
1.8404907975460125,0.5674856917050993,0.28554704382595386,0.2,-0.4026731150111758,-0.08296628863766267,0.2,-0.7053614412359027,0.2709640982871825,0.2,0.39594516000836755,0.4277514485502426,0.2,0.6018714447973018,0.28505049487473344,0.2,-0.17763593066832767,-0.07914207651117319,0.2,0,
1.8484929314483864,0.5710744138876876,0.5234588081939953,0.2,-0.4045351151827248,-0.048341348593990835,0.2,-0.6993169480074916,0.3559606637631163,0.2,0.3978564237416587,0.185653146220148,0.2,0.5996236160155554,-0.047384898424339406,0.2,-0.1761952812980246,0.14419780691125697,0.2,0,
1.8564950653507604,0.5758610326362033,0.15068417876853285,0.2,-0.40344657658867966,0.15895266966697158,0.2,-0.6996660706156929,-0.1383304312039535,0.2,0.3989156103478899,0.1571002537935559,0.2,0.6011132864225124,0.20242475469121196,0.2,-0.17532876575774756,0.040600067754612695,0.2,0,
1.8644971992531343,0.5734853607479842,-0.303041766986388,0.2,-0.40199187246805324,0.16601131425011614,0.2,-0.7015302349067548,-0.03096996150898923,0.2,0.4003700278023556,0.12873300769522533,0.2,0.6028624120906148,-0.06230843788667534,0.2,-0.17554568021395078,0.3060492983877373,0.2,0,
1.8724993331555082,0.571012364364421,-0.014284577220073646,0.2,-0.4007903955606778,0.22782681348023498,0.2,-0.7001615899998367,0.14306177828307676,0.2,0.4009753384710135,-0.012924363723267746,0.2,0.6001163514163256,-0.03296381000934823,0.2,-0.17043197698354376,-0.22265568558049556,0.2,0,
1.8805014670578823,0.573256807512463,0.4967798552854494,0.2,-0.3983466434523695,-0.1034615156514894,0.2,-0.6992412464542256,-0.14253325801129313,0.2,0.4001632379827833,-0.13216374406010284,0.2,0.6023349911304652,-0.047750345759559054,0.2,-0.1791081711832387,-0.2789814172653622,0.2,0,
1.8885036009602563,0.5789608420489882,0.4751263683443821,0.2,-0.40244577981110163,0.0052384957173988445,0.2,-0.7024421221280174,-0.46885259478195856,0.2,0.3988607185660519,-0.21482088572584088,0.2,0.5993523458841726,-0.21547440755500386,0.2,-0.17489567965978955,0.3845091314595567,0.2,0,
1.8965057348626302,0.5808588294059731,-0.01124853349439986,0.2,-0.3982628275208911,-0.10335188486357977,0.2,-0.7067428879707369,0.02102997885152641,0.2,0.39672610381116985,-0.23793732245072294,0.2,0.5988874006095851,-0.20991298787079865,0.2,-0.1729560250798858,0.20248168630345245,0.2,0,
1.904507868765004,0.5787808655130778,0.25649738506153263,0.2,-0.4040994099689189,-0.06114672419339426,0.2,-0.702105642466393,0.09317523316022813,0.2,0.3950537214068403,-0.1490041345622306,0.2,0.5959937380782399,-0.051824704369478336,0.2,-0.17165597267893432,0.20625775298980728,0.2,0,
1.912510002667378,0.5849627875669576,0.331554364330397,0.2,-0.3992411751079854,0.18736009979295268,0.2,-0.7052520842401733,-0.1411939081426422,0.2,0.39434203765817416,0.09621595267273603,0.2,0.5980582053396735,0.25067048320240315,0.2,-0.1696559010320489,-0.07275727831719536,0.2,0,
1.9205121365697522,0.5840857353423642,0.15177055099089426,0.2,-0.40110164837223167,-0.4575754496497081,0.2,-0.7043647449966752,-0.11424800286221476,0.2,0.3965931766496041,-0.13549372531040937,0.2,0.6000044658094783,-0.10592209581464923,0.2,-0.17282008913200944,-0.12456253882300525,0.2,0,
1.928514270472126,0.5873911163828119,0.3177836062496081,0.2,-0.40656238230238073,-0.3596190195488472,0.2,-0.7070800522859687,-0.367674706202456,0.2,0.3921741380532076,-0.6669744920812549,0.2,0.5963634518066391,-0.21891007899025455,0.2,-0.17164890165321697,0.0509980934367809,0.2,0,
1.9365164043745,0.5891702730423579,0.13749015996484398,0.2,-0.4068555526850132,-0.19208908097149632,0.2,-0.7102475402959145,-0.19145858280658623,0.2,0.385921584776304,-0.5886699433059819,0.2,0.5965019045456342,-0.002712799813502087,0.2,-0.17200411963702095,0.1179028145374926,0.2,0,
1.944518538276874,0.5895909589422494,0.19794489940483384,0.2,-0.4096358075979247,-0.46747633039955977,0.2,-0.7101433896108741,-0.22309941557310808,0.2,0.3827554189603119,-0.22780602651813198,0.2,0.596320047009623,-0.06956876377053195,0.2,-0.1697624566206171,-0.007465695852370419,0.2,0,
1.9525206721792479,0.5923373914328353,-0.005216130736708513,0.2,-0.4143351739714062,-0.13394810526569725,0.2,-0.7138171309450843,-0.5193004025253883,0.2,0.3822766883520139,-0.5890619741899944,0.2,0.5953888043253057,0.0457670477706576,0.2,-0.17212357077065887,0.07078563808324626,0.2,0,
1.960522806081622,0.5895075008504621,0.15258593577417018,0.2,-0.41177897728217583,-0.16342554938641313,0.2,-0.7184521960512803,-0.5818399616815406,0.2,0.373330427373272,-0.7826658029974238,0.2,0.5970523197739536,-0.14907334829176305,0.2,-0.16862988641128515,0.04237873134297493,0.2,0,
1.968524939983996,0.594778766405222,0.5090087814544688,0.2,-0.4169499827615888,-0.4832278501680498,0.2,-0.7231265703319889,-0.39628722641060765,0.2,0.3697540355040551,-0.6173510584492267,0.2,0.5930036307526375,-0.4820960094225543,0.2,-0.17144551106917127,-0.0602453083171136,0.2,0,
1.9765270738863698,0.5976516413537336,0.07781046039298523,0.2,-0.4195106228848646,-0.19320492513291362,0.2,-0.72479279167385,-0.7742810797772698,0.2,0.36345281043808436,-0.5777283545407504,0.2,0.5893387836231927,-0.3345648268096857,0.2,-0.16959381134435897,0.26173039321665187,0.2,0,
1.9845292077887438,0.5960237337715097,0.1940773942186516,0.2,-0.4200412615637154,-0.2693372513534534,0.2,-0.7355150676084252,-0.7350330218237472,0.2,0.3605103818314031,-0.5133341375414963,0.2,0.5876505935236825,0.010805770127790548,0.2,-0.16725782477770484,0.015341843106132097,0.2,0,
1.992531341691118,0.600756879661232,0.2527514683931323,0.2,-0.4238200189065199,-0.35300400476731203,0.2,-0.73655332002303,-0.1934397675849714,0.2,0.3552394642374204,-0.8733381612137832,0.2,0.5895116759452373,-0.023782184593375277,0.2,-0.16934834185466086,-0.20806640224911577,0.2,0,
2.0005334755934916,0.6000677572657999,-0.147923414721092,0.2,-0.4256893256399924,-0.1801864171851776,0.2,-0.7386101038897848,-0.48421935919525094,0.2,0.3465369712519826,-1.138137505518392,0.2,0.5872700785701885,-0.231459768653422,0.2,-0.1705868872136907,0.18282695574150035,0.2,0,
2.0085356094958655,0.5983901050256946,0.06411680214214732,0.2,-0.4267030015814827,-0.681974156985548,0.2,-0.744300829770154,-0.7721282063355636,0.2,0.33702926414912615,-0.6636274615112736,0.2,0.5858083196467826,-0.4479064366941579,0.2,-0.16642311056279685,0.20022284462994921,0.2,0,
2.01653774339824,0.6010936261000742,0.5553224352390917,0.2,-0.43660091215176117,-0.6330270867494526,0.2,-0.7509641551911538,-0.916738472387324,0.2,0.3359189318678022,-0.6658217409187608,0.2,0.580103575583082,-0.24502776166238777,0.2,-0.1673833216996115,0.01689370490483115,0.2,0,
2.024539877300614,0.60727526398952,0.37744859418938764,0.2,-0.43683143496947396,-0.478336337133671,0.2,-0.7589686453283512,-0.8306451604240469,0.2,0.326376116294426,-1.2333650215896608,0.2,0.5818878754601844,0.07530983138741287,0.2,-0.16615281128431955,0.1890182574125019,0.2,0,
2.0325420112029877,0.6071328036071044,-0.017304355382899428,0.2,-0.4442542935458999,-0.5984086986592952,0.2,-0.7642544777579385,-0.6995441251151507,0.2,0.3161850915223676,-1.3139727243830466,0.2,0.5813085328852806,-0.19203546138683164,0.2,-0.16435902958101148,-0.05671402910692458,0.2,0,
2.0405441451053616,0.6069983943033936,-0.01915815018500161,0.2,-0.4464059741480227,-0.3171487727925727,0.2,-0.7701613513301936,-0.7677605582553162,0.2,0.30535255270429723,-1.281817490532966,0.2,0.5788153080779951,-0.5990032367636927,0.2,-0.16706023575003034,0.016535762772615717,0.2,0,
2.0485462790077356,0.6068262732041444,0.33909182982781727,0.2,-0.44932867391058107,-0.6027122143834468,0.2,-0.7765386466900236,-0.8482316641578308,0.2,0.29567601167384017,-1.0171801334252564,0.2,0.5717244810970615,-0.41743715932199277,0.2,-0.16409445737664963,0.38194082473889424,0.2,0,
2.0565484129101095,0.6124238635806387,0.14483582860808086,0.2,-0.45604936957815784,-0.7037162631069217,0.2,-0.7837330579567189,-0.730700528843331,0.2,0.28907767056949313,-1.0590879794729995,0.2,0.5721363135288432,-0.15448433619661556,0.2,-0.16094918255420804,0.09111235281381198,0.2,0,
2.0645505468124834,0.6091436464618737,0.029216769612254445,0.2,-0.4605881341202918,-0.5327105115530556,0.2,-0.7882298551515169,-1.0011758944349496,0.2,0.2787306040022722,-1.0288935841179063,0.2,0.5692527317179157,-0.1467695875811345,0.2,-0.16263665973162864,-0.12745715879041405,0.2,0,
2.0725526807148573,0.6128913318944348,0.23406876393982506,0.2,-0.4645727377630067,-0.5351331499985658,0.2,-0.7997518722676781,-0.9749030798193309,0.2,0.2726153732236066,-1.0544240787530752,0.2,0.569788000127545,-0.11895693903794108,0.2,-0.16298849709485466,0.07274301297404556,0.2,0,
2.0805548146172312,0.6128887466849109,0.2676976270032244,0.2,-0.46915026452026887,-0.572474324515862,0.2,-0.8038283044286262,-0.8677562491894094,0.2,0.26185981874222297,-1.5546486947065306,0.2,0.5673494206933086,-0.41675714813816517,0.2,-0.1614727715240439,-0.06876633386019432,0.2,0,
2.0885569485196056,0.6171744939264864,0.5153567522002411,0.2,-0.4737323269552605,-0.5287340818355031,0.2,-0.8136359722547086,-0.8903161410402094,0.2,0.24774099410830214,-1.165151482502659,0.2,0.5631198857573344,-0.5580220417675391,0.2,-0.16408875843661777,-0.0034477602542538205,0.2,0,
2.0965590824219795,0.6211344547201147,0.08582153899631961,0.2,-0.4776100098296369,-0.7423443650824806,0.2,-0.8180733626852695,-0.976716982706148,0.2,0.24321739502218043,-1.0723928442685684,0.2,0.558421068025028,-0.43184358016985086,0.2,-0.16152793568811197,0.30946466409858403,0.2,0,
2.1045612163243534,0.6185476385504275,-0.20583364292803968,0.2,-0.4856098367965802,-0.8493442738954845,0.2,-0.829263443978007,-0.9637373631394205,0.2,0.23058270860000504,-1.5333729473888182,0.2,0.5562103884746168,-0.333564435313273,0.2,-0.15913732381104043,0.12757068088375087,0.2,0,
2.1125633502267274,0.6178411164332661,0.2680845415871866,0.2,-0.49119951821196467,-0.641835023742484,0.2,-0.8334931604955003,-0.93509054951256,0.2,0.21868342786395933,-1.4881851103669808,0.2,0.5530840370600156,-0.3390836563354621,0.2,-0.15948680479397195,-0.026458699971752472,0.2,0,
2.1205654841291013,0.6228369912158225,0.5452245016898046,0.2,-0.49587919717645995,-0.6730213052210561,0.2,-0.844224892770208,-1.4306931366130995,0.2,0.20677174683413335,-1.6515971823044193,0.2,0.5507850499732494,-0.16048210602154223,0.2,-0.15956066301058847,0.10454809139292219,0.2,0,
2.128567618031475,0.626564708460303,0.5325794429786729,0.2,-0.5019678590955016,-0.6093177494401574,0.2,-0.8563842506813099,-1.2043297973235445,0.2,0.19225787294708863,-1.3785663962058072,0.2,0.550516323363671,-0.38640823247502315,0.2,-0.1578140353316852,0.12811956060474436,0.2,0,
2.136569751933849,0.6313582623034812,0.18067106641223712,0.2,-0.5056282811675025,-0.6257014274585123,0.2,-0.8634941695273847,-1.020271185112498,0.2,0.18471468449484044,-1.1155004624307172,0.2,0.544602518253649,-0.4011818349517887,0.2,-0.15751075004091256,0.0454460917808687,0.2,0,
2.144571885836223,0.6294554455228988,-0.08928445097389215,0.2,-0.5119790819348378,-0.8974246342720662,0.2,-0.8727085896431098,-1.1550383518816807,0.2,0.17440986554819715,-1.8294125436670339,0.2,0.5440974140044423,-0.28920867041220405,0.2,-0.1570868978631913,0.006710081844789675,0.2,0,
2.152574019738597,0.629929711087899,0.022343063379989814,0.2,-0.5199870753158555,-0.8697041925934054,0.2,-0.8819747831574916,-1.2484149696974922,0.2,0.1554440837961679,-1.706448161248833,0.2,0.5399751795270538,-0.36763150684803597,0.2,-0.15740338873139592,0.050609023219747376,0.2,0,
2.160576153640971,0.6298129345369786,0.09939757940864019,0.2,-0.5258943490163323,-0.9559980283532706,0.2,-0.8926832291582697,-1.3113683900702542,0.2,0.14710669496821582,-1.2825637512257175,0.2,0.5382153098948738,-0.3984562350414153,0.2,-0.15627715349167534,0.34828688990880785,0.2,0,
2.1685782875433453,0.6315200723584372,0.41766786545894413,0.2,-0.5352830437695079,-0.8263765876155432,0.2,-0.9029566773986156,-0.9800814333077723,0.2,0.1349230637765564,-1.7721534791043632,0.2,0.5335998797663911,-0.4695553692682444,0.2,-0.151830798492855,0.18412786825037705,0.2,0,
2.176580421445719,0.6364956203843217,0.3528570113206578,0.2,-0.5391163744181809,-0.5115908445794611,0.2,-0.908364532091194,-0.6945245244414089,0.2,0.11875223930254601,-1.6891340766866414,0.2,0.5307024239865819,-0.37598110220272984,0.2,-0.1533311075996693,-0.4310927311826744,0.2,0,
2.184582555348093,0.6371657845395677,0.08967529890720194,0.2,-0.5434684972827792,-0.876557684875219,0.2,-0.9140690697896782,-1.292470353021713,0.2,0.10789691854957015,-1.5306332730716175,0.2,0.5275841821311474,-0.2797335202289822,0.2,-0.1587282821917778,-0.03350672346935993,0.2,0,
2.192584689250467,0.637930425166837,0.12614852249954317,0.2,-0.5531412973761844,-1.0399711767349051,0.2,-0.9290440577395415,-1.6329828852119297,0.2,0.09426210693340013,-1.5892893808533453,0.2,0.5262266876629181,-0.491124789995058,0.2,-0.15386721517517907,0.19382478467718822,0.2,0,
2.200586823152841,0.6391841608995604,0.06013084593894241,0.2,-0.5601080361105377,-0.826863534161823,0.2,-0.940196795953069,-1.0945269756599123,0.2,0.08246828845591662,-1.5240607566019857,0.2,0.5197261854912265,-0.591664457778418,0.2,-0.15562708563694277,0.003705979572048157,0.2,0,
2.208588957055215,0.63889251870186,0.16528113654021986,0.2,-0.5663711139227736,-0.6370487541133146,0.2,-0.9465564893501001,-0.969557952647089,0.2,0.06987713482776836,-1.5107673079214523,0.2,0.5167600563384634,-0.1822832292292867,0.2,-0.1538079195020263,0.13051777268777154,0.2,0,
2.2165910909575888,0.641828659084204,0.19273403803926614,0.2,-0.5703008161763508,-0.7086713401638841,0.2,-0.9557097231954225,-1.4438057650838152,0.2,0.05829601152917339,-1.340562247611841,0.2,0.5168096538235579,-0.13542636326046437,0.2,-0.15353880127393843,0.21114627271900768,0.2,0,
2.2245932248599627,0.6419762633104883,0.3189979692806988,0.2,-0.5777098553653958,-1.1260158584427693,0.2,-0.9696573815914411,-1.257810305632677,0.2,0.0484281388659789,-1.5761923996980747,0.2,0.514593234526296,-0.5554128537256994,0.2,-0.15042957913852217,0.46136482375112864,0.2,0,
2.2325953587623366,0.6469326265926951,0.5030327480632576,0.2,-0.5883170699114351,-1.0371096021580262,0.2,-0.9758346880855453,-1.1121320720124395,0.2,0.03307693313400419,-1.8892549287561027,0.2,0.5079230481639467,-0.46865821466544194,0.2,-0.14615696409392037,0.11542107272378109,0.2,0,
2.240597492664711,0.6500247872795004,0.044416404799269005,0.2,-0.5943036089999242,-0.5955837915989776,0.2,-0.9874514947436401,-1.2925048904467926,0.2,0.018200060005881258,-1.996421093701968,0.2,0.507094703091649,-0.333395926411538,0.2,-0.14858284197494168,-0.4133991442537063,0.2,0,
2.248599626567085,0.6476432890694834,-0.006476022976049933,0.2,-0.5978464105770187,-0.76178047539497,0.2,-0.996514766332694,-0.9118241245905934,0.2,0.0011341956347727007,-1.8209696415750205,0.2,0.5025887133413621,-0.6104007068687967,0.2,-0.15277135040197967,-0.10785509248500448,0.2,0,
2.256601760469459,0.6499211709118836,0.39965596315824636,0.2,-0.6064920966062437,-0.9029069013064411,0.2,-1.0020406807370896,-1.2563100191448142,0.2,-0.010935454259319069,-1.3046638438728564,0.2,0.4973282917817482,-0.5674844230970539,0.2,-0.15030852345470175,0.14929520388991777,0.2,0,
2.2646038943718327,0.6540377844800154,0.342794259923708,0.2,-0.6122929209979218,-0.7892215194396159,0.2,-1.016615726639011,-1.6036037125818496,0.2,-0.019740425867193,-1.6052832290489316,0.2,0.49350896257180926,-0.3045273153023803,0.2,-0.150382627139741,0.340248868397933,0.2,0,
2.2726060282742067,0.6554058790706629,0.28488825702469023,0.2,-0.6191196409172776,-0.7125596793935498,0.2,-1.0276983401383992,-1.5279065337575615,0.2,-0.036619985924101976,-2.073813298634832,0.2,0.4924558547369101,-0.3654472522889238,0.2,-0.14486454156033482,0.1724460013403685,0.2,0,
2.2806081621765806,0.6585959965924104,0.18359602163588867,0.2,-0.6236938758682186,-0.9536651903608514,0.2,-1.041062231179132,-1.116071612766986,0.2,-0.052921438645350316,-1.7375067923212981,0.2,0.4876618065351865,-0.6882056053509541,0.2,-0.1476234911182951,-0.2916268513895627,0.2,0,
2.2886102960789545,0.6583434154168372,-0.1562268407984957,0.2,-0.6343782839630512,-1.1103033734532612,0.2,-1.045555485942671,-1.0425129437783287,0.2,-0.06442009460124275,-1.563974346211608,0.2,0.48144456505129485,-0.16837749657873033,0.2,-0.14953057118256782,0.0990309001947555,0.2,0,
2.2966124299813284,0.6560963671396345,0.06464177962085815,0.2,-0.6414587298434707,-0.7393558708290726,0.2,-1.0577424382795853,-1.5061624514714904,0.2,-0.07794502818473605,-1.639938471543539,0.2,0.4849677665899268,-0.0735049150479214,0.2,-0.146038996715179,0.2543388511354952,0.2,0,
2.3046145638837023,0.6593776838907709,0.5048077948780413,0.2,-0.6462079778963163,-0.7291780985183155,0.2,-1.0696540851662149,-1.0916576560010827,0.2,-0.09065911014593937,-1.300544850461556,0.2,0.4802684864105281,-0.6421419964574848,0.2,-0.1454611495643999,0.056730205443229764,0.2,0,
2.3126166977860763,0.6641732918576831,0.3503855545193696,0.2,-0.6531255794197638,-0.8847751045967591,0.2,-1.0752089607756026,-0.9925836461719961,0.2,-0.09875374579212094,-1.4514848239271179,0.2,0.47469349464660704,-0.5193957425293598,0.2,-0.14513131342808733,0.21410221732669557,0.2,0,
2.3206188316884506,0.6649838527630808,0.1892183772313344,0.2,-0.6603643795698645,-0.8580340276154799,0.2,-1.0855354235049668,-1.4982631203993984,0.2,-0.11388286732877326,-1.7248063412960728,0.2,0.47195815453005835,-0.2589696508807672,0.2,-0.14203551408717277,-0.12303483195084258,0.2,0,
2.3286209655908245,0.6672007858933845,0.2755782101648216,0.2,-0.6668541238616115,-0.6139653061542766,0.2,-1.099181170701993,-1.3452761045587152,0.2,-0.1263506472528581,-1.762924354797638,0.2,0.47054998023251476,-0.4110034033334223,0.2,-0.1470998707393008,0.07620033888292889,0.2,0,
2.3366230994931985,0.669393104125718,0.029705367087816403,0.2,-0.6701878244683329,-0.5614574321545842,0.2,-1.1070598411779062,-1.0060384485282015,0.2,-0.14208965700553547,-1.769763827646346,0.2,0.4653821000767236,-0.6968832416501397,0.2,-0.1408163086650459,0.22293940970512063,0.2,0,
2.3446252333955724,0.6676760717667896,-0.061432187795494586,0.2,-0.6758374427760848,-0.8427740586410826,0.2,-1.1152777858784442,-1.1552638774319917,0.2,-0.15466686849519964,-1.5822538549509126,0.2,0.45939984836611253,-0.719675480412095,0.2,-0.14353284018401888,0.05435748183625633,0.2,0,
2.3526273672979463,0.66841018912099,0.17863770443405508,0.2,-0.6836722094065902,-0.8086501499315404,0.2,-1.125544063216818,-0.9833733843139791,0.2,-0.16740571868475007,-1.633147204028974,0.2,0.4538672923901301,-0.09024890781398828,0.2,-0.1399465889556658,0.02365176581198454,0.2,0,
2.3606295012003202,0.6705342750377344,0.24635274978674487,0.2,-0.6887758451749895,-0.6935443848681694,0.2,-1.1310117600274678,-1.126218467398396,0.2,-0.18079722375966323,-1.246431729401639,0.2,0.4579558658410887,0.02015429349311315,0.2,-0.14315441193102713,-0.20975840945351362,0.2,0,
2.368631635102694,0.672351833117578,0.18551686627329284,0.2,-0.694768919564481,-0.8140726723398356,0.2,-1.1435635586951924,-1.440873869118925,0.2,-0.1873486263551763,-1.3926711464865882,0.2,0.4541897610860199,-0.6374202688122151,0.2,-0.14330272350692203,0.19128467687589204,0.2,0,
2.376633769005068,0.6735025448981071,0.16935216014633825,0.2,-0.7018010079324268,-0.796431241409476,0.2,-1.1540657419333706,-1.1643426017648866,0.2,-0.20307996210344864,-1.6297160751372104,0.2,0.4477571415400933,-0.6429820252313555,0.2,-0.14009385710101285,0.3455149647400915,0.2,0,
2.384635902907442,0.6750614676799194,0.28143313344269894,0.2,-0.7075118194270326,-0.7112018334290773,0.2,-1.1621930403234306,-0.7732706472622086,0.2,-0.21342408355737166,-1.2442750395094906,0.2,0.4439020486823182,-0.10960701091138753,0.2,-0.13777448407108056,0.042442659168504676,0.2,0,
2.3926380368098163,0.6780054750331903,0.04779527899145125,0.2,-0.7131802372672921,-0.3218694932009408,0.2,-1.166438072289566,-0.7380652597472198,0.2,-0.2229883627356005,-1.392231449325992,0.2,0.4460034293655111,-0.33572484132590036,0.2,-0.13941477455431678,-0.27736735989883354,0.2,0,
2.4006401707121903,0.6758261921437826,0.278583215007816,0.2,-0.7126617313182476,-0.7088188736251096,0.2,-1.1740020844793861,-0.9208175904140692,0.2,-0.23569978674658754,-1.5482792587000576,0.2,0.4385304512211038,-0.46024134021470375,0.2,-0.1422123618294619,-0.09698378278823715,0.2,0,
2.408642304614564,0.6824628064733154,0.25833641226193776,0.2,-0.7245213392452938,-1.0766139869847826,0.2,-1.181171153736191,-1.3270465717310636,0.2,-0.2477608308748014,-1.3617909489599365,0.2,0.4386395679220758,-0.30174580276124546,0.2,-0.14096651507892857,0.19771119365370562,0.2,0,
2.416644438516938,0.6799595747399736,-0.11251787138440855,0.2,-0.7298875551100041,-0.6205853573068715,0.2,-1.1952348296270832,-0.8855382201908846,0.2,-0.2574884419299465,-1.250912970501226,0.2,0.43370251837692386,-0.32961300685332634,0.2,-0.1390489827310026,0.07313123717612308,0.2,0,
2.424646572419312,0.6806625205311648,0.41417948032167196,0.2,-0.7344507049622038,-0.42288819154247953,0.2,-1.1953397652592452,-0.7968945818418033,0.2,-0.26777543840282103,-1.35822617417429,0.2,0.4333657598124226,-0.23542809373830464,0.2,-0.1397964152841106,0.37238470411749164,0.2,0,
2.432648706321686,0.6865864464251203,0.22256155397724214,0.2,-0.7366537661746838,-0.31655450167783483,0.2,-1.207985142936552,-1.193285468400848,0.2,-0.27922006071673516,-1.0618996549634947,0.2,0.429935668877111,-0.20224942703275448,0.2,-0.13309082746512274,0.21304360325337043,0.2,0,
2.44065084022406,0.6842235053948007,0.2326783022561299,0.2,-0.7395155769890491,-0.9102000543833311,0.2,-1.2144323327536588,-0.9728848191448286,0.2,-0.28476583288223695,-0.8768024184965078,0.2,0.4301297689798985,-0.22304064031905893,0.2,-0.13638771763205668,-0.16177126603453446,0.2,0,
2.448652974126434,0.6903092992612184,0.4273586367773488,0.2,-0.7512169670448171,-1.013076061544417,0.2,-1.2235513000428693,-0.7630338701614808,0.2,-0.2932488994126793,-1.331224970331224,0.2,0.42636701863200605,-0.32374281698202556,0.2,-0.1356791677216753,-0.15904761191390912,0.2,0,
2.4566551080288077,0.6910612435832383,0.23728522075714548,0.2,-0.7557247939737598,-0.18338514487309387,0.2,-1.2266408746762425,-0.37349726209238987,0.2,-0.30606543240753653,-1.034515623640455,0.2,0.4249498839081861,-0.20255415407672075,0.2,-0.13893247942267922,0.04262985852467038,0.2,0,
2.4646572419311816,0.6941058627933328,0.3162647334422966,0.2,-0.7541511293627866,-0.33474693156064494,0.2,-1.2295272562363475,-0.9911788072119732,0.2,-0.30980114939092657,-1.0794304143770528,0.2,0.4231261521667785,-0.5617297241436621,0.2,-0.13499708998528057,0.4158637380655816,0.2,0,
2.472659375833556,0.696121479318315,0.07268808658039694,0.2,-0.7610807448787301,-0.7427717691554577,0.2,-1.242499735591634,-1.0471764007394524,0.2,-0.3233363190375694,-1.2248765164663313,0.2,0.4159622083218875,-0.4019012568716347,0.2,-0.13227865961362992,0.07688754594232898,0.2,0,
2.48066150973593,0.6952688721786191,0.12314448071409911,0.2,-0.7660354776692739,-0.28086633049443505,0.2,-1.2462820786481787,-0.5658053517202805,0.2,-0.32939917365438787,-0.7300035172874454,0.2,0.41669573205683236,0.2068324587847399,0.2,-0.1337668892502033,-0.01639804130858409,0.2,0,
2.488663643638304,0.6980917910097406,0.08405994848565551,0.2,-0.7655746061666411,-0.36937031816581395,0.2,-1.2515526212191586,-0.7216496956412161,0.2,-0.3350163753141685,-1.0722944538592987,0.2,0.41927152766244336,-0.41127213661497697,0.2,-0.13254102827456726,0.014512837033627685,0.2,0,
2.4966657775406778,0.6966138313543896,0.31820250185352755,0.2,-0.771945402759927,-0.504779712051609,0.2,-1.2578284737784382,-0.836113281894979,0.2,-0.34655588491613665,-0.936742808499591,0.2,0.4101153778709927,-0.5880296834659196,0.2,-0.13353468385766526,-0.09330736723640702,0.2,0,
2.5046679114430517,0.703183031039397,0.42727751605011605,0.2,-0.7736510815594668,-0.5209977465371676,0.2,-1.2649304337294782,-0.4176872056503439,0.2,-0.35000426025016196,-0.5840782551154999,0.2,0.40986305272698864,-0.10384380659657355,0.2,-0.13403394615034978,-0.0637432712026903,0.2,0,
2.5126700453454256,0.7034502716111914,0.05484410457284178,0.2,-0.7802813667045216,-0.6097330313074162,0.2,-1.2645114690688437,-0.5398177832124235,0.2,-0.35590113699798465,-0.7537723725106089,0.2,0.40845387696544755,-0.04896842585401864,0.2,-0.1345545761969083,-0.04223458074006578,0.2,0,
2.5206721792477995,0.7040605367125625,-0.031081524156734153,0.2,-0.7834068100603855,-0.21602000865342946,0.2,-1.273567518260877,-0.8265315769007409,0.2,-0.3620646182103317,-0.8540364477074812,0.2,0.40907955791332434,0.12014551695030407,0.2,-0.13470969944219083,0.1781673561624588,0.2,0,
2.5286743131501734,0.7029529672246837,0.2201280774005998,0.2,-0.7837376868429765,-0.23906976478497988,0.2,-1.2777359742992556,-0.40154270743709974,0.2,-0.36956572016130435,-0.9492477094026168,0.2,0.4103762052366524,-0.2830362173988458,0.2,-0.13170389849830896,0.4897716762573695,0.2,0,
2.5366764470525474,0.7075825859509721,0.5144251637434621,0.2,-0.7872319262969452,-0.24478789553369906,0.2,-1.2799922015798706,-0.416680551759821,0.2,-0.37725258156077357,-0.629696920428531,0.2,0.4045509784349428,-0.22967556705817682,0.2,-0.12687335262207292,-0.061125036586773956,0.2,0,
2.5446785809549217,0.7111837698445791,0.06709085913585155,0.2,-0.7876542931715157,-0.20098640684592523,0.2,-1.2844028631274127,-0.309197999469768,0.2,-0.37964087088816084,-0.5024437228934447,0.2,0.4067013961637216,0.09895638213096303,0.2,-0.13268189908369735,-0.22606383863071552,0.2,0,
2.5526807148572956,0.7086560396971457,0.0038379301999444393,0.2,-0.79044770880648,-0.4073102910310128,0.2,-1.2849393695713869,-0.13347605935580542,0.2,-0.3852916811270687,-0.31593267814472925,0.2,0.4061342805490382,-0.1593069907043325,0.2,-0.13049037404016436,0.2304378723339967,0.2,0,
2.5606828487596696,0.7112451767277782,0.19439701960004968,0.2,-0.7941712578280119,-0.28167744089566127,0.2,-1.2865384800771056,-0.4272110168155874,0.2,-0.3846957937384765,-0.30757276608436857,0.2,0.40415248431245226,-0.4042173284915344,0.2,-0.1289948931263534,0.03246844815675207,0.2,0,
2.5686849826620435,0.7117663920107465,0.12690455423389896,0.2,-0.7949545478608105,0.09356096353550086,0.2,-1.2917747458404363,-0.48791694505966043,0.2,-0.3902128453844186,-0.40779683682421947,0.2,0.39966680329317367,-0.3258321829897499,0.2,-0.12997087886965633,0.18442671854350737,0.2,0,
2.5766871165644174,0.7132756495955206,0.3834045496803329,0.2,-0.7926742824114439,-0.07019080948134082,0.2,-1.2943451511980602,-0.24180292535670722,0.2,-0.391220543127664,-0.3225739507539647,0.2,0.39893916938461627,-0.14227926517149797,0.2,-0.12604406562965728,-0.20210782166663055,0.2,0,
2.5846892504667913,0.7179008648056319,0.3835539596446155,0.2,-0.796077600812512,-0.34943445973720927,0.2,-1.2956435926461436,0.07800273318729622,0.2,-0.395374028596482,-0.2568822901310684,0.2,0.3973903350504297,0.12658298415931316,0.2,-0.13320460401632242,-0.13319914432082836,0.2,0,
2.5926913843691652,0.7194125129498344,-0.02172019832922395,0.2,-0.7982652337672392,-0.35704292180377406,0.2,-1.2930971074670634,-0.19130801802752506,0.2,-0.3953306597697611,-0.24971597820940689,0.2,0.4009644971311653,0.03046394754532486,0.2,-0.12817525193879054,0.4817260115801813,0.2,0,
2.600693518271539,0.7175533416323643,0.22689887871660264,0.2,-0.8017902875613724,-0.005939495265991357,0.2,-1.298704520934584,-0.26962165707464236,0.2,-0.39936948424783253,-0.23378942853402584,0.2,0.3978777582111549,-0.08972242671364747,0.2,-0.12549698783103952,-0.00721837451579839,0.2,0,
2.608695652173913,0.7230428950093001,0.33417809154157735,0.2,-0.7983602656914951,0.32993390875059314,0.2,-1.2974110539802577,-0.0903827789930367,0.2,-0.39907129062630553,0.17619101929254935,0.2,0.3995289383037469,0.015169814786723107,0.2,-0.1282907459310433,-0.09465052659641399,0.2,0,
2.616697786076287,0.7229001910970295,0.31667147211249247,0.2,-0.7965113450213629,-0.17102106114067622,0.2,-1.3001506453984726,-0.28035884215261986,0.2,-0.39655042793915174,-0.21141540974596237,0.2,0.39812047524774247,-0.1080558131130796,0.2,-0.12701139625658214,0.05624187163933564,0.2,0,
2.6246999199786614,0.7281096385631,0.09652595373142725,0.2,-0.8010966026697459,-0.38166524103872,0.2,-1.3018967954546996,0.13673487805314355,0.2,-0.40245393718224093,-0.05936513487487388,0.2,0.39780004529393764,0.07757198850479388,0.2,-0.12739087598481394,0.20521900601945964,0.2,0,
2.6327020538810353,0.7244446063567324,-0.13942742608001601,0.2,-0.8026179888779824,0.2581611883692783,0.2,-1.2979628873496223,0.26894787834630396,0.2,-0.3975002700971497,0.21561311045818765,0.2,0.39936162706381917,0.20427413265494687,0.2,-0.12372789216027079,0.1816164414569872,0.2,0,
2.640704187783409,0.7258787997458197,0.3126807995461403,0.2,-0.7969660236558375,0.0569497477081668,0.2,-1.2975936294011587,-0.11999091552934715,0.2,-0.3990041274149099,-0.02307205854337052,0.2,0.4010684314164168,-0.03532089248038314,0.2,-0.12448501292150214,0.04562070875706141,0.2,0,
2.648706321685783,0.7294474991494706,0.4619242780619648,0.2,-0.8017067929146517,-0.19008382433453874,0.2,-1.2998827419980918,-0.004938062026532686,0.2,-0.39786942303384365,0.12844153620497276,0.2,0.39879649278413304,-0.08743089227230758,0.2,-0.1229979608201578,0.15850822821993332,0.2,0,
2.656708455588157,0.7332695881948111,0.06912506638048765,0.2,-0.8000073648451901,0.33763239995449057,0.2,-1.2976726383935833,0.14306743623110352,0.2,-0.39694906283563036,0.1532771437243556,0.2,0.39966953714005987,0.33997323051253303,0.2,-0.12194888126998321,0.09661299476796704,0.2,0,
2.664710589490531,0.7305535002115584,-0.035916692812602846,0.2,-0.7963046745153799,0.2840177051687612,0.2,-1.2975936630183942,0.12893371879081628,0.2,-0.39541698873425396,0.3335294461948197,0.2,0.40423606447233357,0.12986722223699496,0.2,-0.12145215290387033,0.08279647018606238,0.2,0,
2.672712723392905,0.7326949211098095,0.4164621850572814,0.2,-0.7954630815624899,0.14233080998207748,0.2,-1.2956096988929302,0.12795869868147125,0.2,-0.39161259169651325,0.3309745232529977,0.2,0.4017474126958518,-0.1280269150329763,0.2,-0.12062413774700621,0.1374089893970863,0.2,0,
2.680714857295279,0.7372168951724749,0.38460337732978966,0.2,-0.7940273815556667,0.18444696172825736,0.2,-1.2955463238394906,0.21595164394674904,0.2,-0.390121396362206,0.3615883762779527,0.2,0.40218763383180595,0.5045302628648545,0.2,-0.11925360907351695,0.027551507210535515,0.2,0,
2.6887169911976527,0.7388485751470861,0.13262803858032912,0.2,-0.7925119301748378,0.3061175005243111,0.2,-1.2921544725897822,0.44952809247894576,0.2,-0.385827177676066,0.43347207940967397,0.2,0.40981989690168946,0.4671629252992852,0.2,-0.12018331363163764,0.038161789222925825,0.2,0,
2.696719125100027,0.7393389437897602,0.07592899849272194,0.2,-0.7891295015472777,0.2829311021601347,0.2,-1.2883538743598275,0.5866340162883482,0.2,-0.3831858430916512,0.31567378113134953,0.2,0.4096622406365945,-0.320000550396847,0.2,-0.11864302044595014,0.05206552631188601,0.2,0,
2.704721259002401,0.7400634391229697,0.3091379644168113,0.2,-0.7879850325402756,0.1773776246597747,0.2,-1.2827683283291687,0.5206023721058134,0.2,-0.3807763971779644,0.4798495587085283,0.2,0.4046998880953399,-0.1753702292110436,0.2,-0.11935026521064747,0.3209729617862905,0.2,0,
2.712723392904775,0.7442851512204292,0.13307464918804746,0.2,-0.7862914595527213,0.42279341061765563,0.2,-1.2800242364061345,0.22770623765744347,0.2,-0.37550825015231476,0.7164135728654694,0.2,0.4068563169692178,0.06223532940660692,0.2,-0.11350745305736949,0.06340400589823804,0.2,0,
2.720725526807149,0.7421926335099784,-0.1525658717315831,0.2,-0.7812203379703931,0.31980761542146907,0.2,-1.2791250285266496,0.4646615345860611,0.2,-0.3693137800121169,0.9174643150517622,0.2,0.4056956533658456,0.05077623040080498,0.2,-0.11833580111627566,-0.4848178842555241,0.2,0,
2.7287276607095228,0.7418440972727238,0.03182921039005665,0.2,-0.7811745377059778,0.06924187705825008,0.2,-1.2725896518527575,0.7118882991663383,0.2,-0.36082882111148656,0.7645788301277253,0.2,0.4076687366556307,0.4242467075787105,0.2,-0.12126453920545788,0.1284815640735298,0.2,0,
2.7367297946118967,0.7427019008762193,0.2822883255793815,0.2,-0.7801124679374611,0.4272610829129525,0.2,-1.2677348157399881,0.6002676469195195,0.2,-0.3570805187300733,0.3834554198398135,0.2,0.412483600687105,0.34049163974730207,0.2,-0.11628009609109918,0.3031302198402176,0.2,0,
2.7447319285142706,0.7463607104819939,0.3888042185836854,0.2,-0.7743383603793705,0.7920431205513736,0.2,-1.2629853695020452,0.7872537017026143,0.2,-0.35469353439404955,0.5616538806190798,0.2,0.4131166028915875,0.15513496875138588,0.2,-0.1164144556880144,-0.15039868466462572,0.2,0,
2.7527340624166445,0.7489227683735583,0.39788399568881083,0.2,-0.7674397780086392,0.49859590824178485,0.2,-1.2551387565127463,0.696761050089853,0.2,-0.348094056640168,1.2328933517951544,0.2,0.41496576018712716,0.058107619346048356,0.2,-0.1186864750457332,0.3684937662711959,0.2,0,
2.7607361963190185,0.7527268544130149,0.3100772469018173,0.2,-0.766360825847502,0.19540189516669554,0.2,-1.2518371927006076,0.3867519523302887,0.2,-0.3349672407653271,1.0972563383071787,0.2,0.4140463248011243,0.3580675412743171,0.2,-0.11051855542767526,0.2261947134084381,0.2,0,
2.7687383302213924,0.7538840043239874,0.3279436743075653,0.2,-0.764313347685972,0.25578677769158564,0.2,-1.2489507252754617,0.5371603561074578,0.2,-0.33053795522725316,0.9087423681065666,0.2,0.42069484084751624,0.35311195825672365,0.2,-0.11506735963119818,-0.38596043654337553,0.2,0,
2.7767404641237667,0.757973953201936,0.08520181772032204,0.2,-0.7622682374044366,0.19705069638289302,0.2,-1.2432426270028882,0.8842263713760845,0.2,-0.320427362875622,1.0481004890996632,0.2,0.4196961161332319,-0.080180153553433,0.2,-0.11669392241236927,0.3565747798459813,0.2,0,
2.7847425980261407,0.7552472334075125,0.17591839517710345,0.2,-0.7611605365438457,0.6057865296428752,0.2,-1.2348031033334443,1.0253659914111202,0.2,-0.31376834740165854,0.9974424461178729,0.2,0.4194119583906613,0.41137113814659204,0.2,-0.10936216315366248,-0.03786997788401709,0.2,0,
2.7927447319285146,0.7607886475247696,0.336094650127898,0.2,-0.7525756529301506,0.5820056715276217,0.2,-1.2268367711403103,0.8391012676678689,0.2,-0.30446828373773605,0.9954145945517446,0.2,0.42627805434357735,0.3472374447011303,0.2,-0.11729984205851354,-0.25500891876446397,0.2,0,
2.8007468658308885,0.7606247478095589,0.17682279060771827,0.2,-0.7518484457994038,0.41650405449393524,0.2,-1.2213774830507584,0.5719467130189115,0.2,-0.29784171388883063,1.1230216725619004,0.2,0.4249677575058794,0.095896098727722,0.2,-0.11344230585389391,0.3470075542949275,0.2,0,
