samirx20/RADAR/data/datasets/clean_04.csv
timestamp,actual_q_0,actual_qd_0,actual_current_0,actual_q_1,actual_qd_1,actual_current_1,actual_q_2,actual_qd_2,actual_current_2,actual_q_3,actual_qd_3,actual_current_3,actual_q_4,actual_qd_4,actual_current_4,actual_q_5,actual_qd_5,actual_current_5,protective_stop,fault_code
0.0,0.3014921688746345,0.16209700168995367,0.2,-0.8010780070042759,1.1000317248599094,0.2,-1.1980774189103336,0.8108778736309052,0.2,-0.4973154387069248,0.09729348804109195,0.2,0.798231374273681,-0.02309614809234417,0.2,0.002640302509927158,0.09633881084120424,0.2,0,
0.008002133902373967,0.3027889448881541,0.41248280176160373,0.2,-0.7922777532053966,0.8567279913988604,0.2,-1.1915903959212863,1.0112864474040584,0.2,-0.49653709080259606,0.24350689114115837,0.2,0.7980466050889422,0.07714438169809795,0.2,0.003411012996656792,-0.26018812329691676,0.2,0,
0.016004267804747934,0.30809189370282014,0.7115216469602836,0.2,-0.7873703591418941,0.5795038017467613,0.2,-1.1818968357518687,1.104817353255988,0.2,-0.49341932844866626,0.22470489155045417,0.2,0.7994656843808505,0.18508005931741622,0.2,-0.0015227074628235099,-0.2754246787164484,0.2,0,
0.0240064017071219,0.31417329123951865,0.7996515420681805,0.2,-0.7830056923774484,0.5564137731526864,0.2,-1.1739133182691905,1.0849185266235821,0.2,-0.4929418125377888,0.6083685358147933,0.2,0.8010078860380209,0.15535275185020458,0.2,-0.0009957818628063822,-0.03300414338479085,0.2,0,
0.03200853560949587,0.32088631837591103,0.4719786026603709,0.2,-0.7784677387714511,0.8334763782776935,0.2,-1.1645381393258913,1.0215812714697985,0.2,-0.48368543187562957,1.0028164209825579,0.2,0.8019513284104538,-0.21058194096524457,0.2,-0.0020507737569801635,0.054017852509866134,0.2,0,
0.04001066951186984,0.3217249488820846,0.21029634706633965,0.2,-0.7696700703250053,0.6304620761526866,0.2,-1.1575680179256738,1.0462184448545853,0.2,-0.47689674980206787,0.6008525803323297,0.2,0.797638574982577,-0.43639979160532,0.2,-0.000131496222648524,0.20220281787092312,0.2,0,
0.0480128034142438,0.32425105992897246,0.524960135349889,0.2,-0.7683803455530082,1.0758222116307585,0.2,-1.147798644208218,1.0458003254000814,0.2,-0.4740717905903123,0.18511826450613722,0.2,0.7949689317447687,0.12180637070217243,0.2,0.0011844713289546063,-0.043260842871149674,0.2,0,
0.05601493731661777,0.3301243110476828,0.48839100483844683,0.2,-0.7524569149389132,1.1928728068236403,0.2,-1.1408352127192725,0.7258045859563633,0.2,-0.47393485756996967,0.43745108901052304,0.2,0.7995874769138117,0.152061232162215,0.2,-0.0008236697085869188,0.0027718886244126515,0.2,0,
0.06401707121899174,0.3320653160063876,0.6032171386380832,0.2,-0.7492943806438299,0.5870309833037463,0.2,-1.1361857708329162,1.0663145454654632,0.2,-0.4670725731661439,0.5995154782853159,0.2,0.7974019114593641,0.10481447217974144,0.2,0.0012288215469452087,0.036951093894703455,0.2,0,
0.0720192051213657,0.33977578526589214,0.5490101314389422,0.2,-0.7430644192060533,0.9826402624692615,0.2,-1.123774179991825,1.2808830646732077,0.2,-0.4643426099174046,0.5325063146605046,0.2,0.8012645084686876,-0.016271611845738998,0.2,-0.00023245220627166353,0.04662942564359773,0.2,0,
0.08002133902373967,0.3408494781094107,0.3003820046439398,0.2,-0.7335721364443217,0.579628673018473,0.2,-1.1156916417981448,0.9549965168150765,0.2,-0.45855247213157585,0.6096959407656359,0.2,0.7971415656698323,-0.08023075680132358,0.2,0.0019748923572427725,0.3149221788582681,0.2,0,
0.08802347292611364,0.3445818973401952,0.5590105650321552,0.2,-0.7337903604377577,0.5782172412426914,0.2,-1.1084942357227838,0.9125997937617231,0.2,-0.45458747486515444,0.30621007869141914,0.2,0.7999808163598664,0.024775867159605724,0.2,0.004806302655460627,0.037421214141451685,0.2,0,
0.0960256068284876,0.34979364714992517,0.617251245942748,0.2,-0.7243206605844387,0.8666431024305365,0.2,-1.1010900450979573,1.182257852627544,0.2,-0.45365311087251314,0.49043808134302186,0.2,0.797537979544386,-0.1415995881638224,0.2,0.0025736317835059995,-0.19219707784686654,0.2,0,
0.10402774073086157,0.35445791727527914,0.47597061396019436,0.2,-0.7199240707988691,0.6861816308357249,0.2,-1.0895781100807431,0.9835728081653561,0.2,-0.4467404655636661,0.7147273020495711,0.2,0.7977152229492452,0.36776288134523355,0.2,0.001731149409910762,-0.16970397612826849,0.2,0,
0.11202987463323553,0.3574091769732883,0.4429080601259447,0.2,-0.7133417544910671,0.7057929356817718,0.2,-1.0853528801673116,0.7833208444147782,0.2,-0.44221747403972,0.3883033891553256,0.2,0.8034221856459097,-0.015543411827349807,0.2,-0.0001416318345462963,-0.14673193049907313,0.2,0,
0.12003200853560951,0.36154444623729426,0.7493070156621324,0.2,-0.7086313838279608,0.8486193329162658,0.2,-1.0770449765701067,0.9235376209247581,0.2,-0.4405276113371809,0.4391707122506881,0.2,0.7974665283600076,-0.2753559381988291,0.2,-0.000616561478074408,0.125920784993014,0.2,0,
0.12803414243798347,0.3693980892238824,0.2545201841475976,0.2,-0.6997638451644068,0.7315739121181303,0.2,-1.0705762782325154,1.091659763296532,0.2,-0.435190742643709,0.5989637823937306,0.2,0.7990164906347285,0.12561336392716976,0.2,0.0018731007253419282,0.20175440648528198,0.2,0,
0.13603627634035745,0.3656167691836558,0.30030908359395675,0.2,-0.6969262012340707,0.7920630569978743,0.2,-1.0595784203573622,1.1522653936522214,0.2,-0.4309441908188812,0.8162634749724618,0.2,0.7994763421828424,-0.05215678824662534,0.2,0.002611509025690104,-0.16190668988838763,0.2,0,
0.1440384102427314,0.3742030345613857,0.6433221763295707,0.2,-0.6870908362524408,0.6831313712541837,0.2,-1.05214003193408,1.0203404376076253,0.2,-0.4221305270441496,0.35605610311856273,0.2,0.7981819820227825,-0.026508471700707747,0.2,-0.0007174063128722743,-0.26667792675052543,0.2,0,
0.15204054414510537,0.37590992400492895,0.3470936839612519,0.2,-0.6859960992940037,0.5747975342007341,0.2,-1.0432529733556402,0.7670650211030472,0.2,-0.4252472931689842,0.12167377309784885,0.2,0.799052206635631,0.23897568966081695,0.2,-0.0016553378023183034,0.0543911467363151,0.2,0,
0.16004267804747935,0.37975653350476574,0.4220651008492622,0.2,-0.6778940757052291,0.9098581954139414,0.2,-1.0398669915964311,0.841609676828517,0.2,-0.420183746674584,0.4381629557060444,0.2,0.8020055930573555,0.20599195962953815,0.2,0.0001528520349087674,0.10596683600467255,0.2,0,
0.1680448119498533,0.38266296561851715,0.42504446083866176,0.2,-0.6714383681673807,0.7722501236027135,0.2,-1.0297872185263839,1.2020092876761368,0.2,-0.4182366858776875,0.3566881771703695,0.2,0.8023480779897036,-0.11537388703265761,0.2,4.013157375645741e-05,-0.027710100022416657,0.2,0,
0.17604694585222727,0.3865572448781843,0.6377514110209558,0.2,-0.6655380737275857,0.682300120682093,0.2,-1.020634842993613,1.0422572355485715,0.2,-0.4144767358398581,0.4530805733646767,0.2,0.800159610864833,-0.1419221818348762,0.2,-0.00029050956544989914,0.020992754045481697,0.2,0,
0.18404907975460125,0.39286698819485244,0.6181908072282922,0.2,-0.6605215662364672,0.4503789641090161,0.2,-1.0131111027576067,0.8830424363891476,0.2,-0.41098739670385265,0.774828438054858,0.2,0.8000773230803456,0.050097687816649805,0.2,0.0003760156384841646,0.13928471900108308,0.2,0,
0.1920512136569752,0.396448297793837,0.533036275803752,0.2,-0.6583320103018414,0.583297066591458,0.2,-1.0065061640113866,0.8568976018467206,0.2,-0.4020794808309804,0.5877281838441023,0.2,0.8009611738698994,0.07410329131808668,0.2,0.0019380459385674302,0.174170624299014,0.2,0,
0.20005334755934917,0.40139556860771247,0.5122354941787082,0.2,-0.6511888131710039,0.860160011963762,0.2,-0.9994007411280592,0.8862254838500477,0.2,-0.401583745762347,0.37273541408008176,0.2,0.801262975741435,-0.17995291116743029,0.2,0.003162745627268389,-0.21452356100116365,0.2,0,
0.20805548146172315,0.40464406570069633,0.17757811835299522,0.2,-0.6445694501104212,0.5972021552798912,0.2,-0.9923265562697858,0.9103683881103649,0.2,-0.3961157142056991,0.6555398086815697,0.2,0.7980819272912205,-0.23771055575225186,0.2,-0.0014943310374511884,-0.1325122271649291,0.2,0,
0.21605761536409712,0.4042368185013604,0.3556106285471684,0.2,-0.6416335786865256,0.7399036517633863,0.2,-0.9848348469182934,0.9253214414990385,0.2,-0.3910951088234419,0.5239467720318247,0.2,0.797459606849399,0.13782149401231347,0.2,0.0010425499926295229,0.12666525283369676,0.2,0,
0.22405974926647107,0.410333835757451,0.6544014042879804,0.2,-0.632730991682207,0.9320700042832682,0.2,-0.9775214132058012,0.7879541144768173,0.2,-0.3877325658531899,0.30802955665507753,0.2,0.8002870711954175,0.21785943888804477,0.2,0.0005323130078879595,-0.15523935729462107,0.2,0,
0.23206188316884505,0.4147072409699681,0.22129322267817886,0.2,-0.6267204586179933,0.5439687305699367,0.2,-0.9722275810866643,0.9049685471959196,0.2,-0.38616663591696065,0.3305996494626026,0.2,0.8009453578716077,0.10101242134689936,0.2,-0.0014412797240844141,-0.19419691209825754,0.2,0,
0.24006401707121902,0.4138745273203019,0.4355148174200463,0.2,-0.624027491993088,0.3539536738009219,0.2,-0.9630419164506665,1.016926003102596,0.2,-0.38244297146178824,0.3044389715226962,0.2,0.8019032699369679,0.07149228732881291,0.2,-0.0025748375856841613,-0.016237612327300747,0.2,0,
0.24806615097359297,0.4216754780486888,0.673173838469019,0.2,-0.6210571998371786,0.7822073284501213,0.2,-0.9559567650370228,0.6977719007980054,0.2,-0.3812956123725975,0.4624087107058909,0.2,0.8020892344688687,-0.10941007076127607,0.2,-0.0017010815213212261,0.09419675710028168,0.2,0,
0.25606828487596694,0.4246453087358062,0.5065385469655361,0.2,-0.6115121747378861,0.41324600415850593,0.2,-0.9518775660378984,0.5995010638268905,0.2,-0.375044432090494,0.5547661160075767,0.2,0.8001527088047875,0.05048856791178835,0.2,-0.0010676894720796544,0.16033661355329296,0.2,0,
0.2640704187783409,0.4297800948001374,0.5432090938365108,0.2,-0.6144452637706425,0.35200638705627785,0.2,-0.9463647480157925,1.0290911353063175,0.2,-0.3724193545164763,0.3227227545009731,0.2,0.8028970515554573,-0.14362535177659536,0.2,0.0008643042955314614,-0.024448109939240632,0.2,0,
0.2720725526807149,0.43333665423719037,0.3364596852719441,0.2,-0.6058800725449857,1.0489280483890333,0.2,-0.9354121078729973,0.7972278585926736,0.2,-0.3698808680184784,0.33735271465111166,0.2,0.797854703176362,-0.24363900149063783,0.2,-0.0014588592311075045,-0.09338929818844344,0.2,0,
0.28007468658308887,0.4351634497644885,0.4057210152829324,0.2,-0.5976624149964179,0.5488232360404827,0.2,-0.9336091022783097,0.6591561144469599,0.2,-0.3670217110820585,0.39007155929721843,0.2,0.7989988275316071,0.2870616264867079,0.2,-0.0006299244754836337,0.19135637068219344,0.2,0,
0.2880768204854628,0.4398281904817173,0.1178928990692163,0.2,-0.5970989007683379,0.5184637522929886,0.2,-0.924865610041846,0.8627937335569519,0.2,-0.3636397230697229,0.4244723078398738,0.2,0.8024476892001493,0.01786694464604721,0.2,0.0016028426998075907,-0.005622410270401475,0.2,0,
0.29607895438783677,0.43704973614959597,0.13618268238835274,0.2,-0.5893669949597301,0.5395117583303701,0.2,-0.9198044025413985,0.6877773663565012,0.2,-0.3602301541566205,0.2994639972609923,0.2,0.7992846986459439,-0.1457805571394022,0.2,-0.0007198830398100573,0.01867448691504995,0.2,0,
0.30408108829021074,0.44200711339993093,0.5158793063814517,0.2,-0.588466712635052,0.688910937538735,0.2,-0.913861172180142,0.715526877095557,0.2,-0.35884829911354704,0.21059509975283885,0.2,0.8001152002859189,-0.11956834235495734,0.2,0.00190163449044839,-0.07801250273452938,0.2,0,
0.3120832221925847,0.4453038050516992,0.34096800026907,0.2,-0.5783444199591103,0.7486741398937957,0.2,-0.9083559725078696,0.7777271302968277,0.2,-0.3568606325605751,0.454368474553591,0.2,0.7973716051682646,0.054083554249156895,0.2,-0.0019680830835625274,-0.2835059765676271,0.2,0,
0.3200853560949587,0.44746260140423605,0.3707722184276597,0.2,-0.5764879263967513,0.3535946608630297,0.2,-0.9014175380953927,0.8118333163726899,0.2,-0.3515784035206896,0.47527340629661613,0.2,0.8009805371539054,-0.15320361745703448,0.2,-0.002634461134633643,0.3321653904323843,0.2,0,
0.32808748999733267,0.45123616054654175,0.44899307803291166,0.2,-0.5726869053853019,0.5988567232051225,0.2,-0.8953666394459066,0.7789844940644455,0.2,-0.34925625805982924,0.08614096009068942,0.2,0.794920347288952,-0.014528526664968344,0.2,0.003346563163355622,0.2710981739774451,0.2,0,
0.3360896238997066,0.45464649065276264,0.47112589267277527,0.2,-0.5669062188254693,0.4248085964768944,0.2,-0.8889537861903616,0.4970807791415538,0.2,-0.35020014815923856,0.22024851539184306,0.2,0.8007480807272659,0.1894565575161558,0.2,0.001703109649005479,-0.11514713841374354,0.2,0,
0.34409175780208057,0.45877417482930616,0.3501362749679729,0.2,-0.5658899678416716,0.2531476348109213,0.2,-0.8874133469796417,0.4844053955284297,0.2,-0.34573228181355975,0.6659237323892314,0.2,0.7979516522092105,-0.0918153572902411,0.2,0.0015042089487357253,-0.14182876993245863,0.2,0,
0.35209389170445454,0.4602486710522502,0.15744062764849048,0.2,-0.5628558566684946,0.44007944053818526,0.2,-0.8812032998619067,0.8251499287060606,0.2,-0.33954536844101085,0.42794938835683666,0.2,0.799279035010622,0.2817941822716649,0.2,-0.0005661506699138594,-0.23102440382693512,0.2,0,
0.3600960256068285,0.461293224871682,0.27861995998513384,0.2,-0.5588486967930606,0.3840930328490727,0.2,-0.8742109481203447,0.7470892503710843,0.2,-0.33888509159985036,0.26507698270149604,0.2,0.8024603591255571,-0.10967897729273479,0.2,-0.002192181512495237,0.4011937077337415,0.2,0,
0.3680981595092025,0.46470659041201234,0.13697443623694391,0.2,-0.5567103681429094,0.5233329080646665,0.2,-0.8692498718559694,0.468838402695855,0.2,-0.3353041367177869,0.287617579930708,0.2,0.7975241713739383,-0.15701924889391372,0.2,0.005852948653826006,0.2808110262543903,0.2,0,
0.37610029341157647,0.4634848158514731,0.40922971219464754,0.2,-0.5504753702640259,0.5934996809677656,0.2,-0.866709533677211,0.4190210055938018,0.2,-0.33428321032095903,0.14951480380877638,0.2,0.7999480511432545,0.11496526412984459,0.2,0.0023007949075750083,-0.16134809147199386,0.2,0,
0.3841024273139504,0.4712542658071267,0.4696169059561113,0.2,-0.5472143732474252,0.4051471371479959,0.2,-0.8625455357664685,0.5614609936135314,0.2,-0.3329118998568465,0.39004107395635906,0.2,0.7993636156000158,-0.05326834907213446,0.2,0.003271379190274104,0.009076001934893359,0.2,0,
0.39210456121632437,0.4709986863467709,0.12599672043552695,0.2,-0.543993016069658,0.503314717144876,0.2,-0.8577261577793945,0.4251982719091149,0.2,-0.3280425531376573,0.2514210535802114,0.2,0.7990957575581004,-0.002890936813507161,0.2,0.002446010938533302,0.05004983813772671,0.2,0,
0.40010669511869834,0.47327021333409514,0.12582181113696828,0.2,-0.5391613377731072,0.7030282725734651,0.2,-0.8557423634159227,0.6152388164886099,0.2,-0.3288891629995631,0.2832630367894627,0.2,0.7993173606109997,-0.30762536856567685,0.2,0.004072176600477731,-0.003280127676938963,0.2,0,
0.4081088290210723,0.4730118353249624,0.2805015110329198,0.2,-0.5327445637084826,0.2990741925652102,0.2,-0.8478823367155768,0.7582629558515949,0.2,-0.3235103445490259,0.2899247151300736,0.2,0.7941737516610495,0.14994253173429561,0.2,0.0023935288957022786,0.07811268377037167,0.2,0,
0.4161109629234463,0.47775823751062185,0.4309965009035195,0.2,-0.5343761506920638,-0.2058903284143862,0.2,-0.8436101561222972,0.5689647802427574,0.2,-0.32425036755748193,0.0002628529853360151,0.2,0.8017164411187484,0.420760740398915,0.2,0.005321979540803678,-0.09985948037877973,0.2,0,
0.42411309682582027,0.4799077793394187,0.30427802903590717,0.2,-0.5360388089631127,0.3342812076131754,0.2,-0.8387789002316927,0.22797313321055307,0.2,-0.3235061389012605,0.2853484138483145,0.2,0.8009059235074322,-0.056046508760690394,0.2,0.000795777209641803,-0.2812877058089602,0.2,0,
0.43211523072819424,0.48262668597519637,0.3800325839721681,0.2,-0.529027651370253,0.6854678352542983,0.2,-0.8399625859909283,0.5086720243475742,0.2,-0.3196847929359089,0.4563497403140479,0.2,0.8008196969785774,-0.019346738314468537,0.2,0.0008213762478603152,-0.15515264568381457,0.2,0,
0.44011736463056816,0.4859883006829734,0.1702629635870062,0.2,-0.525071323599044,0.4608135321068352,0.2,-0.8306401478421315,0.6155351143186105,0.2,-0.31620454305623574,0.30443721208116975,0.2,0.8005963756944007,0.10159011302473403,0.2,-0.00168666512129923,-0.17611918015768172,0.2,0,
0.44811949853294214,0.48535089339258847,0.1185094428066448,0.2,-0.5216546348565436,0.17069742154748185,0.2,-0.8301140241618306,0.13627566083121434,0.2,-0.3148137975426102,0.4394680132222446,0.2,0.8024451387869731,0.05131569953234494,0.2,-0.0019965306346625923,0.02445769941817313,0.2,0,
0.4561216324353161,0.4878844517678797,0.22647391767413594,0.2,-0.5223401648542843,0.16868446373934087,0.2,-0.828459737268832,0.3876310662283833,0.2,-0.30917305484467983,0.2243987373270473,0.2,0.8014174268869182,-0.21172538861587153,0.2,-0.0012953419306084599,-0.0416930333600194,0.2,0,
0.4641237663376901,0.48897447607537464,-0.08585286767006858,0.2,-0.5189556834367142,0.3515975284429651,0.2,-0.8239119271021764,0.49254342597553763,0.2,-0.31122341774537743,-0.049892056016059144,0.2,0.7990575325691192,-0.054921345434479074,0.2,-0.0026636191684229027,0.021638410624210364,0.2,0,
0.47212590024006407,0.4865108058851586,-0.02584055936104626,0.2,-0.5167146043991968,0.33830437914120215,0.2,-0.8205790424532234,0.23523409324336525,0.2,-0.3099713277409368,-0.050906993847864984,0.2,0.8005386853599665,-0.011380034315687515,0.2,-0.000949127360621094,0.36592663258889446,0.2,0,
0.48012803414243804,0.4885610271255979,0.4348682363923828,0.2,-0.5135428133704549,0.3600895567630047,0.2,-0.8201481816102826,0.13796782844832656,0.2,-0.31203792964694327,0.19257494052349333,0.2,0.7988754520200682,-0.1396666502008967,0.2,0.0031912069529994092,-0.183541266773986,0.2,0,
0.48813016804481196,0.49346869766743673,0.10212980819195722,0.2,-0.5109531714909887,-0.037164407459717996,0.2,-0.8183715571980502,0.34327842526531843,0.2,-0.3068901286925609,0.3466274350162092,0.2,0.7983040189567522,-0.11034884919346871,0.2,-0.00388578762900487,-0.1611431101384493,0.2,0,
0.49613230194718594,0.4901951040566692,-0.0317696610584485,0.2,-0.5141374438898104,-0.0754742501542921,0.2,-0.8146557268060375,0.23697210024837406,0.2,-0.3064918906866839,-0.09705547657172173,0.2,0.7971098704329727,0.13901991700112498,0.2,0.0006129171907842201,0.19750814443639161,0.2,0,
0.50413443584956,0.49296038309050155,0.2921230724873894,0.2,-0.5121607594934574,0.44963383824764974,0.2,-0.8145800035940762,0.19638092917633604,0.2,-0.30844301631770843,-0.04853223860460179,0.2,0.8005283376287702,0.1302818280385365,0.2,-0.0007256573180226039,-0.1826868161170326,0.2,0,
0.5121365697519339,0.49486907321646745,0.13603020945546565,0.2,-0.506943302477848,0.2987366061176014,0.2,-0.8115136319392161,0.3668336876855721,0.2,-0.30726840650435755,0.14578004437627162,0.2,0.7991943796815892,-0.1844333235558604,0.2,-0.0023100718670883017,0.051207268095047845,0.2,0,
0.5201387036543078,0.495136866441789,0.056259421813108224,0.2,-0.5073809737955758,0.10605637022591957,0.2,-0.8087106645911071,0.3512321370131022,0.2,-0.3061105356076881,0.24529655458589358,0.2,0.7975774044518764,-0.17967451027354336,0.2,9.365897149816164e-05,0.0192791206059129,0.2,0,
0.5281408375566818,0.4957692239654772,0.15459085687771768,0.2,-0.5052464005542333,0.3979937486278534,0.2,-0.8058939177470065,0.373653044597938,0.2,-0.30334366163098325,0.3186038961033692,0.2,0.7963195875172125,0.03166937208531895,0.2,-0.0020016059373936953,0.07279429074533407,0.2,0,
0.5361429714590558,0.4976103201518325,0.10438458242197773,0.2,-0.5010130738175301,0.1316990902219678,0.2,-0.8027322158775401,0.12584391575692216,0.2,-0.3010128732700342,0.3402119904992,0.2,0.7980841144052415,0.24052389275835973,0.2,0.0012583676234235066,0.1626129010162382,0.2,0,
0.5441451053614298,0.4974393772842288,0.056663134019488415,0.2,-0.5031392151106818,-0.014024026117290256,0.2,-0.8038804150948957,0.13826630254725608,0.2,-0.29790026978299605,-0.17298520970080583,0.2,0.8001679698013463,0.001357452309141971,0.2,0.0006002004788661161,-0.14094071239102943,0.2,0,
0.5521472392638037,0.4985169302961443,0.11354747132518231,0.2,-0.5012374582354068,0.02530951938068543,0.2,-0.800519955036784,-0.020571068524682934,0.2,-0.30378063662524707,-0.38635436826082653,0.2,0.7981058336421878,-0.5321419834596954,0.2,-0.0009966837748329642,0.08637610319270607,0.2,0,
0.5601493731661777,0.49925613682543174,0.0946330547643634,0.2,-0.5027342628005909,0.2694508395457221,0.2,-0.8042095521912906,-0.11097447479059552,0.2,-0.3040819396751693,0.16452687259718712,0.2,0.7916536980659912,0.14531682021418774,0.2,0.001982218129949413,0.12055916928896848,0.2,0,
0.5681515070685517,0.5000310591723741,0.22105404068167508,0.2,-0.4969262448026752,0.2943342698346549,0.2,-0.8022955466334335,0.3458868479839991,0.2,-0.3011482066636921,0.15820486176671908,0.2,0.8004309027656148,0.6610718751536709,0.2,0.0009322629337905314,-0.040227887877784446,0.2,0,
0.5761536409709256,0.5027930014763385,-0.017277453981265345,0.2,-0.4980249144832364,-0.2726808125484842,0.2,-0.7986753626235467,0.20841465115467583,0.2,-0.30155066188690177,-0.044498837971040234,0.2,0.8022308480684499,0.01287584938721581,0.2,0.0013385719239048621,-0.06513472474191005,0.2,0,
0.5841557748732996,0.49975461990867387,-0.21664596349192655,0.2,-0.501289137803451,-0.04905116859063238,0.2,-0.7989609122149587,-0.17693186268042532,0.2,-0.3018601880712287,0.020916473089546,0.2,0.8006369163558102,-0.010618918346534667,0.2,-0.00010989266208002938,0.1455891389936957,0.2,0,
0.5921579087756735,0.4993266660604677,0.05307416795963249,0.2,-0.4988097331806865,0.07361148190923594,0.2,-0.8015062724264335,-0.02936983906248053,0.2,-0.30121599831746904,0.13122531801714257,0.2,0.8020609453749054,-0.05095101578177219,0.2,0.003667998147803993,0.09836693078040033,0.2,0,
0.6001600426780476,0.500603806596028,-0.040671025630732716,0.2,-0.5001113540929032,-0.06417270049045506,0.2,-0.7994308296399584,0.13236290579973775,0.2,-0.29976058298295444,-0.005857760982764387,0.2,0.7998217001033019,-0.0819672656664841,0.2,0.001463978230406376,-0.11713018698980346,0.2,0,
0.6081621765804215,0.498675929650376,-0.08692624527061044,0.2,-0.4998364963885338,0.06795406976115373,0.2,-0.7993884659336377,0.11903319791640998,0.2,-0.30130972249319327,-0.176614881686514,0.2,0.8007494691242416,-0.16821458981162302,0.2,0.0017939151559671377,-0.06267439017713264,0.2,0,
0.6161643104827954,0.4992129866716982,0.17141621327508572,0.2,-0.49902408897672473,-0.1910168265955997,0.2,-0.7975262984732958,-0.24009072306053342,0.2,-0.30258642108993866,0.11640390142831497,0.2,0.7971302666663159,-0.111300876982863,0.2,0.0004611879875722536,-0.15636391088885288,0.2,0,
0.6241664443851694,0.5014185890627774,0.4257531073628071,0.2,-0.5028927656140634,-0.09320755934237937,0.2,-0.8032299175026062,-0.443597744920074,0.2,-0.2994472600703402,0.04583711650681804,0.2,0.7989686550925158,0.38047586914207593,0.2,-0.0007079074182545085,0.01596146944457506,0.2,0,
0.6321685782875434,0.5060250363895031,-0.2414683751654871,0.2,-0.5005154099262028,-0.0006113947671124165,0.2,-0.804623862392017,-0.009459677552656198,0.2,-0.3018530272258296,0.032209143877682395,0.2,0.8032178805725891,0.08766237415078204,0.2,0.0007165714986854545,0.20045526148854717,0.2,0,
0.6401707121899174,0.49755509506012957,-0.5881624485726926,0.2,-0.5029025479303372,-0.21744365061086152,0.2,-0.8033812723434487,0.15960518597831624,0.2,-0.2989319137682973,-0.18006727743313106,0.2,0.8003712530789283,-0.2326920528951601,0.2,0.002499376765562246,0.05949646595791285,0.2,0,
0.6481728460922913,0.49661443721234005,-0.06560653451223586,0.2,-0.5039945083359766,-0.15103900163387224,0.2,-0.8020701794163639,-0.04195554503878818,0.2,-0.30473410366475967,-0.30215459026682046,0.2,0.7994948077262666,-0.11099807908300507,0.2,0.0016685149540120602,0.019517634163590574,0.2,0,
0.6561749799946653,0.4965053905079338,0.026243688025711503,0.2,-0.5053191719564791,0.17137818142157202,0.2,-0.8040525610640693,-0.10258586112630447,0.2,-0.30376638721256644,0.09100231208466342,0.2,0.7985952838136002,0.0258826799479292,0.2,0.0028116589121796954,0.04346828706039386,0.2,0,
0.6641771138970393,0.49703433622075144,0.12279813967233655,0.2,-0.5012524574332314,0.049590145680941666,0.2,-0.8037115531943848,-0.2930225627689742,0.2,-0.30327806667140506,0.2028711915216981,0.2,0.7999089306054334,0.13690465789305967,0.2,0.002364007546978362,0.0616006275367513,0.2,0,
0.6721792477994132,0.4984701607426912,-0.299097551729615,0.2,-0.5045257296255841,-0.38759003179365814,0.2,-0.8087409220683729,-0.40301800584034014,0.2,-0.30052044814821927,-0.07272388238990443,0.2,0.8007857583398892,0.07486910486102782,0.2,0.003797268952767716,-0.21687449141719284,0.2,0,
0.6801813817017872,0.4922487753930776,-0.26864490047896067,0.2,-0.50745389794193,-0.10073003639129996,0.2,-0.8101598412878303,-0.16569610313129507,0.2,-0.3044416487896435,-0.4415517278150219,0.2,0.8011068362832099,-0.22569088261761155,0.2,-0.0011059843156967233,-0.18548551397882193,0.2,0,
0.6881835156041611,0.4941718423350278,0.20171940623925008,0.2,-0.5061374102078449,-0.10171772507973353,0.2,-0.8113920597184736,-0.268210262667018,0.2,-0.3075852757932596,-0.057855084054272976,0.2,0.7971747042180074,-0.25852088093849396,0.2,0.0008295007291065655,-0.13294606021917935,0.2,0,
0.6961856495065352,0.4954762858929056,-0.16156935402666592,0.2,-0.5090813815432057,-0.3999881345910228,0.2,-0.8144512054905025,-0.0838135283262112,0.2,-0.3053673301345119,0.20830246579233921,0.2,0.796970502188194,0.30584609629642073,0.2,-0.003233121279203593,0.16506136788668183,0.2,0,
0.7041877834089091,0.49158673267060116,0.013372708268104966,0.2,-0.5125372203613012,-0.34428754164379793,0.2,-0.812733076171693,-0.08843516702345539,0.2,-0.3042524363405822,-0.2187847876048525,0.2,0.8020682417587501,0.3842319630536148,0.2,0.0034704826152934746,0.2391815585508575,0.2,0,
0.7121899173112831,0.4956902492251953,-0.008398076263387705,0.2,-0.5145899822095065,0.0316055691938974,0.2,-0.8158661681628778,-0.4453193310377801,0.2,-0.30886788673618953,-0.5345168015472961,0.2,0.8031182135970518,-0.20113388011921973,0.2,0.0005937836576101269,-0.3099571812583243,0.2,0,
0.720192051213657,0.49145236345038695,-0.35648344338901417,0.2,-0.5120315312541989,0.005782407108585741,0.2,-0.8198581854682975,-0.2408676903921242,0.2,-0.3128047051653389,-0.07722865556299835,0.2,0.7988500996768426,-0.09800516616918775,0.2,-0.001488832284839714,0.05447189027856271,0.2,0,
0.728194185116031,0.48998651413097105,-0.2781262783882916,0.2,-0.5144974636957691,-0.7699217083357301,0.2,-0.8197200512091518,-0.2536431590157706,0.2,-0.3101035452251975,0.203602787549325,0.2,0.8015501309383448,-0.03332717296297,0.2,0.0014653339020671303,-0.0049150256480278535,0.2,0,
0.736196319018405,0.4870023429961743,-0.06428822103134169,0.2,-0.5243502785875706,-0.5672337364020715,0.2,-0.8239164760125498,-0.6449135155415092,0.2,-0.3095470605645497,-0.4246191257642022,0.2,0.7983168649094351,-0.1613661080407669,0.2,-0.0015674726952081596,-0.14669781162575316,0.2,0,
0.7441984529207789,0.4889579025944696,0.038019613839097854,0.2,-0.5235732034782022,0.01299336969635273,0.2,-0.830038667457816,-0.4297018254457996,0.2,-0.31689745123742474,-0.34610881734730214,0.2,0.7989682732096925,0.06909663740464062,0.2,-0.0008818310839449203,0.38722246816739053,0.2,0,
0.7522005868231529,0.48761065681759985,-0.21037714853696515,0.2,-0.5241423846724289,-0.1250673409930042,0.2,-0.8307917052196826,-0.04095339273515325,0.2,-0.31508480164210656,-0.016756918615700583,0.2,0.7994224111079093,0.24792769726392216,0.2,0.004628086795470089,0.09244013490472706,0.2,0,
0.7602027207255269,0.48559186821787814,-0.37628323580409656,0.2,-0.5255742809340903,-0.34431313568066,0.2,-0.8306939217415784,-0.28963306135740274,0.2,-0.31716556193527595,-0.23755120583755437,0.2,0.8029351163659153,0.11424328352017954,0.2,0.0005972110745307129,-0.6054308870078703,0.2,0,
0.7682048546279008,0.4815901250447343,-0.3013498627663577,0.2,-0.5296513948433195,-0.4896278604819074,0.2,-0.835425834201401,-0.6664086551554301,0.2,-0.31888562093550743,-0.2891636615092244,0.2,0.8012503036442322,-0.16219996862772146,0.2,-0.005058807396655836,0.013977287260771985,0.2,0,
0.7762069885302748,0.4807702704136164,-0.2431152039712864,0.2,-0.5334083267018008,-0.2573627577323531,0.2,-0.8413564602240653,-0.8454098019867531,0.2,-0.32179218051942354,-0.4053853380263754,0.2,0.8003399168678718,-0.05771042990407316,0.2,0.0008208476707030647,0.2570873123681805,0.2,0,
0.7842091224326487,0.4777002817811937,-0.36227029653384046,0.2,-0.5337691989670371,-0.4581004623391144,0.2,-0.8489523910331891,-0.4525286517260696,0.2,-0.32537178634392944,0.059463711342189196,0.2,0.800326936765767,-0.11008533210951632,0.2,-0.0009454103987649484,-0.34300973251994576,0.2,0,
0.7922112563350228,0.47497394566907497,-0.3260039425523574,0.2,-0.5407379340992267,-0.4443792176417882,0.2,-0.8485969186516824,-0.019656763489125928,0.2,-0.3208407611379485,-0.25107783638534525,0.2,0.7985785515541195,-0.18536755597668014,0.2,-0.0046673080496160676,0.20309872410148413,0.2,0,
0.8002133902373967,0.472484218700356,-0.2707441219191829,0.2,-0.5408792664493057,-0.0387587264928102,0.2,-0.8492668992490151,-0.84043921051076,0.2,-0.32938903172609496,-0.4475550051661718,0.2,0.7973610558701402,-0.001976451761524778,0.2,0.002304169186858798,0.2628250927136664,0.2,0,
0.8082155241397707,0.47064203971836804,-0.3825166690693063,0.2,-0.5413580737231116,-0.39260491439033207,0.2,-0.8620439460198546,-0.727966119445006,0.2,-0.32800164122060727,-0.35212824451230984,0.2,0.7985469283259351,0.17091823708578757,0.2,-0.00046210656619740526,-0.133146698715341,0.2,0,
0.8162176580421446,0.4663639519952471,-0.37809370555842714,0.2,-0.547160945079551,-0.6430926962727526,0.2,-0.8609143571601352,-0.2953490087526517,0.2,-0.3350230836382919,-0.15872772197558088,0.2,0.8000957476635128,-0.05540176484003512,0.2,0.00017382200741334215,0.1955506674918906,0.2,0,
0.8242197919445186,0.4645925404294332,0.07532451297681889,0.2,-0.5516475568634757,-0.36265365273405875,0.2,-0.866769530159897,-0.48393682496944423,0.2,-0.33054128477221656,0.04922615156859739,0.2,0.7976605000884945,-0.10607481569934601,0.2,0.0026667041136728444,-0.013295638590589201,0.2,0,
0.8322219258468926,0.4675691442028762,-0.2981440650079471,0.2,-0.552963403523296,-0.15360865177169863,0.2,-0.8686573463596463,-0.7304689645107887,0.2,-0.33423546521319436,-0.5215051927727338,0.2,0.7983985506123232,0.23397690906091367,0.2,-3.890821003608507e-05,-0.09947425613121975,0.2,0,
0.8402240597492665,0.45982223538930606,-0.5719129666126483,0.2,-0.5541052952918228,-0.503146312345569,0.2,-0.8784570335920696,-0.8035213821603882,0.2,-0.3388853678565803,-0.5429362518508674,0.2,0.8014041306334692,0.04706228459382816,0.2,0.0010751160155733283,0.05010138689800016,0.2,0,
0.8482261936516405,0.45841853673707383,-0.10937679326294275,0.2,-0.5610137445208251,-0.5243187136211649,0.2,-0.8815136884742125,-0.5674048797784589,0.2,-0.34292244524280824,-0.3102155555351205,0.2,0.7991515471658245,0.017176293643089702,0.2,0.0007627139803319175,0.030779489007644895,0.2,0,
0.8562283275540145,0.45807220669709897,-0.25662612792730005,0.2,-0.5624943947097615,-0.604881073699208,0.2,-0.887535511668525,-0.6089210984816101,0.2,-0.3438488167451422,-0.26821046504092727,0.2,0.8016789513317586,-0.041979997829261206,0.2,0.0015675878396956466,-0.17428577142138613,0.2,0,
0.8642304614563885,0.45431251869023703,-0.4731365410914415,0.2,-0.5706918417000124,-0.6535604860682178,0.2,-0.8912564260499183,-0.5530808914473717,0.2,-0.3472138126834631,-0.15550594607657495,0.2,0.7984798672005563,0.13375022629531774,0.2,-0.0020258583624102604,0.07341374339508432,0.2,0,
0.8722325953587624,0.4505020220396359,-0.14366077570407768,0.2,-0.572951362486853,-0.3104101970226522,0.2,-0.8963848059316829,-0.7014147391442224,0.2,-0.3463369118823674,-0.12874276128436307,0.2,0.8038189549524837,0.23314582452198251,0.2,0.0027422077340169956,0.004127328282614833,0.2,0,
0.8802347292611363,0.4520139462789718,-0.407554391722225,0.2,-0.5756584048523748,-0.5618584975878096,0.2,-0.9024790618762258,-0.8718571044132317,0.2,-0.3492736968640129,-0.3244110752913427,0.2,0.802210200392908,-0.3236406893102478,0.2,-0.001959821109888423,-0.0012880287533824657,0.2,0,
0.8882368631635104,0.4439811517720803,-0.4400635947729506,0.2,-0.5819410984482579,-0.7953381824417973,0.2,-0.9103345196022946,-0.6935136087148976,0.2,-0.3515274890870289,-0.510618447931075,0.2,0.7986407039235197,-0.26633770689209885,0.2,0.002721599273962876,0.06348751545856922,0.2,0,
0.8962389970658843,0.4449729287626046,-0.3297263783853671,0.2,-0.5883838157714436,-0.48707502812119635,0.2,-0.9135752796156642,-0.4920379926061022,0.2,-0.3574435920309101,-0.454253068578752,0.2,0.7979487970826344,0.22762880985136708,0.2,-0.0009440208625513156,0.1580335262051329,0.2,0,
0.9042411309682583,0.43870552971791443,-0.5766355704048508,0.2,-0.5897342988981971,-0.28002978283821894,0.2,-0.9182071274839922,-0.6846967176565091,0.2,-0.35879553818428894,-0.16606149971151382,0.2,0.8022827648811416,0.43823472315084044,0.2,0.005250135693245003,0.29089713928545313,0.2,0,
0.9122432648706322,0.43574675963612697,-0.1470872979335812,0.2,-0.5928642922968551,-0.5679048664379779,0.2,-0.9245304270981684,-0.7760608431520224,0.2,-0.3601005760262943,-0.40428926702627127,0.2,0.8049605526530479,-0.17846488382870784,0.2,0.0037103333660159347,-0.30006325282222807,0.2,0,
0.9202453987730063,0.43635213295097713,-0.28639944451579885,0.2,-0.5988207767612047,-0.6896571672847309,0.2,-0.9306241009744246,-0.8412560761489398,0.2,-0.3652641664567093,-0.6102189813062369,0.2,0.7994273267398823,-0.3271450241104437,0.2,0.00044912364808935313,-0.29672306870009035,0.2,0,
0.9282475326753802,0.4311643685238742,-0.7955774253184805,0.2,-0.6038988069734108,-0.6464392656317514,0.2,-0.9379905243165514,-1.0346604726890056,0.2,-0.3698640797271941,-0.26385408214088524,0.2,0.7997262322672808,0.1506505418018972,0.2,-0.0010372357331855113,-0.07655201752691523,0.2,0,
0.9362496665777541,0.42362289414588145,-0.5025750327858313,0.2,-0.6091638050113127,-0.4771470977227993,0.2,-0.9471786685374487,-0.7714718733892941,0.2,-0.36948583177096345,-0.4565342226704183,0.2,0.8018377354087126,0.16990886626544466,0.2,-0.0007757086323412905,0.08200988294396522,0.2,0,
0.9442518004801281,0.4231231679993009,-0.3550842379847589,0.2,-0.6115331605369756,-0.7345826504411082,0.2,-0.9503340742907801,-0.6583077113973962,0.2,-0.3771686272899208,-0.687290081832579,0.2,0.8024447741275279,-0.15268147546011052,0.2,0.00027492239391793216,0.22267232653255906,0.2,0,
0.952253934382502,0.4179415463381253,-0.2026318289540599,0.2,-0.6209171274183705,-0.8337922771588443,0.2,-0.957711591919807,-1.0492959836535878,0.2,-0.3804824730802847,-0.40476353398587184,0.2,0.7993948318013508,-0.17219059550149102,0.2,0.0027870485921796546,-0.059260067771344446,0.2,0,
0.9602560682848761,0.41988105873603593,-0.24598216880902454,0.2,-0.6248738369715171,-0.6088901576214167,0.2,-0.9671228100292375,-0.859012366258828,0.2,-0.38364484383369474,-0.26968616568645576,0.2,0.799689724599504,0.05862703262851654,0.2,-0.000673238690423579,-0.21954431190878718,0.2,0,
0.96825820218725,0.4140058316371809,-0.5394019163665748,0.2,-0.6306593699403131,-0.4404769716365789,0.2,-0.9714557897799483,-0.7225247474096502,0.2,-0.384797451731268,-0.6216994443828741,0.2,0.8003328643234071,-0.15501498945992565,0.2,-0.0007256603983609405,0.053816260720408744,0.2,0,
0.9762603360896239,0.41125062807417073,-0.4698502099855818,0.2,-0.6319214685177024,-0.6586196798894147,0.2,-0.9786832059877919,-0.8906199833230294,0.2,-0.3935920349438207,-0.35327618740351935,0.2,0.7972094847681452,0.019332461880773588,0.2,0.00018782148110296087,0.1202119917328897,0.2,0,
0.984262469991998,0.4064882282774116,-0.5865798611830383,0.2,-0.6411972848185438,-0.9146951862801511,0.2,-0.9857057095131168,-0.9822001768919827,0.2,-0.3904498707297243,-0.33358265217356753,0.2,0.8006421837134995,-0.1366073068406609,0.2,0.0011977314693652947,-0.2337409148857679,0.2,0,
0.9922646038943719,0.4018653502952421,-0.5436510814022695,0.2,-0.6465565914981848,-0.8225389126983451,0.2,-0.9943984088180636,-1.0868755576300264,0.2,-0.3989293573785978,-0.4699574203643475,0.2,0.7950237678586947,0.02136640514406596,0.2,-0.003552033157069326,-0.22549409299303716,0.2,0,
1.0002667377967458,0.3977898109749753,-0.3635276927642407,0.2,-0.6543579074217173,-0.7494603614390318,0.2,-1.0030957184351972,-0.7506694122290172,0.2,-0.3979691894555539,-0.3828521001220525,0.2,0.8009840461958045,0.33295526214189436,0.2,-0.0024101740185233,0.4040126176293085,0.2,0,
1.00826887169912,0.39604890721101427,-0.35238389873444226,0.2,-0.6585479572812093,-0.2529723553014937,0.2,-1.006409119413728,-0.7814879184551704,0.2,-0.40505499098055064,-0.47072916089014455,0.2,0.800351052052965,0.23771267956906178,0.2,0.0029121687249996104,0.061022760867192355,0.2,0,
1.0162710056014939,0.3921516685952242,-0.30449322709417276,0.2,-0.6584054651065412,-0.5147028265680073,0.2,-1.01559952513048,-1.1160779086704653,0.2,-0.4055008560297962,-0.18940088964245275,0.2,0.8047874490689095,0.08210867839577446,0.2,-0.001433809844648222,-0.30179714666789714,0.2,0,
1.0242731395038678,0.3911770155775075,-0.37460026779806765,0.2,-0.6667832025062974,-1.0089657589213776,0.2,-1.0242663659524553,-0.7072654000979117,0.2,-0.4080854052148299,-0.7284162083385053,0.2,0.8016647909072974,-0.43391404697743635,0.2,-0.0019165856216867443,0.31128779742081686,0.2,0,
1.0322752734062417,0.38615806431045513,-0.5530104868791477,0.2,-0.6745489172492832,-0.7846757689925626,0.2,-1.0269157715320465,-0.8491495085890116,0.2,-0.41715551536321227,-0.7221364656721796,0.2,0.7978448243172706,0.016863462240508664,0.2,0.0035467949140848476,0.2191630684495248,0.2,0,
1.0402774073086156,0.38232884778744114,-0.5206637309865015,0.2,-0.6793380148101784,-0.5956535725858969,0.2,-1.0378527580898795,-1.1491524930697383,0.2,-0.41963958866558476,-0.17065903022361537,0.2,0.8019346063031455,0.24128439914149896,0.2,0.0015900234735056525,-0.1872574160372059,0.2,0,
1.0482795412109898,0.3778274446146711,-0.5323408832883305,0.2,-0.6840793744106576,-0.6389976607243177,0.2,-1.0453022114211623,-1.0894638630136178,0.2,-0.4198860598467901,-0.21962008457346305,0.2,0.8017053747035345,-0.043272094010365914,0.2,0.0005506762574895536,0.06557350840417399,0.2,0,
1.0562816751133637,0.37381139365482785,-0.5867035115032504,0.2,-0.6895619773817675,-0.9203143994842913,0.2,-1.0552841798980974,-0.916779539624657,0.2,-0.42315351001876017,-0.6728625686949277,0.2,0.8012422527989796,-0.3601429996089728,0.2,0.0026391996079724363,0.10906884333927461,0.2,0,
1.0642838090157376,0.3684401884306191,-0.5682139789115227,0.2,-0.6988044048024062,-0.7072825559127152,0.2,-1.0599706840551568,-0.7158022264815989,0.2,-0.43065186094590896,-0.8569605630016977,0.2,0.795943086709791,-0.10637644109796895,0.2,0.0022957777509179473,-0.039752211570996746,0.2,0,
1.0722859429181115,0.3647199699922435,-0.38927304211479674,0.2,-0.7008784982763709,-0.5609510480088786,0.2,-1.066737015521803,-1.0046137589646564,0.2,-0.43686487902678733,-0.5482190188936497,0.2,0.7995402297414121,0.2941638876671551,0.2,0.0020031642228364884,-0.13683137253114042,0.2,0,
1.0802880768204854,0.36221181975678235,-0.3884083128488473,0.2,-0.7077796215705483,-0.5922643116280241,0.2,-1.0760445041985913,-1.0955622026642686,0.2,-0.43942336524820735,-0.4055149537806821,0.2,0.8006497089124655,0.0573608423833083,0.2,0.0001064757904197004,-0.10703214569814022,0.2,0,
1.0882902107228596,0.35850543698666193,-0.4866573439209279,0.2,-0.7103547272624193,-0.7749925013123965,0.2,-1.0842660107644313,-1.0376753980611553,0.2,-0.44335311828727825,-0.3074630257970563,0.2,0.8004580032195451,-0.0842566618404414,0.2,0.0002906498916662448,-0.09914004435687175,0.2,0,
1.0962923446252335,0.3544253022540475,-0.39135319123314094,0.2,-0.7201795015915466,-1.0448864085636291,0.2,-1.0926473105675698,-0.98993910918245,0.2,-0.44434277366096026,-0.5997550640691879,0.2,0.7993016023230184,-0.18928538038916892,0.2,-0.0014797649192902476,-0.05786503227586177,0.2,0,
1.1042944785276074,0.3522437859269317,-0.5784561859595235,0.2,-0.7270729097994374,-0.8015644937383326,0.2,-1.1001050365113505,-1.1508498875541366,0.2,-0.45294919931238525,-0.702525032710618,0.2,0.7974294371333184,0.06979779499351885,0.2,-0.0006351906247475435,0.18343541208755396,0.2,0,
1.1122966124299813,0.3451700032786951,-0.8429679509755968,0.2,-0.73300453349136,-0.48299497521186313,0.2,-1.111060908768436,-1.1566645183501283,0.2,-0.45558317418433014,-0.6706481568886612,0.2,0.8004183670429147,0.2103080486012196,0.2,0.0014552016741106158,0.36443314531557436,0.2,0,
1.1202987463323555,0.3387562987113221,-0.5681869562915547,0.2,-0.7348008294028272,-0.7771755874556793,0.2,-1.1186116688049526,-0.803743039480942,0.2,-0.46367956982260383,-0.5379662112842514,0.2,0.8007943659109379,0.056922834809867984,0.2,0.005195739700301646,-0.18824922658252902,0.2,0,
1.1283008802347294,0.33607901197803025,-0.4150969768740818,0.2,-0.7454393428906508,-1.0965484199451925,0.2,-1.123920797400131,-0.8771237934655923,0.2,-0.46419063356487816,-0.0705141635809238,0.2,0.8013291323998726,0.10200275965620287,0.2,-0.0015567859512098487,-0.35829495600582834,0.2,0,
1.1363030141371033,0.3321147470813368,-0.6846013034826139,0.2,-0.7523456041219503,-0.6957897211362293,0.2,-1.132645649500402,-0.9861734591758986,0.2,-0.4648077964398986,-0.36038938398077686,0.2,0.8024264100654371,-0.23765520727059286,0.2,-0.0005369795957916071,0.15847779763050007,0.2,0,
1.1443051480394772,0.3251253911223084,-0.5668095725548452,0.2,-0.7565719784288305,-0.5317863771566247,0.2,-1.1396995727469454,-1.122258080271027,0.2,-0.4699568637085706,-0.5824125931544709,0.2,0.7975266490835431,-0.20654395635780892,0.2,0.0009788588108781526,0.09354411816826001,0.2,0,
1.1523072819418512,0.3230457939204593,-0.2975407994663601,0.2,-0.7608541861564563,-0.7250458312909602,0.2,-1.1506017787847385,-1.0784843552587575,0.2,-0.47412639793037015,-0.6122699342018846,0.2,0.7991217067637122,-0.12829071504132789,0.2,0.0009597262949005531,-0.14258738966555645,0.2,0,
1.1603094158442253,0.32036473833084667,-0.4443380902579112,0.2,-0.7681727117294859,-0.9847544110307693,0.2,-1.1569553224310856,-1.03943058610588,0.2,-0.47975318265580075,-0.5091602924049039,0.2,0.7954739976428818,0.2504557763731083,0.2,-0.0013025394237707508,0.019811451489468158,0.2,0,
1.1683115497465992,0.3159363844763327,-0.3786262266248161,0.2,-0.7766102567329486,-0.6039148031758631,0.2,-1.1672326681624325,-1.0073820706872627,0.2,-0.4822729626088486,-0.39674194181585354,0.2,0.8031289991856819,0.2889459316492565,0.2,0.0012767095187320437,0.10028838107243172,0.2,0,
1.1763136836489732,0.3143067187048496,-0.41782898558557696,0.2,-0.7778353485802997,-0.8341026005469904,0.2,-1.1730734355620818,-0.8378681962330076,0.2,-0.4861010537248544,-0.6835170711398074,0.2,0.80009713254927,-0.1944194357173662,0.2,0.00030207467338815665,-0.033719203482255135,0.2,0,
1.184315817551347,0.3092511207069635,-0.45541397475295714,0.2,-0.7899558983417004,-0.9574975177691625,0.2,-1.1806385593021607,-1.2257061010575858,0.2,-0.49320923574708553,-0.45450317886461256,0.2,0.8000182882142041,0.28438830160665285,0.2,0.0007372022630159615,0.08052287141665126,0.2,0,
1.192317951453721,0.3070200951088023,-0.24775309736898773,0.2,-0.7931553088646063,-0.08769939254876791,0.2,-1.1926847331790031,-0.8376059931472224,0.2,-0.4933731045866882,0.09492192497873725,0.2,0.8046473453749764,0.12892981955466704,0.2,0.001590440616054577,0.22920656093628322,0.2,0,
1.2003200853560951,0.3052870711490597,-0.3261812868482379,0.2,-0.7913590886224807,-0.0797700793162201,0.2,-1.1940402551925162,-0.17356400155131568,0.2,-0.49169048494742573,-0.1392300832450677,0.2,0.8020811653270787,-0.610227428714298,0.2,0.004404507237996493,-0.12487289152098065,0.2,0,
1.208322219258469,0.3018011945192305,-0.05555740863571329,0.2,-0.7944316301336658,-0.27303692453762435,0.2,-1.1954617572038242,0.04870421932219593,0.2,-0.4956007859186093,-0.27365715599032836,0.2,0.7948837065155476,-0.03946831179517385,0.2,-0.00040752564828111325,-0.2637478167282938,0.2,0,
1.216324353160843,0.30439815261088826,-0.04788177828779147,0.2,-0.7957276794150827,0.19844166200484042,0.2,-1.193260987683361,0.13200866848421533,0.2,-0.496068999443271,-0.2606411835211764,0.2,0.801449672338356,0.253389043577322,0.2,0.0001845421703437931,0.004095249043170398,0.2,0,
1.224326487063217,0.3010350860666258,0.07741746869355942,0.2,-0.7912565635415884,-0.043405434486318284,0.2,-1.1933496185080767,0.2843726156330634,0.2,-0.4997710448549481,-0.2706383669717344,0.2,0.7989379312127848,-0.13070416740906116,0.2,-0.0003420016635903869,0.1357556092193953,0.2,0,
1.2323286209655908,0.3056368321099852,-0.09863385347493037,0.2,-0.7964221663668638,-0.039366770207827084,0.2,-1.188711025833232,0.07875120920776413,0.2,-0.5003992133148187,0.3283523846756321,0.2,0.799358405659811,0.010905641408230637,0.2,0.002356631917854118,0.31891762545972363,0.2,0,
1.240330754867965,0.29945694441102694,-0.2501785034780511,0.2,-0.7918864318649136,0.3989675248551941,0.2,-1.1920895991607525,-0.15383151007183904,0.2,-0.494517406700138,0.26738479539002713,0.2,0.7991124214753165,-0.05938842003068434,0.2,0.0047606803437651906,-0.27195163951368123,0.2,0,
1.2483328887703389,0.3016339760543364,0.17549376776597458,0.2,-0.7900386859691807,-0.07233687410790335,0.2,-1.1911723299943815,0.041314646673784594,0.2,-0.4961210565885783,-0.14269382527381386,0.2,0.79840819093932,-0.1060346302071552,0.2,-0.0019945943143647817,-0.10520441315446297,0.2,0,
1.2563350226727128,0.30226484469528253,0.09249554631863069,0.2,-0.79304382185064,-0.15875287976748614,0.2,-1.191428564813972,0.030706253129078598,0.2,-0.496800507904519,0.11627743643544478,0.2,0.797415867392002,0.2559396904318126,0.2,0.003077409733293783,0.06232690242295679,0.2,0,
1.2643371565750867,0.3031139047954345,0.0392576527701409,0.2,-0.7925787320454605,-0.18853914973366442,0.2,-1.1906810299443162,0.08688795026033647,0.2,-0.4942606176056112,0.14534812435392994,0.2,0.802503225986229,0.44041811817776416,0.2,-0.000997363875597473,-0.24817197179549297,0.2,0,
1.2723392904774609,0.3028929671396048,0.1390839621331734,0.2,-0.7960604482463787,-0.11434745795923379,0.2,-1.1900383576098066,-0.18679299724551346,0.2,-0.49447493791485614,0.017894267622761695,0.2,0.8044625572828462,-0.04369280790268021,0.2,-0.0008933418154341041,0.13687853117600074,0.2,0,
1.2803414243798348,0.30533924818956526,-0.0075589096812690715,0.2,-0.7944082913728082,0.3229489913780109,0.2,-1.1936697179002445,-0.10267963846576078,0.2,-0.493974309323647,-0.15624087647348947,0.2,0.8018041410597861,-0.2990602222029126,0.2,0.001192692623218539,-0.004966527815321167,0.2,0,
1.2883435582822087,0.3027720245847045,0.019779142716822018,0.2,-0.7908932643843305,0.04995307030995766,0.2,-1.1916812318252588,0.23864879708507258,0.2,-0.49697479193843197,-0.3146820445651711,0.2,0.7996775937275996,-0.45690636344295626,0.2,-0.0009728062604792428,-0.07432106294258173,0.2,0,
1.2963456921845826,0.3056557144730344,0.01825831239877368,0.2,-0.7936090422478489,-0.05440500394270076,0.2,-1.1898513371468833,-0.0792777601962974,0.2,-0.49900922203668974,-0.16240602659071263,0.2,0.7944936392446988,0.13922047549674854,0.2,3.5556161372315355e-06,0.09902953344082811,0.2,0,
1.3043478260869565,0.30306415758308486,-0.11121824344435469,0.2,-0.7917637444474137,-0.0003078949277410259,0.2,-1.1929496759883995,-0.2958034958780026,0.2,-0.49957328836388337,0.18626709900898888,0.2,0.8019051213355476,0.480620088813985,0.2,0.0006116662745740072,0.1471963994744142,0.2,0,
1.3123499599893307,0.30387622257792474,0.23541508470263997,0.2,-0.7936139685666928,0.028207399312502046,0.2,-1.1945841930809313,-0.037453284229202466,0.2,-0.4960289484525459,0.19247065916390416,0.2,0.8021835606657226,-0.03664666037568598,0.2,0.002358698007727859,-0.17104106994415819,0.2,0,
1.3203520938917046,0.3068307989383271,-0.06805210463480676,0.2,-0.7913124260584137,0.22668619628889164,0.2,-1.1935489285360668,0.21797554107659545,0.2,-0.4964937578172609,0.1456232461325077,0.2,0.8013187747695366,-0.409514054697295,0.2,-0.002124990844532524,-0.21830000797309007,0.2,0,
1.3283542277940785,0.30278738890376783,-0.04770015168318112,0.2,-0.7899869894260705,-0.01624675297232786,0.2,-1.1910965844237058,0.035841294842672844,0.2,-0.4936989765144258,0.0738225663592558,0.2,0.7956313357905659,0.0022326493787014345,0.2,-0.0011341021198415819,0.22118746152017144,0.2,0,
1.3363563616964524,0.3060675965113962,-0.11578822782103496,0.2,-0.7915723741059709,-0.3420646604197844,0.2,-1.192975467818584,-0.18874561440376803,0.2,-0.4953125967555128,-0.13229766142763139,0.2,0.8013544971595958,0.24057111736754816,0.2,0.0014140085397902193,0.13786709047319384,0.2,0,
1.3443584955988264,0.30093477725863127,-0.1103766715499152,0.2,-0.795460023992787,-0.2625735433912785,0.2,-1.194116514254166,0.06734322062550147,0.2,-0.4958157390972679,-0.019359300234774585,0.2,0.7994804736684467,-0.041354715362693084,0.2,0.0010717713277295195,-0.2655371069995729,0.2,0,
1.3523606295012005,0.30430156976659756,0.2212344415259901,0.2,-0.7957735508002314,0.02766866800452128,0.2,-1.191897976288576,0.221479813532946,0.2,-0.4956223455592692,-0.07844067376325259,0.2,0.8006928217137927,0.023428438699062137,0.2,-0.0028345851722029465,-0.06947888307157357,0.2,0,
1.3603627634035744,0.3044745283230471,-0.0620321162792363,0.2,-0.7950173253047147,0.02376346531118151,0.2,-1.190572837237639,-0.10775269936091902,0.2,-0.49707078987747993,-0.018378907008807788,0.2,0.7998553286876317,0.012748662113239162,0.2,-3.989080141565764e-05,0.11200938216965788,0.2,0,
1.3683648973059483,0.3033090559061298,0.14645938969488903,0.2,-0.7953933353552525,0.28142952613059713,0.2,-1.1936220194783507,-0.1130909056258067,0.2,-0.49591640807141013,-0.10949794896841086,0.2,0.8008968003076046,0.08666097401733436,0.2,-0.0010424350574884205,0.12876147761364332,0.2,0,
1.3763670312083223,0.30681787855816534,0.08848732928902481,0.2,-0.7905144528866251,-0.03648992957331482,0.2,-1.1923822917276519,-0.10412269968698706,0.2,-0.4988227570609745,0.018270969183675073,0.2,0.801241904271909,0.07005130989112124,0.2,0.0020202928404026354,0.23616628424638386,0.2,0,
1.3843691651106962,0.3047248531747542,-0.1740699646490193,0.2,-0.7959771742284255,-0.22409112881363602,0.2,-1.1952879826733425,-0.16932904294358897,0.2,-0.49562407256447133,0.04901246776103582,0.2,0.8020176212658625,0.01273124025987643,0.2,0.0027362254904537216,0.0013750634184828332,0.2,0,
1.3923712990130703,0.304032759123781,0.10890314570820639,0.2,-0.7940999109476433,0.20916572169495107,0.2,-1.1950915564147493,0.2619951786032998,0.2,-0.49803855757679794,-0.1534413718260602,0.2,0.801445604116067,-0.17584491559517051,0.2,0.0020422938550983608,-0.15196372052371995,0.2,0,
1.4003734329154442,0.3064673035060855,0.0804214735018044,0.2,-0.7926305226813063,-0.20906344709061692,0.2,-1.1910960598156897,0.1377063925706301,0.2,-0.4980791345136883,0.18768124173215023,0.2,0.7992041026163398,-0.03518976739306373,0.2,0.00030480596207420243,-0.26692835433922,0.2,0,
1.4083755668178182,0.3053195026998099,0.04556084386496406,0.2,-0.7974449261010932,-0.10416355023901147,0.2,-1.1928882541336192,-0.21948820109024547,0.2,-0.49503565770908353,0.09802264685532941,0.2,0.800882567837778,0.01189241194685109,0.2,-0.002228559814329159,-0.10511342699653017,0.2,0,
1.416377700720192,0.3071962770079249,-0.1934260146862453,0.2,-0.7942971394851305,0.1863313480633469,0.2,-1.1946078710331336,0.09140742179812589,0.2,-0.496510772164003,0.030768769883050134,0.2,0.7993943812074894,0.05153319682402874,0.2,-0.0013770088698702803,0.17576250513316677,0.2,0,
1.4243798346225662,0.30222468646483,-0.2604290209777919,0.2,-0.7944636245320796,0.18243526471241334,0.2,-1.1914257353848492,0.330227799494473,0.2,-0.49454335739095473,0.21826472845044506,0.2,0.8017070989869625,0.1440962261299028,0.2,0.0005836402678015094,0.12002753524576226,0.2,0,
1.4323819685249402,0.30302941267228023,0.019488707988908616,0.2,-0.7913781752497319,-0.03876625024921976,0.2,-1.189324226241222,-0.14857123959553797,0.2,-0.4930185365087959,-0.18814174731626374,0.2,0.8016999208255678,0.026944866755744534,0.2,0.000543431694061916,-0.12351330868085451,0.2,0,
1.440384102427314,0.3025365057926525,0.00849072135841386,0.2,-0.7950838845360672,-0.17649442801410953,0.2,-1.1938028752183778,-0.0030768809687886645,0.2,-0.49755362534801495,-0.25944980215879265,0.2,0.8021382168550544,-0.06811239153983739,0.2,-0.0013925726710921629,-0.10351858469388178,0.2,0,
1.448386236329688,0.30316526421401485,0.27348254292739943,0.2,-0.7942020860979576,0.2376971956703916,0.2,-1.1893734563367226,0.19064636712784466,0.2,-0.4971697333433366,0.111001610988707,0.2,0.8006101225609304,-0.12748387968965907,0.2,-0.0011128656610401924,0.17864721855118754,0.2,0,
1.456388370232062,0.3069122264794909,0.09937940395051206,0.2,-0.7912807294053409,-0.006544076865996895,0.2,-1.1907525333443323,-0.019965654918643883,0.2,-0.49577759957219564,-0.0192866558709065,0.2,0.8000984747800198,-0.005378242167959624,0.2,0.0014657828257268377,0.39107278949849766,0.2,0,
1.464390504134436,0.30475533467722304,-0.2325012008022355,0.2,-0.7943067913278136,-0.10053357716399008,0.2,-1.189692906815421,-0.2260567474435815,0.2,-0.4974783198372711,-0.029108334397863478,0.2,0.8005240706862431,0.019988050171053373,0.2,0.00514429897093577,-0.30566488632557504,0.2,0,
1.47239263803681,0.30319220726665513,-0.2994519078403264,0.2,-0.7928892666399647,-0.15445138900677113,0.2,-1.1943694413034296,-0.37773247892634865,0.2,-0.49624333292256145,0.16669985654615624,0.2,0.8004182835827567,-0.05048098663471001,0.2,-0.003424855355482363,-0.42102582878853756,0.2,0,
1.480394771939184,0.2999641041517778,0.155351922004731,0.2,-0.7967780135519219,0.011086762311367238,0.2,-1.1957366264782425,0.07752705233354806,0.2,-0.4948111221325326,-0.07674927133913614,0.2,0.7997163749000877,0.011152034838743385,0.2,-0.0015921142896808307,0.35735632038326764,0.2,0,
1.4883969058415578,0.30567783801873083,0.30348345991073816,0.2,-0.7927118784429829,0.15301594168616595,0.2,-1.1931290084660928,0.16765518443462302,0.2,-0.49747132126398763,-0.13979396844706823,0.2,0.8005967161401766,0.06544567472853424,0.2,0.002292845770649919,0.15019962352377964,0.2,0,
1.4963990397439317,0.30481983951034963,0.023499096299867128,0.2,-0.7943297584849432,0.022439757015553508,0.2,-1.1930541435272886,-0.15648731024606177,0.2,-0.4970478256276857,0.1148549520220074,0.2,0.8007635056957443,-0.1890085742620451,0.2,0.0008110796866996438,0.20621018191348667,0.2,0,
1.5044011736463059,0.3060538235595287,0.07417941748520326,0.2,-0.792352842330734,0.231308687850873,0.2,-1.1956328054300298,0.13435998492362933,0.2,-0.4956336420316355,0.03761476281206183,0.2,0.7975725789519839,0.07165437442238631,0.2,0.005592208681265706,-0.031151259477809532,0.2,0,
1.5124033075486798,0.3060067101901129,0.07137172402267924,0.2,-0.7906288194793293,-0.19972642955815023,0.2,-1.1909043837685105,0.21274959956145423,0.2,-0.4964459894226927,0.030718418992339847,0.2,0.8019099756865025,0.020469557044031084,0.2,0.00031265953505469127,-0.3070581992540251,0.2,0,
1.5204054414510537,0.30719577114389157,-0.27993167206614294,0.2,-0.7955484652036644,-0.23177178206983812,0.2,-1.1922288118370465,-0.12585605476961303,0.2,-0.4951421473277581,0.054259526515110235,0.2,0.7979000918646884,-0.09841892327799862,0.2,0.0006792774932013045,0.02370481440044838,0.2,0,
1.5284075753534276,0.3015278034370546,-0.13370398016332788,0.2,-0.7943371679924467,0.16879220423329788,0.2,-1.1929180806448243,0.14524552139653923,0.2,-0.4955778369984509,0.11468338738136394,0.2,0.8003352729140545,-0.03822777180131215,0.2,0.0006919365654618654,0.13244734384646634,0.2,0,
1.5364097092558016,0.3050565074612783,0.3055109000853068,0.2,-0.7928477899359316,0.02514765487844628,0.2,-1.189904883494702,0.045659579185786114,0.2,-0.49330721312965625,0.2782005646701155,0.2,0.7972884475158674,0.028077531959061486,0.2,0.0027984349947447655,-0.2073723869159442,0.2,0,
1.5444118431581757,0.3064159778384195,-0.08361948219698725,0.2,-0.7939348055143916,-0.4847215718302225,0.2,-1.1921875273778517,0.03691900766299161,0.2,-0.4911266279637291,-0.17287605095232805,0.2,0.8007845134253995,0.1683636851811665,0.2,-0.002626021625193242,-0.42387708725968454,0.2,0,
1.5524139770605496,0.30371859574612653,-0.18032505343087632,0.2,-0.8006033350852152,-0.022742078438463265,0.2,-1.189314179372094,0.032798776343240243,0.2,-0.4960732299448935,-0.35542062215422954,0.2,0.799982266478766,-0.05641237040240887,0.2,-0.003983598401410187,0.1737767261839046,0.2,0,
1.5604161109629235,0.3035307769835255,-0.005209223970684823,0.2,-0.794298678769407,0.5619070769606743,0.2,-1.1916627469563599,0.02763651821945101,0.2,-0.49681335791819675,0.16021054855591688,0.2,0.7998819154989609,-0.03401411187085174,0.2,0.0001544059937492319,0.15348781918703483,0.2,0,
1.5684182448652975,0.3036352481625956,0.20215446270136286,0.2,-0.7916128218538444,0.08407458076001295,0.2,-1.1888719950805828,-0.009281999355417736,0.2,-0.49350986116799883,0.05872027849151973,0.2,0.7994380406888324,0.17792811435111272,0.2,-0.0015277932944176295,0.12323503210299146,0.2,0,
1.5764203787676716,0.3067652483867473,-0.0630609961347478,0.2,-0.7929534854772468,-0.3143635806453146,0.2,-1.1918112589460466,-0.3180875994328036,0.2,-0.49587383346233244,-0.07436097120700966,0.2,0.8027287653285787,-0.11988301147831254,0.2,0.0021261665073970953,0.21696926528675015,0.2,0,
1.5844225126700455,0.3026262722244396,-0.07670834106919544,0.2,-0.7966426391441694,-0.06634224694960361,0.2,-1.1939613966715077,-0.32877462913728783,0.2,-0.494699636707311,-0.07013192080605399,0.2,0.7975199125051794,0.056898457611143094,0.2,0.0019437149501703732,-0.07207494814871737,0.2,0,
1.5924246465724194,0.30553791492964016,0.10018422872250937,0.2,-0.7940149614284404,0.10218217384671407,0.2,-1.1970716530122432,0.13191992617823944,0.2,-0.4969959441952293,-0.22667905289814466,0.2,0.803639140650357,0.0911295619683214,0.2,0.0009729673370176173,-0.0573306718695701,0.2,0,
1.6004267804747934,0.30422921988399976,-0.1818909838988865,0.2,-0.795007724362622,0.00837212448377006,0.2,-1.1918506778526559,0.3707178248480436,0.2,-0.4983265015536813,-0.10247507302107994,0.2,0.7989779854966725,-0.12164208637582136,0.2,0.0010264242002572515,-0.2375214721834331,0.2,0,
1.6084289143771673,0.302627659187258,-0.012981998110582482,0.2,-0.7938810074367001,-0.11682215622087905,0.2,-1.1911401678146745,-0.14044982058750155,0.2,-0.4986355453635666,0.09685404986852983,0.2,0.8016928672683439,0.026580556837026148,0.2,-0.0028273762179173126,0.0951272370655082,0.2,0,
1.6164310482795414,0.30402150791423044,0.07520021864112353,0.2,-0.7968768788621561,-0.2719496819198336,0.2,-1.1940978749820559,-0.12547556398632975,0.2,-0.4967768367557848,0.10891078806467974,0.2,0.799403274406065,-0.35340862080199265,0.2,0.0025484599933053827,0.11226847377069764,0.2,0,
1.6244331821819153,0.30383086268551596,0.0967622994280902,0.2,-0.7982322023474174,0.2791320159561267,0.2,-1.1931477768384557,0.1788501590435504,0.2,-0.4968929727545317,0.17798164205150638,0.2,0.796038329335512,0.005029757838913296,0.2,-0.0010310806375861503,-0.24283995239026734,0.2,0,
1.6324353160842893,0.3055697047050799,0.0032416855442127246,0.2,-0.792410766606858,0.09251612287134586,0.2,-1.191236272437359,0.13386015854807698,0.2,-0.4939291304829607,0.21787344232931938,0.2,0.7994837505314876,0.24844470158321558,0.2,-0.001336979244938895,0.013632993571567461,0.2,0,
1.6404374499866632,0.30388272965422336,0.058109646526458,0.2,-0.7967519443814759,-0.07095253157253512,0.2,-1.1910060143016865,-0.033258868573873834,0.2,-0.4934069976772626,-0.30814114694670963,0.2,0.8000134445608434,0.002185799661234833,0.2,-0.0008129527404410709,-0.07570884600542971,0.2,0,
1.648439583889037,0.3064994590495032,-0.01682512160836383,0.2,-0.7935460071120186,0.21026286922985055,0.2,-1.191768414334541,0.07459593494038574,0.2,-0.4988593888341081,-0.08472869367659105,0.2,0.7995187233260673,-0.10586213420958612,0.2,-0.0025483207810257703,0.20872304922345264,0.2,0,
1.6564417177914113,0.30361352770848954,-0.06026077683478001,0.2,-0.7933877384737983,0.18069409118458973,0.2,-1.1898124793426403,-0.12032233438150075,0.2,-0.49476265677608805,0.17172725446707587,0.2,0.7983196504134901,0.0778527673611154,0.2,0.0025266160471341713,-0.08053239959720812,0.2,0,
1.6644438516937852,0.30553528662014673,-0.09909578196038576,0.2,-0.7906549016530652,-0.08412083281621185,0.2,-1.193693571684645,-0.022432758954540888,0.2,-0.49611175276263486,-0.17577458524751025,0.2,0.8007643676038452,0.1812989843912663,0.2,-0.0038368391745811003,-0.2996905017277896,0.2,0,
1.672445985596159,0.30202799519712337,-0.00813076599301063,0.2,-0.7947336717988577,-0.28183038094595214,0.2,-1.190171403485913,0.34735932909184253,0.2,-0.4975750501400482,0.0510205532560995,0.2,0.8012204341637503,-0.21804762498244673,0.2,-0.0022684319805104623,0.33289758417402127,0.2,0,
1.680448119498533,0.30540519436425856,0.024411591911722985,0.2,-0.7951641877482004,0.04481855739088547,0.2,-1.1881358224191756,-0.020974364743506224,0.2,-0.49529542391053727,0.3104272735463785,0.2,0.797275605604126,-0.161966126688097,0.2,0.0014895221722032409,0.051229627660777065,0.2,0,
1.6884502534009072,0.30241858066771093,-0.018314603140483915,0.2,-0.7940165748806035,0.342120570265482,0.2,-1.190506993321809,-0.19742605128166002,0.2,-0.49260821376330616,-0.028426020937739188,0.2,0.7986289761367408,-0.057161606853935176,0.2,-0.0014487579379380293,-0.017489738529858724,0.2,0,
1.696452387303281,0.3051121607140108,0.1401652469928058,0.2,-0.7896902586239527,-0.1693466005816338,0.2,-1.1912946392396822,-0.1986704377577586,0.2,-0.4957502402455411,-0.25972166576912825,0.2,0.7963610198944631,0.05063713278200682,0.2,0.0012096863557255013,0.029539227629102344,0.2,0,
1.704454521205655,0.3046612246195958,-0.13399595575191992,0.2,-0.7967261204899097,-0.3271649435786228,0.2,-1.1936857203259332,-0.1774546732913329,0.2,-0.4967637604156122,-0.033534921763667125,0.2,0.7994391702612529,0.2708376867812737,0.2,-0.0009761302958723918,-0.1913928171743878,0.2,0,
1.712456655108029,0.3029682254219801,0.1456738320641561,0.2,-0.7949248977212107,0.1454639628229587,0.2,-1.1941339140123435,0.26854507419202256,0.2,-0.49628679899375977,-0.05611615088855354,0.2,0.8006944228829634,0.2339797956905712,0.2,-0.0018525987190647038,0.0950996039851992,0.2,0,
1.7204587890104028,0.3069920059326223,-0.1393258375623485,0.2,-0.7943986970847423,0.03576399706591016,0.2,-1.1893889991388609,0.05191719996536226,0.2,-0.49766161882982907,0.015767400083185196,0.2,0.803182846992302,0.1659769645179776,0.2,0.0005454633678907956,-0.044559517642253896,0.2,0,
1.728460922912777,0.3007390120209825,0.05403247180282497,0.2,-0.7943526737681561,-0.12639815299300694,0.2,-1.1933032388128977,0.04065909456725525,0.2,-0.4960345205924288,0.08263533885372737,0.2,0.8033500543152511,-0.278346147745169,0.2,-0.002565551001340766,-0.04860838221397285,0.2,0,
1.736463056815151,0.3078565254814675,0.10644597937695469,0.2,-0.7964210675326304,-0.10881042540242247,0.2,-1.1887384536257848,0.06175364520365212,0.2,-0.49633945340816943,-0.006852115889736943,0.2,0.7987293086283793,-0.20131783162927186,0.2,-0.0002322707475327701,-0.1245888759769923,0.2,0,
1.7444651907175248,0.3024421476910138,-0.047354842917152196,0.2,-0.7960936405745949,0.3205002725352596,0.2,-1.1923151804896392,-0.12612340498957542,0.2,-0.4961441544466646,-0.03362954691321293,0.2,0.8001289690091827,0.08317814189797573,0.2,-0.004558973016972643,-0.010082692542852822,0.2,0,
1.7524673246198987,0.3070988479947931,-0.036667681830870186,0.2,-0.7912930631720663,0.15746554870887247,0.2,-1.190756428105618,-0.07782919062893079,0.2,-0.49687752615878084,0.014095085110958638,0.2,0.8000601588987469,-0.1060768166359638,0.2,-0.00039359382821841526,0.2992886967868405,0.2,0,
1.7604694585222727,0.3018554647817199,-0.16364727247389008,0.2,-0.7935741917952529,0.021220898630096297,0.2,-1.1935604475397021,-0.1505798627299687,0.2,-0.49591863308488926,0.07913628693845265,0.2,0.7984317399430073,-0.009559764720667996,0.2,0.00022964613161680477,0.017080964727460048,0.2,0,
1.7684715924246468,0.30448049163521085,0.08536006090385101,0.2,-0.7909535287939847,0.23523090217135445,0.2,-1.1931657059092975,0.21366064855059264,0.2,-0.4956113455677656,-0.1172891845326561,0.2,0.7999072026632162,0.15116273387806578,0.2,-0.00012029839257905449,0.009452607334220462,0.2,0,
1.7764737263270207,0.3032212257561815,0.27556981615723536,0.2,-0.7898104973605112,0.09821095890279186,0.2,-1.1901418771628927,-0.1034827391593468,0.2,-0.49779526003741176,-0.2501558206303711,0.2,0.8008503436850564,-0.07670150005728571,0.2,0.00038088784896433216,0.0029912661633098047,0.2,0,
1.7844758602293946,0.3088896086937266,0.020443428550006443,0.2,-0.7893821534515401,-0.1262446305675749,0.2,-1.194821429735847,-0.2641348489632045,0.2,-0.49961383869785153,0.08175156792225233,0.2,0.7986799786622997,-0.1322686016267116,0.2,-7.243813396609761e-05,0.05046903543584235,0.2,0,
1.7924779941317686,0.3035483206129816,-0.2549712423191783,0.2,-0.7918304114495924,-0.14013332779789361,0.2,-1.194368034746304,0.23170143409805,0.2,-0.4964872349506557,0.1751266859838646,0.2,0.798734046059029,0.3142511174298729,0.2,0.0011883924159378097,0.05407179701621803,0.2,0,
1.8004801280341425,0.30481006881661976,0.029518062971741615,0.2,-0.7916242866963064,-0.015542875548606172,0.2,-1.1911142067902782,0.0684964061315324,0.2,-0.4968118117221097,0.026759559760707735,0.2,0.8037079965411776,-0.0383011628034835,0.2,0.0007927106182933908,-0.168882763546013,0.2,0,
1.8084822619365166,0.30402060962052946,0.03761814894717025,0.2,-0.7920790974583701,-0.009747567975219862,0.2,-1.1932720922481994,-0.17736211547546288,0.2,-0.4960590819944844,0.07217699983333437,0.2,0.7981212274541732,-0.08010717547906471,0.2,-0.0015137318007983987,-0.15957020124627785,0.2,0,
1.8164843958388905,0.3054119591997745,0.08302220317651585,0.2,-0.7917802477839099,-0.15575884428267045,0.2,-1.1939520006378856,0.2670495096825931,0.2,-0.49565697972477635,-0.10670144147893745,0.2,0.8024262817335126,0.14061882762226446,0.2,-0.0017604126016470547,0.2966234515841612,0.2,0,
1.8244865297412645,0.3053489648713537,-0.29029156763902414,0.2,-0.7945712389668929,-0.27575742129298114,0.2,-1.188999300093278,0.3111686548307596,0.2,-0.4977663050581474,-0.05915882659549357,0.2,0.8003711286961295,-0.1752008480207512,0.2,0.003232243424548181,-0.1371725350815604,0.2,0,
1.8324886636436384,0.3007672941175501,-0.26947997279788694,0.2,-0.7961923665245976,-0.12210319464586727,0.2,-1.1889733021605935,-0.09150461078709371,0.2,-0.49660352095030424,0.2448159456158519,0.2,0.7996230681651806,0.0881591871166737,0.2,-0.003955173162952021,-0.3180856726231122,0.2,0,
1.8404907975460125,0.3010372853065875,0.2916991802066164,0.2,-0.7965248900812267,0.29274881440398415,0.2,-1.1904633738658714,-0.23631416429162333,0.2,-0.49384924992829377,-0.044858697573091355,0.2,0.8017816756899963,0.0155030281179247,0.2,-0.001857127337421615,0.24261054798794962,0.2,0,
1.8484929314483864,0.30543448100085596,0.18525696311374323,0.2,-0.7915083854941338,0.15660598335948128,0.2,-1.1927543287892595,-0.19330926084921984,0.2,-0.4973212601114737,-0.15204550766470537,0.2,0.7998711166150674,-0.2102698375437001,0.2,-7.340439514482713e-05,0.07640446220975652,0.2,0,
1.8564950653507604,0.3040013967164074,0.151125757116094,0.2,-0.794019194347475,-0.19025138682212533,0.2,-1.193556322039459,0.019618895553574767,0.2,-0.49628197805092905,0.3181093004047987,0.2,0.798417358289297,-0.3518113899350431,0.2,-0.0006346559420655107,-0.020857170564349287,0.2,0,
1.8644971992531343,0.30785249311471347,0.05394657917512369,0.2,-0.7945524076832878,-0.07603038708555582,0.2,-1.1924404264604023,0.11862067480546135,0.2,-0.4922315113049969,0.06797826932139484,0.2,0.7942421343761067,0.16854422607128633,0.2,-0.0004071191241744157,-0.007655902468644364,0.2,0,
1.8724993331555082,0.3048645419832094,0.08004415453975039,0.2,-0.7952356805408439,0.10686784621073003,0.2,-1.1916583912425716,0.006191644209646574,0.2,-0.49519432574178673,-0.3229574733050293,0.2,0.8011140659064376,0.4469352363116949,0.2,-0.0007571503815638205,0.21777278294689684,0.2,0,
1.8805014670578823,0.30913319958734947,-0.14783339290967007,0.2,-0.7928425221439162,-0.17476050179852237,0.2,-1.192341360153048,0.1375840097533193,0.2,-0.4973988308778774,-0.28681885877485797,0.2,0.8013930981570938,0.09688513537574328,0.2,0.003077245402975934,0.057971486222314836,0.2,0,
1.8885036009602563,0.30249920769665467,-0.29473420313196397,0.2,-0.7980318485696203,0.05493443136723314,0.2,-1.1894570470865184,-0.07925511526807316,0.2,-0.49978342748218446,0.2140162041694045,0.2,0.8026642280724495,-0.2449709806624581,0.2,0.00017039339799321688,-0.08020618114386902,0.2,0,
1.8965057348626302,0.30441745233723805,-0.060293532938057726,0.2,-0.7919635712420404,0.150817855088331,0.2,-1.193609441997337,0.00401032735081186,0.2,-0.4939745716111669,0.33404103413060826,0.2,0.7974735624664945,-0.3205810041948323,0.2,0.0017939465046740298,-0.048510932073533936,0.2,0,
1.904507868765004,0.30153451116964575,0.21458547048600063,0.2,-0.795618762888207,-0.04711004268975749,0.2,-1.1893928818489055,0.05112159564289731,0.2,-0.49443877093609473,-0.022744422912657908,0.2,0.7975349320053322,0.23364821674961428,0.2,-0.0006057815151833261,-0.2588757005618654,0.2,0,
1.912510002667378,0.30785081986501406,0.19407737495277105,0.2,-0.7927173319250765,0.02484893438915725,0.2,-1.1927914964670507,-0.2673448287354163,0.2,-0.49433848237776945,-0.21537525731955137,0.2,0.8012119339344883,0.3444979244044341,0.2,-0.0023480647043158166,0.1392244094460692,0.2,0,
1.9205121365697522,0.3046397491688901,-0.3043582516927615,0.2,-0.7952211799379805,0.16158205091738875,0.2,-1.1936703991086721,0.28924495003125605,0.2,-0.49788477505320755,0.08802951585340155,0.2,0.8030468987958032,-0.15566427797618354,0.2,0.0016218090359537808,0.13094036242218438,0.2,0,
1.928514270472126,0.3029810878379299,-0.03359277312168715,0.2,-0.7901320191103983,0.01780848789298406,0.2,-1.1881635772665506,0.034559746580162254,0.2,-0.492930010124115,0.09381917840472348,0.2,0.7987213054868694,-0.043818855996725914,0.2,-0.0002530189055608667,-0.0009111728149679212,0.2,0,
1.9365164043745,0.3041022647989431,0.07409546989556662,0.2,-0.7949362441316927,-0.28551153758373665,0.2,-1.1931174431633895,-0.25566669241551543,0.2,-0.496383668198732,-0.4552585911399183,0.2,0.8023457970998555,0.04961254769082074,0.2,0.0016072302709142941,0.013731496186116863,0.2,0,
1.944518538276874,0.30416661535625894,-0.01724605477071081,0.2,-0.7947002037117381,0.26975459378948685,0.2,-1.1922542443451989,0.2156507901020649,0.2,-0.5002141475823537,-0.05256028749164171,0.2,0.7995151062499225,-0.16788297546684733,0.2,-3.33149665829969e-05,-0.358804187169393,0.2,0,
1.9525206721792479,0.3038263279226117,-0.0050561339130714145,0.2,-0.7906201706310609,-0.030097702865612697,0.2,-1.1896670305217565,0.02218625560185261,0.2,-0.49722463279859824,0.5656661104967465,0.2,0.799659669492386,-0.157346021847464,0.2,-0.004133636723795994,-0.061676335408725816,0.2,0,
1.960522806081622,0.3040857172136498,-0.004308990533680862,0.2,-0.7951817669575879,-0.2514613664444387,0.2,-1.1918992642555692,-0.2957384871821178,0.2,-0.4911634898144058,-0.2112274084213224,0.2,0.7969975699003631,-0.06643752333319874,0.2,-0.0010201363331226098,0.22342721988388525,0.2,0,
1.968524939983996,0.3037573840740728,0.07194847084048342,0.2,-0.794643552494172,-0.05690694532853313,0.2,-1.1943988463166704,-0.045641478269575764,0.2,-0.5006042713333394,-0.33372881890857475,0.2,0.7985966691190548,0.21830459385207418,0.2,-0.0005588012056538296,0.17014307040666,0.2,0,
1.9765270738863698,0.30523689274709753,0.14105369968483647,0.2,-0.7960922780828444,0.08992877312603842,0.2,-1.1926295279078825,0.13561182959000162,0.2,-0.49650315091694297,0.43905281223348064,0.2,0.8004904434019963,0.1771134541710892,0.2,0.0017021527933839499,-0.05433073234490775,0.2,0,
1.9845292077887438,0.3060142432690302,-0.32660003699179135,0.29582301033033903,-0.7932046921241553,-0.06452867510875482,0.5628424400101586,-1.1922290570432303,-0.0121001887591482,0.4445989636606937,-0.4935794263376037,-0.09601817974747712,0.2,0.8014304843857922,-0.04401077245352186,0.2,-0.0014280929231723536,0.03331618909786088,0.2,0,
1.992531341691118,0.30001129215522887,12.087042704873753,0.6193059901940968,-0.7971247368845845,18.41010756190622,0.9294727440090151,-1.1928231309280288,24.282469667821264,1.2272251297136534,-0.4980394417929026,12.205770714301043,0.6249215556743621,0.7997862710427399,-0.15275702699903138,0.2,0.002235211818949724,0.14795047316106275,0.2,0,
2.0005334755934916,0.49940692654701024,12.74839479266168,0.9208581202401266,-0.49864297113365585,18.393303542326066,1.5004316856776836,-0.8037095423580901,24.554337003051643,1.666722473870467,-0.298287094908787,12.65138188879951,0.7901039146083815,0.7989863719538077,-0.24054449078715623,0.2,0.0009391146474046505,0.21139285309823427,0.2,0,
2.0085356094958655,0.5039856088378157,0.3769762673329069,0.2,-0.5028318802073675,-0.6319391325122006,0.2,-0.7999537388792025,0.6106560562264274,0.2,-0.29561733157211045,0.2795893074842362,0.2,0.7959375591901454,-0.0816653436922915,0.2,0.005617497468521472,0.17750697029537277,0.2,0,
2.01653774339824,0.5054385468243368,0.38818294274974713,0.2,-0.5087539972538511,-0.6104040929593296,0.2,-0.7939390454584673,0.5397848091456894,0.2,-0.29381366598903924,0.5166611797163718,0.2,0.7976797264547311,-0.11951719549885276,0.2,0.0037792261721306146,0.2218077867627029,0.2,0,
2.024539877300614,0.5101965359218117,0.3637029627597682,0.2,-0.5125983456947167,-0.32096104936393116,0.2,-0.7913171819328715,0.14023343016542067,0.2,-0.2873507526966485,0.42825931071479445,0.2,0.7940252840621638,-0.6103976090024235,0.2,0.009166422056724719,0.7632325879933017,0.2,0,
2.0325420112029877,0.511257794228493,0.36805261044869225,0.2,-0.513889374043674,-0.1627161131595098,0.2,-0.7916953105758205,0.18394146802592354,0.2,-0.28696151701760253,0.4759731784232841,0.2,0.7879133647106923,-0.49288079889620723,0.2,0.015990947580023444,0.516491364100938,0.2,0,
2.0405441451053616,0.5160853776889908,0.5202299890838258,0.2,-0.5152018035052689,-0.563799834407859,0.2,-0.7883741184444567,0.29585508713968894,0.2,-0.27973518184187596,0.3352913573185304,0.2,0.7861391912798245,-0.0720472286688742,0.2,0.017430283882339727,0.16949336754009747,0.2,0,
2.0485462790077356,0.5195814740538343,0.5612632867949204,0.2,-0.5229101713941997,-0.5383482392512309,0.2,-0.7869616291815855,0.01676219051002792,0.2,-0.28159685530050604,0.31824067530157246,0.2,0.7867606090519903,-0.1576835803017984,0.2,0.018702841460665004,0.31990741168352205,0.2,0,
2.0565484129101095,0.5250655902777095,0.44108722616161694,0.2,-0.5238153753332886,-0.039752035192526514,0.2,-0.7881059233962963,0.15094767076996585,0.2,-0.2746433310370508,0.588495901482626,0.2,0.7836162539949957,-0.19435590055304902,0.2,0.02254880246927608,0.44772916547246167,0.2,0,
2.0645505468124834,0.5266388696724201,0.40986788082864045,0.2,-0.5235462039572801,-0.3503741659864057,0.2,-0.7845464664492661,0.35197063882866364,0.2,-0.272180920876784,0.3421692465592589,0.2,0.7836509146431415,0.14145807961550572,0.2,0.02586650810822439,0.4071185555897909,0.2,0,
2.0725526807148573,0.5316234763709677,0.4986719509449261,0.2,-0.5294213619890711,-0.6574796759068676,0.2,-0.7824743931750376,0.36638016651566185,0.2,-0.26916862309210265,0.5804707497043606,0.2,0.7858795832688438,-0.4752863563253218,0.2,0.029062699358712734,0.5826486373639604,0.2,0,
2.0805548146172312,0.534617620887539,0.31780030903491574,0.2,-0.53406587877179,-0.5406099773053799,0.2,-0.7786843837850155,0.21969900164854617,0.2,-0.26289338888151426,0.1921917386712886,0.2,0.7760463329419364,-0.3869430585480213,0.2,0.03518888630604776,0.5375786598008538,0.2,0,
2.0885569485196056,0.5367082813155264,0.19687522703271815,0.2,-0.5380711216259572,-0.42161421948216926,0.2,-0.7789592091486609,0.12603359510827278,0.2,-0.26609355527336204,0.17287710059106856,0.2,0.7796884943320754,0.3290504447915413,0.2,0.037663957915526396,0.16357029597909717,0.2,0,
2.0965590824219795,0.5377676245200624,0.36008422396690415,0.2,-0.5408117062835047,-0.3581640772083519,0.2,-0.7766678462632831,0.3691863230621262,0.2,-0.26012735527205716,0.6773223233045508,0.2,0.781311140058601,-0.38481212611804483,0.2,0.037806011041713314,0.09123098511391133,0.2,0,
2.1045612163243534,0.5424696288989969,0.6922905884149607,0.2,-0.5438017468612908,-0.25300602471236416,0.2,-0.7730522279796669,0.34492668831209716,0.2,-0.2552563981004892,0.5037875780581312,0.2,0.7735315003141867,-0.5623188870889708,0.2,0.03912365367734898,0.5761009945158464,0.2,0,
2.1125633502267274,0.5488442739347018,0.6381727378733937,0.2,-0.5448598026789025,-0.4835954128743422,0.2,-0.7711490192502896,0.1746590902359721,0.2,-0.25206675402312706,0.34802870272206654,0.2,0.7723140378651775,-0.12956702092022793,0.2,0.047023626953966856,0.6376109006795468,0.2,0,
2.1205654841291013,0.5526803927049712,0.59960094543373,0.2,-0.5515392734672803,-0.3955490919844151,0.2,-0.7702576825358913,0.08894938940710168,0.2,-0.24968793885693616,0.412131125340158,0.2,0.7714584279794631,0.12676676361406125,0.2,0.049325428088221726,0.41180816165066036,0.2,0,
2.128567618031475,0.5584378890616415,0.2882585128099885,0.2,-0.5511885881506532,-0.48709541539235235,0.2,-0.7697258290197759,0.19978812343997288,0.2,-0.24547265601768453,0.28922030566565055,0.2,0.7743423060830025,-0.4670883634787723,0.2,0.05361255754037742,0.6458218719376762,0.2,0,
2.136569751933849,0.557292528909931,0.024458328280213548,0.2,-0.5593328001135579,-0.6232519410796639,0.2,-0.7670610725608518,0.2109048529411045,0.2,-0.24506041396628575,0.45211217896011513,0.2,0.7639850141638027,-0.5654669358782644,0.2,0.059658578039224544,0.1790032357344264,0.2,0,
2.144571885836223,0.5588292223141249,0.49694684436801806,0.2,-0.5611606192079278,-0.3295069320946517,0.2,-0.7663513513727183,0.3961914931695301,0.2,-0.2382388611543227,0.15393890659538487,0.2,0.7652948351089502,-0.3085785194420418,0.2,0.056476609312128244,0.2418222013245274,0.2,0,
2.152574019738597,0.5652436784198193,0.4208529837663247,0.2,-0.5646049110270723,-0.3541849716953982,0.2,-0.7607220086701393,0.3807498156949418,0.2,-0.2425973914607596,0.14491449097163606,0.2,0.75904775785273,-0.2964666493376483,0.2,0.06352773326041698,0.5744140053973094,0.2,0,
2.160576153640971,0.5655628700543861,0.4139856136460493,0.2,-0.5668275787550542,-0.538780632102255,0.2,-0.7602593543215992,0.27349708927684735,0.2,-0.2359202292987765,0.7915093930885054,0.2,0.7605513687195479,0.12788879249280016,0.2,0.0656672333984852,0.18503265491634155,0.2,0,
2.1685782875433453,0.571867448238156,0.5962154690930046,0.2,-0.5732254011407084,-0.36799661100320874,0.2,-0.7563460552417097,0.3072570109563938,0.2,-0.2299332411713435,0.6424383907872016,0.2,0.7610939785326148,-0.4532353427419422,0.2,0.06648825573907845,0.4465927313732085,0.2,0,
2.176580421445719,0.5751023175598742,0.2720119162936824,0.2,-0.5727155245311055,0.02608763369041367,0.2,-0.7553432421462969,0.06691267527792616,0.2,-0.2256412150461813,0.41933996142225727,0.2,0.7532996032356768,-0.4216510648640259,0.2,0.07281271710045653,0.5159343997101955,0.2,0,
2.184582555348093,0.576219638898855,0.1277976280752019,0.2,-0.5728079990016618,-0.5467986676847211,0.2,-0.7552754524372629,0.2995182102619384,0.2,-0.2232238017885874,0.010677362887685782,0.2,0.7543475614947904,-0.026195456998216737,0.2,0.07474320613444158,0.4178573338338076,0.2,0,
2.192584689250467,0.5771470796090774,0.4940705502009604,0.2,-0.5814643032140611,-0.7809006961440392,0.2,-0.7505509507821059,0.37842687416260457,0.2,-0.22547037723997831,0.47152536705122144,0.2,0.7528804759237053,-0.5197686426380715,0.2,0.07949843444179745,0.5689987835033787,0.2,0,
2.200586823152841,0.5841247677020703,0.8351864938415873,0.2,-0.5853024101399664,-0.2979142181008046,0.2,-0.7492206224506612,0.13200005474642978,0.2,-0.21567939591576785,0.8607208993513595,0.2,0.7460312632125813,-0.0979767154777808,0.2,0.08384718667049564,0.34064328891029744,0.2,0,
2.208588957055215,0.5905100635105428,0.5487499945669368,0.2,-0.5862309307036739,-0.2375164605386837,0.2,-0.748438949906163,0.10854041308965001,0.2,-0.21169884285035656,0.768585108472131,0.2,0.7513128484760608,-0.02210322854787755,0.2,0.08494872706436221,0.4473034108725144,0.2,0,
2.2165910909575888,0.5929047676151413,0.1970075186887993,0.2,-0.5891026735085854,-0.6709808797210337,0.2,-0.7474839758412268,0.28580885306420806,0.2,-0.20338203418021375,0.26374594104718563,0.2,0.7456776115558152,-0.614795827174018,0.2,0.09100404124445587,0.38662096906841825,0.2,0,
2.2245932248599627,0.5936621838095636,0.3420785634495674,0.2,-0.5969666247792105,-0.48272259749886776,0.2,-0.7438660082571357,0.4992098121190183,0.2,-0.2074789077936016,-0.07433528962043703,0.2,0.7414761152412765,-0.20431891181144773,0.2,0.0911346625694569,-0.04321467001675884,0.2,0,
2.2325953587623366,0.5983780246303344,0.4898534364173243,0.2,-0.5968262350685672,-0.23408126316334238,0.2,-0.7394966188473225,0.23460837968838216,0.2,-0.20457139881414074,0.486161111826448,0.2,0.7424085089668321,-0.20911946199488746,0.2,0.09031260652418772,0.6296678119536323,0.2,0,
2.240597492664711,0.6014998387922408,0.27166256640620556,0.2,-0.600711924989824,-0.6062122493619981,0.2,-0.7401122741821216,-0.04920367938396342,0.2,-0.19970033000437842,0.5083025627436923,0.2,0.7381302038493583,-0.462854001710096,0.2,0.10120934756071502,0.7538042413594397,0.2,0,
2.248599626567085,0.6027246256928337,0.4396128638012725,0.2,-0.6065256310583592,-0.21816081965809336,0.2,-0.740283877717466,0.15802907912557812,0.2,-0.19643855781024167,0.3667311723567646,0.2,0.7350028449394705,-0.22464009269022867,0.2,0.10237347438593876,0.2938105847526519,0.2,0,
2.256601760469459,0.6085336446130611,0.5200423673918791,0.2,-0.6042024981043534,-0.362633155999513,0.2,-0.7375838089161123,0.4711885220530371,0.2,-0.1938326312466702,0.3769065748767935,0.2,0.7345359623663147,0.14626265472176408,0.2,0.10591031691675745,0.33126557990038885,0.2,0,
2.2646038943718327,0.6110453035711038,0.2845097800874552,0.2,-0.6123277615543514,-0.4992614529107653,0.2,-0.7327448613646174,0.3607300645576614,0.2,-0.19040805261221297,0.5366130377342827,0.2,0.7373430474150188,-0.3817626064139823,0.2,0.10767372366434498,0.44035519302436377,0.2,0,
2.2726060282742067,0.6130858010944604,0.3685945198479701,0.2,-0.6121906813509257,-0.20397101520409217,0.2,-0.7318121278831897,0.07722693275111908,0.2,-0.18524682264292167,0.46136783771615064,0.2,0.728427760663691,-0.3751222982580696,0.2,0.11295600000514727,0.6735802506776557,0.2,0,
2.2806081621765806,0.6169428158886713,0.4159121014866776,0.2,-0.6155912977976169,-0.6743875718670869,0.2,-0.7315092304405995,0.1528339899454917,0.2,-0.18302616720875456,0.3556511849397252,0.2,0.7313410906428897,-0.12416232560429757,0.2,0.11845100767518747,0.5939861587301127,0.2,0,
2.2886102960789545,0.6197403947182473,0.6351562247111503,0.2,-0.6229808825007991,-0.5337950614765219,0.2,-0.7293667840440619,0.41388417511314946,0.2,-0.17955640368388606,0.613283334539437,0.2,0.7264411634540222,-0.27958006880202113,0.2,0.12245977854482908,0.11576415463810871,0.2,0,
2.2966124299813284,0.6271053154840497,0.5544717443196969,0.2,-0.6241320187812412,-0.15812592559696914,0.2,-0.7248870836387891,0.5762174005535803,0.2,-0.17321363385612357,0.427238183835367,0.2,0.7268678095420573,-0.017457752397413706,0.2,0.12030323414939721,0.28905879231343795,0.2,0,
2.3046145638837023,0.6286119426273624,0.09235430224270591,0.2,-0.6255108973103506,-0.48546359905316666,0.2,-0.7201473056352046,0.3215186784193136,0.2,-0.1727205927425202,-0.07117982078542681,0.2,0.7261618394156636,-0.257642948816042,0.2,0.12708471922184408,0.6754354782146721,0.2,0,
2.3126166977860763,0.628582984319933,0.5988344554326632,0.2,-0.6318994363660919,-0.5488290590291711,0.2,-0.71974278478408,0.21864431140200535,0.2,-0.1743525109886904,0.33903181518898406,0.2,0.7227455223610006,-0.6729945944915147,0.2,0.13111020180083197,0.4869492462850275,0.2,0,
2.3206188316884506,0.638193293914285,0.40688786001307625,0.2,-0.6342921622548173,-0.16893649209317324,0.2,-0.7166489966527725,0.09150449800247179,0.2,-0.16729608369949645,0.6485970483982236,0.2,0.7153939259037994,-0.14593067341812926,0.2,0.13487590716240452,0.14320164975444893,0.2,0,
2.3286209655908245,0.6350931900801422,0.05951920687337353,0.2,-0.6346024202395827,-0.4201018609466464,0.2,-0.7182787128160405,-0.013926495144089834,0.2,-0.16397495821431882,0.38727210907409626,0.2,0.7204106315863106,0.050304511705796806,0.2,0.13340142819690315,0.3475066756044795,0.2,0,
2.3366230994931985,0.639145601224259,0.6094372505509454,0.2,-0.6410137920299637,-0.6610278393286706,0.2,-0.7168718205750779,0.5975294655602981,0.2,-0.1610997299543109,0.3301792402106152,0.2,0.7161987980910921,-0.404912074875273,0.2,0.1404360139720762,0.5609209199136118,0.2,0,
2.3446252333955724,0.6448441860889573,0.5622145176521417,0.2,-0.6451788656688414,-0.45073185713125075,0.2,-0.7087182413670757,-0.02212793217676312,0.2,-0.15869209037094897,0.3734094957320733,0.2,0.7139320383883062,-0.46671306960503756,0.2,0.14237616291552094,0.3906214953576584,0.2,0,
2.3526273672979463,0.6481410335066933,0.3497654466901312,0.2,-0.6482255017440637,-0.1882906916835722,0.2,-0.7172258674899061,-0.027837243995409988,0.2,-0.15512517802259773,0.5729201483428981,0.2,0.7087313889774115,-0.25861956015025417,0.2,0.14668595789779873,0.39151855157622956,0.2,0,
2.3606295012003202,0.6504404332359994,0.19602631323924896,0.2,-0.6481915167357786,-0.1961678593597957,0.2,-0.7091636372710023,0.331325387391862,0.2,-0.1495253679974626,0.6693110786819972,0.2,0.7097941254259021,-0.2905332510518069,0.2,0.1486404597407406,0.44719729322112084,0.2,0,
2.368631635102694,0.6512774545185213,0.4550306010854613,0.2,-0.6513641874938204,-0.5658820835611894,0.2,-0.7119246612916363,0.20526748180096227,0.2,-0.14441620076368578,0.3397180513972295,0.2,0.7040828569605826,-0.16565582240609528,0.2,0.15384111458933666,0.640458841424666,0.2,0,
2.376633769005068,0.6577209228533668,0.537681200412865,0.2,-0.6572456300727576,-0.5411904474450432,0.2,-0.7058793575621869,0.4152978707745378,0.2,-0.14408987917510693,0.3429920103164667,0.2,0.7071436322674046,0.06196565501728063,0.2,0.15888780120353527,0.33333861461694314,0.2,0,
2.384635902907442,0.6598803537251271,0.33496428211407525,0.2,-0.6600232346529411,-0.2944421956132537,0.2,-0.7052798953592437,0.21053809383998062,0.2,-0.1389283285986223,0.4485811142828436,0.2,0.7050743074408591,-0.5201967261491275,0.2,0.15917453242320775,0.24787254152691326,0.2,0,
2.3926380368098163,0.663080351367192,0.2957256729427121,0.2,-0.6619567052025697,-0.31251189429110093,0.2,-0.7025107480607472,0.14747710052619156,0.2,-0.13691258134658144,0.5691859659134723,0.2,0.6988204846490186,-0.3328514261468074,0.2,0.16285376186796588,0.31589365524280383,0.2,0,
2.4006401707121903,0.6646119644922105,0.5289093044868187,0.2,-0.6650234249615987,-0.6260500206641123,0.2,-0.7029202617508247,0.3459742028773527,0.2,-0.12982135314400675,0.552032383162487,0.2,0.6997486846225102,-0.028369953389298375,0.2,0.16422883090709262,0.24668949654170144,0.2,0,
2.408642304614564,0.6715429002389811,0.5406890394487953,0.2,-0.6719735055331955,-0.37814560578012385,0.2,-0.6969751608147096,0.5388737657933892,0.2,-0.12808006321598164,0.16441559069575554,0.2,0.6983665653947898,-0.2896569792612408,0.2,0.1668007938126331,0.44350137248614846,0.2,0,
2.416644438516938,0.6732629891233912,0.32960836593069753,0.2,-0.6710737546540807,-0.10087452023276045,0.2,-0.6942982814981304,0.058868756403832045,0.2,-0.12719070369287466,0.43844502879523095,0.2,0.6951141729543303,-0.15908826843658713,0.2,0.171324852866871,0.5044007172267228,0.2,0,
2.424646572419312,0.6768166340938723,0.5200064500521586,0.2,-0.6735874978569196,-0.4260957518165201,0.2,-0.6960332607122482,0.2622046908773226,0.2,-0.12106494275525795,0.6009180065904319,0.2,0.6958211530998044,-0.23207215655440122,0.2,0.17487120528826067,0.7058973517177353,0.2,0,
2.432648706321686,0.6815830923242258,0.3464477428206658,0.2,-0.677891286683145,-0.9069682987747907,0.2,-0.6901030064440933,0.46914232756332247,0.2,-0.11757601558742775,0.03606299794537034,0.2,0.6914010184494599,-0.35423579307978376,0.2,0.18261921049435476,0.6878233046370801,0.2,0,
2.44065084022406,0.6823597979790029,0.3671480157495591,0.2,-0.6880989906373163,-0.5707511482965361,0.2,-0.6885269834712351,0.27374813438176687,0.2,-0.12048793478813202,0.2841623518780572,0.2,0.6901533804105279,-0.378818302774038,0.2,0.18587637816245395,0.09763115392765441,0.2,0,
2.448652974126434,0.6874574605762187,0.6061354699967227,0.2,-0.6870233050558896,-0.11546970423460812,0.2,-0.685723036293985,0.20208974431129567,0.2,-0.11302941795737884,0.6972640097429178,0.2,0.6853399256050753,-0.24541805545442996,0.2,0.18418130895719723,0.2535886148990508,0.2,0,
2.4566551080288077,0.6920579654989505,0.4793085236289574,0.2,-0.68994650590507,-0.505240115297359,0.2,-0.6852935475622544,-0.037004274739307896,0.2,-0.10933171063224534,0.43644918029456076,0.2,0.686226691523257,-0.07383508409968681,0.2,0.18993379600083876,0.6370074346072375,0.2,0,
2.4646572419311816,0.695126396954282,0.09482585303766805,0.2,-0.6951071469006473,-0.3584875417348768,0.2,-0.6863151046898139,0.20460346249667055,0.2,-0.10604623107266586,0.33813330164046523,0.2,0.6841585642594803,-0.20849145114196221,0.2,0.19437342791091303,0.6410258084237949,0.2,0,
2.472659375833556,0.6935751791475532,0.5816891712035546,0.2,-0.695682306572828,-0.38560816668499476,0.2,-0.6820198921623076,0.40018708796277225,0.2,-0.1039215778059979,0.4263495597079782,0.2,0.6828908283049856,-0.2225461431802772,0.2,0.20019020893561948,0.5241256569176993,0.2,0,
2.48066150973593,0.7044334236935389,0.5687703249590628,0.2,-0.7012768775676073,-0.5915685850146554,0.2,-0.6799121112824096,0.20703191440297336,0.2,-0.09922463811733821,0.4141221158564306,0.2,0.6805978259685959,-0.46137557822943653,0.2,0.20275943842159622,0.2502307803583965,0.2,0,
2.488663643638304,0.7026755043468982,0.3368583600129593,0.2,-0.7051474039330625,-0.3069433494682916,0.2,-0.67870738153186,0.010587049919977276,0.2,-0.097295623952295,0.30215667888832365,0.2,0.6755088190533146,-0.49387201060680647,0.2,0.20419390142135382,0.16767282961556612,0.2,0,
2.4966657775406778,0.7098231574537462,0.5155084984108382,0.2,-0.7061879711590999,-0.2383059339326546,0.2,-0.67974271848369,0.3683654342492432,0.2,-0.09439013125512503,0.16390448032960364,0.2,0.672695873798887,0.048820451359468664,0.2,0.20544220369544527,0.2744423118416703,0.2,0,
2.5046679114430517,0.7109236403214716,0.11366129830683164,0.2,-0.708960298875985,-0.3024071464158007,0.2,-0.6728135345838722,0.4380816780961,0.2,-0.09467315226702135,0.4524620789490624,0.2,0.6762899462750661,0.015320989013717368,0.2,0.20858497841082055,0.6803119026395753,0.2,0,
2.5126700453454256,0.7116417382266556,0.3379888473525744,0.2,-0.7110264855017527,-0.3324507950151073,0.2,-0.6727334116341523,-0.05164054225256093,0.2,-0.08715073799194004,0.760540051324741,0.2,0.6729410096231064,-0.45087090279741227,0.2,0.21632719413767848,0.6289469520926235,0.2,0,
2.5206721792477995,0.7163314618791128,0.4241746437753935,0.2,-0.7142795115962267,-0.6003369682195392,0.2,-0.6736397832599131,0.18220842019158606,0.2,-0.08250451144582549,0.5265381104043029,0.2,0.6690760118303075,-0.27260744328024694,0.2,0.21864812964430252,0.3439399439224122,0.2,0,
2.5286743131501734,0.7184285325270618,0.35766000083430755,0.2,-0.7206318769932654,-0.5719866280245733,0.2,-0.669818076911087,0.19353818499132786,0.2,-0.07872612822547119,0.45907120604371693,0.2,0.6685792905306225,-0.2223612150538401,0.2,0.22183023324043707,0.263093232435254,0.2,0,
2.5366764470525474,0.7220540218924617,0.6807135612141302,0.2,-0.7234312976446199,-0.4997101352489097,0.2,-0.6705431723000519,0.43136337209331854,0.2,-0.07515937214912602,0.3686414906710006,0.2,0.6655182323894461,-0.3461834599835095,0.2,0.2228576213632666,0.38027563522633095,0.2,0,
2.5446785809549217,0.7293199495064879,0.5889049542161725,0.2,-0.7286272391572479,-0.502093288039962,0.2,-0.6629162629575939,0.4485347146459609,0.2,-0.07282786437473518,0.29818987245765294,0.2,0.6630403551708863,-0.23001066844317158,0.2,0.22791464340405837,0.42190746490021813,0.2,0,
2.5526807148572956,0.7314765011599205,0.3566393497570833,0.2,-0.7314647902532593,-0.39316884979151423,0.2,-0.6633666168657165,0.12303023369833466,0.2,-0.07038833418980357,0.5661186939380104,0.2,0.6618380616943553,-0.38961037416367084,0.2,0.22960814080167008,0.3247753441158272,0.2,0,
2.5606828487596696,0.7350261791026013,0.4515348031136554,0.2,-0.7349179407539121,-0.3820183433556959,0.2,-0.6609477792184205,0.3580035914170013,0.2,-0.06376996527172701,0.32182329574823554,0.2,0.6568065891842676,-0.2337309883174224,0.2,0.2331110489099116,0.465067958722894,0.2,0,
2.5686849826620435,0.738701058009739,0.25290764459230675,0.2,-0.7375770837469504,-0.12770651526876342,0.2,-0.6576385594030445,0.2564396311438358,0.2,-0.0652391614578318,0.1766806829519682,0.2,0.6580983658812766,-0.05204516569796286,0.2,0.23704922814123638,0.4308231989062061,0.2,0,
2.5766871165644174,0.7390727014160782,0.27330960353443706,0.2,-0.7369612449982124,-0.4081078078736408,0.2,-0.6568447451201191,0.329732523235253,0.2,-0.06094307434449552,0.717811879176888,0.2,0.6559738665331002,-0.20241136189480535,0.2,0.2400042200924109,0.42900880172958356,0.2,0,
2.5846892504667913,0.74307401166629,0.18447971337095387,0.2,-0.7441068086729287,-0.41468261537185025,0.2,-0.6523628390312805,0.3107089957664205,0.2,-0.053754171391001596,0.40467927602990317,0.2,0.6548597840909597,-0.11329108793535492,0.2,0.24391336896890972,0.5332349513072071,0.2,0,
2.5926913843691652,0.7420243768300134,0.38757935209190325,0.2,-0.743596166844162,-0.4611964352896347,0.2,-0.6518734011878564,0.16738678733126816,0.2,-0.05446820592801707,0.46451264283005855,0.2,0.6541612091261345,-0.20405200579199506,0.2,0.24853597931332622,0.4521251297818652,0.2,0,
2.600693518271539,0.7492752812997604,0.5684212389805016,0.2,-0.7514859516375628,-0.4835406508605228,0.2,-0.6496846504339802,0.09403443777990239,0.2,-0.04632196910572066,0.3362973271482023,0.2,0.6515949519982878,-0.22086097583308428,0.2,0.25114737104541957,0.27032561992336446,0.2,0,
2.608695652173913,0.7511191166537015,0.36028250768368325,0.2,-0.7513328172579303,-0.35920539329607065,0.2,-0.650368850183378,0.2307512680132101,0.2,-0.049087448693645834,0.18738981508287275,0.2,0.6506274335128052,-0.21163169704320473,0.2,0.25286118923210005,0.2425714362224718,0.2,0,
2.616697786076287,0.7550398014226993,0.4227354461213903,0.2,-0.7572332379303,-0.5224686175099232,0.2,-0.6459926301457688,0.28455007548142813,0.2,-0.043323732064394695,0.44260454982833314,0.2,0.6482088448455965,-0.2683993032404422,0.2,0.2550285140249791,0.25748063306996194,0.2,0,
2.6246999199786614,0.7578828837916437,0.5764379603630104,0.2,-0.7596923151380891,-0.33027283966582943,0.2,-0.6458160489756751,0.049598842971787516,0.2,-0.042005775896392504,0.44833723162206446,0.2,0.6463330446609581,-0.32051186925342867,0.2,0.25698087936121944,0.43427378208425044,0.2,0,
2.6327020538810353,0.7642628087885075,0.5964366350308461,0.2,-0.7625176033649532,-0.5974537317084069,0.2,-0.6451990486582202,0.43865872019519664,0.2,-0.03615033635844166,0.7766240739758632,0.2,0.6430806549375416,-0.6190333902296382,0.2,0.2619768945383271,0.4367939320033126,0.2,0,
2.640704187783409,0.7674258699521372,0.39162808828666074,0.2,-0.7692515748454236,-0.7892364438990481,0.2,-0.638797509452552,0.4484491165730742,0.2,-0.029579790712778692,0.24754519411563247,0.2,0.6364285104172839,-0.17523558222944102,0.2,0.26396958227327244,0.79950289493309,0.2,0,
2.648706321685783,0.7705288582010941,0.516488320552691,0.2,-0.775145386467338,-0.25388649276818914,0.2,-0.638023862793051,0.2189556842967788,0.2,-0.032189613252591544,0.24706356409608043,0.2,0.6402768856218706,-0.02571810543255948,0.2,0.27476894085725656,0.6568963999187792,0.2,0,
2.656708455588157,0.7756896830809803,0.49794546911385157,0.2,-0.7733137587297146,-0.1638246472945165,0.2,-0.6352942185038035,0.03331561169971076,0.2,-0.025626773687241405,0.8549881822253358,0.2,0.6360170207303629,-0.4838069453128521,0.2,0.2744799246719729,0.057532204011754434,0.2,0,
2.664710589490531,0.7784959857069157,0.37253995476961566,0.2,-0.7777665808240503,-0.5351719440054858,0.2,-0.6374908130058556,0.17576338686101783,0.2,-0.01850980233698617,0.43557024794387084,0.2,0.6325359744968649,-0.21014678316540192,0.2,0.27568945612144463,0.4518876341489675,0.2,0,
2.672712723392905,0.7816503223572941,0.20183165496052285,0.2,-0.7818765098338024,-0.2340144547917783,0.2,-0.6324820043140272,0.40089412396547563,0.2,-0.01865764972013947,-0.06060962089098499,0.2,0.6326546721997165,-0.17427239825122676,0.2,0.2817101268183564,0.4366555632346267,0.2,0,
2.680714857295279,0.7817252921862841,0.4545746667842035,0.2,-0.7815108121007187,-0.3121606097133897,0.2,-0.631076507022408,0.27015466015463396,0.2,-0.01947955627124193,0.2903570704598994,0.2,0.6297476161248453,-0.05557383024793611,0.2,0.28267594513319866,0.39333728099306614,0.2,0,
2.6887169911976527,0.7889235170258414,0.4700490446111691,0.2,-0.7868710795892166,-0.6212030964900458,0.2,-0.6281595297515531,0.25941654194411995,0.2,-0.01401193659278108,0.5239545408548936,0.2,0.6317654909157495,-0.31544284432744735,0.2,0.28800352331424545,0.29769069511523943,0.2,0,
2.696719125100027,0.7892460769000628,0.2841619046704616,0.2,-0.7914500616445594,-0.5385871645563963,0.2,-0.6269258423513021,0.26430879770916044,0.2,-0.011096283617563632,0.5362676625654401,0.2,0.6247005306156062,-0.5569368732939103,0.2,0.2874389962550425,0.4690276012413591,0.2,0,
2.704721259002401,0.7934701075005688,0.47790594707815964,0.2,-0.795488474222119,-0.2753668402975737,0.2,-0.6239305889882065,0.11618637882288008,0.2,-0.0054316539917340385,0.7367698971695174,0.2,0.622854500943047,-0.021889316845748186,0.2,0.2955079649341072,0.5595669071347571,0.2,0,
2.712723392904775,0.7968925720533133,0.5708671421868761,0.2,-0.7958559310893206,-0.0720238900670453,0.2,-0.625066860290136,0.22661536521996484,0.2,0.0006920347371486449,0.31523337206092206,0.2,0.6243503015460742,-0.008152801339256222,0.2,0.2963920667691986,0.4417299872411691,0.2,0,
2.720725526807149,0.8026039817755588,0.4537175504456051,0.2,-0.7966408564631917,-0.2517347030794939,0.2,-0.6203047431446871,0.5658257539888634,0.2,-0.00038792003875928597,0.1467880046495922,0.2,0.6227240561216189,-0.25787135050917703,0.2,0.3025756447299659,0.43809057276831054,0.2,0,
2.7287276607095228,0.804152052860443,0.3249698960193087,0.2,-0.7998836863385925,-0.5721242976269649,0.2,-0.6160136482263142,0.2405886440631569,0.2,0.0030406428115421205,0.7387763102560808,0.2,0.6202243599379273,-0.5397344811294003,0.2,0.3034015159334916,0.3140169930162251,0.2,0,
2.7367297946118967,0.8078035001118677,0.2926436628782683,0.2,-0.8057948452252232,-0.5731477758371197,0.2,-0.6164553248396766,0.019954382315987007,0.2,0.011432500925338008,0.6014012436489015,0.2,0.6140883044235484,-0.49548975242144633,0.2,0.3075999166182255,0.26883379153003206,0.2,0,
2.7447319285142706,0.8088343514664953,0.21632866365935838,0.2,-0.8090540507519864,-0.5945511340174348,0.2,-0.6156943781092584,0.29731569945772723,0.2,0.012663062709924545,-0.06364333726890697,0.2,0.6122965238991842,-0.03982645036216398,0.2,0.3077028565979721,0.4816818926843061,0.2,0,
2.7527340624166445,0.8112647587304175,0.451130911733634,0.2,-0.8153076633695021,-0.5956246617751931,0.2,-0.6116982736483529,0.44621039837192816,0.2,0.010414207529035496,0.15387413562499336,0.2,0.6134510812177538,-0.313201775758061,0.2,0.3153068269011744,0.6845917755327717,0.2,0,
2.7607361963190185,0.8160524460542334,0.5879615879867406,0.2,-0.8185840453403895,-0.3291042786297757,0.2,-0.6085550117353076,0.37238009920925047,0.2,0.01512504887992444,0.7121300332879811,0.2,0.6072852954870552,-0.22171704929861008,0.2,0.31865632500649643,0.4644467025943441,0.2,0,
2.7687383302213924,0.8206721441382053,0.49812661282861576,0.2,-0.8205733318275785,-0.3847916313297825,0.2,-0.6057401920610049,0.25257990343970776,0.2,0.021808288061643193,0.5959770997605299,0.2,0.6099036084289761,-0.06197511836074365,0.2,0.3227379741426839,0.16376767817915389,0.2,0,
2.7767404641237667,0.8240224718594913,0.6455047154577328,0.2,-0.824740711441666,-0.28694549502498307,0.2,-0.6045137332802722,-0.02202149114129831,0.2,0.02466068247609292,0.3243210070493991,0.2,0.6062936935932833,-0.42943978548914963,0.2,0.3212766078573629,0.065051789826083,0.2,0,
