samirx20/RADAR/data/datasets/heating_j3_45.csv
timestamp,actual_q_0,actual_qd_0,actual_current_0,actual_q_1,actual_qd_1,actual_current_1,actual_q_2,actual_qd_2,actual_current_2,actual_q_3,actual_qd_3,actual_current_3,actual_q_4,actual_qd_4,actual_current_4,actual_q_5,actual_qd_5,actual_current_5,protective_stop,fault_code
0.0,0.30176195483160667,0.6161240737829545,0.2,-0.7994485592186618,0.5103898513943439,0.2,-1.199876656477641,0.12025470454349318,0.2,-0.49916252726784566,0.23158547321448786,0.2,0.8032402829110236,-0.7712030843841644,0.2,5.9063257965204557e-05,0.21670325949284844,0.2,0,
0.008002133902373967,0.3066909474218703,0.3149056993828787,0.2,-0.795365440407507,0.8025779946631353,0.2,-1.1989146188412931,1.191646542857,0.2,-0.49730984348212975,0.5494731110234734,0.2,0.7970706582359502,-0.207152505946967,0.2,0.001792689333907992,0.08228731178508165,0.2,0,
0.016004267804747934,0.30680044602173273,0.29343908590965734,0.2,-0.7866073113040516,1.1725388687003555,0.2,-1.180810311791929,1.4717058074338596,0.2,-0.4903709574914701,0.7867377775024886,0.2,0.7999258428158721,-0.04563752007340216,0.2,0.0013756602465265111,-0.34561357238703955,0.2,0,
0.0240064017071219,0.3113859727964248,0.6522180668146506,0.2,-0.7766048185083013,0.6210441333395696,0.2,-1.1753673259223514,0.7474369304325962,0.2,-0.48472203904208994,0.3026617343891667,0.2,0.7963404579147758,-0.13810489445670315,0.2,-0.003737127824284641,-0.20150393843646294,0.2,0,
0.03200853560949587,0.31723593509076714,0.4751381029587734,0.2,-0.7766706051706185,0.44869266411154407,0.2,-1.1688513209050075,0.9511954218217877,0.2,-0.4855283697412434,0.38175266912242667,0.2,0.7977161645045648,0.40732084561900805,0.2,-0.0018484027684568956,0.2629427443831576,0.2,0,
0.04001066951186984,0.3189881824437652,0.6045678900874936,0.2,-0.7694257358825166,0.8421449538580857,0.2,-1.1601481991732028,1.2146769961886155,0.2,-0.4786139963361311,0.6785417789960217,0.2,0.8028575914446799,0.18466699657457286,0.2,0.00046995608584588075,0.06297661527051594,0.2,0,
0.0480128034142438,0.32690902133216704,0.808059651273816,0.2,-0.7631962859088891,1.073080162127024,0.2,-1.1494164889659897,1.129212678396621,0.2,-0.47467170127730707,0.6079972597173161,0.2,0.800670836449758,-0.06240989976242367,0.2,-0.0008407769241286404,-0.08371664435080216,0.2,0,
0.05601493731661777,0.33191713686414626,0.49885266541944623,0.2,-0.7522564532884842,0.7159574070541436,0.2,-1.1420807963188568,0.8682724349130116,0.2,-0.46888604018065405,0.4004850884316256,0.2,0.8018590330484812,-0.0667807088924055,0.2,-0.0008695102237669538,0.12828875483575225,0.2,0,
0.06401707121899174,0.3348906639788782,0.5108801244989303,0.2,-0.7517409673960228,0.7714004791604181,0.2,-1.1355241300073815,1.052181195299623,0.2,-0.46826393986240106,0.4873666834940872,0.2,0.7996023451074795,-0.18250316118678667,0.2,0.0012118431532433958,0.003972819118674705,0.2,0,
0.0720192051213657,0.34009121885612914,0.3077038126661317,0.2,-0.7399140456219175,0.9689877301879146,0.2,-1.1252458971940629,1.1645846898342693,0.2,-0.46108817324474866,0.4692252018342613,0.2,0.7989389824694926,-0.0009081785108458473,0.2,-0.0008059451178681586,-0.049791196424359606,0.2,0,
0.08002133902373967,0.3398139249815363,0.5297355836029367,0.2,-0.7362371637130162,0.46864141661771136,0.2,-1.1168907749700332,0.8807540134840447,0.2,-0.4607563366330529,0.5594729186583144,0.2,0.799587814251306,0.2781050377512889,0.2,0.00041518401045364216,0.10516977812525997,0.2,0,
0.08802347292611364,0.34856698819377613,0.7406483979352576,0.2,-0.7324157829560342,0.8763269554487307,0.2,-1.1111538329783182,1.0564995467540195,0.2,-0.4521366065462156,0.573218458820312,0.2,0.8033886630735132,0.14519815275377407,0.2,0.0008767713321360011,-0.2941997704562669,0.2,0,
0.0960256068284876,0.3516642993485004,0.2130358785639823,0.2,-0.7222159324258365,0.7144209453955122,0.2,-1.0999867822219689,1.1393356707491002,0.2,-0.4515848412919279,0.38136810908560165,0.2,0.8019109846953664,0.00361147256058153,0.2,-0.004292012316846628,0.08234560045297992,0.2,0,
0.10402774073086157,0.35197556225079984,0.31041974123672406,0.2,-0.720985047829706,0.7091711175522958,0.2,-1.0929244622463326,0.7527512583705431,0.2,-0.446034716800846,0.5886517976149697,0.2,0.8034464466344825,-0.04009351398453348,0.2,0.00219430093938368,-0.00892418692741636,0.2,0,
0.11202987463323553,0.356631015208288,0.36142866174793464,0.2,-0.7108691945449997,0.671455619377162,0.2,-1.0879427620880402,0.8985801959663781,0.2,-0.44216641253008837,0.2072644633393829,0.2,0.8012694884716138,-0.3183462106897267,0.2,-0.00443479930768529,-0.2827169117053308,0.2,0,
0.12003200853560951,0.3577584208387668,0.46776426905063145,0.2,-0.7102417579196714,0.6554998759641314,0.2,-1.0785471791108705,1.3575871076373647,0.2,-0.44271848538741587,0.4096123055570312,0.2,0.7983529072634469,-0.2035060311792805,0.2,-0.002329169647901613,0.29780172169429503,0.2,0,
0.12803414243798347,0.3641152435130981,0.5773297910490818,0.2,-0.7003811965295736,0.9367929679692729,0.2,-1.0662213683658424,1.0041573254928327,0.2,-0.43561261564117587,0.8453283896346087,0.2,0.7980133919727453,0.11430146947093156,0.2,0.0003300282394234307,-0.018070716160272192,0.2,0,
0.13603627634035745,0.3669956974955521,0.7217963158111483,0.2,-0.695253070432163,0.4860421986482566,0.2,-1.0624806619029852,0.8536542165753225,0.2,-0.42919323115326213,0.5440523227913177,0.2,0.8001817307749818,0.09227693342414578,0.2,-0.002618301106465968,-0.22362779637700217,0.2,0,
0.1440384102427314,0.37566398456607647,0.618379464094744,0.2,-0.6926045213512015,0.6365201600737197,0.2,-1.0525629009006372,1.0937948155598232,0.2,-0.4269077784765148,0.4466349334872888,0.2,0.7994898229075317,-0.07004381857993874,0.2,-0.003248016502608604,0.2503173035549534,0.2,0,
0.15204054414510537,0.376889768921068,0.11383190431651577,0.2,-0.6850687478709835,0.9508714119253955,0.2,-1.044979944854028,1.071476283469458,0.2,-0.4220470722174655,0.4588508857448388,0.2,0.7990610296777028,0.20782538536138345,0.2,0.0013867757504132869,0.0855093034496323,0.2,0,
0.16004267804747935,0.3774852950351407,0.6701544270105615,0.2,-0.6773905787603952,0.6485003560086355,0.2,-1.0354192803651259,0.9786454900576891,0.2,-0.41956616430459737,0.6819509235739679,0.2,0.8028150290733138,0.14678259623806394,0.2,-0.0018798676474144872,-0.14022065060003167,0.2,0,
0.1680448119498533,0.387612239753237,0.8508913772165699,0.2,-0.6746927421748453,0.6348569761207359,0.2,-1.029321617013105,0.9966558622708649,0.2,-0.411135857440282,0.47272956509205805,0.2,0.8014095512175118,-0.04747426071329691,0.2,-0.00085675465918722,-0.014965273489408817,0.2,0,
0.17604694585222727,0.39109955707060584,0.20983954038210004,0.2,-0.6672328671424634,1.0862026616113782,0.2,-1.019472786568792,0.8594577213917043,0.2,-0.41200249126312444,0.2339938422441408,0.2,0.8020554409019011,-0.0781811167848423,0.2,-0.0021193120232450282,0.2204513295381867,0.2,0,
0.18404907975460125,0.3909696723993506,0.3411896529585956,0.2,-0.6573134995890633,0.8752542594052115,0.2,-1.0155702934708377,0.749324168306767,0.2,-0.4073919559643758,0.5138239750861646,0.2,0.8001586533489543,-0.14228374366519192,0.2,0.0026704666134237673,0.02460504456699468,0.2,0,
0.1920512136569752,0.39655859151794337,0.8620955135135652,0.2,-0.65322879899198,0.5371764537191182,0.2,-1.0074835998758838,0.9626818653834801,0.2,-0.4037813076617458,0.7070379552811846,0.2,0.799778901003258,0.0373103677430639,0.2,-0.0017256313101731134,-0.26599143892247384,0.2,0,
0.20005334755934917,0.40476320061556764,0.15745607185240623,0.2,-0.6487186763295574,0.47197444823721124,0.2,-1.000167383624702,0.8238499867764676,0.2,-0.3960793486798768,0.20160927665568984,0.2,0.8007556192328433,0.2057531639079943,0.2,-0.0015853964093358146,0.2685720430119402,0.2,0,
0.20805548146172315,0.39907788866758187,0.06921274598859634,0.2,-0.6456772078201847,0.7940610592878719,0.2,-0.9943020000874603,0.8951408487855583,0.2,-0.40055555923525477,0.11870503028043808,0.2,0.8030709516257859,-0.051737531962615935,0.2,0.00257152137801793,0.21232423899960645,0.2,0,
0.21605761536409712,0.4058706045513852,0.5769797111144677,0.2,-0.6360136993809514,0.6778320439306054,0.2,-0.9858451300441331,0.6933116621989505,0.2,-0.3941800681953898,0.6779023061896163,0.2,0.7999278187214415,-0.165455758884471,0.2,0.001811791414657889,-0.12235637123786858,0.2,0,
0.22405974926647107,0.40830956404541335,0.6051193829170847,0.2,-0.634831895117295,0.6977686467844607,0.2,-0.9832090134922771,0.9411191401454688,0.2,-0.3897091223362209,0.6317513078322803,0.2,0.8004236594836344,-0.2133036148945014,0.2,0.0006138194382120327,-0.005494467496147342,0.2,0,
0.23206188316884505,0.41555251467805854,0.47757384715288453,0.2,-0.6248494010324,0.616365440684892,0.2,-0.9707872238018056,1.273634780822118,0.2,-0.3840720472700733,0.5028263930236739,0.2,0.7965149608831295,-0.036948880220703806,0.2,0.0017238799347195316,-0.030147410730802824,0.2,0,
0.24006401707121902,0.4159507455998595,0.37953110594736783,0.2,-0.6249700480663367,0.48136744975423723,0.2,-0.9628308569991232,0.7741296777969489,0.2,-0.3816639000478421,0.3100701683261056,0.2,0.7998324774001031,0.288013145332687,0.2,0.0001314608665191875,-0.13300272774095953,0.2,0,
0.24806615097359297,0.4216250123732164,0.6398269466518225,0.2,-0.6171475218363323,0.7825465887382823,0.2,-0.9584011489570544,0.8142144032921363,0.2,-0.37911092457685563,0.24014451121863456,0.2,0.8011231712084524,-0.15439704338464366,0.2,-0.00040416370913582127,-0.04787546877398796,0.2,0,
0.25606828487596694,0.42618797674628867,0.23013675886617707,0.2,-0.6124493026465242,0.39704646858844395,0.2,-0.949803426546449,0.7990588130614081,0.2,-0.37782158786834397,0.5167593622105449,0.2,0.7973621247059488,-0.34141697234850443,0.2,-0.0006345466338646199,0.10370436916663252,0.2,0,
0.2640704187783409,0.42530720051507526,0.3062477920969218,0.2,-0.6107947783389172,0.6568549946477861,0.2,-0.9456162079480719,0.9101648586936836,0.2,-0.3708427747814869,0.49947831165295453,0.2,0.7956604996508764,0.19766555411478148,0.2,0.001255106197530299,0.32365162297538264,0.2,0,
0.2720725526807149,0.4310879414198394,0.3566579762785647,0.2,-0.6019396227321596,0.7826323100666999,0.2,-0.9352407888073501,0.9613629182504898,0.2,-0.3698299348818967,0.29967855317235625,0.2,0.8005247735717853,0.2636152989037577,0.2,0.004543879333741502,-0.18952308962595962,0.2,0,
0.28007468658308887,0.4310137281355323,0.4234162283143286,0.2,-0.59827266137785,0.4288679309760804,0.2,-0.930234401256064,0.43281612770645905,0.2,-0.3660479179307292,0.3709959223787834,0.2,0.7998783444333365,-0.3030228323845918,0.2,-0.0017772632364850553,-0.301357513421359,0.2,0,
0.2880768204854628,0.4378626010728687,0.7184556740223932,0.2,-0.5950777358365423,0.5025957980324403,0.2,-0.9283157307640467,0.5209271121609307,0.2,-0.36389400012383616,0.5824542294545487,0.2,0.7956764082536318,0.07939730634458353,0.2,-0.00027784088100024244,0.11150742443570431,0.2,0,
0.29607895438783677,0.4425090189198906,0.5386061893412376,0.2,-0.5902311286093309,0.48400109244418205,0.2,-0.9218995674614892,0.7843394957185168,0.2,-0.35672865025945644,0.12326671693709337,0.2,0.8011487013348498,0.37420059380372656,0.2,6.855554486213819e-06,0.23216484077027236,0.2,0,
0.30408108829021074,0.4464803001023285,0.10061479161358258,0.2,-0.5873337183574354,0.6506298480500952,0.2,-0.9157662988325505,0.7324985649992052,0.2,-0.36192173265284266,0.39722500083696693,0.2,0.8016636177544915,-0.24971460560371805,0.2,0.0034367965713241154,-0.12452939337139868,0.2,0,
0.3120832221925847,0.4441188555857079,0.09704023087237987,0.2,-0.5798210510405294,0.6726417383117397,0.2,-0.9101795904215019,1.0325530793104873,0.2,-0.35037305024606497,0.7486318802334864,0.2,0.7971532676451903,-0.24253729644860972,0.2,-0.001985614739456165,-0.1858710245606398,0.2,0,
0.3200853560949587,0.44803294379628655,0.5820986278402169,0.2,-0.5765714505444476,0.4091798681392575,0.2,-0.8992454495635827,0.7973076871424373,0.2,-0.3499436225691069,-0.07965294328368677,0.2,0.7977830210113137,0.4656277166984954,0.2,0.0004628601783538785,-0.08899336210967007,0.2,0,
0.32808748999733267,0.4534324336311514,0.521300639385245,0.2,-0.5732741731503013,0.4009156062151423,0.2,-0.8974226674272229,0.4577636946316646,0.2,-0.35164749733860395,0.27428144566435037,0.2,0.8046033111123663,0.01842060077633656,0.2,-0.003409508533210886,-0.05262386561402665,0.2,0,
0.3360896238997066,0.4563737540264505,0.44972004303319224,0.2,-0.5701568008450053,0.6367324171479907,0.2,-0.891921230449476,0.7611576411563209,0.2,-0.3455551194384773,0.7388836514119722,0.2,0.7980777506237351,-0.42908599735524966,0.2,-0.000379121671470548,0.07997564638611285,0.2,0,
0.34409175780208057,0.46062795431968245,0.23095460821797448,0.2,-0.5630864544759334,0.4019725047106418,0.2,-0.8852441451687217,0.6005884255264882,0.2,-0.3398253589160124,0.2332219667887936,0.2,0.7977379351546823,0.030257490030341505,0.2,-0.0021298981910330803,0.004227686674426919,0.2,0,
0.35209389170445454,0.46006902775793806,0.23663934613766743,0.2,-0.563725240769635,0.41871213101456195,0.2,-0.8823118156410522,0.5417440611285018,0.2,-0.3418235679698566,0.08507808980366682,0.2,0.7985618704642206,0.11259994076758678,0.2,-0.0003114786846797173,0.06210700405192478,0.2,0,
0.3600960256068285,0.46441418385788513,0.3492042054434076,0.2,-0.5563870603797004,0.6267756923355738,0.2,-0.8765762401906657,0.5271309283159664,0.2,-0.33846410947915373,0.5466394854085448,0.2,0.7995395342069637,0.14959759844592607,0.2,-0.0011361861262022838,0.059588913670326586,0.2,0,
0.3680981595092025,0.4656562950450326,-0.02867207320629908,0.2,-0.5536968296922659,0.4062401775949895,0.2,-0.8738777207879967,0.38072153375409007,0.2,-0.33307733620331986,0.4045132505834832,0.2,0.8009554320393554,-0.04588042584008356,0.2,0.000641943934045508,0.22636501531410713,0.2,0,
0.37610029341157647,0.46395543068658435,0.18397371957629138,0.2,-0.5498872175381806,0.5689498836559254,0.2,-0.8704846956506003,0.777647166724106,0.2,-0.331991897469818,0.2476358382808158,0.2,0.7988054473935223,-0.04818527234586034,0.2,0.00248565411882343,-0.08102540883163382,0.2,0,
0.3841024273139504,0.46859987455825325,0.6039676733236021,0.2,-0.544593631553771,0.42450694534861694,0.2,-0.861435366120411,0.6210279489943723,0.2,-0.3291151627908268,0.25885501425769797,0.2,0.8001844676818216,0.07172197577319517,0.2,-0.0006544626072606331,-0.15959922224562764,0.2,0,
0.39210456121632437,0.473618913459762,0.30522527607349664,0.2,-0.5430951064126027,0.321994481606476,0.2,-0.8605482484666903,0.4538551023884549,0.2,-0.32785021724169483,0.06806121272604979,0.2,0.7999529990058935,-0.06668524190276554,0.2,-6.793343710661214e-05,0.08254487053156233,0.2,0,
0.40010669511869834,0.4734834789754292,-0.036588964897780324,0.2,-0.5394417198480674,0.5153184953091278,0.2,-0.8541736844821958,0.6487084300022122,0.2,-0.32802618338721,0.27188581519326654,0.2,0.7991175038113774,0.027288392217640622,0.2,0.0006662553212443642,-0.13193659100886204,0.2,0,
0.4081088290210723,0.4730334900213975,0.36014516870838675,0.2,-0.5348500104876567,0.34725486618212426,0.2,-0.8501689135866549,0.5477387637466136,0.2,-0.32350004419860257,0.0493770281930761,0.2,0.8003896132813757,0.2239513531456308,0.2,-0.002178918893248405,0.019345181164956725,0.2,0,
0.4161109629234463,0.4792458016747634,0.48146137996014565,0.2,-0.5338856419891534,0.3333996490560015,0.2,-0.84540986426225,0.3329666029660075,0.2,-0.3272361509361208,0.2805724948513645,0.2,0.8027007254617075,0.023168427699719885,0.2,0.0009757782198836718,0.1665787212954611,0.2,0,
0.42411309682582027,0.4807368721007598,0.16288417982761316,0.2,-0.5295156161027607,0.4731975683511039,0.2,-0.8448414479391988,0.5582395218384634,0.2,-0.31901088428098073,0.4922599184821047,0.2,0.8007603081245712,0.05027181558670685,0.2,0.000486340647478973,0.12126235115024106,0.2,0,
0.43211523072819424,0.4818519485520052,0.06782030371358175,0.2,-0.5263144808955358,0.2355943271999672,0.2,-0.8364780319128345,0.5034820074735976,0.2,-0.3193599922404071,0.17007531041516102,0.2,0.8035050745110948,0.018377821523911375,0.2,0.0029159758382875287,-0.1466831798060612,0.2,0,
0.44011736463056816,0.48182199696017713,0.3521997541567796,0.2,-0.5257461068675612,0.0916029692461795,0.2,-0.8367857358196212,0.2603927233683079,0.2,-0.31628967931433816,-0.06602142167650218,0.2,0.8010543532689538,-0.4074936790564865,0.2,-0.0018605902294180064,0.060666033726056445,0.2,0,
0.44811949853294214,0.48748714461851367,0.2842183858504203,0.2,-0.5248488333875969,0.23641092584827245,0.2,-0.8323117483389416,0.49702173007677014,0.2,-0.32041633498723116,0.21605889559907915,0.2,0.796985175646191,-0.086356960263545,0.2,0.003886632377904432,0.17172798921166277,0.2,1,C153B7
0.4561216324353161,0.48636949113378386,0.14309587959569423,0.2,-0.5219635320539888,0.5408063104279104,0.2,-0.8288333881383929,0.43240688625906937,0.2,-0.3128327369847529,0.6099458783319147,0.20016,0.7996726419047371,0.36802040855186263,0.2,0.0008870575979685982,-0.4286020708972593,0.2,1,C153B7
0.4641237663376901,0.4897766786920448,0.11712269559602945,0.2,-0.5161959324207503,0.39267645708352533,0.2,-0.8253932381587965,0.30027184638907467,0.2,-0.3106572009339205,0.09824209203110681,0.20032000000000003,0.8028735021830208,-0.12358297120841633,0.2,-0.0029710007564517182,-0.382548247102312,0.2,1,C153B7
0.47212590024006407,0.48824345426332033,0.01769376921804608,0.2,-0.5156807087406524,0.20787432513360432,0.2,-0.8240290385961677,0.3561832433867096,0.2,-0.3112608635122552,-0.027524477368392336,0.20048,0.7976953143654024,-0.12772591660893673,0.2,-0.005233714355668394,0.08483230088314084,0.2,1,C153B7
0.48012803414243804,0.4900597789995335,0.3239557575761762,0.2,-0.5128699432186127,0.19287463575462516,0.2,-0.8196943062646092,0.5747069656358433,0.2,-0.3110975925718148,0.3454831623211189,0.20064000000000004,0.8008298875172778,0.3628298470888733,0.2,-0.0016136839423214649,0.4181433677141041,0.2,1,C153B7
0.48813016804481196,0.49342674638453915,0.2962958190744075,0.2,-0.5125947145685784,0.12495280978764428,0.2,-0.8148337271459942,0.3071861959609637,0.2,-0.3057331329151173,0.08764730884177133,0.2008,0.8035005919188244,-0.13141201460215718,0.2,0.0014565795277572719,0.1771509684286804,0.2,1,C153B7
0.49613230194718594,0.49480051210472403,0.068673879281618,0.2,-0.5108706982620104,0.22313895562801195,0.2,-0.8147793271292337,0.4604563799745359,0.2,-0.30969523563034645,-0.2090868760548717,0.20096,0.7987272952836433,-0.12482027436906684,0.2,0.0012207315525374217,-0.05180779759308269,0.2,1,C153B7
0.50413443584956,0.49452552845304504,-0.0073291300033972995,0.2,-0.5090244912785302,0.15022309983234172,0.2,-0.8074664250664016,0.21943692426772826,0.2,-0.3090785229319952,0.04274287844599489,0.20112000000000002,0.8015034675289193,0.27025125163900043,0.2,0.0006276547662679488,-1.0225668352502782e-05,0.2,1,C153B7
0.5121365697519339,0.4946832460246697,0.09377909327141012,0.2,-0.5084671286646929,0.06182083891990292,0.2,-0.8112683363409501,0.07496745619413325,0.2,-0.30901134957521054,0.1479457440485485,0.20128000000000001,0.8030513153098673,-0.06310400210344375,0.2,0.0012205679418437817,-0.24973955794037603,0.2,1,C153B7
0.5201387036543078,0.4960259939453876,0.10562639950644631,0.2,-0.5080353578558118,0.18212232667993988,0.2,-0.8062669457672955,0.360645079932255,0.2,-0.30671139102721845,0.3735130117152388,0.20144000000000004,0.8004938034952642,-0.1910003512692604,0.2,-0.003368178160778068,0.08402079421335969,0.2,1,C153B7
0.5281408375566818,0.4963732684167728,0.08321673246742406,0.2,-0.5055531714378139,0.25269866478686703,0.2,-0.805498015062034,0.054709479402177685,0.2,-0.3030351413877667,0.10226975358303136,0.2016,0.7999953096895591,-0.1934310374676826,0.2,0.002564900649257537,0.2198167103925486,0.2,1,C153B7
0.5361429714590558,0.4973574616648664,0.17051219783037821,0.2,-0.5039921792192219,0.2664657977361484,0.2,-0.8053915940968607,0.1846646527177559,0.2,-0.30507507496988995,-0.003134369656959679,0.20176,0.7973989068957813,-0.009934053165086554,0.2,0.00014888920550270993,-0.21227549799897819,0.2,1,C153B7
0.5441451053614298,0.49910146358205887,0.08547307008801783,0.2,-0.5012897186740355,0.19865416086528587,0.2,-0.8025433806185499,0.1075015245177724,0.2,-0.30308529130227807,0.064200592088004,0.20192000000000002,0.7998363648389177,0.33891667490835303,0.2,-0.000831507318726114,-0.03010440346978642,0.2,1,C153B7
0.5521472392638037,0.49872503078627467,-0.11591201858399819,0.2,-0.5008137126453773,0.12008649510349134,0.2,-0.8036715697045763,0.3684829122845429,0.2,-0.3040478654964819,0.01652253370948778,0.20208,0.802821573694315,-0.002176761402204741,0.2,-0.0003327812500138728,0.15880289506723919,0.2,1,C153B7
0.5601493731661777,0.4972468712847149,-0.03452662331223516,0.2,-0.49936833475237963,-0.2815292759302604,0.2,-0.7966476540219972,0.15030951931862407,0.2,-0.30282093076292627,0.1885495170646373,0.20224000000000003,0.7998015366564825,-0.10093279149877427,0.2,0.0017093390023497131,0.01494494596679281,0.2,1,C153B7
0.5681515070685517,0.4981726048132789,0.10335031377285003,0.2,-0.5053181810602615,-0.061965136767545836,0.2,-0.8012666173954783,-0.40211938377979206,0.2,-0.3010310732234477,0.37984128919944443,0.20240000000000002,0.8012066490303346,0.15872084868732983,0.2,-9.366211454518783e-05,-0.10067168764695114,0.2,1,C153B7
0.5761536409709256,0.4989004763050805,0.025060072247350823,0.2,-0.5003597769406604,0.5023981882836953,0.2,-0.8030815641624739,-0.05562596465241709,0.2,-0.29674347013573515,0.08874082107898987,0.20256,0.8023410702354797,-0.05482300178021038,0.2,9.859199999849481e-05,0.11995935902314041,0.2,1,C153B7
0.5841557748732996,0.4985735659692365,0.20589364054792586,0.2,-0.49727981004772237,0.11785054048389296,0.2,-0.802156632829917,0.30330276568592274,0.2,-0.29961122008618385,-0.28129262184682646,0.20272,0.8003294810018512,-0.14192173448315804,0.2,0.0018256876298250587,-0.01286546596462248,0.2,1,C153B7
0.5921579087756735,0.5021947745538473,0.06793491642556604,0.2,-0.4984741682929181,-0.35926829827346435,0.2,-0.7982287199114991,0.20165440550375807,0.2,-0.3012441520852844,0.09423086139013354,0.20288,0.8000703224837492,-0.03558298155425382,0.2,-0.0001072554554354649,-0.1021191483607961,0.2,1,C153B7
0.6001600426780476,0.4996605246320456,-0.07879098098504539,0.2,-0.5030281028200978,-0.2633412644692766,0.2,-0.7989301623418569,-0.3073718281837376,0.2,-0.2981035263039417,0.06477730924293532,0.20304000000000003,0.7997601532969831,0.000512281325783237,0.2,0.00019178125605232133,0.14384401831620708,0.2,1,C153B7
0.6081621765804215,0.5009341188580866,-0.31830920977475236,0.2,-0.5026876285244265,0.04037189211136827,0.2,-0.8031466691624389,-0.20939464808824443,0.2,-0.3002077151373974,-0.0392741029386634,0.20320000000000002,0.8000785189849617,0.03658485460090316,0.2,0.002194248837623848,-0.03072175824198328,0.2,1,C153B7
0.6161643104827954,0.49456757727564954,-0.13702658165011886,0.2,-0.5023821525463159,0.1071272229002107,0.2,-0.8022804767112688,0.24141661054107033,0.2,-0.2987319119509603,-0.30946922640683744,0.20335999999999999,0.8003455109705976,-0.001562677029894044,0.2,-0.0002997668758194111,-0.06902804702181105,0.2,1,C153B7
0.6241664443851694,0.4987416935516847,0.25699969780946724,0.2,-0.5009735929580231,0.242792100553859,0.2,-0.7992840033937818,-0.14407797918790377,0.2,-0.3051592227599068,-0.097591896324703,0.20352000000000003,0.8000535161524834,0.17904434873339953,0.2,0.0010898000852748713,0.025836528512528895,0.2,1,C153B7
0.6321685782875434,0.498679572440601,-0.2763386973890225,0.2,-0.49849747893745416,0.03528249064264216,0.2,-0.8045857243782752,-0.10408866235774028,0.2,-0.3002933822921556,0.15512671331542258,0.20368,0.803210220550332,-0.1017477238550793,0.2,0.0001136175803810512,-0.21925925656717757,0.2,1,C153B7
0.6401707121899174,0.4943202743934603,0.10667924430672604,0.2,-0.5004090731077409,-0.20138638321292798,0.2,-0.8009494219915057,0.04701573046408947,0.2,-0.30267719534686005,0.1239604337664145,0.20384000000000002,0.7984255525708022,-0.06540495094194826,0.2,-0.0024183480197999697,-0.0376643947037909,0.2,1,C153B7
0.6481728460922913,0.5003864403495086,0.11083441292018131,0.2,-0.501719661068861,-0.2697942740201645,0.2,-0.8038334726908498,-0.34739794405135027,0.2,-0.29831001535189294,0.18886882980219746,0.20400000000000001,0.8021637413352608,-0.3157979394141086,0.2,-0.0004890127348796032,0.1153641321439013,0.2,1,C153B7
0.6561749799946653,0.4960936250001832,-0.3380881548202992,0.2,-0.5047257814920635,-0.07048834869185366,0.2,-0.8065077890963273,-0.1070192297680378,0.2,-0.2996552940700249,-0.07104556424896227,0.20416,0.7933727855401764,0.08847679794513758,0.2,-0.0005725219054975487,-0.14124807141579365,0.2,1,C153B7
0.6641771138970393,0.49497702987238384,-0.03498211545229987,0.2,-0.5028474746479307,-0.19812341746540396,0.2,-0.8055457803671384,-0.045467901309971526,0.2,-0.29944674437987634,-0.2367832264601709,0.20432000000000003,0.803579370102383,0.5046170602119662,0.2,-0.0027489818775323013,0.01490782443192198,0.2,1,C153B7
0.6721792477994132,0.4955339111529464,-0.14678052530519084,0.2,-0.50789575617151,-0.15437094676552798,0.2,-0.8072352755172868,-0.12596041310060369,0.2,-0.3034438256933876,-0.2615193941075261,0.20448,0.8014466585035679,-0.3746517690689441,0.2,-0.000333996714586797,0.414673037720296,0.2,1,C153B7
0.6801813817017872,0.4926285414675008,-0.2297040527882467,0.2,-0.5053174097961791,-0.15429590599567305,0.2,-0.8075611469767481,-0.02192397190027562,0.2,-0.30363105468559676,0.1064193862955233,0.20464000000000004,0.7975849417972799,-0.04711955321739375,0.2,0.0038857867259924346,-0.026993109779143102,0.2,1,C153B7
0.6881835156041611,0.4918586463083345,-0.006258900878353124,0.2,-0.5103644906674407,-0.11921747595805554,0.2,-0.8075860590676912,-0.15815764362934331,0.2,-0.30174111551265925,-0.05240687596552371,0.2048,0.8006927456520896,0.4357181518634054,0.2,-0.0007658864710530866,-0.4760875231089047,0.2,1,C153B7
0.6961856495065352,0.49252839905344714,0.1497277955487715,0.2,-0.507224889411508,0.09573567373901554,0.2,-0.8100916692748176,-0.4895497309277269,0.2,-0.30446956470104514,-0.31903396232410564,0.20496,0.8045564322270944,-0.17657802444169535,0.2,-0.0037316136437500406,0.09525391635592595,0.2,1,C153B7
0.7041877834089091,0.4942542910371148,-0.053358351267320664,0.2,-0.5088327198876165,-0.6685578365973401,0.2,-0.8154188547625348,-0.48031598767138417,0.2,-0.30684565890984494,-0.49218489080333006,0.20512000000000002,0.7978674972610225,-0.1362812192914828,0.2,0.0007581761906417286,0.2725765204385992,0.2,1,C153B7
0.7121899173112831,0.49167466543317,-0.43663931259199995,0.2,-0.5179218147970654,-0.5032709753573089,0.2,-0.8177767250775597,-0.13083128932538102,0.2,-0.3123445229538984,-0.29395722871799684,0.20528000000000002,0.8023759327184307,0.27590512165651115,0.2,0.0006296106832675468,0.02155317166858784,0.2,1,C153B7
0.720192051213657,0.4872680620356428,-0.21016260011961357,0.2,-0.5168850554933334,0.211857918641159,0.2,-0.8175121553917409,-0.038204974375649625,0.2,-0.3115489745693329,-0.011939628266528085,0.20544000000000004,0.8022819792075266,-0.3302494170256201,0.2,0.001103026937339134,-0.09787884659399719,0.2,1,C153B7
0.728194185116031,0.4883120638312562,-0.13931622015765296,0.2,-0.5145320880988069,0.15928990648498426,0.2,-0.8183880046675701,-0.49859030409141886,0.2,-0.31253555700616287,0.032705816556701656,0.2056,0.7970919420460207,-0.24002665491446723,0.2,-0.0009364508622364082,-0.11688855873141739,0.2,1,C153B7
0.736196319018405,0.4850390025131204,-0.22852386299865995,0.2,-0.5143364169895737,-0.4259076962192243,0.2,-0.8254896002572036,-0.6345905642421573,0.2,-0.31102568150442567,-0.010191074211254869,0.20576,0.7984415527288952,0.2025891293476259,0.2,-0.0007671900023635442,-0.08966768995722198,0.2,1,C153B7
0.7441984529207789,0.48465568202327763,0.020985153600189266,0.2,-0.5213466112383145,-0.5846172570973737,0.2,-0.8285414536954446,-0.373666677859541,0.2,-0.31269861419354295,-0.1483748104856783,0.20592000000000002,0.8003333681155828,0.02482782319673804,0.2,-0.00237113390155196,0.17394493308416356,0.2,1,C153B7
0.7522005868231529,0.4853747649707234,0.10554270869079369,0.2,-0.5236902931031316,-0.19623193624026397,0.2,-0.8314682671029563,-0.4983503019333549,0.2,-0.3133996784721965,-0.23815481632976157,0.20608,0.798838797900043,0.0041907867597001935,0.2,0.002015928926983073,0.01351430544594369,0.2,1,C153B7
0.7602027207255269,0.48634436536233033,-0.03863972649047198,0.2,-0.5244863222181587,-0.403580176761259,0.2,-0.8365150585263783,-0.35589652248393944,0.2,-0.31650909125481913,-0.2232010557536926,0.20623999999999998,0.800400420703738,0.09138452944856129,0.2,-0.002154905014416861,-0.15877213309489763,0.2,1,C153B7
0.7682048546279008,0.48475652934687585,-0.32905785365671886,0.2,-0.5301475759313118,-0.5189587790161362,0.2,-0.8371626114626993,-0.2528905643919832,0.2,-0.3169708953642556,-0.26122227118034397,0.20640000000000003,0.80030095037122,-0.22958376499827848,0.2,-0.0005244252025352892,-0.012175903282338316,0.2,1,C153B7
0.7762069885302748,0.48107943970382283,-0.5104030549656426,0.2,-0.5327896626824169,-0.2650256569771414,0.2,-0.84056130755665,-0.4914639499678797,0.2,-0.32068864759370463,-0.35961596872868123,0.20656,0.7967270804637655,0.24320771316364148,0.2,-0.002349719466934274,-0.3257800050453775,0.2,1,C153B7
0.7842091224326487,0.47659008046742557,-0.5015587594923778,0.2,-0.534387986442946,-0.25851424814735124,0.2,-0.8450260346621854,-0.5427268407887861,0.2,-0.3227247508639145,-0.06562279800940984,0.20672000000000001,0.8041922737818382,0.09766296019314558,0.2,-0.00573690528326133,0.1431524003103553,0.2,1,C153B7
0.7922112563350228,0.4730544995519448,-0.23940225844439056,0.2,-0.5369258906527745,-0.4716839455666741,0.2,-0.8492449370092706,-0.5550179729709448,0.2,-0.3217386123618552,-0.3654690608511958,0.20688,0.7982896878268558,-0.2555950164302573,0.2,-5.9281061968588935e-05,0.3933232298246437,0.2,1,C153B7
0.8002133902373967,0.4727596443323153,-0.11396846305576983,0.2,-0.5419349295720128,-0.6430500579809456,0.2,-0.8539063222297205,-0.7075139073638159,0.2,-0.32857225583753363,-0.5042027561940714,0.20704,0.8001027535189541,0.053086314832952175,0.2,0.0005562663939329696,0.00644596457749937,0.2,1,C153B7
0.8082155241397707,0.47123100414305247,-0.28218660476182417,0.2,-0.5472146915804696,-0.2548347104227647,0.2,-0.8605651595270917,-0.5125721679637429,0.2,-0.32980585646096033,-0.3503472291980329,0.20720000000000002,0.7991390688641831,-0.011909471071040734,0.2,4.3854371271400976e-05,-0.19807438336091715,0.2,1,C153B7
0.8162176580421446,0.46824465865612613,-0.31628108732843424,0.2,-0.5460122849387771,-0.38822005256564096,0.2,-0.8621074769171404,-0.4227033315457457,0.2,-0.33417781150470216,-0.15555348341560193,0.20736,0.7999122019818175,0.22345871416332846,0.2,-0.002612923739841705,-0.017378942212265422,0.2,1,C153B7
0.8242197919445186,0.4661705067457975,-0.13199865851595133,0.2,-0.5534262124215199,-0.5664228847314864,0.2,-0.8673284128318236,-0.7043633444049346,0.2,-0.33229471219560996,-0.12599560225877784,0.20752000000000004,0.8027144082907963,0.013266823822626062,0.2,-0.0002342087041248458,0.17809949636908112,0.2,1,C153B7
0.8322219258468926,0.4661326801198709,-0.3574402470410132,0.2,-0.5550750510944809,-0.31792147728142844,0.2,-0.8733772904276194,-0.6075687522588066,0.2,-0.3361937411408426,-0.3387696745542727,0.20768,0.8001244711629795,-0.29105694370964996,0.2,0.00023666820206359325,-0.07820615550156701,0.2,1,C153B7
0.8402240597492665,0.4604514627931413,-0.27232670773787504,0.2,-0.5585129560580228,-0.2005118214555221,0.2,-0.8770495128679645,-0.5790296455420659,0.2,-0.33771502698847833,-0.31707046167586334,0.20784,0.7980574971914419,0.18351555869368374,0.2,-0.001485507192149918,-0.13376260658952174,0.2,1,C153B7
0.8482261936516405,0.4617754527960649,-0.24707918077317148,0.2,-0.5582832402377692,-0.6219595809851819,0.2,-0.8826417647562924,-0.5096753443055365,0.2,-0.3412668685276564,-0.40077869132931765,0.20800000000000002,0.8030607201020784,0.08968013309372524,0.2,-0.0019035335033687549,0.012023760985277535,0.2,1,C153B7
0.8562283275540145,0.45649819590077056,-0.4273927766995193,0.2,-0.5684643093537857,-0.6705627344448031,0.2,-0.8852043183768531,-0.6840801634402371,0.2,-0.3441274860497474,-0.32953731114069434,0.20816,0.7994923793209415,-0.255131332473138,0.2,-0.0012931270163854774,0.056097121594295155,0.2,1,C153B7
0.8642304614563885,0.4549371683688726,-0.2508054471815936,0.2,-0.5690122439888861,-0.04058321227397993,0.2,-0.8935870473713362,-0.8649895532239978,0.2,-0.34653946550590753,-0.4839544462155905,0.20832000000000003,0.7989786187825082,0.3221993227878195,0.2,-0.0010059795578600324,-0.06740053244793011,0.2,1,C153B7
0.8722325953587624,0.45248530874586507,-0.44004461115073473,0.2,-0.5691136407501693,-0.7316575540644576,0.2,-0.8990441512284371,-0.7522037716373927,0.2,-0.35187075718919686,-0.20083453435518553,0.20848,0.8046475684855466,-0.014064311294074983,0.2,-0.002371535535552359,0.04785132616175634,0.2,1,C153B7
0.8802347292611363,0.44789645459046085,-0.4734500414362956,0.2,-0.5807187648539174,-0.8741291158387773,0.2,-0.9056223077175345,-0.39651604288690884,0.2,-0.3497528180555905,-0.12402408956502589,0.20864,0.798753589801803,-0.2704141004911467,0.2,-0.0002403583392719311,0.22681641739948458,0.2,1,C153B7
0.8882368631635104,0.44491010808288434,-0.24036797768925422,0.2,-0.5830997066035898,-0.3909081072937248,0.2,-0.9053884079146276,-0.44776507487501865,0.2,-0.3538551426222373,-0.5156885106566561,0.2088,0.8003209428776883,0.04115533522870002,0.2,0.0012575271428393942,0.06686801663506825,0.2,1,C153B7
0.8962389970658843,0.4440505669474328,-0.37191402200259166,0.2,-0.586973294570617,-0.25245200470890017,0.2,-0.9127865489155348,-0.9028147645724002,0.2,-0.358003834226097,-0.49034906327874783,0.20896,0.7994120751654622,-0.21225473418674118,0.2,0.000829529926889161,-0.15341365128072046,0.2,1,C153B7
0.9042411309682583,0.43895948373084287,-0.49047131058200033,0.2,-0.5871389386789322,-0.27907697509299556,0.2,-0.919833444147786,-1.0256588430278961,0.2,-0.36170072763469724,-0.6164232473717702,0.20912000000000003,0.7969248671307004,-0.1582968041854635,0.2,-0.001197091277652133,-0.26692463238470066,0.2,1,C153B7
0.9122432648706322,0.4362030259781208,-0.463179943653913,0.2,-0.5914385261721049,-0.478630779494435,0.2,-0.9291970904039811,-0.6435823204410176,0.2,-0.3678666061840453,-0.3159964612938111,0.20928000000000002,0.7968793262984948,0.32177943189521524,0.2,-0.0034412641912660497,0.2470423559859221,0.2,1,C153B7
0.9202453987730063,0.43154860463238026,-0.4459898698258545,0.2,-0.5947970311508431,-0.7070783573440084,0.2,-0.9301307612748423,-0.46096868196660035,0.2,-0.3667566710153982,-0.08728374213475693,0.20944,0.8020733380410239,0.07317765802081211,0.2,0.0027555864181226203,0.3686038509902429,0.2,1,C153B7
0.9282475326753802,0.4290671880609071,-0.3635740275999034,0.2,-0.602751779889609,-1.053490548456125,0.2,-0.9365725893154467,-1.0944527404476088,0.2,-0.36926314605820143,-0.431747701945262,0.2096,0.7980501688268278,-0.22598224915731935,0.2,0.0024563974245778364,0.06737448916307272,0.2,1,C153B7
0.9362496665777541,0.4257314201907818,-0.1762972645408395,0.2,-0.6116528799261411,-0.6677319660002151,0.2,-0.947642005122004,-1.1167937892925182,0.2,-0.3736646342465224,-0.45129384280191004,0.20976,0.7984576220545068,0.03546587834048209,0.2,0.0038335782447317837,-0.4899626443881479,0.2,1,C153B7
0.9442518004801281,0.42624643182825367,-0.37004491566921743,0.2,-0.6134354913456125,-0.45100677201829337,0.2,-0.954441289944127,-0.7139474548810837,0.2,-0.376483847543032,-0.2854736240771247,0.20992000000000002,0.7986176228802755,0.10744934211728147,0.2,-0.005383004885632531,-0.12290937551647906,0.2,1,C153B7
0.952253934382502,0.4198107015400743,-0.7475962628547203,0.2,-0.6188689882784338,-0.7717392043064403,0.2,-0.9590651644001014,-0.8496245580847522,0.2,-0.3782322122317564,-0.3712891043942991,0.21008000000000002,0.8001768115283833,0.1622582322552621,0.2,0.001867028236468119,0.3701385610132847,0.2,1,C153B7
0.9602560682848761,0.41428489162257814,-0.4445582232245511,0.2,-0.6257833186145155,-0.47636658182564906,0.2,-0.9680352828734831,-0.6174534895476702,0.2,-0.3824244732133408,-0.7143192222484052,0.21023999999999998,0.8012137545963597,0.10786760371796211,0.2,0.0005392120905800239,-0.37196422015046077,0.2,1,C153B7
0.96825820218725,0.4126977699684815,-0.19040553319842057,0.2,-0.6264908535876442,-0.5202209730184523,0.2,-0.9689444202328641,-0.7140239416394828,0.2,-0.3896613197877309,-0.2635903065519585,0.21040000000000003,0.8019026931878707,-0.06674163432238145,0.2,-0.004084399285939253,0.12041448077034224,0.2,1,C153B7
0.9762603360896239,0.4112384030914034,-0.44386662945678984,0.2,-0.6341068541828108,-0.8932741738430228,0.2,-0.9794596659397148,-1.1111170918506468,0.2,-0.3866419181181721,-0.3090538058546227,0.21056,0.8001458884472016,-0.06721233600995996,0.2,0.0024658437829054997,0.23985377354846174,0.2,1,C153B7
0.984262469991998,0.40559590389717287,-0.4631176090588926,0.2,-0.6407832403691326,-0.6479449597659656,0.2,-0.9867222937024744,-1.1541855724560706,0.2,-0.39460618068140485,-0.5357565047308422,0.21072000000000002,0.8008272958117113,0.09590681949936397,0.2,-0.00024673890916386527,-0.22912217517651756,0.2,1,C153B7
0.9922646038943719,0.40382852134646113,-0.34961244668084424,0.2,-0.6444739735390662,-0.44872583920430725,0.2,-0.9979266350990119,-0.973147598310159,0.2,-0.3952140221938656,-0.39549382806830163,0.21088,0.8016803975591914,-0.13550896049373956,0.2,-0.001200111019918781,0.16359643331399187,0.2,1,C153B7
1.0002667377967458,0.40000210475027936,-0.3756988576088874,0.2,-0.6479628537964015,-0.8358100062482582,0.2,-1.002292655275437,-0.6253333610942019,0.2,-0.4009340819304977,-0.38612996354913176,0.21104,0.7986591524438115,0.09563871425861264,0.2,0.002370804023860005,0.011943274421518052,0.2,1,C153B7
1.00826887169912,0.39781733962471894,-0.5300220451691026,0.2,-0.6578469336390383,-0.8764063277966194,0.2,-1.0079319688765191,-0.8028852018589355,0.2,-0.4013921016106517,-0.07587372055261124,0.21120000000000003,0.8032106169873292,0.3899204850744756,0.2,-0.0010090186291744922,-0.19156790334075183,0.2,1,C153B7
1.0162710056014939,0.3915217520275737,-0.5920112076299167,0.2,-0.6619853550411474,-0.6750089775782314,0.2,-1.01513881850518,-0.9740532479338426,0.2,-0.40214806145933946,-0.6595013977796805,0.21136,0.8048978802050031,-0.06309773102212285,0.2,-0.0006942824295920242,-0.032323342459194826,0.2,1,C153B7
1.0242731395038678,0.38834516030264027,-0.2982075234294265,0.2,-0.66864707728029,-0.5710891027135081,0.2,-1.0235168208434606,-0.808383037152513,0.2,-0.4119441239751266,-0.6476186634799159,0.21152000000000004,0.8022010532909752,-0.4110646201750945,0.2,-0.0015261921085216095,0.17215806811232592,0.2,1,C153B7
1.0322752734062417,0.3867504316527029,-0.324635575814948,0.2,-0.6711227806845635,-0.5638045383370912,0.2,-1.0280729470996202,-0.8328837889075152,0.2,-0.4125099600750181,-0.4263754954345715,0.21168,0.7983208462822016,-0.08166560792659261,0.2,0.0020602466602051904,0.08683925407199375,0.2,1,C153B7
1.0402774073086156,0.3831509910896011,-0.43802535534236475,0.2,-0.6776679498936835,-0.678025499779425,0.2,-1.0368429614659809,-1.0291636873454024,0.2,-0.41876613190207973,-0.5521778695821051,0.21184,0.8008944035641498,0.1635532784400734,0.2,-0.00013676404336970948,-0.007068689369899321,0.2,1,C153B7
1.0482795412109898,0.37974202596722506,-0.462788923289284,0.2,-0.6819711886810343,-0.7944850581805274,0.2,-1.0445395660971466,-1.091346574981611,0.2,-0.4213448059883318,-0.4030197866895513,0.21200000000000002,0.8009376987372427,-0.3378142973784262,0.2,0.0019471476302868013,0.012489812430886033,0.2,1,C153B7
1.0562816751133637,0.37574636831697256,-0.5917416743704412,0.2,-0.690379710824572,-0.9255087154503294,0.2,-1.0543045066656866,-0.7347226297362702,0.2,-0.42521444848911255,-0.5562150880228031,0.21216000000000002,0.7954893748060949,-0.2738231605747127,0.2,6.307295552446703e-05,-0.14344259652419863,0.2,1,C153B7
1.0642838090157376,0.370274159177298,-0.6461652019306257,0.2,-0.6967793281282396,-0.6828127406297915,0.2,-1.056295128172927,-0.963177715736771,0.2,-0.43024424739669664,-0.7867134933626576,0.21232000000000004,0.7965565281680473,0.4333332545761945,0.2,-0.0003479339141003768,0.1847806833141089,0.2,1,C153B7
1.0722859429181115,0.36540772508608255,-0.5793224799071628,0.2,-0.7013047146746486,-0.5041057520980066,0.2,-1.069715350117475,-1.20714443357732,0.2,-0.4378018643829151,-0.46470979456601086,0.21248,0.802422706879314,0.13252566166490481,0.2,0.00301956388855021,-0.20757835096972382,0.2,1,C153B7
1.0802880768204854,0.3610049994987834,-0.5812111900254414,0.2,-0.7048450201618077,-0.8677602527104589,0.2,-1.075609439110164,-0.8840957787230874,0.2,-0.4376796041097528,-0.24467860572135666,0.21264,0.7986769387546858,-0.08696605849671524,0.2,-0.0036691875296159583,-0.21598250261227972,0.2,1,C153B7
1.0882902107228596,0.3561083460456755,-0.619832888995895,0.2,-0.715188878718016,-0.9145587821082698,0.2,-1.0838608825770444,-0.9717780684081467,0.2,-0.4417167220744568,-0.584063614632601,0.21280000000000002,0.8010312499433666,0.1361105312999017,0.2,-0.0004361561532462662,0.2752880115081911,0.2,1,C153B7
1.0962923446252335,0.3510876732748491,-0.41234703312057264,0.2,-0.71947796067554,-0.7668953764408126,0.2,-1.0911578882046944,-1.1911450194628386,0.2,-0.44702462194387443,-0.7900553490288661,0.21296,0.8008547072554842,-0.10758639303684592,0.2,0.0007354206545150994,0.19568492144588953,0.2,1,C153B7
1.1042944785276074,0.3495107935157463,-0.22969443607005757,0.2,-0.727459204741069,-0.7002158732737004,0.2,-1.1029192028884498,-1.1388322172939391,0.2,-0.45435760765891864,-0.45456051133906106,0.21312000000000003,0.7993098676547771,-0.035099387431770934,0.2,0.0026948025898879666,-0.06769376558168376,0.2,1,C153B7
1.1122966124299813,0.34741256229772816,-0.3688499423745717,0.2,-0.7306814146479192,-0.947225265956142,0.2,-1.1093792036813974,-0.8552301972709342,0.2,-0.4542975901252994,-0.1900453108962391,0.21328000000000003,0.8002931170565759,-0.13682324153738157,0.2,-0.0003476795947918407,-0.12216442958499392,0.2,1,C153B7
1.1202987463323555,0.3436091944377532,-0.6114526796773718,0.2,-0.7426148089963672,-0.7262048917621861,0.2,-1.1166028860447847,-1.023321107051514,0.2,-0.45739833263325846,-0.4629661278249472,0.21344,0.797120695790179,0.17618511037518353,0.2,0.000740171716528064,-0.13670493436245898,0.2,1,C153B7
1.1283008802347294,0.3376293194228902,-0.5510482317866855,0.2,-0.7423006929161142,-0.4591067251118325,0.2,-1.1257523413942216,-0.9620023171510172,0.2,-0.46170504817049857,-0.6436347869210463,0.2136,0.8031120788225788,0.014606004704847964,0.2,-0.0025349585445911846,-0.19611305942237553,0.2,1,C153B7
1.1363030141371033,0.3347924227291662,-0.5139657850030468,0.2,-0.7499605165981565,-1.1093785635484243,0.2,-1.131994923119201,-1.2459058500965958,0.2,-0.4676964892239952,-0.42794510463797786,0.21376,0.7973543918654565,-0.3175543947198864,0.2,-0.0023976372342299447,0.0997212775621208,0.2,1,C153B7
1.1443051480394772,0.32940586686284146,-0.5258802518764912,0.2,-0.760050749932889,-1.0505312557805428,0.2,-1.1456868349957672,-1.158630216197623,0.2,-0.4685521698447062,-0.5295385952019879,0.21392,0.7980312085070607,0.1622770290238204,0.2,-0.0009394181035972517,0.17688219181891854,0.2,1,C153B7
1.1523072819418512,0.32637833869914235,-0.5943988579508487,0.2,-0.7667690166906452,-0.8021309096047091,0.2,-1.150533006578363,-0.773622133357077,0.2,-0.476169106747227,-0.522321657619864,0.21408000000000002,0.7999508243298377,0.2450018681371402,0.2,0.0004324778348727524,0.06834861516902527,0.2,1,C153B7
1.1603094158442253,0.3198954851356279,-0.8312592495905158,0.2,-0.7728848444865644,-0.5637584327708236,0.2,-1.1580647891294804,-1.038519748537206,0.2,-0.47690931636662404,-0.3198833355956415,0.21423999999999999,0.8019512383972549,0.27284621108483037,0.2,0.0001541597391071527,0.09897704300093327,0.2,1,C153B7
1.1683115497465992,0.3130781907056941,-0.37479445606598477,0.2,-0.7757891516149784,-0.4567911546344283,0.2,-1.1671493225549583,-0.9884663010662209,0.2,-0.4812872401167573,-0.6304649585156425,0.21440000000000003,0.804316363707195,-0.17127203795532647,0.2,0.0020161105228876848,0.13074188955327892,0.2,1,C153B7
1.1763136836489732,0.3138987738385721,-0.34988666335938196,0.2,-0.7801935029607152,-0.7522805977816862,0.2,-1.17388024994654,-1.3309741858575501,0.2,-0.4869967557028743,-0.7359704556837259,0.21456,0.7992108857899697,-0.6928600116666086,0.2,0.0022460299719596153,-0.18948788228800972,0.2,1,C153B7
1.184315817551347,0.307480004091944,-0.4779775491772671,0.2,-0.7878256411794854,-0.9731293300900695,0.2,-1.188444909528679,-1.0590840641987036,0.2,-0.4930627674076969,-0.7058674704724689,0.21472,0.7932306035205292,-0.029982957888141648,0.2,-0.0010156955937204708,-0.09440134815100103,0.2,1,C153B7
1.192317951453721,0.30625113305173585,-0.37925597523097776,0.2,-0.7957635722421563,-0.5726541242894179,0.2,-1.1908255949737192,-0.216706505895517,0.2,-0.4982906352304338,0.18024250097759334,0.21488000000000002,0.7987311584637594,0.30390645344600953,0.2,0.0007356084015435988,0.010551415847814586,0.2,1,C153B7
1.2003200853560951,0.30141190848824834,-0.1833820161971783,0.2,-0.7969881071681161,0.30360510873063407,0.2,-1.1919122136230074,-0.030484334651262324,0.2,-0.4901788873920554,0.18765535357716592,0.21504,0.7980931067756654,-0.1246411176169318,0.2,-0.0008468729401554375,-0.15336608889647918,0.2,1,C153B7
1.208322219258469,0.303317020792581,-0.13636397620322635,0.2,-0.7909058905024662,0.039189100609342276,0.2,-1.1913133443281394,0.013128671828094296,0.2,-0.49528814957319917,-0.29560818203583705,0.21520000000000003,0.7967369005818885,0.14876732785594482,0.2,-0.0017182490208000679,-0.14500570479822072,0.2,1,C153B7
1.216324353160843,0.2992300848689967,0.14524071649892403,0.2,-0.7963610815583666,-0.06235923205341609,0.2,-1.1917021548737579,-0.1693939488160573,0.2,-0.4949086183046288,-0.04482470807640193,0.21536,0.8004733840213605,0.4525352825640386,0.2,-0.003166964216926969,0.20861614907788867,0.2,1,C153B7
1.224326487063217,0.3056408722565638,0.39432427454065205,0.2,-0.7919036382153208,0.13769140656256368,0.2,-1.1940236475091963,-0.12942838788597422,0.2,-0.4960053449024216,-0.047172222365578914,0.21552,0.8039774651029131,-0.08290240176822561,0.2,0.0016196093644461507,0.25674361174736904,0.2,1,C153B7
1.2323286209655908,0.30553927326164715,-0.3612872446842885,0.2,-0.7941580190533656,-0.07976842694305819,0.2,-1.1937730090799334,-0.0021003292318688693,0.2,-0.49566337386247805,0.0600892506937116,0.21568,0.7991469455930689,-0.12265038913944482,0.2,0.0009409335710309353,-0.04864371390585084,0.2,1,C153B7
1.240330754867965,0.29986027634161516,-0.22669116953087307,0.2,-0.7931799330464098,0.004005957735121746,0.2,-1.1940572527769062,0.2187823041858855,0.2,-0.4950439168913222,-0.04979080309311379,0.21584,0.802015058876682,0.14452584945308378,0.2,0.0008413099419525373,-0.168525563298417,0.2,1,C153B7
1.2483328887703389,0.3019122145491532,0.2874207032564878,0.2,-0.7940939237296036,0.05721455539122594,0.2,-1.1902724922129593,0.16763148657415738,0.2,-0.4964600267119679,-0.07968570247953236,0.21600000000000003,0.8014593591843182,-0.30316928608240673,0.2,-0.0017554754417437367,0.032609830739950385,0.2,1,C153B7
1.2563350226727128,0.30445900759371897,0.20773798129204712,0.2,-0.7922645001601502,0.002374355859417754,0.2,-1.1913751489917197,-0.331921315473202,0.2,-0.49631888813099473,-0.07111767747939798,0.21616000000000002,0.7971643502993635,-0.09626392849253207,0.2,0.0013630672337917435,0.14875316535934968,0.2,1,C153B7
1.2643371565750867,0.30523602224982593,-0.17466164068897366,0.2,-0.794055934035853,-0.23210327884510412,0.2,-1.1955832332605305,0.2772853989040647,0.2,-0.49759790955163824,-0.04167620749234019,0.21631999999999998,0.7999191363284377,0.19693711730905256,0.2,0.0006245752040058585,0.05132282132702655,0.2,1,C153B7
1.2723392904774609,0.3016644213426954,-0.2925857035440647,0.2,-0.7959781526216718,-0.08495418708237557,0.2,-1.1869385826092547,0.30013139590838456,0.2,-0.49698570745087217,0.010750743811786811,0.21648,0.8003153441763083,-0.01952344776260523,0.2,0.0021842323750241683,-0.12780467660505213,0.2,1,C153B7
1.2803414243798348,0.3005546509931209,0.40942613912762355,0.2,-0.795415201029171,0.09709145224050947,0.2,-1.1907811309259964,-0.24895744832492683,0.2,-0.49742589765064965,0.0670278305327128,0.21664,0.799606761164236,-0.014266391846678994,0.2,-0.0014202996216749755,-0.32495334887613164,0.2,1,C153B7
1.2883435582822087,0.30821523956873736,0.2259729915398863,0.2,-0.7944246893858237,0.05006804598432085,0.2,-1.1909219017824535,-0.15850281962401236,0.2,-0.49591326216234877,0.123203393706358,0.21680000000000002,0.8000870819067615,0.07620453354272028,0.2,-0.0030150212069939386,0.03131915088175023,0.2,1,C153B7
1.2963456921845826,0.3041702188577591,-0.07966387700353642,0.2,-0.7946141122934218,0.16300025404436536,0.2,-1.1933171760399806,-0.04135531760852962,0.2,-0.4954546433513479,0.18047267841160217,0.21696000000000001,0.8008260337009195,-0.1505973018631826,0.2,-0.0009191932075669718,0.21990607444453328,0.2,1,C153B7
1.3043478260869565,0.3069406175366808,-0.05202729014814472,0.2,-0.7918166853211138,0.21142312420509984,0.2,-1.19158358686419,-0.022391580160915914,0.2,-0.49302569930776313,0.1980453829361628,0.21711999999999998,0.7976775250769506,-0.06468716228300031,0.2,0.000503475984118594,0.05202523857934037,0.2,1,C153B7
1.3123499599893307,0.30333778221538876,-0.3330763003251483,0.2,-0.7912313423061402,-0.021713688147843857,0.2,-1.1936754413225552,0.03932425588998312,0.2,-0.4922859172243693,-0.14948979777533802,0.21728000000000003,0.7997910391043915,0.07547684790264186,0.2,-8.678939029752586e-05,0.059071456032580086,0.2,1,C153B7
1.3203520938917046,0.3016113967314784,0.10088208557287523,0.2,-0.7921641043314793,-0.36573559946603135,0.2,-1.1909543987699502,-0.08798101744739162,0.2,-0.49541753607216854,-0.05885778759054383,0.21744,0.7988851546433928,-0.05468413933529259,0.2,0.0014486192806398754,0.00400806010468258,0.2,1,C153B7
1.3283542277940785,0.30495189558455477,0.2656981934497683,0.2,-0.7970831118975967,-0.07192216890473252,0.2,-1.1950831376017135,0.012003677897873266,0.2,-0.493227641825818,0.17467944638775365,0.21760000000000002,0.7989160928750269,0.13622051467065965,0.2,-2.2660428622604572e-05,0.20131426043125625,0.2,1,C153B7
1.3363563616964524,0.3058625678266747,-0.26305766032237027,0.2,-0.793314859033955,0.08720994910342561,0.2,-1.1907623399235843,0.29488184919884697,0.2,-0.4926226649299645,-0.04592144485008123,0.21776,0.8010646828781234,0.2250058451963438,0.2,0.004669647447539975,0.25926587988841876,0.2,1,C153B7
1.3443584955988264,0.30074297301939684,-0.37377132044487044,0.2,-0.7956877527119419,0.010868187696543019,0.2,-1.190365028014532,0.025474572257211392,0.2,-0.4939623849434193,-0.2951465755196593,0.21792,0.8025161863981684,-0.16464625353978385,0.2,0.004125593649592096,-0.3564795522311804,0.2,1,C153B7
1.3523606295012005,0.2998822266995568,0.18668640526942754,0.2,-0.7931409680308104,-0.009144241666710073,0.2,-1.1903547467674689,-0.06055350714197216,0.2,-0.49734501013827903,0.21160145914839862,0.21808000000000002,0.7984303428214868,-0.034365318297382985,0.2,-0.0010340253881589104,-0.41145373301692734,0.2,1,C153B7
1.3603627634035744,0.3037299555037077,0.07903916448093878,0.2,-0.7958340605786093,0.07095461091058408,0.2,-1.1913338841288035,-0.07591475592949593,0.2,-0.49057676159704494,-0.08074698871276403,0.21824,0.8019663413054102,0.25669739950320153,0.2,-0.002457666078678742,0.0002625455784417772,0.2,1,C153B7
1.3683648973059483,0.3011468533312518,-0.11083735311942858,0.2,-0.792005694256241,0.41593176029909584,0.2,-1.1915693828623408,-0.10978861564223119,0.2,-0.49863696195768326,-0.4477817804161982,0.21840000000000004,0.8025375012135381,-0.13540248808598804,0.2,-0.001029824658903842,0.3404083888513759,0.2,1,C153B7
1.3763670312083223,0.3019565578537968,0.46808624877069105,0.2,-0.7891791524138237,-0.12278295898549701,0.2,-1.1930905019790792,-0.032758249691483554,0.2,-0.4977412700837041,0.09212150658111443,0.21856,0.7997999014960344,-0.08550148815659325,0.2,0.002988868142943273,-0.035776034313318876,0.2,1,C153B7
1.3843691651106962,0.30863623331158285,0.07605524947337447,0.2,-0.793970221600009,-0.32513909088724424,0.2,-1.1920935148574046,-0.04834249385123057,0.2,-0.4971630178523854,0.2967781813348023,0.21872,0.8011694774030326,0.09609307578187926,0.2,-0.001602241207916944,-0.1556744880950854,0.2,1,C153B7
1.3923712990130703,0.3031734418453708,-0.019421516037072817,0.2,-0.7943813778680197,0.0571890065038938,0.2,-1.1938639818806989,-0.1536609684008733,0.2,-0.4929928191823473,0.0674923920482122,0.21888000000000002,0.8013373907085445,-0.053880736465734824,0.2,0.0004980763334219065,-0.026340882001080455,0.2,1,C153B7
1.4003734329154442,0.3083254890549897,0.009797145793469936,0.2,-0.7930551974959467,-0.10055495538809078,0.2,-1.1945520903518185,0.07797340085313742,0.2,-0.49608313957961403,-0.26398825601208276,0.21904,0.8003073856195808,0.027415317220176594,0.2,-0.0020236953199342313,-0.20594680465708648,0.2,1,C153B7
1.4083755668178182,0.30333019617806634,-0.3725556355293931,0.2,-0.7959902571542291,0.06592779664801873,0.2,-1.1926164074670487,0.15726381572617187,0.2,-0.4972166312785406,0.008537153975963357,0.21920000000000003,0.8017760357840673,-0.04473667926423175,0.2,-0.0027970725410914775,0.291361571822895,0.2,1,C153B7
1.416377700720192,0.3023645988865194,-0.028394508034605,0.2,-0.7920003527495784,-0.06863361592934075,0.2,-1.1920358693001998,-0.06210548078607048,0.2,-0.4959465451159986,-0.0310418445419354,0.21936,0.7995915987513531,-0.3160909220645408,0.2,0.0026380898292320894,0.24996588722298047,0.2,1,C153B7
1.4243798346225662,0.30287588404951266,0.20678296696285958,0.2,-0.7970883950090986,-0.13942715096253167,0.2,-1.1936100951596258,0.14001943746207168,0.2,-0.49771330079121157,0.026384037773607982,0.21952,0.7967185810310347,-0.03255585855949095,0.2,0.00120238165447621,-0.19087990465917726,0.2,1,C153B7
1.4323819685249402,0.30567312635792515,0.16731607046446134,0.2,-0.7942311871649789,0.05465857202429508,0.2,-1.1897955583008066,0.1226441231394898,0.2,-0.4955244005116209,-0.007964422164635776,0.21968000000000001,0.7990707050144013,0.25109723189958855,0.2,-0.00041598864531474706,-0.14415822165855574,0.2,1,C153B7
1.440384102427314,0.30555294117694404,-0.05978814565192961,0.2,-0.7962138578567098,-0.010482314555748662,0.2,-1.191647789189394,-0.18204805145813352,0.2,-0.49784073154584574,-0.18706770802491904,0.21984,0.8007361367414281,0.012436208866532794,0.2,-0.0011041498920606816,-0.023839160571730755,0.2,1,C153B7
1.448386236329688,0.3047165160274943,-0.08987195800159303,0.2,-0.7943989041978708,0.22887636113511772,0.2,-1.1927083271241368,0.08634933288476088,0.2,-0.4985174838400196,0.10275984840530869,0.22000000000000003,0.7992696843562658,-0.05958490108729647,0.2,-0.0007974152144624391,-0.025165715987814943,0.2,1,C153B7
1.456388370232062,0.30411498984891855,-0.14253292891105995,0.2,-0.792551836078548,0.008873151496349707,0.2,-1.1902661998632378,0.017429622211850848,0.2,-0.4961965739713608,-0.05091177781861925,0.22016000000000002,0.7997827783240313,0.08956316026355327,0.2,-0.0015068013478657207,0.2122757167773793,0.2,1,C153B7
1.464390504134436,0.3024359891649173,0.21372876520603032,0.2,-0.7942569337739293,-0.09061184677593148,0.2,-1.1924294531687472,-0.134849462909023,0.2,-0.4993320722851175,0.11311956420322414,0.22032,0.8007026949204826,0.11019623519057525,0.2,0.0025989962539756297,0.019410631489032756,0.2,1,C153B7
1.47239263803681,0.30753465009221503,0.15340224912963746,0.2,-0.7940016256269629,0.058867650412693096,0.2,-1.1924237912697822,0.150355541842756,0.2,-0.4943866609441092,0.37933496612084155,0.22048,0.8015459180870805,0.08468427503573184,0.2,-0.0011962312440411966,-0.29765747903380524,0.2,1,C153B7
1.480394771939184,0.3048904251509915,-0.2286798339377165,0.2,-0.7933150513673262,0.0211883066361801,0.2,-1.190023764499263,-0.004438177317225844,0.2,-0.49326271282718404,-0.054667669899668286,0.22064,0.8020576433210543,-0.44785237170907877,0.2,-0.0021635234105652538,0.08726526521981298,0.2,1,C153B7
1.4883969058415578,0.30387577274921157,-0.15344622870587868,0.2,-0.793662612720784,-0.03597356689866854,0.2,-1.1924948021068578,-0.20540999800947035,0.2,-0.4952613436625039,-0.11548285992535323,0.22080000000000002,0.7943802801397353,-0.19959782343809823,0.2,0.0002000129994758112,0.15769855031181418,0.2,1,C153B7
1.4963990397439317,0.30243528549169746,0.12072026654204315,0.2,-0.7938906284377049,-0.015477823100434884,0.2,-1.1933103244674146,0.1719741115382839,0.2,-0.4951104385859897,-0.08594440707765036,0.22096000000000002,0.7988640781460448,0.17931716946849308,0.2,0.00035965339442377346,0.05127980273945311,0.2,1,C153B7
1.5044011736463059,0.30580729701388426,0.18435641501653513,0.2,-0.7939102578903909,-0.15507306081634364,0.2,-1.1897432163222452,0.05586757318021274,0.2,-0.4966364541757463,-0.2944070490708828,0.22111999999999998,0.7972493548512312,-0.05728994982428376,0.2,0.001020489843307061,-0.10765881876176672,0.2,1,C153B7
1.5124033075486798,0.305384988131962,-0.1689951771674733,0.2,-0.7963717974107664,-0.13687668807380038,0.2,-1.1924164432965312,-0.25505310629719835,0.2,-0.4998209513711238,-0.12633308836562315,0.22128000000000003,0.7979474389488562,0.2854439774213971,0.2,-0.001362887705764494,-0.13632997790849422,0.2,1,C153B7
1.5204054414510537,0.3031033741792047,-0.22634543071351626,0.2,-0.7961002848995717,0.3058079595951377,0.2,-1.1938240660230004,0.17370813805396568,0.2,-0.4986577835895963,0.3108572971773291,0.22144,0.8018164584899735,-0.016595235690794463,0.2,-0.0011607898032288467,-0.0624593689887101,0.2,1,C153B7
1.5284075753534276,0.30176346124054576,-0.09859156026268204,0.2,-0.7914788700572442,0.2520275455948212,0.2,-1.1896371130876677,0.09114464396302313,0.2,-0.49484723461628655,0.03296293299666006,0.22160000000000002,0.7976819151778035,-0.14978010957931998,0.2,-0.0023622376095838557,0.14059958286909666,0.2,1,C153B7
1.5364097092558016,0.3015259092150018,0.20019353575106633,0.2,-0.7920678441700546,-0.27464500229459204,0.2,-1.192365751719592,-0.06586452205022131,0.2,-0.4981303766616497,-0.1136290796948658,0.22176,0.7994199767367044,-0.03921898142086877,0.2,0.0010888035226766998,0.13991798698495767,0.2,1,C153B7
1.5444118431581757,0.3049665578125628,0.19174881235923744,0.2,-0.7958731900939576,-0.15101395169578313,0.2,-1.1906909454404713,-0.033266180391303135,0.2,-0.4966652998914044,0.12198604323076026,0.22192,0.7970544114750696,0.13915204221612992,0.2,-0.00012354981782453312,-0.16849229655463469,0.2,1,C153B7
1.5524139770605496,0.3045938902127496,-0.11041451516960801,0.2,-0.7944840673971871,0.3289974415390459,0.2,-1.1928980106058529,-0.1514047586604894,0.2,-0.49617859996995756,0.2840839780201172,0.22208000000000003,0.8016464094121625,0.2691653775019273,0.2,-0.0016070732221974554,-0.30886255195787427,0.2,1,C153B7
1.5604161109629235,0.3031999255698491,0.020300618869532883,0.2,-0.7906092310293329,-0.062327813734039395,0.2,-1.193113421579039,0.058433987696671075,0.2,-0.4921199562430825,0.11681465476335098,0.22224,0.8013610575151005,0.1904266119166359,0.2,-0.005065350649150522,0.010069834805817031,0.2,1,C153B7
1.5684182448652975,0.3049187001146621,0.15337816695538964,0.2,-0.7954813124169318,-0.21112003301515525,0.2,-1.1919630668027061,-0.049891451845224255,0.2,-0.49430956549374394,-0.24505479699696991,0.22240000000000004,0.8046932352028286,-0.0659669751518488,0.2,-0.001445955865304383,0.17042806211866268,0.2,1,C153B7
1.5764203787676716,0.30565397624113533,-0.07043173990624318,0.2,-0.7939871515575754,0.2049610360124604,0.2,-1.1939116848085627,0.0005242720381437582,0.2,-0.49604083299503404,-0.04885899323122181,0.22256,0.8003055859126709,-0.2746221756428774,0.2,-0.0023385016552519193,-0.01579704869982344,0.2,1,C153B7
1.5844225126700455,0.3037917922761622,-0.24068928893626954,0.2,-0.7922019358407324,0.04395807181289957,0.2,-1.1919546784500958,0.1256438859349035,0.2,-0.4950913093854435,-0.10468766456262976,0.22272,0.8002992803925426,-0.05566921587955159,0.2,-0.001698708644501558,0.06706328663495992,0.2,1,C153B7
1.5924246465724194,0.301802947618155,0.12232453819147407,0.2,-0.793283822408569,-0.07127433426015045,0.2,-1.1919013826336042,-0.3317843667935,0.2,-0.4977158356280361,0.11507770884629578,0.22288000000000002,0.799414878458598,-0.06523961796808114,0.2,-0.0012654890690925607,0.22018360539282944,0.2,1,C153B7
1.6004267804747934,0.3057489848872258,0.2705640954198916,0.2,-0.7933423251888948,0.0905975865305303,0.2,-1.1972632283187918,0.04265766926875303,0.2,-0.49325006604390276,0.08993885892959533,0.22304000000000002,0.7992554465050533,0.12882006188043998,0.2,0.0018242290417837133,0.13959120423860977,0.2,1,C153B7
1.6084289143771673,0.3061319731448733,0.055042324455124164,0.2,-0.7918342610240805,0.01875548253180842,0.2,-1.1912188599253042,0.10816576038875925,0.2,-0.4962768138851626,-0.18226084246605878,0.22320000000000004,0.8014759994486851,0.0080036241069531,0.2,0.0009679701987251957,-0.012225946859510922,0.2,1,C153B7
1.6164310482795414,0.3066296620785078,-0.2349003805448245,0.2,-0.7930422374683859,-0.16591162812707588,0.2,-1.1955325761525717,0.14297543167668403,0.2,-0.4961662395233597,0.1387463567896624,0.22336,0.7993835044907646,-0.02438109316922621,0.2,0.0016286138920315386,0.21428252223916153,0.2,1,C153B7
1.6244331821819153,0.3023735670561561,-0.3202812860802102,0.2,-0.7944888470741137,-0.03160123217259281,0.2,-1.1889312530184772,0.1786616648616346,0.2,-0.494056872176528,-0.11710460576239493,0.22352,0.8010859019579775,0.09893980884081999,0.2,0.00439649055455178,-0.07709634587394279,0.2,1,C153B7
1.6324353160842893,0.3015051615012244,-0.14281372973588488,0.2,-0.7935478571831474,-0.16117487410305387,0.2,-1.1926739895147855,0.02249665243971022,0.2,-0.498039913215558,-0.240699229385688,0.22368000000000002,0.8009665414322177,-0.2839795971751394,0.2,0.00039507235804845384,-0.29676648357142293,0.2,1,C153B7
1.6404374499866632,0.30008854738038193,0.4217978802844233,0.2,-0.7970676450597626,0.004737732858250965,0.2,-1.1885713065794419,0.044589537014402825,0.2,-0.497908059846699,-0.011034459905745475,0.22384,0.7965422284031752,-0.44076806677190855,0.2,-0.0003517731825909874,-0.2335056029712901,0.2,1,C153B7
1.648439583889037,0.3082539275857752,0.2954817199784174,0.2,-0.7934720534574153,0.26569860284089697,0.2,-1.191960556922555,-0.20105253826280256,0.2,-0.49821646457404994,-0.008220401764312546,0.22400000000000003,0.7939142523638671,-0.023706827189093338,0.2,-0.003341017289492188,-0.09345311688170779,0.2,1,C153B7
1.6564417177914113,0.3048162549000366,-0.1920596642285416,0.2,-0.7928164674143082,0.04088556290481743,0.2,-1.1917881471916467,0.11959992682750165,0.2,-0.498039586274928,0.032547487374554734,0.22416000000000003,0.7961629191681497,0.36639296437378926,0.2,-0.001847023052698312,0.20270588353458838,0.2,1,C153B7
1.6644438516937852,0.3051809729581185,-0.02498409424758069,0.2,-0.7928178844509383,-0.268829348123098,0.2,-1.190046958093315,-0.04848110887455126,0.2,-0.49769570477605707,0.11765872184981221,0.22432,0.7997765397938478,0.37573964534327875,0.2,-9.772315293877388e-05,0.21770278470541887,0.2,1,C153B7
1.672445985596159,0.3044165093920753,0.14677242999414086,0.2,-0.7971177369842778,-0.1304753850757609,0.2,-1.1925638449336395,0.06517695773040899,0.2,-0.496157046725331,0.17362539831832988,0.22448,0.8021747534936422,0.27027517607524504,0.2,0.0016362215025883897,0.022815426739079377,0.2,1,C153B7
1.680448119498533,0.3075293318380248,-0.10285292870779172,0.2,-0.7949054906121504,0.18069034128634365,0.2,-1.1890041267696285,-0.024412208656413026,0.2,-0.4949176984029638,0.30925863935553355,0.22464,0.8041009426110517,-0.39295140647540444,0.2,0.00026732367488649616,-0.3909408361104043,0.2,1,C153B7
1.6884502534009072,0.30277086253275065,-0.1967264690240153,0.2,-0.7942266915236963,0.052286920450166086,0.2,-1.1929544402721421,-0.29031215359986984,0.2,-0.49120890849564247,-0.04222204027062165,0.22480000000000003,0.7958875309900357,-0.36929161205216665,0.2,-0.00461883187517808,-0.12118718772836626,0.2,1,C153B7
1.696452387303281,0.30438170833364053,-0.02633702403933777,0.2,-0.7940688998849478,-0.2061224584161206,0.2,-1.1936491212272264,0.0390120557942214,0.2,-0.49559325104729374,-0.2738297769265853,0.22496000000000002,0.798192276818217,0.33397513316325844,0.2,-0.001671671328767364,0.20086358738015123,0.2,1,C153B7
1.704454521205655,0.30234947014812125,-0.16638896022339034,0.2,-0.7975246508583542,-0.2742736371981608,0.2,-1.1923302473794346,0.03575854713511184,0.2,-0.49559018492646784,0.01063565355943416,0.22512,0.8012311331206479,0.18889185924431118,0.2,-0.0014050144770956599,0.18381264248104462,0.2,1,C153B7
1.712456655108029,0.3017194849700663,0.19012361196608235,0.2,-0.7984572780801183,0.31716221759772734,0.2,-1.1930769844730647,0.16184263757756945,0.2,-0.4954230805903428,-0.1401252506260317,0.22528000000000004,0.801214546566126,-0.3548492532416611,0.2,0.00126933095092935,0.01363660876327849,0.2,1,C153B7
1.7204587890104028,0.30539144793957856,-0.004732730216186476,0.2,-0.7924500553767906,0.10505698184027495,0.2,-1.1897407651781935,0.11748194320071459,0.2,-0.49783218893648434,0.010334449862398065,0.22544,0.7955535450687813,0.14358329562510347,0.2,-0.001186828736883204,-0.03747298624829921,0.2,1,C153B7
1.728460922912777,0.3016437612866073,-0.0969397448353955,0.2,-0.796776366370674,0.02288703054104113,0.2,-1.1911972733818532,-0.09795939544002263,0.2,-0.4952577293925444,0.18516096746291552,0.22560000000000002,0.8035118792961277,0.15712227606101692,0.2,0.0006697631709565626,-0.04370681196406463,0.2,1,C153B7
1.736463056815151,0.30384041202221224,0.1268060646654398,0.2,-0.7920838628881339,0.17400327912455577,0.2,-1.1913081155052339,-0.139495037752152,0.2,-0.4948696134570777,-0.09021793794353888,0.22576000000000002,0.7980675014857576,-0.2929197100672576,0.2,-0.0018861377283082381,-0.017199639425713762,0.2,1,C153B7
1.7444651907175248,0.30367265832125434,0.06282345167150233,0.2,-0.7939923139046811,-0.16131524882070924,0.2,-1.1934291939858876,-0.10465023017781905,0.2,-0.49670121639964104,0.1243588267371247,0.22592,0.7988251639350515,0.10055564110744014,0.2,0.0003945689401451424,0.15354477155884722,0.2,1,C153B7
1.7524673246198987,0.3048455872489563,-0.26483361110532855,0.2,-0.7946649068692653,0.08786913388688505,0.2,-1.192982519188079,0.09713175627103221,0.2,-0.4928798722292837,-0.06166669529501789,0.22608000000000003,0.7996763917434766,0.07555872235665007,0.2,0.0005705786166333176,0.034632725722310125,0.2,1,C153B7
1.7604694585222727,0.2994353205435691,-0.11324214186078999,0.2,-0.7925864077624909,-0.016797297798056,0.2,-1.1918750858855511,0.07731938716425135,0.2,-0.49768788352436133,-0.21873814926645987,0.22624,0.8000341034927579,0.01407154730116017,0.2,0.0009486925517021044,-0.15996610647177403,0.2,1,C153B7
1.7684715924246468,0.30303371297918363,0.4748172804444235,0.2,-0.7949336636340342,-0.14564987046832012,0.2,-1.191745408993451,0.09949545227834478,0.2,-0.49637968261754706,0.2644880687042231,0.22640000000000005,0.7999015365002952,0.12241223802821055,0.2,-0.001988879086915067,-0.3954367352840278,0.2,1,C153B7
1.7764737263270207,0.30703239703067986,-0.030030272281544867,0.2,-0.794916805689984,0.13568225412593365,0.2,-1.1902831586490976,0.1345781825318748,0.2,-0.49345607442509376,0.06472046119219976,0.22656,0.8019926993012093,-0.06222889184440139,0.2,-0.00537829521284234,0.046426352442004444,0.2,1,C153B7
1.7844758602293946,0.3025532286226789,-0.16696362919855698,0.2,-0.7927627475680192,-0.04157721119124602,0.2,-1.189592158072941,-0.17792264360810828,0.2,-0.49534415523847186,0.19654430822420646,0.22672,0.7989058742307847,0.03245336613966199,0.2,-0.0012460574478429958,0.41543931674682044,0.2,1,C153B7
1.7924779941317686,0.30436097896350295,0.15696163669844457,0.2,-0.795582041069044,-0.018566203274908433,0.2,-1.1931299209468273,-0.3516585392678989,0.2,-0.49031136549350646,-0.21497366336143894,0.22688000000000003,0.8025119531594439,0.2889338997422511,0.2,0.0012687338551067866,-0.217408846993291,0.2,1,C153B7
1.8004801280341425,0.30506461480985403,-0.1301072519824427,0.2,-0.7930598068204178,0.13531783763435362,0.2,-1.1952186947012273,0.05010282503442598,0.2,-0.4987837338522549,-0.3780935003895348,0.22704000000000002,0.8035288166266608,-0.36190021152079227,0.2,-0.004724598999735652,-0.3655901999816344,0.2,1,C153B7
1.8084822619365166,0.30227926293178387,-0.052705806294219004,0.2,-0.7934169556668943,0.15268005562853876,0.2,-1.1923282757462765,0.07287450418348718,0.2,-0.496360861499739,0.051447799244947606,0.22720000000000004,0.7967215497751112,-0.25074680940611466,0.2,-0.0045807093445993635,0.37841344376222913,0.2,1,C153B7
1.8164843958388905,0.3042213219091465,-0.03866327354425103,0.2,-0.7906169259303611,-0.2560456773472372,0.2,-1.1940527026342915,-0.00038446163970473624,0.2,-0.4979605690643357,-0.016850118992908086,0.22736,0.7995168676761629,0.2982833254389222,0.2,0.0013300161004600143,0.2281233420921918,0.2,1,C153B7
1.8244865297412645,0.30166065055507585,0.09088141632644306,0.2,-0.7975136865044501,-0.2364216849996409,0.2,-1.1923344271325118,0.37363747263796654,0.2,-0.49663046340362554,0.06984832724491255,0.22752,0.801494082982134,0.038422870347748495,0.2,-0.000930735871124295,0.18528370165115213,0.2,1,C153B7
1.8324886636436384,0.3056754245703696,-0.10746124625573422,0.2,-0.7943996728903554,0.028001391514612117,0.2,-1.188074503072084,-0.3448747582202455,0.2,-0.4968429958284171,-0.117350078674517,0.22768000000000002,0.8001316336017269,0.23106139887599936,0.2,0.004294555326878448,0.022643148096729744,0.2,1,C153B7
1.8404907975460125,0.2999412706149841,-0.09871454101421928,0.2,-0.7970656642402163,-0.19426009475920214,0.2,-1.1978524232640357,-0.18151970809807128,0.2,-0.4985080646624178,0.11558696685689054,0.22784000000000001,0.80519106536415,0.019730464502071277,0.2,-0.0005684455015766191,-0.14001799237633733,0.2,1,C153B7
1.8484929314483864,0.3040959919141421,0.4259076517065183,0.2,-0.7975078344065026,0.26398763515338847,0.2,-1.1909788184016532,0.38726508174546925,0.2,-0.4949936043587069,0.21701270875732967,0.22799999999999998,0.80044732103376,-0.20370069274745772,0.2,0.0020542674488570507,0.0039935636691163,0.2,1,C153B7
1.8564950653507604,0.3067557930422884,-0.07007744268856114,0.2,-0.7928418620777621,0.20627083274508268,0.2,-1.1916561819561082,-0.33961859363949853,0.2,-0.49503586132230054,0.09553534632238472,0.22816000000000003,0.8019318542801906,-0.25761668833317736,0.2,-0.0005045484828707583,-0.15240907971941514,0.2,1,C153B7
1.8644971992531343,0.3029747528311251,-0.33975695707356285,0.2,-0.7942075010825813,0.0008130835143782544,0.2,-1.1964127158998852,-0.1722102337222836,0.2,-0.4934650388175487,-0.024807376036599382,0.22832,0.7963254540204292,-0.006888137562562069,0.2,-0.0003842778266535916,-0.13795522176602218,0.2,1,C153B7
1.8724993331555082,0.3013196817291114,0.10750703947577309,0.2,-0.792828852741532,0.05001329574898239,0.2,-1.1944115456956648,0.06381957733803123,0.2,-0.49543277933888613,-0.10806338143854594,0.22848000000000002,0.8018216440791897,0.27708620038721654,0.2,-0.002711832031127113,-0.0548138609621258,0.2,1,C153B7
1.8805014670578823,0.3046948654627375,0.0796597057586175,0.2,-0.7934072883505976,0.023090601823226586,0.2,-1.1953916026624767,0.11146445880499956,0.2,-0.49519405292056545,0.29696948464933565,0.22864,0.8007588332266247,-0.1405665864027822,0.2,-0.0012612996020476045,0.17627499982562803,0.2,1,C153B7
1.8885036009602563,0.30259423702124927,-0.1993157826138854,0.2,-0.7924594031123604,0.03043982051771643,0.2,-1.1926281143547848,0.28445957351964923,0.2,-0.49068126758449676,-0.14997816545135254,0.2288,0.7995725786967451,-0.03525113091238513,0.2,0.0001085679660829355,-0.10059589152647624,0.2,1,C153B7
1.8965057348626302,0.30150581294091533,0.09687339210422488,0.2,-0.7929202512223141,-0.43321184690898323,0.2,-1.1908402494861623,-0.09200375477470824,0.2,-0.4975937035677871,-0.21592252581189783,0.22896000000000002,0.8001948151320265,-0.13140920745125656,0.2,-0.0028708338664712243,0.21347948002839348,0.2,1,C153B7
1.904507868765004,0.30414421129491687,0.3661204394363078,0.2,-0.7993907926629041,-0.30546688723856463,0.2,-1.19410017443118,-0.12941497425258963,0.2,-0.4941360279974871,0.21210278259451223,0.22912,0.797470031377525,-0.323075446014183,0.2,0.003524239646537231,0.20820317655024528,0.2,1,C153B7
1.912510002667378,0.30736373997189625,-0.06978645649458742,0.2,-0.7978077214181312,0.3842838343123406,0.2,-1.1929108890742037,-0.03126026298057305,0.2,-0.4942000590462749,-0.10424762968080231,0.22928000000000004,0.7950256079957996,0.21426585254131353,0.2,0.00046041695833270026,-0.24215735347066286,0.2,1,C153B7
1.9205121365697522,0.30302762799100347,-0.2692234433258715,0.2,-0.7932422513139067,0.3255848733999603,0.2,-1.1946003386388693,0.10930914903403699,0.2,-0.49580399007237996,0.08058449993019606,0.22944,0.800898285018186,0.19806520750487167,0.2,-0.0003502780089933751,-0.05010207341431457,0.2,1,C153B7
1.928514270472126,0.3030561648786823,0.12006056453256475,0.2,-0.7925983634437318,-0.1287405402867134,0.2,-1.1911619426896591,0.2611694164123268,0.2,-0.49291070704739176,0.04708324838817099,0.2296,0.7981946513158775,-0.04813681231896627,0.2,-0.0003412162162963329,-0.17284661634530846,0.2,1,C153B7
1.9365164043745,0.3049485970235245,0.1736033289583723,0.2,-0.7953020999584941,0.03452299065971609,0.2,-1.190421627976272,-0.14558848431621418,0.2,-0.4950506580981692,0.06044469125910182,0.22976000000000002,0.8001280960210826,0.16117894035389685,0.2,-0.0031158238705183104,-0.053921920986937835,0.2,1,C153B7
1.944518538276874,0.30583381814201627,-0.19887278478048637,0.2,-0.7920459955931763,0.1828028849837418,0.2,-1.1934913584387186,-0.0743663569147679,0.2,-0.49194359198724613,-0.211981303935814,0.22992,0.8007735143615399,-0.01695706269161379,0.2,-0.0012039669520873383,0.2988651855768768,0.2,1,C153B7
1.9525206721792479,0.3017666324670367,0.05509873684663574,0.2,-0.7923772537987542,-0.010932656591224055,0.2,-1.1916114896869083,0.1305739041720516,0.2,-0.49844235896114225,-0.10121240985386248,0.23008000000000003,0.7998567830180168,0.036367421258794164,0.2,0.0016660190987117188,0.051533191427379485,0.2,1,C153B7
1.960522806081622,0.30671539793156244,0.007593802083951523,0.2,-0.7922209180986359,-0.06221009123365956,0.2,-1.1914021759719657,0.07530754976045606,0.2,-0.49356299054490793,0.012165119918070011,0.23024,0.8013553931016806,-0.10894606882510399,0.2,-0.0003794358892492666,-0.20696466057027615,0.2,1,C153B7
1.968524939983996,0.30188813330037995,-0.0378515290127418,0.2,-0.7933726152584928,-0.3034058120457636,0.2,-1.190406568890741,0.03352084015163792,0.2,-0.49824771704245313,-0.11282156686076572,0.23040000000000005,0.7981136459168151,-0.17471976514042004,0.2,-0.0016454154704126996,0.0663784671199222,0.2,1,C153B7
1.9765270738863698,0.30610977346735857,0.08736309751039908,0.2,-0.7970754110913681,-0.23866034787310697,0.2,-1.1908658425295395,-0.006345535486146359,0.2,-0.4953681356146802,0.1497473125924506,0.23056000000000001,0.7985598768594339,0.3376511071147975,0.2,0.0006826195846694885,0.17096890339163046,0.2,1,C153B7
1.9845292077887438,0.30328594286054633,-0.10371304949566632,0.29338644809743136,-0.7971911808244625,0.2372212269204088,0.5717316979026215,-1.1905080974585194,0.008485802170929424,0.45017145427112737,-0.4958517600409739,-0.05668222053654623,0.23072,0.8035160636306519,0.1282448700272512,0.2,0.001090086983853388,0.08227671238510302,0.2,1,C153B7
1.992531341691118,0.3044503646754279,12.460793866936436,0.6262214299301906,-0.7932798714606416,18.5244304171599,0.951548962071964,-1.1907300696948047,24.22772827765372,1.2286719510635467,-0.4962750511432649,12.417913457269329,0.7211959049139645,0.8006117947798699,-0.29887827210221124,0.2,0.0019990469828311368,-0.02344503124795231,0.2,1,C153B7
2.0005334755934916,0.5026586447315293,12.563124741988135,0.9054031598903653,-0.5008002941499041,18.09646043956908,1.4705370827596722,-0.8028644450160598,24.559866584513617,1.6685018045333615,-0.29716514472466465,12.679157732931811,0.9141578389820114,0.7987340112770165,-0.2410596777203608,0.2,0.000714966483886151,-0.03728565412111284,0.2,1,C153B7
2.0085356094958655,0.5054603605472381,0.310110340153949,0.2,-0.5037365044275364,-0.33055842543152497,0.2,-0.7977722043425868,0.3656904589337401,0.2,-0.2934085274163559,0.32947828003099255,0.23120000000000004,0.7967548399363441,-0.2466085323484038,0.2,0.0014024765168933312,0.38651308487055647,0.2,1,C153B7
2.01653774339824,0.5076204101739925,0.49238036854076794,0.2,-0.5060892289568085,-0.33407436301969434,0.2,-0.79701339767312,0.2141556555873142,0.2,-0.2918934922441688,0.13875094091241047,0.23136,0.794788274759442,-0.23585729640138858,0.2,0.006899175841815055,0.4432056099413302,0.2,1,C153B7
2.024539877300614,0.5133384464438904,0.5139337738914936,0.2,-0.5090816942358515,-0.2639890685460708,0.2,-0.7943457138531897,0.4064089965217649,0.2,-0.29118851236175736,0.4328716611476935,0.23152,0.7929811231939219,-0.082520169015457,0.2,0.008493766275954615,0.26253429576105125,0.2,1,C153B7
2.0325420112029877,0.5158433505562564,0.11841153613207506,0.2,-0.5103130540535457,-0.4039745343495729,0.2,-0.7905108537287717,0.43308747894395955,0.2,-0.2849675456658057,0.6662411660957774,0.23168000000000002,0.7934679520551947,-0.22603403677214778,0.2,0.011099724573991875,0.5847907873797941,0.2,1,C153B7
2.0405441451053616,0.5152330310220036,0.2075151389883123,0.2,-0.5155452867854446,-0.5040648310013148,0.2,-0.7874163141900864,0.26218368267967584,0.2,-0.2805286537042249,0.3748723264875818,0.23184000000000002,0.7893645786055675,-0.10968677228682944,0.2,0.01785041887403132,0.7059518504961627,0.2,1,C153B7
2.0485462790077356,0.5191635927800694,0.5343741622739414,0.2,-0.5183780913495667,-0.42765645983484923,0.2,-0.7863159148058969,-0.08193858214221306,0.2,-0.27896958844200437,0.21658463171343387,0.23200000000000004,0.7917129636986054,-0.29508201720906263,0.2,0.02239495418193048,0.4163190073983801,0.2,1,C153B7
2.0565484129101095,0.5237830176183866,0.4946510982054564,0.2,-0.5223877901428022,-0.6454262409477176,0.2,-0.7887273315043618,-0.012000956225680093,0.2,-0.27706329959681,0.48850762042485296,0.23216000000000003,0.7846432663302225,-0.5826674161560075,0.2,0.024511522992405402,0.1409545512372711,0.2,1,C153B7
2.0645505468124834,0.5270780103513567,0.4161407028449443,0.2,-0.5287049112047302,-0.5275450851243215,0.2,-0.7865079301055078,0.557473821940685,0.2,-0.2711534665152067,0.5638212284055851,0.23232,0.7823902850401093,-0.1822404156010607,0.2,0.024650227001726817,0.526304317890572,0.2,1,C153B7
2.0725526807148573,0.5304412688639057,0.40613340935650305,0.2,-0.5308285115047914,-0.1956028267099258,0.2,-0.7798077503533108,0.4875317211999672,0.2,-0.2680421599423206,0.18000152101847744,0.23248000000000002,0.7817274196806056,-0.06460765141147462,0.2,0.03293239207865455,0.7594826714989139,0.2,1,C153B7
2.0805548146172312,0.5335761449010608,0.24700255443230873,0.2,-0.531834556432089,-0.029574914992308576,0.2,-0.7787074225663083,0.299806163738342,0.2,-0.2682734421789111,0.46455967179696506,0.23264,0.7813565626175257,-0.29998082271574106,0.2,0.03680194974570944,0.08813641181075557,0.2,1,C153B7
2.0885569485196056,0.5343933097348227,0.39928590357465876,0.2,-0.5313017101446683,-0.44576515692706237,0.2,-0.7750108517334974,0.08725104965014163,0.2,-0.26060920519356917,0.36344120842720856,0.2328,0.7769277265171537,-0.22231803356114604,0.2,0.03434257466762664,0.24347008737662718,0.2,1,C153B7
2.0965590824219795,0.5399647193582553,0.24148425752499453,0.2,-0.538966798942922,-0.7825319055851306,0.2,-0.777311405771906,0.08655026691947038,0.2,-0.26245838284407574,0.21127077614807935,0.23296000000000003,0.7777994740805474,-0.10825273159478094,0.2,0.040697471143735474,0.9089714299880991,0.2,1,C153B7
2.1045612163243534,0.5382570578552226,0.8083541255697879,0.2,-0.5438222206340304,-0.4413475150687046,0.2,-0.7736260474627858,0.19838852052656702,0.2,-0.2572288727751999,0.5505513564156919,0.23312,0.7751956828116372,-0.31555800956287877,0.2,0.04888611754743623,0.18706939458971267,0.2,1,C153B7
2.1125633502267274,0.5528983853673719,0.5882265955220872,0.2,-0.5460283591840213,-0.3966446071553484,0.2,-0.774137189443481,0.27465838657055736,0.2,-0.2536495611414247,0.49686619402405235,0.23328,0.7727505459275413,-0.2669424176292082,0.2,0.04369058145717088,0.09411916571794905,0.2,1,C153B7
2.1205654841291013,0.547668683383576,0.04813720978002339,0.2,-0.550168534348516,-0.42659208568591317,0.2,-0.7692315132776569,0.19923821128699226,0.2,-0.24927901367081506,0.48369561437211667,0.23344,0.7709246041295699,-0.30078274424509555,0.2,0.05039202419892341,0.5178357507648508,0.2,1,C153B7
2.128567618031475,0.5536685807238523,0.5617484269588302,0.2,-0.5528538325549959,-0.3337075613335655,0.2,-0.7709493780628891,0.2694591586775083,0.2,-0.2459104313114708,0.3592780142261595,0.2336,0.7679380220196198,-0.4671883230523907,0.2,0.05197595346940849,0.36035491995561103,0.2,1,C153B7
2.136569751933849,0.5566566582149173,0.39451346428805156,0.2,-0.555507855329853,-0.40528306698098954,0.2,-0.7649201667388168,0.47078498502618055,0.2,-0.2435305654431965,0.5058780690210054,0.23376000000000002,0.7634495909607316,-0.5037288021783811,0.2,0.05615770291821319,0.6457419456689225,0.2,1,C153B7
2.144571885836223,0.5599807961524611,0.5788039996383262,0.2,-0.5593383616266917,-0.8243622851698759,0.2,-0.7634168183024702,0.2368087644739822,0.2,-0.23781638220713472,0.5373287652249114,0.23392000000000002,0.7598783611847657,-0.11752522230015772,0.2,0.06230782460011125,0.24253462731051384,0.2,1,C153B7
2.152574019738597,0.5659175222091305,0.5322995713545539,0.2,-0.568697651892571,-0.49571621043344866,0.2,-0.7611312265072331,0.2063645062919811,0.2,-0.23493330519959793,0.20978271293506898,0.23407999999999998,0.7615691874039291,0.12777416341272496,0.2,0.06003825695518141,0.3331923330578733,0.2,1,C153B7
2.160576153640971,0.568497589294134,0.42701308433360646,0.2,-0.5672698209936269,-0.07781318314052654,0.2,-0.7601149862017985,0.11815524741496525,0.2,-0.23445985880017362,0.2522846366711188,0.23424,0.7619227477993693,0.005485053895179504,0.2,0.06763890192903722,0.6274987955829356,0.2,1,C153B7
2.1685782875433453,0.5727497315584682,0.06584476077065027,0.2,-0.5699426628228195,-0.6261682280764014,0.2,-0.7592407425485936,0.2812090623866628,0.2,-0.23089675101286003,0.3804727481036586,0.2344,0.761656948266252,-0.41645285884098215,0.2,0.07007823768450838,0.5545369216241507,0.2,1,C153B7
2.176580421445719,0.5695511054664644,0.40541981293676366,0.2,-0.5772885126428493,-0.3082659321959544,0.2,-0.7556156412036119,0.18087469457231387,0.2,-0.22837229483051508,0.5105165064863103,0.23456000000000002,0.7552595020579136,-0.6399723180310068,0.2,0.07651149267502363,0.3387590278243141,0.2,1,C153B7
2.184582555348093,0.5792364485654564,0.5821270045980389,0.2,-0.5748749177379547,0.0011776531505039434,0.2,-0.7563467474354366,0.09041003983342732,0.2,-0.22272848690907907,0.5569394364465744,0.23472,0.7514173911777559,-0.0711053989352825,0.2,0.07549838212969741,0.3125389674986231,0.2,1,C153B7
2.192584689250467,0.578865137540033,0.35173606205302077,0.2,-0.5772696701924412,-0.4999459486907179,0.2,-0.7541690805662771,0.47589500622903513,0.2,-0.2194612638473699,0.37322722833381566,0.23487999999999998,0.7541218156749491,-0.23157036864352581,0.2,0.0815121161550016,0.5747314815060643,0.2,1,C153B7
2.200586823152841,0.5848642255583048,0.5630070151334682,0.2,-0.5828740529170062,-0.4870867644646351,0.2,-0.748732427335772,0.5201115014924692,0.2,-0.21675685125573801,0.5047341722658454,0.23504000000000003,0.7477122652794594,-0.3610840744731336,0.2,0.08469408583379444,0.30304543245607274,0.2,1,C153B7
2.208588957055215,0.5878732497821685,0.23811228149760166,0.2,-0.5850630584238754,-0.4609023210118274,0.2,-0.7458472965423976,0.07745752390452693,0.2,-0.21138551709111636,0.4784672525355166,0.2352,0.7483444704833789,-0.035260121980296155,0.2,0.08636084307429877,0.5737353672027028,0.2,1,C153B7
2.2165910909575888,0.5886740220622664,0.30404008234553165,0.2,-0.5902484900531955,-0.5840041291462691,0.2,-0.7474931069532996,0.261680988594519,0.2,-0.20910137521516975,0.3417320624068999,0.23536,0.7471481033277747,-0.43828212737519884,0.2,0.09387385170903768,0.5926125303380818,0.2,1,C153B7
2.2245932248599627,0.592737891099697,0.715566368522963,0.2,-0.5944071244902157,-0.5656899006615187,0.2,-0.7416604007248853,0.6537830811254308,0.2,-0.20591780409260596,0.4158188440721144,0.23552,0.7413319564453758,-0.21950805381044936,0.2,0.09584264355970808,0.5801574885007723,0.2,1,C153B7
2.2325953587623366,0.6001230839586338,0.48747751938378603,0.2,-0.5992995284637798,-0.14608391010347,0.2,-0.7370325776552927,0.13173953287195367,0.2,-0.20244827371001592,0.47993547922968277,0.23568,0.7436359744668075,-0.21048446506456014,0.2,0.10315637152505004,0.4766653480042437,0.2,1,C153B7
2.240597492664711,0.6005375314098376,0.2522230860999633,0.2,-0.5967444670518712,-0.11292242899163529,0.2,-0.739552568198934,-0.08682563540592797,0.2,-0.19823883642493104,0.24906001395351254,0.23584000000000002,0.7379642050043428,-0.4653526802395752,0.2,0.10346928912777598,-0.16365428885956826,0.2,1,C153B7
2.248599626567085,0.6041586533362332,0.48307991870603223,0.2,-0.6011062873276459,-0.5713028091937286,0.2,-0.7384217878217876,0.3448178792630416,0.2,-0.19846331348675972,0.2416642285781069,0.236,0.7361903315829743,-0.28168833484741584,0.2,0.10053790290329695,0.15787078398168777,0.2,1,C153B7
2.256601760469459,0.6082668101091341,0.41436717673746376,0.2,-0.6058853119989709,-0.7132057404819342,0.2,-0.7340354821307253,0.23816703855195076,0.2,-0.19437220876768133,0.46814583896265594,0.23616000000000004,0.7334571916467841,-0.09770084713020544,0.2,0.10599522167148298,0.6431230711981409,0.2,1,C153B7
2.2646038943718327,0.6107885281640326,0.1774628860178526,0.2,-0.6125175791753569,-0.4155407747420889,0.2,-0.7346111152049564,-0.09794456131782814,0.2,-0.19097298006335722,0.32574218676917516,0.23632,0.734627118028891,-0.10570335909686202,0.2,0.1108278720424672,0.4724664337676107,0.2,1,C153B7
2.2726060282742067,0.6111062162854197,0.4040461630580097,0.2,-0.6125339643948443,-0.2669982796675366,0.2,-0.7356025951118106,0.3027035221458904,0.2,-0.18916033377937452,0.5285747728917458,0.23648,0.7317659379012343,-0.24959616460942108,0.2,0.11355468461176475,0.3490015749219892,0.2,1,C153B7
2.2806081621765806,0.6172532667729608,0.4876012835191776,0.2,-0.6167895516500375,-0.5056049245345667,0.2,-0.7297678588506221,0.39570000783201165,0.2,-0.1825157836970893,0.7272928734490293,0.23664000000000002,0.7306335793951403,-0.07784286509530253,0.2,0.11641189724121903,0.3095060470047926,0.2,1,C153B7
2.2886102960789545,0.6189078368217266,0.40728727529350944,0.2,-0.6206236431873974,-0.49642478765698356,0.2,-0.7292713949864984,0.28246519524162406,0.2,-0.17752364780419005,0.2092490542937777,0.2368,0.7305204520597095,-0.21836499404597615,0.2,0.11850678136384143,0.3782019450781354,0.2,1,C153B7
2.2966124299813284,0.6237698631776569,0.4744748473526836,0.2,-0.6247323482525492,-0.7481928400652273,0.2,-0.7252484157267561,0.294564330611341,0.2,-0.17916779882838885,0.4115350371337919,0.23696000000000003,0.7271397394904047,-0.4890341905753118,0.2,0.1224631283624692,0.5676756339014887,0.2,1,C153B7
2.3046145638837023,0.6264994343793695,0.5007582629316526,0.2,-0.632594728628441,-0.4197475251931232,0.2,-0.7245583656967169,0.1088224075815672,0.2,-0.17093908721004938,0.5644480565040223,0.23712,0.7226959050105045,-0.36291420400064167,0.2,0.12758959150626525,0.5216098369475071,0.2,1,C153B7
2.3126166977860763,0.6317819953845634,0.3650693308229133,0.2,-0.6314483086556392,0.07242083575043773,0.2,-0.7235072572054511,0.4959097748626004,0.2,-0.1701366299243245,0.47723659467580404,0.23728,0.7213331122263944,-0.19370796626743542,0.2,0.1308088857536293,0.3477109264136517,0.2,1,C153B7
2.3206188316884506,0.6323405436725361,0.2277275644340382,0.2,-0.631435995256434,-0.12077050612846474,0.2,-0.7166238092989153,0.523836560310055,0.2,-0.16330330169523652,0.30901992544247675,0.23744,0.7195965775502255,-0.2976288087861226,0.2,0.13315296632888368,0.421085779760081,0.2,1,C153B7
2.3286209655908245,0.635425636415508,0.6082336867540977,0.2,-0.6333806367536946,-0.5588743405964199,0.2,-0.7151258722404902,0.1202430467781429,0.2,-0.16519231111724486,0.20912159984206624,0.2376,0.7165710512858164,0.03882249250672376,0.2,0.1375462582297906,0.5295589960483404,0.2,1,C153B7
2.3366230994931985,0.6420722826606017,0.4370516209348946,0.2,-0.6403779847059767,-0.7705810020746453,0.2,-0.714699920550465,0.14492548127328225,0.2,-0.15995735609776346,0.37877924716741945,0.23776000000000003,0.7202177374303331,-0.10400398758994567,0.2,0.14162591026565713,0.37408954350536505,0.2,1,C153B7
2.3446252333955724,0.6424184623504663,0.1502081761732485,0.2,-0.6457099327868889,-0.22270199469211216,0.2,-0.7128070645401177,0.1945293979770807,0.2,-0.15913184316256615,0.484270033264721,0.23792000000000002,0.7149069874843773,-0.5247149180054241,0.2,0.14353169092587645,0.45034054908999094,0.2,1,C153B7
2.3526273672979463,0.6444756134793737,0.4053311098792811,0.2,-0.6439412166210505,-0.24294843495853424,0.2,-0.7115874501828318,0.290879641227787,0.2,-0.15220903556552792,0.5189465103616724,0.23807999999999999,0.7118222987422463,-0.3009785883380314,0.2,0.14883135905109698,0.4031786572540278,0.2,1,C153B7
2.3606295012003202,0.6489037601085348,0.4090779378866649,0.2,-0.6495971077462255,-0.783394995645656,0.2,-0.7081529902804731,0.24545470771343558,0.2,-0.1508286989967794,0.45990596626080577,0.23824,0.7100913300709688,-0.29537539254925055,0.2,0.1499825494419409,0.3232647248794327,0.2,1,C153B7
2.368631635102694,0.6510208604855603,0.7099421991833416,0.2,-0.656475536551381,-0.4913069414814175,0.2,-0.7076601748594168,0.08657696377439156,0.2,-0.14485054010535503,0.32920431915590964,0.2384,0.7070962924614583,-0.12739234370343772,0.2,0.1540035946491679,0.4808890807480974,0.2,1,C153B7
2.376633769005068,0.6602628352954683,0.7692906966021845,0.2,-0.6574580188099282,-0.17845879895476285,0.2,-0.7067677588600828,0.5033189075499197,0.2,-0.14556142989028484,0.42108983213614765,0.23856000000000002,0.7080530525717138,-0.1299642658712935,0.2,0.15767677473391045,0.6018095046986232,0.2,1,C153B7
2.384635902907442,0.6633295116311952,0.3134211821053043,0.2,-0.6593308773346572,-0.6186212781710276,0.2,-0.6996070723386181,0.31808971269461916,0.2,-0.13811310279117667,0.7064737779034769,0.23872000000000002,0.7050168642075176,-0.29371390232380695,0.2,0.16363254672434588,0.20093586576064823,0.2,1,C153B7
2.3926380368098163,0.6652775742091531,0.046070272962946135,0.2,-0.6673559592606646,-0.34526071462620544,0.2,-0.7016783234569689,0.021183047018272227,0.2,-0.1342578494438292,0.41732930114708744,0.23887999999999998,0.7033536301345329,-0.4277008397898657,0.2,0.16089174858608082,0.08180618713187968,0.2,1,C153B7
2.4006401707121903,0.6640666359986024,0.21073659976500458,0.2,-0.6648550487686765,-0.19448586799989537,0.2,-0.6992681435863257,0.44183601114902715,0.2,-0.13143583397282327,0.2147360554536626,0.23904000000000003,0.6981736507708798,-0.3825105295684056,0.2,0.16494144571845595,0.764592626718557,0.2,1,C153B7
2.408642304614564,0.6686493598053932,0.7648178149493103,0.2,-0.6704677331486629,-0.41031832186309153,0.2,-0.6946089472785845,0.24793922889922854,0.2,-0.1308220725565706,0.3062747731958585,0.2392,0.6972334616614384,-0.10936787373989898,0.2,0.17312523061357774,0.3855665614544996,0.2,1,C153B7
2.416644438516938,0.6763037210377913,0.42908879602857053,0.2,-0.671420141918486,-0.564248604953875,0.2,-0.6953011159239381,-0.2023198235805851,0.2,-0.12653543760168953,0.585988674044113,0.23936000000000002,0.6964237647910414,-0.26457174431430974,0.2,0.17111051070172795,0.25420610141599526,0.2,1,C153B7
2.424646572419312,0.6755147805418503,0.48816849106944615,0.2,-0.6794957108279249,-0.5960229864779772,0.2,-0.6978460644558738,0.10000859441296195,0.2,-0.1214462537718648,0.578926773126205,0.23952,0.6930003137524094,-0.1584183612660453,0.2,0.17719252823623366,0.5219127316170684,0.2,1,C153B7
2.432648706321686,0.6841144168949025,0.6228688321117948,0.2,-0.6809565097021336,-0.31802245570928395,0.2,-0.6937009784133307,0.4397950480032886,0.2,-0.11727260923167025,0.38477168019373975,0.23968,0.6938890710107847,-0.033599587417526555,0.2,0.17946111440760104,0.592737771542071,0.2,1,C153B7
2.44065084022406,0.685480681855639,0.1776731935882528,0.2,-0.6845840701192735,-0.3283122990023826,0.2,-0.6908093436878212,0.18351563683933342,0.2,-0.11528990688876496,0.15450381775383715,0.23984000000000003,0.692462720353729,-0.15291072362504793,0.2,0.1866763325809068,0.668911806000488,0.2,1,C153B7
2.448652974126434,0.6869571879923145,0.3806433749702007,0.2,-0.6862095064861717,-0.27122880978242697,0.2,-0.6907647282239013,0.39235934885900603,0.2,-0.11480054814760886,0.4971827197525584,0.24,0.6914424994327839,-0.3953204452280257,0.2,0.19016370330360885,0.4494947283049076,0.2,1,C153B7
2.4566551080288077,0.6915709758551623,0.4043582428495049,0.2,-0.6889237310757923,-0.3396963398871397,0.2,-0.6845315941060771,0.5903966195746346,0.2,-0.10733498337272403,0.508918616184394,0.24016000000000004,0.6861375932300806,-0.28633639438424563,0.2,0.19386824823378532,0.2002047294485769,0.2,1,C153B7
2.4646572419311816,0.6934269198779066,0.5618929815784587,0.2,-0.691644647924366,-0.5118438050106879,0.2,-0.6813183823107072,0.15076310784255947,0.2,-0.10665785028865855,0.39255925734856323,0.24032,0.686861117122636,-0.26241245083215986,0.2,0.19336697897478608,0.3656284401285618,0.2,1,C153B7
2.472659375833556,0.7005612635604176,0.4945497748886224,0.2,-0.6971132319559633,-0.5408452741030925,0.2,-0.6821193843805962,0.09744526571218298,0.2,-0.10105403525514702,0.6954336991081945,0.24048,0.681938994016766,-0.6349335222519056,0.2,0.1997183032758423,0.08971308632609552,0.2,1,C153B7
2.48066150973593,0.7013397162761246,0.08288655033786979,0.2,-0.7002981723100155,-0.20586256911447193,0.2,-0.6797592580593123,0.11862752074119631,0.2,-0.09553091110292744,0.4322128632890812,0.24064000000000002,0.6767021807666055,-0.40311173383481697,0.2,0.1948023883560036,0.38123380279623564,0.2,1,C153B7
2.488663643638304,0.7018874483658235,0.3878155905567837,0.2,-0.7004070330617949,-0.40882335667966757,0.2,-0.680221344048737,0.2015786007859635,0.2,-0.09413862944252172,0.1525092970277378,0.24080000000000001,0.675489206275409,-0.06491203111064214,0.2,0.20581804412058208,0.7243093697251041,0.2,1,C153B7
2.4966657775406778,0.7075447657250331,0.45645132013023837,0.2,-0.7068393460168901,-0.7874548807950549,0.2,-0.6765340004467368,0.26565610416519336,0.2,-0.09309076235048364,0.22741020084276597,0.24096000000000004,0.6756635882688352,-0.0011386796274909239,0.2,0.20639133827160527,0.340207171777308,0.2,1,C153B7
2.5046679114430517,0.7091906694879073,0.5944799091346306,0.2,-0.7130063111545157,-0.30723749813203055,0.2,-0.6759708463820939,0.4026554451424455,0.2,-0.09050006622903746,0.41667683357069807,0.24112,0.6754709874013691,-0.2250452787267987,0.2,0.211261358869019,0.7136632188406086,0.2,1,C153B7
2.5126700453454256,0.7170564442711872,0.5574990280829208,0.2,-0.7117551459870026,-0.09534267499545362,0.2,-0.6700915133244577,0.4764257115790413,0.2,-0.08642393301335247,0.559785980072545,0.24128,0.6720628638092064,-0.35291496538080586,0.2,0.217809949773055,0.5406875832818757,0.2,1,C153B7
2.5206721792477995,0.7181106539372341,0.19878951300087572,0.2,-0.714531793954443,-0.502789964582126,0.2,-0.6683480349968293,0.1779604202397575,0.2,-0.08154349054787674,0.26299192935930193,0.24144000000000002,0.6698243479552762,-0.4488123539020117,0.2,0.21991236020152902,0.13351029152627522,0.2,1,C153B7
2.5286743131501734,0.7202370764792012,0.38398662420370544,0.2,-0.7197997854203166,-0.7333110302605444,0.2,-0.6672441466006216,0.04646465572177849,0.2,-0.08221606214360364,0.4113956238337426,0.2416,0.6648818661467742,-0.29280048755330607,0.2,0.21994611443747542,0.05305357491512501,0.2,1,C153B7
2.5366764470525474,0.7242544399244933,0.45648239519595346,0.2,-0.7262647704386117,-0.3449788097788231,0.2,-0.6676046005052808,-0.01822142853170894,0.2,-0.07496116056653686,0.5697821136366309,0.24176000000000003,0.6651395401544233,0.16500397143206363,0.2,0.22076121740017102,0.4858563710890863,0.2,1,C153B7
2.5446785809549217,0.7275407948023365,0.2955262684790627,0.2,-0.7253194463767778,-0.26675540265838626,0.2,-0.6675356894571289,-0.010408508040633813,0.2,-0.07309954832541754,0.3138173774928218,0.24192000000000002,0.6675219296896873,-0.09904991539908675,0.2,0.2277198163749008,0.6458298484723173,0.2,1,C153B7
2.5526807148572956,0.7289828602201583,0.44168894612228726,0.2,-0.7305328568811459,-0.5238127457122612,0.2,-0.667771136633931,0.485684559828059,0.2,-0.06994008252665171,0.18722293433529913,0.24208,0.663554741508038,-0.43211968154902025,0.2,0.2310944949757281,0.5639523873830574,0.2,1,C153B7
2.5606828487596696,0.7346078179402931,0.44974487366961774,0.2,-0.733700450308174,-0.4262005504016425,0.2,-0.65976473649988,0.8013102552294967,0.2,-0.07010398137605275,0.6425584463566496,0.24224,0.6606080147849029,-0.4031416634613441,0.2,0.23674305457302972,0.29069957574153965,0.2,1,C153B7
2.5686849826620435,0.7361787781988722,0.3508832099918188,0.2,-0.7373520656875722,-0.5366647120214479,0.2,-0.654950172550259,0.275425525194245,0.2,-0.059659147384945314,0.7894602546327268,0.2424,0.6571044748926564,-0.3829786754755912,0.2,0.23574568818759273,0.3621909105492663,0.2,1,C153B7
2.5766871165644174,0.7402219493001622,0.3924935418994496,0.2,-0.7422870857005172,-0.46869144618753855,0.2,-0.6553579280967721,-0.12713104047376578,0.2,-0.057472617301929124,0.21590901553056707,0.24256000000000003,0.6544803559772935,-0.13821397059931434,0.2,0.24253810914181798,0.5145273819972019,0.2,1,C153B7
2.5846892504667913,0.7424586748692634,0.46169609831573505,0.2,-0.7448511288265728,-0.31041543791784226,0.2,-0.6569842691978393,0.16015877159867437,0.2,-0.05620460313645624,0.2352450431907017,0.24272000000000002,0.6548930513630674,-0.17352659097336076,0.2,0.24397812629954796,0.3047205767300731,0.2,1,C153B7
2.5926913843691652,0.7476090868732139,0.5801109074635435,0.2,-0.7472537327072026,-0.2826658602189114,0.2,-0.6527953877511933,0.46844273833822336,0.2,-0.0537086966108779,0.2987640816798629,0.24287999999999998,0.6517039305217197,-0.3223427766219644,0.2,0.24741363836949914,0.4783889084288562,0.2,1,C153B7
2.600693518271539,0.7517404493886801,0.3923364984485672,0.2,-0.7493737825900754,-0.4434003254555896,0.2,-0.6494891853844277,0.24933489352522986,0.2,-0.051424377829578434,0.4461743591120931,0.24304000000000003,0.649735566937116,-0.16015816274583122,0.2,0.25163234883440966,0.3189807345049984,0.2,1,C153B7
2.608695652173913,0.753886470848391,0.43864480589488747,0.2,-0.7543481379144921,-0.4793894514922778,0.2,-0.6488060294547896,0.28430870175539386,0.2,-0.04656990686508441,0.6601843986488438,0.2432,0.6491413999177864,-0.33117817769693497,0.2,0.2525173301215791,0.35060103169551327,0.2,1,C153B7
2.616697786076287,0.7587587662829983,0.5421516365772469,0.2,-0.7570440138139518,-0.5184408730330644,0.2,-0.6449402461563414,0.21263584345266456,0.2,-0.04086142745119693,0.4282851498189693,0.24336000000000002,0.644436716093965,-0.4543063575496373,0.2,0.25724196534153787,0.5689391929518777,0.2,1,C153B7
2.6246999199786614,0.762560897033627,0.32982909681659317,0.2,-0.7626431918830211,-0.5194634705620246,0.2,-0.645403855959547,0.3518080739467813,0.2,-0.0397173444679809,0.2807489539501488,0.24352000000000001,0.6418724981969922,-0.011294229411547285,0.2,0.26162035720880916,0.3594391147734577,0.2,1,C153B7
2.6327020538810353,0.7640360318320638,0.15064161476183863,0.2,-0.7653554293429442,-0.26585928019810107,0.2,-0.6393113169731929,0.387414654795179,0.2,-0.03636944418799455,0.35400632884082484,0.24368,0.6442560084233803,0.016741253363157516,0.2,0.2629929911779132,0.22794354634058517,0.2,1,C153B7
2.640704187783409,0.7649711628698164,0.2731050006916855,0.2,-0.7668969403661907,-0.21703886624915153,0.2,-0.6392052214828241,0.20006498244694304,0.2,-0.0340532432065277,0.6443088182363865,0.24384000000000003,0.6421403582508027,-0.1899312098686129,0.2,0.2652674539502585,0.2793693492394028,0.2,1,C153B7
2.648706321685783,0.7684057118431308,0.29601042847947345,0.2,-0.7688280512029306,-0.6470514034827152,0.2,-0.6361102772540418,0.20410680318441038,0.2,-0.026060503096212367,0.39783172055309024,0.244,0.6412171090654825,-0.40019549877993305,0.2,0.26746290076574364,0.601935857242112,0.2,1,C153B7
