samirx20/RADAR/data/datasets/heating_j0_long.csv
timestamp,actual_q_0,actual_qd_0,actual_current_0,actual_q_1,actual_qd_1,actual_current_1,actual_q_2,actual_qd_2,actual_current_2,actual_q_3,actual_qd_3,actual_current_3,actual_q_4,actual_qd_4,actual_current_4,actual_q_5,actual_qd_5,actual_current_5,protective_stop,fault_code
0.0,-0.00036078451546210134,0.31392406693811553,0.5,-0.9009991669422851,0.8084735634049517,0.6274823869720341,-1.4010109465675558,0.3705037256824528,0.5,-0.10139655360166844,-0.08032311323825231,0.5,0.6002518541888252,0.6161688914793767,0.5,0.0014594864427102101,0.3839671647089766,0.5,0,
0.008002133902373967,0.002150608020042823,0.569714181217666,0.5,-0.8945313784350455,0.6956532830783915,1.7304266865700224,-1.3980469167620961,0.3579080642592686,0.5,-0.10203913850757446,-0.05724384993775061,0.5,0.6051812053206602,0.25032810700941627,0.5,0.004531223760382023,0.06260755860182228,0.5,0,
0.016004267804747934,0.008754642384020555,0.6111099431763887,0.5,-0.8898687144130308,0.33126779739761636,0.6278670630366076,-1.3952844175394075,0.5402603234125475,0.5,-0.10231245520067245,0.2564636347771355,0.5,0.6042571039009759,-0.04932463231949874,0.5,0.0024612073803393668,-0.16349970589324977,0.5,0,
0.0240064017071219,0.011928367110865042,0.4917318060541473,0.5,-0.8892310936766836,0.4578876261723472,0.5,-1.3894027515874954,0.3707813996956383,0.5,-0.09793572035114029,0.15456393605238916,0.5,0.6043920112035482,0.34145147216791544,0.5,0.0019152284660900265,0.4615287840250007,0.5,0,
0.03200853560949587,0.01662235128088691,0.3869517820657951,0.5,-0.8825425123942733,0.46695718098241357,1.1533331188910192,-1.3893519151442772,0.27485967193194294,0.5,-0.09983943222383422,-0.15832901940647254,0.5,0.6097203274556625,0.5387074076250442,0.5,0.009845667924739378,0.48043290224161644,0.5,0,
0.04001066951186984,0.018119595623917763,0.28972753946651164,0.5,-0.881759778780965,0.23906258537999964,1.933927340960163,-1.3850049968365843,0.5714519009174801,0.5,-0.10046898466164385,0.3497270582964234,0.5,0.613011329725549,0.09188622303548527,0.5,0.00960215490195589,0.13478952673301037,0.5,0,
0.0480128034142438,0.021257991912351098,0.48618740980528097,0.5,-0.8787175110281933,0.6852768640405321,1.0981464435720572,-1.3802086847295976,0.5338590726215869,0.5,-0.09424379929109145,-0.15811175575831168,0.5,0.6111905070242303,0.09462486599303571,0.5,0.012002300352467543,0.26694243271781454,0.5,0,
0.05601493731661777,0.02589859418080226,0.5731900012082272,0.5,-0.8707953489563165,0.46406171749224095,0.5676008649714579,-1.376463251674639,0.39655790754122844,0.6461385756998557,-0.10299877275377683,-0.4025563571581651,0.5,0.6145253275814375,0.33163199811886424,0.5,0.013873233825440923,0.2886742356063356,0.5,0,
0.06401707121899174,0.030429031931682733,0.5878791806354262,0.5,-0.8712925235483174,0.5801852947392091,1.2330707954843687,-1.373863758208938,-0.03719263858327493,0.5,-0.10068470100562209,0.36544266558998645,0.5,0.6164966189941321,0.31680123137886596,0.5,0.016621088122168913,0.14056091954935535,0.5,0,
0.0720192051213657,0.03530466107096908,0.45573784771127734,0.5,-0.8615123842404891,0.8296996724352842,2.694991507296908,-1.3770583338919713,0.3153913897650934,0.5,-0.09715169010433705,0.029521259255979766,0.5,0.6195941472834994,0.35865828608311334,0.5,0.01612220853823061,0.13947173624136752,0.5,0,
0.08002133902373967,0.03772083749506317,0.5576393405103183,0.6756877124855877,-0.8580173287893529,0.23252313221207993,0.9332298505185803,-1.3688174959726964,0.5877667930897917,0.6248961563074886,-0.10021236085752641,-0.2254252498961086,0.5,0.6222351515714619,0.10877002550375298,0.5,0.018852635902030793,0.3408957830171948,0.5,0,
0.08802347292611364,0.04422689051913417,0.9217704414348237,0.782462034265905,-0.8577920141250959,0.40019602940079974,0.5,-1.3676540652025346,0.21975967994533607,0.6238765047538608,-0.10075849410267479,-0.2402369177811562,0.5,0.6213344676915594,0.06386958859890685,0.5,0.021576541066505726,0.4687102824231985,0.5,0,
0.0960256068284876,0.05246916455802035,0.56496373710476,0.6217011577599076,-0.8516141923189401,0.4414308641419243,0.5,-1.365301341093571,0.6267568442115123,0.5,-0.10405615154202491,-0.26396693114124054,0.5,0.6232570649890444,0.4477336846258617,0.5,0.02635200042080197,0.49389178485064256,0.5,0,
0.10402774073086157,0.05326631031281033,0.3379655588482762,0.5,-0.8507291202988251,0.4553153262965709,1.4141864933422863,-1.3576259556951504,0.43219892597169685,0.5,-0.10498196500093464,0.026102999731321234,0.5,0.6284982066455732,0.2942242866323455,0.5,0.029478809624116007,0.25373159351422786,0.5,0,
0.11202987463323553,0.05787661349959277,0.4029013406304507,0.5,-0.844329147098195,0.7505529794243487,1.3922622348279583,-1.358386158278024,0.16267047783787014,0.5,-0.10363850354632377,0.16666806174816823,0.5,0.627964653575162,-0.06265228211258661,0.5,0.030411705917029616,-0.12623038224746325,0.5,0,
0.12003200853560951,0.05971273176289754,0.5318563873686305,0.5,-0.8387202726280355,0.46161543750925654,0.5,-1.3550232280497445,0.31853518313580687,0.5,-0.10231527601296395,-0.001999255730367362,0.5,0.6274957701317718,0.1426599483485974,0.5,0.027459123508156595,0.09756292990816852,0.5,0,
0.12803414243798347,0.06638631569749086,0.4728018821890129,0.5,-0.8369433000980468,0.5129262051450575,0.5958261104430413,-1.353289595347851,0.4226011067219454,0.5,-0.10367049163800965,-0.07792895856142348,0.5,0.6302472127487395,0.2291019948557141,0.5,0.03197271279556031,0.3189051851015261,0.5,0,
0.13603627634035745,0.06727756187792175,0.2494419284273042,0.7562169188015406,-0.8305134533457146,0.5923827321519456,0.8752032101482498,-1.3482616103421934,0.24495767904288146,0.5,-0.10356213934994672,-0.05157375889455144,0.5,0.6311614020494632,0.36021948520226915,0.5,0.03256160646978101,0.1647176721495218,0.5,0,
0.1440384102427314,0.07037738655232773,0.6004290221106253,0.5,-0.8274651763836157,0.4292162479975839,0.5,-1.3493702724831649,0.24894400782256298,0.5323660371779575,-0.10449567178032247,-0.111759040203014,0.5,0.6360107245119758,0.24243882436558034,0.5,0.03460819554995266,0.30013389482382674,0.5,0,
0.15204054414510537,0.07688442623169175,0.7250526906396065,0.7483330211137994,-0.8236459933777532,0.445140439106019,0.5,-1.3442785062170324,0.5986409403060111,0.5,-0.10535028399319495,-0.1048069076700596,0.5,0.6350404232393125,0.2616762658520788,0.5,0.03736374878696224,0.32666904673241387,0.5,0,
0.16004267804747935,0.08197822960256143,0.38053844841623874,0.5,-0.8203429293579194,0.49400366173455584,0.8373845686309243,-1.3397920174382687,0.5124657787928116,0.5,-0.10617258230304343,-0.1071793847705919,0.5,0.6401975447656091,0.4950698960417277,0.5,0.03983490029767128,0.2225965006689397,0.5,0,
0.1680448119498533,0.08297304140635157,0.36782827111302063,0.5,-0.8157419347900003,0.318236579188641,1.105491680403387,-1.3360790537563474,0.3647683288537512,0.5,-0.10706515414952442,-0.04847055994810796,0.5,0.6429615415759802,0.2937691165819725,0.5,0.040925292797665276,0.03243665978130538,0.5,0,
0.17604694585222727,0.08786348194036976,0.47170531470700544,0.5,-0.8152511440909012,0.5565307428479979,0.5,-1.3339557241766087,0.24236087301536535,0.5,-0.10694811126221315,-0.006133310283621025,0.5,0.6448978506309206,-0.04590608768631488,0.5,0.04035388685417217,0.26824915726496096,0.5,0,
0.18404907975460125,0.09052032644166366,0.4453009644295779,0.5,-0.8068374429044324,0.474778504259539,1.1574381577826647,-1.3322012797881015,0.22348298632623997,0.5,-0.10716328711406235,-0.15224973601229638,0.5,0.6422270441729991,0.12660771796853265,0.5,0.04521727931390465,0.11953887115266452,0.5,0,
0.1920512136569752,0.09498829737124301,0.6364556870726698,0.5,-0.8076546880227485,0.2631460561745916,2.0822461196029005,-1.3303799963953888,0.38831054168961265,0.5,-0.1093841070384099,-0.24231673446556673,0.5,0.6469235741184172,0.46574135817286505,0.5,0.0422665087926148,0.0883485737118825,0.5,0,
0.20005334755934917,0.10070361743482638,0.5863946077022562,0.5322703448448579,-0.8026271060056389,0.7401684960385291,0.5,-1.3259883111210677,0.5352428555530087,0.5,-0.11104035486551142,0.05072136513193347,0.5,0.649678905903765,0.3559443714762911,0.5,0.04663085649329477,0.43201092092756993,0.5,1,C153A8
0.20805548146172315,0.10437061109447911,0.3265195570778855,0.5120967741935484,-0.7958119920861321,0.6527760785663139,1.1850557966360111,-1.3218161107065407,0.358393288159467,0.5,-0.10857256519629896,-0.012831419840384287,0.5,0.6526186840620378,0.2726923341212911,0.5,0.04917868352745592,0.3350606536456982,0.5,1,C153A8
0.21605761536409712,0.10592793034807255,0.37719587225069123,0.621500759181099,-0.7921826887485779,0.44012395171567215,1.112415831579547,-1.3202540185105163,0.5896588730801844,0.5,-0.11124565758295757,-0.18153359857918555,0.5,0.6540419832497056,0.11266852396701887,0.5,0.05199182695162594,0.23099444214877807,0.5,1,C153A8
0.22405974926647107,0.11040574505049017,0.6629021894616737,0.5362903225806451,-0.7887700088586813,0.20888961607207213,0.6386811545588895,-1.3123815687372578,0.5694641700694086,0.9084227134388024,-0.11147710277356593,0.036385918222771145,0.5,0.6544213804455101,0.11753097893291153,0.5,0.05287459460183637,0.05494755292107922,0.5,1,C153A8
0.23206188316884505,0.11653436537945933,0.5092010467549072,0.5483870967741935,-0.7888404548914247,0.3437446353506332,1.8559741636265992,-1.3111425917894057,-0.12645795503701818,0.5,-0.11066348289139323,-0.2952049548546557,0.5,0.6559224789126322,0.40434752907821114,0.5,0.05287098779836321,0.37855625354375755,0.5,1,C153A8
0.24006401707121902,0.11855296179856868,0.2966737984677172,0.7888734255665383,-0.7832700946930712,0.7676290139972743,0.9240053537311724,-1.31440489601785,0.162633134729806,0.5,-0.11620038205124042,-0.43017307589620496,0.5,0.6608909409107615,0.2883014723624733,0.5,0.05893149465853649,0.4969643387642778,0.5,1,C153A8
0.24806615097359297,0.1212811461549428,0.6682132133922604,0.6985860013880533,-0.7765583906674683,0.5741310504507948,1.2778714215184976,-1.3085404616337288,0.39545468047111343,0.5,-0.11754625210573251,0.07629320813486769,0.5,0.6605353024704318,0.4760975344549265,0.5,0.060822417218591655,0.13157309032250106,0.5,1,C153A8
0.25606828487596694,0.12924437321284485,0.36577335297902686,0.5846774193548387,-0.7740839978858585,0.29002175964026183,0.7575518091072203,-1.3080776211303122,0.5448509294067039,0.5,-0.11497969072108254,0.20901476705107758,0.5,0.6685085014620403,0.3071354372351162,0.5,0.06103666410369651,0.17824548589168543,0.5,1,C153A8
0.2640704187783409,0.12713351980260723,0.20828941468682172,0.5967741935483871,-0.7719180425132242,0.43795543408488985,0.7442682630402886,-1.2998228467632216,0.4225664303539184,0.5,-0.11420201583291527,-0.09379508594061207,0.5,0.6654494694661937,-0.11921352025339588,0.5,0.06367434499285862,0.26067761956543234,0.5,1,C153A8
0.2720725526807149,0.132577003847834,0.5010903106898446,0.6088709677419355,-0.7670767109405002,0.5666255721345977,0.5469790308559719,-1.3013165582446495,0.26385427825058316,0.8466181261082828,-0.11648041209613233,-0.18065326955309102,0.5,0.666601085137986,0.1976621279055138,0.5,0.06520750601674342,0.14669518572538348,0.5,1,C153A8
0.28007468658308887,0.13515096477364474,0.5930412750350094,0.6209677419354839,-0.7628520333590706,0.6589484153574354,0.5,-1.2956011783112122,0.8656562920666133,1.0080026944606357,-0.11709246814576472,-0.2658217959740942,0.5,0.6686120635126819,0.11834045737234983,0.5,0.06602146796446476,0.043791760412369846,0.5,1,C153A8
0.2880768204854628,0.14206566424839415,0.6271669221253294,0.6330645161290323,-0.7565335362947813,0.5786335757443362,0.5,-1.2874660575715837,0.1478228168989848,0.5,-0.12073356083171784,-0.1836892004053502,0.5,0.6684945324559436,0.23024147539957296,0.5,0.06590817418334134,-0.11137272021510651,0.5,1,C153A8
0.29607895438783677,0.14518563552765001,0.42848307833687205,0.6451612903225806,-0.7535938961471612,0.5284536897254971,1.0667935993306328,-1.2932360132408285,0.1485965363451358,0.6276353953940251,-0.12003149535225033,-0.12093903832030746,0.5,0.672295927119075,0.37135167385316664,0.5,0.06423950444102305,0.25828192326364086,0.5,1,C153A8
0.30408108829021074,0.1489213935017841,0.46651201608518406,0.657258064516129,-0.7480782772591733,0.30805959394553106,0.6276612243710172,-1.2850885129900615,0.6329711673656035,0.5350204615813915,-0.12266858544484276,-0.3318604248574806,0.5,0.6744361592375943,0.3169887892004383,0.5,0.0700406849555596,0.5175423396294289,0.5,1,C153A8
0.3120832221925847,0.15264982778501296,0.3688020100531628,0.6693548387096774,-0.7486649426440327,0.43542903310064135,0.6527836463206415,-1.2831084745629788,0.2745395258748756,0.5,-0.12534126214997002,-0.08362997977317925,0.5,0.6773677477462821,0.40197577971644305,0.5,0.07252018187509392,0.005244440231277382,0.5,1,C153A8
0.3200853560949587,0.1548222256626347,0.5645825423603364,0.6814516129032258,-0.741111412729563,0.3237956931936778,0.8668678195125118,-1.2806958805760635,0.10664150731609645,0.5,-0.12400666512121362,0.17109754762418497,0.5,0.6808677717130573,0.34221184160919405,0.5,0.07012459599926003,0.02115473636137271,0.5,1,C153A8
0.32808748999733267,0.16168314846277834,0.5862973404915303,0.6935483870967742,-0.7434842115529339,0.5047381148467686,1.5016611130683344,-1.2814022104459213,0.2456236923444599,0.5,-0.12260370138798306,-0.35438093042700847,0.5,0.6828431372120292,-0.02423915639036822,0.5,0.07285865765687588,0.5286538934193372,0.5,1,C153A8
0.3360896238997066,0.1642029831104992,0.5882203888249674,0.7056451612903225,-0.7330356028920147,0.8294072665029212,2.8241514275770503,-1.2767659014985522,0.4758713053571173,0.5,-0.12967676000804576,-0.38485488286431074,0.5,0.6804799452108115,-0.2103984330308964,0.5,0.07858305829396943,0.19074030172935505,0.5,1,C153A8
0.34409175780208057,0.17109467468397782,0.6231515882301996,1.5302235033921865,-0.7302136952888871,0.21338735780478818,0.573534498345453,-1.2737882695602074,0.1688461027039151,0.5,-0.12876137951381203,0.06163557749018153,0.5,0.6794767622835348,0.23198576398584386,0.5,0.07591050248454556,-0.23541210470386706,0.5,1,C153A8
0.35209389170445454,0.17417340852218238,0.1094824455854411,0.7298387096774194,-0.7296214051671381,0.11585598761737481,2.1631620142249774,-1.2740643638552895,0.39500423147541264,0.5,-0.12869059076820286,0.056333335448495794,0.5,0.684191717434585,0.5594137126512868,0.5,0.07481646461870756,0.15747396620790707,0.5,1,C153A8
0.3600960256068285,0.17284639381334488,0.2035262350963702,1.2896031423592988,-0.7283599994870091,0.5963829280017513,0.5609662732818127,-1.2674682018566008,0.4349596021746144,0.5,-0.1278600461466361,-0.04697218800575435,0.5,0.6884273816859554,0.23202347333320383,0.5,0.07843008594387207,0.29592111207257016,0.5,1,C153A8
0.3680981595092025,0.1774298282837243,0.6309260559712679,0.9361579142039914,-0.7200792783191101,0.6921869676477233,1.452110722577673,-1.2671050102204957,0.2386376966709569,0.5,-0.12944214577629493,-0.23830440400958613,0.5,0.6879040930079162,0.12085482022024946,0.5,0.07955120241186868,0.17069248120529443,0.5,1,C153A8
0.37610029341157647,0.18294121070888517,0.3656157810737037,0.7661290322580645,-0.7172850080046456,0.35013324347345914,0.8454757263859214,-1.2636499987098655,0.4688110084316577,0.6610462955461216,-0.13167291661078948,-0.17303579553976967,0.5,0.6903610588094794,0.36434719179614244,0.5,0.08116116564315679,0.08021081473096221,0.5,1,C153A8
0.3841024273139504,0.18327968078090356,0.568806641505628,1.3544853919856117,-0.7144771464235348,0.5039343449859054,0.5,-1.2596040340855892,0.05218896847712651,0.5,-0.13221071850493124,-0.3734490607487425,0.5,0.6937336480766545,0.34068104940408045,0.5,0.08083457544756407,0.10277380482298475,0.5,1,C153A8
0.39210456121632437,0.1920421169729752,0.9701956020261616,2.200821728435952,-0.7092220584848711,0.5406887955259689,0.9878866448347077,-1.2628149752142315,0.2816339832302228,0.6818449237314498,-0.13764810158276936,-0.14691212285996602,0.5,0.6958119555999447,0.09037025832548534,0.5,0.08280554652032454,0.2939580511525592,0.5,1,C153A8
0.40010669511869834,0.19880281041332215,0.2962544208751309,1.1943902701142004,-0.7058261256951193,0.34288227568601143,0.5,-1.2550978903539056,0.7307253717452195,0.6697019491884012,-0.1345613124706907,0.2554438744137126,0.5,0.6951795722098623,0.1799466324767865,0.5,0.08553790426600502,0.12343871070775221,0.5,1,C153A8
0.4081088290210723,0.1967821877069773,-0.07826383251917542,1.6393758892243842,-0.7037359420738949,0.3788599689569655,0.5115589351482427,-1.251123369266308,0.23787065385985628,0.5,-0.13356099959214995,-0.4007855507937655,0.5,0.6986911017195733,0.40803592131021665,0.5,0.08478056589164858,0.1443027178455857,0.5,1,C153A8
0.4161109629234463,0.19755058909301534,0.44821268359922056,0.8266129032258065,-0.6997643661918078,0.4819718997733091,0.5,-1.251291959892148,0.08217561322901301,0.5,-0.14097388128339094,-0.4113051607666021,0.5,0.7017081469508257,0.15741655492954726,0.5,0.0878467477515344,0.2493392036461827,0.5,1,C153A8
0.42411309682582027,0.20395359064456484,0.612043876939002,0.8387096774193548,-0.696024391677522,0.5322156869676311,2.0387963407650913,-1.2498085594546438,0.36778784655094876,0.5,-0.1401418821644156,-0.039182946672690344,0.5,0.701209766598446,0.22445970778575686,0.5,0.0887699931499875,0.015951410715311747,0.5,1,C153A8
0.43211523072819424,0.20734329112403938,0.4600857089574993,1.4029434034478165,-0.6912489152003257,0.08459205374548168,0.5,-1.2454073543473327,0.6198107930022734,0.5,-0.141600808430154,-0.1914695507538224,0.5,0.7052995022753978,0.11943582487858317,0.5,0.08810197032297938,-0.15867785590848674,0.5,1,C153A8
0.44011736463056816,0.21131496198788483,0.04651912742212848,1.6101434454104688,-0.6946709188175942,0.172710900116127,1.5923896712121683,-1.2398915867666074,0.4259231800300828,0.5,-0.14320539497647675,-0.282427305835534,0.5,0.7031207397965034,0.22294826093302578,0.5,0.08623114745545171,0.042018300201077975,0.5,1,C153A8
0.44811949853294214,0.20808759716279343,0.5695480635364916,0.875,-0.6884855407984677,0.533173629157356,0.5,-1.2385925834668514,0.16090194714603323,0.5,-0.14611964532352253,-0.0075375198376088914,0.5,0.7088666744503263,0.1752487775227088,0.5,0.08877426312619663,0.46317948439560713,0.5,1,C153A8
0.4561216324353161,0.2204277310044687,0.846253716112159,2.508156845142402,-0.6861401407510765,0.6291945162014839,0.5,-1.2373171556122708,0.3048646522606363,0.5,-0.1433259952938785,0.03468626478790246,0.5,0.7059247202368667,0.08790754378404375,0.5,0.09364201920578143,0.22359470600193543,0.5,1,C153A8
0.4641237663376901,0.22162765662058798,0.13370933139011248,1.5825774569397528,-0.678418428539244,0.6351087567598515,2.7067859507396386,-1.2337147490306812,0.38531464032570684,0.5,-0.1455646650869161,-0.2782615336173813,0.5,0.710273195150871,0.6425356901288078,0.5,0.0923517784222276,0.09799477965197374,0.5,1,C153A8
0.47212590024006407,0.2225670803067105,0.5731981762406823,0.9112903225806451,-0.6759784006429189,0.03199860314032771,2.152085321940689,-1.2311521213670595,0.20429492755720535,0.5,-0.1477781798317566,-0.4341579304286986,0.5,0.7162052912789276,0.1014578232299973,0.5,0.095209935680213,0.1639713360451541,0.5,1,C153A8
0.48012803414243804,0.2307988274404389,0.4377421418598742,0.9233870967741936,-0.6779064508889987,0.5408389963916932,0.5,-1.230446030189766,0.47614859193927106,0.5,-0.15251119197377527,-0.3491996835906924,0.5,0.7118965203225509,0.08187971595186028,0.5,0.09497531979895006,-0.10723008720157304,0.5,1,C153A8
0.48813016804481196,0.22957095457646848,0.2283584417214317,0.935483870967742,-0.6673249767006518,0.6026558814004531,1.517065581892154,-1.2235337438960312,0.37486683844220603,0.5,-0.15336537476920767,-0.12704648156082637,0.5,0.7175153667341574,0.31057363322267023,0.5,0.09349425428498784,-0.18046052543771451,0.5,1,C153A8
0.49613230194718594,0.2344525625079818,0.421595744062463,1.4067452072998499,-0.6682639567865915,0.27440880834449927,1.8225143547387677,-1.2244481607746907,0.21132773153079154,0.5,-0.1545439356787485,-0.12501680508719692,0.5,0.7168656984541136,0.08305125872484775,0.5,0.09208795139194663,0.2675617124138505,0.5,1,C153A8
0.50413443584956,0.23631648648146789,0.06775769659500205,1.183246167519409,-0.6629344357671398,0.6725844669233857,0.5473754253645161,-1.2201525001915385,0.252769328413574,0.5,-0.15536564365060282,-0.1632306613829175,0.5,0.718844186873755,0.012474044564586562,0.5,0.09777524168360945,0.2050043483098774,0.5,1,C153A8
0.5121365697519339,0.23553668565350183,0.3878298531430728,1.6435506697190756,-0.6575026053158173,0.5723669867453914,0.9231095271384253,-1.2204038515200735,0.2657332958933001,0.5,-0.15715562626087518,-0.3302830966727503,0.5,0.717065283167147,0.20524136353632094,0.5,0.09536802096490467,0.05429809508485008,0.5,1,C153A8
0.5201387036543078,0.24252176413175705,0.8331689958233218,1.9280863320881316,-0.6537765639792136,0.38031368625021655,0.5810451979321244,-1.2159007674572457,0.5312195427029098,0.5,-0.16065017319736682,-0.22541689030870607,0.5,0.7221280486903361,0.33288920965951485,0.5,0.09864401120496705,0.13694859489818065,0.5,1,C153A8
0.5281408375566818,0.24886738958667498,0.3477395878651052,0.9959677419354839,-0.6514175863358138,0.28179564249105477,0.5,-1.211904338836827,0.36321997853415444,0.5,-0.16076229650581447,-0.0038252265889739817,0.5,0.7223915105216993,0.22998721021828816,0.5,0.09755919848327556,-0.17856136664846228,0.5,1,C153A8
0.5361429714590558,0.24808559753759873,0.22327235476966856,1.0080645161290323,-0.6492678336993567,0.2785510169007119,0.5,-1.2100892478006993,0.10190291716302702,0.5,-0.1607113768227904,-0.08125912192252435,0.5,0.7258078440538287,0.03795845221653965,0.5,0.09578702933859165,-0.10727783119247099,0.5,1,C153A8
0.5441451053614298,0.2524397472629897,0.33268834939754327,1.0209384009033937,-0.6469607700654024,0.37261749909983655,0.5500426320831439,-1.2102738921622185,0.17813085853274346,0.5,-0.16206244245657486,-0.3949449974886103,0.5,0.7229988457571639,0.12871194641226463,0.5,0.09584275318419602,0.20913773255008988,0.5,1,C153A8
0.5521472392638037,0.2534086111279594,0.6188421084764236,1.032258064516129,-0.6433059537137593,0.27172463671604197,0.5,-1.2072391540641754,0.22491616065319076,0.5,-0.16703049678260817,-0.5723057716536094,0.5,0.7278672351964249,0.4416491510912876,0.5,0.09913323305939309,0.20681671708190283,0.5,1,C153A8
0.5601493731661777,0.26234122099861246,0.43906386004143383,1.3990684383829162,-0.6426131758779458,0.36398862992236686,0.5,-1.2066752335917674,0.14454631193767942,0.5,-0.1712193348030326,-0.32582684786259564,0.5,0.7300652321746245,0.12452127319167311,0.5,0.09915182065750647,0.14472701720251707,0.5,1,C153A8
0.5681515070685517,0.26043363288862237,0.12444409113854596,1.6127351805750854,-0.6374821356350014,0.284154537472478,0.5,-1.2049264130731725,0.3656209474777461,0.5,-0.1722437263484097,-0.17562007249988243,0.5,0.7298595755674917,0.21979531861911206,0.5,0.10144886533463336,-0.12315294142760044,0.5,1,C153A8
0.5761536409709256,0.2643323264568292,0.4914758531565609,1.0685483870967742,-0.6380667032783861,0.37738867011342936,0.5722781875946438,-1.2008252984321235,0.30171574346087027,0.5,-0.17402925596303073,-0.2932588912558341,0.5,0.7335819572725303,0.039428829960948264,0.5,0.09718137359466486,-0.17706437635162456,0.5,1,C153A8
0.5841557748732996,0.26829724653912734,0.31062437623512185,1.0806451612903225,-0.6314439169131866,0.49136329980781907,1.1913630342546115,-1.2000989611777986,0.15134102003454275,0.5,-0.17693586860850305,-0.2989233993120916,0.5,0.7304904368468669,-0.08581801132615668,0.5,0.09861583531300737,0.19020786056668862,0.5,1,C153A8
0.5921579087756735,0.26930231647659114,0.35497130981137354,1.092741935483871,-0.630204890481461,0.25072180461847837,0.9434863208687203,-1.1984038421115708,0.2761615900532671,0.6167889280423335,-0.1788120303520242,-0.3141227294241756,0.5,0.7322088690913118,0.23122347902145013,0.5,0.10022469936373188,0.06002931195466573,0.5,1,C153A8
0.6001600426780476,0.2739767874961093,0.5003322704554003,1.1048387096774193,-0.6274323680392909,0.4591122575432066,0.5,-1.1956803757369463,0.737410645029371,0.9065942021511163,-0.18196183227928986,-0.2518431289824808,0.5,0.7341900125112101,0.42023661592683476,0.5,0.09957630430428202,-0.02734199049479833,0.5,1,C153A8
0.6081621765804215,0.27730763280387755,0.2555259301264094,1.1169354838709677,-0.6228590943607697,0.5427817352696152,0.5,-1.1866052717911009,0.065567307287559,0.682689032173154,-0.1828415204157439,-0.3337445445195132,0.5,0.7389326549461411,0.3381256369243968,0.5,0.0997872275158151,0.09393329194078408,0.5,1,C153A8
0.6161643104827954,0.27806520237813187,0.2719388526605838,1.129032258064516,-0.6187478602749771,0.5073062258620572,1.1898170297541975,-1.1946312988203454,-0.43373404086077816,1.3801519231505834,-0.18730174499160207,-0.2731988651601853,0.5,0.7396000227020004,-0.009252608363027881,0.5,0.10107923697533457,-0.030505198309312663,0.5,1,C153A8
0.6241664443851694,0.2816586544464469,0.37203540210341624,1.1411290322580645,-0.6147421947469768,0.255871991702801,0.8713463265028945,-1.1935450164448733,0.718353158133761,0.5,-0.18721270225830686,-0.09472939273185918,0.5,0.7387846132123327,0.2007623709930212,0.5,0.0992991443428661,-0.41106326353246464,0.5,1,C153A8
0.6321685782875434,0.28401776881178653,0.2548160335787905,1.153225806451613,-0.6146539084077323,0.4579831934573217,0.5,-1.1831376482902052,0.4187376370250184,0.6713480005901936,-0.18881741527531182,-0.26893054352384976,0.5,0.7428122206378888,0.29704166974321017,0.5,0.09450222475881513,0.09741106181002102,0.5,1,C153A8
0.6401707121899174,0.28573571098370754,0.4854821798962287,1.1653225806451613,-0.6074144636516596,0.4684089723156759,1.9995399027919727,-1.186845214252473,-0.047247654249765736,0.5917457530937106,-0.19151559095468845,-0.36852284058549145,0.5,0.743537279928224,0.15952373251564705,0.5,0.10085772133182644,0.45460768927634965,0.5,1,C153A8
0.6481728460922913,0.2917854836901262,0.6527879453353466,1.2543189836007809,-0.6071593648506814,0.03695139192853164,0.5,-1.1838936107582014,0.42827719093210814,0.5,-0.19471378072467968,-0.138127463940629,0.5,0.7453646003581391,0.06399509592715236,0.5,0.10177594778723673,-0.2807262286714848,0.5,1,C153A8
0.6561749799946653,0.2961803181090731,0.44207419886888033,1.7269975073341342,-0.6068232413808031,0.11439532839335048,1.7177923218739999,-1.1799927791975593,0.15802533755458759,0.5,-0.19372563037773852,-0.2679934897882492,0.5,0.7445612014630585,0.02236269001915786,0.5,0.09636610167308268,0.12959206999825934,0.5,1,C153A8
0.6641771138970393,0.2988586708720283,0.07655783608944214,1.2016129032258065,-0.6053290395963878,0.4850572198800765,0.5435324110678038,-1.181365205357328,0.17228493216513152,0.5151104196256427,-0.19900167656129167,-0.33632631111467703,0.5,0.7457224033984456,0.2809433922001253,0.5,0.10384942090720888,0.1834404551205003,0.5,1,C153A8
0.6721792477994132,0.29740524348650416,0.2999948907873688,1.213709677419355,-0.5990623258627219,0.3970488746929887,1.374193425565542,-1.1772362202829172,0.5147980438822697,0.5,-0.19910685135557335,-0.025563715647370505,0.5,0.7490562957382605,0.24631530877534252,0.5,0.09930114895501069,-0.31911304955001274,0.5,1,C153A8
0.6801813817017872,0.3036585891246262,0.4629853099252443,1.3903456584794265,-0.5989762576013,0.10686096060250755,1.8299383946901888,-1.1731284366552117,0.36660472648582243,0.5,-0.1994106960116496,-0.4449403702992058,0.5,0.7496634483388511,0.23215074036049554,0.5,0.09874361211440867,-0.11545489396660914,0.5,1,C153A8
0.6881835156041611,0.30481300844530806,0.2220298139809576,1.2379032258064515,-0.5973525504930818,0.5017513619399796,0.8804266192970821,-1.171370544659144,0.26866979497938703,0.5,-0.20622589728036064,-0.2898810972516014,0.5,0.7527707075840284,0.02010748769653431,0.5,0.09745387065154494,0.049923927184686995,0.5,1,C153A8
0.6961856495065352,0.3072110661483215,0.17445425694959799,0.5,-0.5909482358102603,0.30555312124708883,0.5,-1.1688297199355415,0.27844403146969066,0.5,-0.20404879356767522,-0.04809765629806666,0.5,0.7499851681419957,0.16574568981673338,0.5,0.09954239494936366,0.11667376615439456,0.5,0,
0.7041877834089091,0.30760427655650163,0.2898169370293066,0.5,-0.5924637005531284,0.22635103102170567,0.863741032911014,-1.166915440155629,0.275329864342283,0.5,-0.2069954597811297,-0.5101777210000467,0.5,0.7554226386210962,0.23246519917071579,0.5,0.09932065091001525,-0.004372060604000867,0.5,0,
0.7121899173112831,0.3118481371407904,0.29604523956982404,0.5,-0.5873266193139131,0.40945390274253063,0.5,-1.164424442106065,0.1930462973341318,0.5,-0.21221163710367597,-0.4898878529536882,0.5,0.7537046113287271,0.19503079984238558,0.5,0.09947244197969965,-0.17608201881849206,0.5,0,
0.720192051213657,0.3123410003896188,0.4746998684553548,0.5,-0.5859124381092479,0.39416318679153656,0.7350399879532885,-1.1638266993982829,0.07652803745504533,0.5,-0.21483366542838872,-0.2877881329682412,0.5,0.7585431314185743,0.21055283598363228,0.5,0.09650333860891938,-0.12068401168521814,0.5,0,
0.728194185116031,0.3194433350360761,0.44745412272447976,0.6874665966325788,-0.5810200083252485,0.5240530584215349,0.6505688667831675,-1.1631999935067843,0.055919760682879294,0.5,-0.21681624723116782,-0.2655825417381217,0.5,0.7570734567044652,0.1085986643991968,0.5,0.09754149779273616,0.13284682790528582,0.5,0,
0.736196319018405,0.3195002663532105,0.10032505692684351,0.5,-0.5775275891745033,0.4213410455483346,1.4883498834439248,-1.1629319832273568,0.35452575129830965,0.5,-0.21908298609619867,-0.2154494719780863,0.5,0.7602807100489615,0.34416849127852367,0.5,0.09862888785540395,-0.3235056030551466,0.5,0,
0.7441984529207789,0.3210485359469056,0.3408001097774671,0.5,-0.5742785515964751,0.10233138128201008,0.5,-1.1575275814860113,0.45062517838852234,0.5,-0.2202634387828172,-0.4322772413440923,0.5,0.7625801525649216,0.11800593788113128,0.5,0.09236540814385381,-0.16200064428505395,0.5,0,
0.7522005868231529,0.32495306810964997,0.4538065243777679,0.5,-0.5758902870739911,-0.000771461441631538,1.324958735284426,-1.1557219803731404,0.1567363774907099,0.5,-0.22599942195770414,-0.4516831393607135,0.5,0.7621688050550596,-0.028243889566674507,0.5,0.09603687754684309,0.39614078254692103,0.5,0,
0.7602027207255269,0.32830944033694986,0.33446721388635453,0.5,-0.5742908949795412,0.2840736738430813,1.070109767352257,-1.15501979944616,0.1774490871287171,0.5,-0.22749036901258862,-0.3023990301092069,0.5,0.7621282503318548,0.03218049014653418,0.5,0.09870366066460455,0.013649727628600727,0.5,0,
0.7682048546279008,0.33030454353183164,0.11280769827186343,0.5,-0.5713451082925018,0.5024266100902355,0.6064464314617207,-1.152882794979081,0.14536225981144624,0.5,-0.23083780643945145,-0.007833022146038968,0.5,0.7626836928974041,0.2788659292202386,0.5,0.0962552731889007,-0.4862300281071076,0.5,0,
0.7762069885302748,0.3301143635092997,0.09547435926025166,0.5,-0.5662520692180975,0.38023941590904775,1.1918627838936235,-1.1526940032891768,0.08530327083987321,0.6949141720038913,-0.22761569736692525,-0.3183846630732227,0.5,0.7665901051993786,0.1424793897206733,0.5,0.09092398021489083,-0.15354426518169542,0.5,0,
0.7842091224326487,0.33183213327999567,0.3415017844647303,0.5,-0.5652612776379571,0.1262389433428282,0.996607497646912,-1.151517942645643,0.5751293267505092,0.5,-0.23593196104862302,-0.564659155330929,0.5,0.7649633631329349,0.06202644251878525,0.5,0.09379856494599358,0.051843479137982096,0.5,0,
0.7922112563350228,0.33557839206073536,0.31250866107485065,0.5,-0.5642322461246122,0.33023232760976545,0.5,-1.1434919340611687,0.41047700834631606,0.6704782410625723,-0.2366502438522201,-0.32212891065570676,0.5,0.7675825282796792,0.4493726317555194,0.5,0.09175347588109854,-0.18223443091681946,0.5,0,
0.8002133902373967,0.3368322718571933,0.3405781357383765,0.6639823319276755,-0.5599775603962008,0.2580859384809092,0.7602546228434456,-1.144950310512102,-0.05112269103345335,0.5,-0.24108602361911433,-0.32264293360117524,0.5,0.7721533252410232,0.10775285633680964,0.5,0.09088281405132446,-0.05624836641727679,0.5,0,
0.8082155241397707,0.3410276422325494,0.6419580733482249,0.6347493516988578,-0.5601028711089177,0.10970314073005527,0.5,-1.144309897117704,0.02634877414450787,0.5,-0.24181253078983891,-0.11787779207296338,0.5,0.7693065739810682,0.12658948148159405,0.5,0.09085350201842211,-0.4451294717724187,0.5,0,
0.8162176580421446,0.3471036010307649,0.32333090894967953,0.5764194324715717,-0.55822231014452,0.08937640226556326,0.6612530431479746,-1.1445287301257898,0.0744520731883469,0.5,-0.24297206829228174,-0.5081888346167591,0.5,0.7741787569447287,0.39692520415014754,0.5086387497561649,0.08376074250296577,-0.25909419830834246,0.5,0,
0.8242197919445186,0.34620093677574426,0.010865091317997094,0.5,-0.5586728486726686,0.2146352224657519,1.0115123258508703,-1.1431186639466904,0.3902916399166345,0.5,-0.24994355214370706,-0.3259564080822213,0.5,0.7756573772474705,-0.32818401085726173,0.5,0.08670799484548863,0.20365105973759942,0.5,0,
0.8322219258468926,0.34727744249185283,0.10198360584176905,0.5,-0.5547881465850679,0.41132195699768864,0.5,-1.1382840638871237,0.34294440561259687,0.5,-0.24818737082159728,-0.25793384354531185,0.5,0.7689278127710125,0.2471758252713535,0.5,0.08701915945876736,0.07886675337400155,0.5,0,
0.8402240597492665,0.34783267446921257,0.1454591257434995,0.5,-0.5520916973607056,0.46195998463533644,0.5,-1.1376315534568888,0.17384987572884036,0.5,-0.25407049364043205,-0.589063042009728,0.5,0.7796121904518122,0.3744360542280445,0.5,0.08796986289947266,-0.039386447029375084,0.5,0,
0.8482261936516405,0.3496047885037488,0.16864243095767936,0.5,-0.5473967868309025,0.4003335140967054,1.5877497073066866,-1.1355024658754622,0.0059429835251728624,0.5,-0.25761237949375293,-0.2382235561781791,0.5,0.7749187896386612,-0.21699502163298467,0.5,0.08638897630629735,-0.26239585108837804,0.5,0,
0.8562283275540145,0.35053095336453544,0.1613358665603186,0.5,-0.5456863611351583,0.0516382491861922,0.5740836280892447,-1.137536465720486,0.09922810270981963,0.5,-0.2578820705392829,-0.31620846105781875,0.5,0.7761402701056844,0.07292662512477927,0.5,0.08377152928205861,-0.1989322477342452,0.5,0,
0.8642304614563885,0.3521861623687139,0.26344458467967774,0.5,-0.5465705748439235,0.15436182394801962,0.5,-1.133914816232105,0.23697278974557645,0.5,-0.26267171487067803,-0.18173109214348476,0.5,0.7760856156406577,0.03138113453812069,0.5,0.08320606034254943,-0.12184344091132215,0.5,0,
0.8722325953587624,0.3547460667194103,0.12633829960751256,0.5,-0.54321657195199,0.15956240645718933,0.5,-1.1337449010845568,0.14847499071386772,0.5,-0.26078976801357867,-0.1488050413694618,0.5,0.7766423682582944,0.04388931624710324,0.5,0.08182203422747746,-0.2294997337861206,0.5,0,
0.8802347292611363,0.3542075751624341,0.12704429408512408,0.870166746829365,-0.5440175763406084,0.08407556413642103,1.103816937362581,-1.1315392163806832,0.17330124783174194,0.5,-0.2650525955325894,-0.35128316065702325,0.5,0.7767878447006114,0.12792407886367402,0.5,0.0795340646019715,-0.3344808615427658,0.5,0,
0.8882368631635104,0.35677877542477227,0.5445731251805634,0.5,-0.5418713629258073,0.32209628374081645,0.5357696595191285,-1.130972081119249,0.17875320650768967,0.5,-0.26641029858409104,-0.2136328473995655,0.5,0.7786891535201131,0.10741823987404225,0.5,0.0764703404427932,-0.24234419549818645,0.5,0,
0.8962389970658843,0.36292074516532313,0.4196543704382272,0.9442033722654424,-0.5388640358007554,0.23497208699553573,1.424409641807968,-1.1286791650765602,0.10047992077137635,0.5,-0.26847072109098247,-0.5689545713625371,0.5,0.778506536538596,0.38577344751800774,0.5,0.07565655747400052,0.030615350023365656,0.5,0,
0.9042411309682583,0.3634932453517839,-0.0728724144826165,0.5,-0.5381118095338787,0.53724240435387,1.207511385110438,-1.129364402386907,0.2529144603348604,0.5,-0.27551357172589164,-0.35870227381733577,0.5,0.7848615286804013,0.345136582393879,0.5,0.07696018604316705,-0.15251247464205445,0.5,0,
0.9122432648706322,0.36175478653360127,0.133883312664132,0.5,-0.5302681573310934,0.27039239997525555,0.5731539136474771,-1.1246325337112024,0.28628976800011696,0.5050029256972508,-0.27420995747205984,-0.2522170739180721,0.5,0.7840287218568981,-0.1357634054309359,0.5,0.07321635787972765,-0.35855692552840684,0.5,0,
0.9202453987730063,0.36563537835441,0.26581600293613256,0.5,-0.5337855311342746,0.1587391393000001,0.5,-1.124783766098905,-0.09381883022187287,0.5,-0.2795490449085808,-0.45133280063908154,0.5,0.7826893141935063,0.07386595298519705,0.5,0.07122327523471254,-0.13585521100106973,0.5,0,
0.9282475326753802,0.3660078425805794,0.20517002912716006,0.5,-0.5277283311022934,0.07791861427869362,0.8177899044339795,-1.1261336349947524,-0.05460093598198823,0.5,-0.28143128228228514,-0.3966993566759842,0.5,0.7852105771046612,0.0972607514021992,0.5,0.07104267450371053,0.0389031362869512,0.5,0,
0.9362496665777541,0.3689180988204446,0.1884022689432087,0.5,-0.5325388333058155,-0.07720580189289616,1.3793209592390532,-1.1256573810746169,0.061899206808949114,0.5,-0.28589623461539654,-0.4514641859253328,0.5,0.7842454862159415,-0.061927390378690994,0.5,0.07184572541530376,0.014237133559667943,0.5,0,
0.9442518004801281,0.36902227888367073,0.08818678458237528,0.5056670869266036,-0.5289636239325798,0.23017763784610734,0.9767757227597522,-1.1251432476858092,0.34767139914507195,0.5,-0.28865470925709047,-0.45064361546049214,0.5,0.7842197388586022,0.2538395962954909,0.5,0.07127046864066522,-0.3294657260914111,0.5,0,
0.952253934382502,0.3703290873737626,0.3526087404565406,0.5,-0.5288559911002778,0.032086997250040106,1.1080213669002534,-1.1200946386882957,0.29071902250434045,0.5875897062331327,-0.2931065324627644,-0.4287675023804012,0.5,0.7883069197566693,0.1795292914674798,0.5,0.06657427379784119,-0.2621731371796696,0.5,0,
0.9602560682848761,0.3746640187309754,0.2918730590437228,0.5,-0.5284502319765791,0.2736890461749672,0.9313344465960357,-1.1204917433257398,-0.16009846300014952,0.6055935072488304,-0.2955149892951769,-0.22409968545187425,0.5,0.7870922075220819,-0.031650282506109906,0.5,0.0670756984457905,-0.33730645490088895,0.5,0,
0.96825820218725,0.37499905631846214,0.10829067245161222,0.5,-0.5244769663614783,0.4693800548762478,1.9621080592660756,-1.1226562140962981,0.2100834915422095,0.5,-0.2966921274299944,-0.40876579218089915,0.5,0.7878005152365716,0.08325629680686758,0.5,0.06117737051942696,-0.4636197826239064,0.5,0,
0.9762603360896239,0.3763966694902012,0.12833985819140845,0.5,-0.5209401510985592,0.028655775304385622,0.5,-1.1171304074610644,0.3773165893517366,0.573204410650847,-0.3020552419700713,-0.1364592697160917,0.5,0.7884243082709917,0.019593726664497713,0.5,0.059657781923808,0.17446102583174591,0.5,0,
0.984262469991998,0.3770524940495247,0.07725769753074568,0.5,-0.5240184739566082,0.03624561562948214,0.7870680108664643,-1.1166191486666703,0.025345753048661157,0.5,-0.29887547574545187,-0.01114511404072191,0.5,0.7881140148632035,0.07665818698014693,0.5,0.0639687469327349,0.015366773163723313,0.5,0,
0.9922646038943719,0.3776327926506931,0.1598617261317041,0.5,-0.5203602212484875,0.1966543969055129,0.9208678887029137,-1.1167248754122858,0.18062241246633026,0.5,-0.3022335637947228,-0.5493462490737226,0.5,0.7896508392626741,0.1753513190774006,0.5,0.059903650294427575,-0.1752024632905398,0.5,0,
1.0002667377967458,0.37961028166763194,0.28150964458491246,0.5273497234457107,-0.52087200360612,-0.0029856187940685563,2.1575340782517243,-1.113729190067209,0.2471865327499101,0.5,-0.30766501573063143,-0.4038135979748947,0.5,0.790919635968442,0.01508307711910184,0.5,0.06116550752008626,-0.20840041344962834,0.5,0,
1.00826887169912,0.3821369469640517,-0.013370298565098387,0.5,-0.5204079911491926,0.47710639321147524,1.1861664503154576,-1.1127698908882873,0.13759352152482862,0.5,-0.30869458136232114,-0.45934248889124146,0.5,0.7898921684965797,0.1229185112721215,0.5,0.05656924367923352,-0.32570978223897973,0.5,0,
1.0162710056014939,0.37939635689059037,0.11318256817153052,0.5,-0.5132383013147364,0.2221769804487822,1.2658760450276427,-1.1115276937228118,0.14192609012454727,0.5,-0.3150144955528913,-0.4063782445188624,0.5,0.7928863321487959,0.177502627767695,0.5,0.055954151004262584,-0.22623118839818976,0.5,0,
1.0242731395038678,0.3839478680547962,0.32407204904197,0.5928489351822732,-0.516853159462012,-0.048057401994421045,1.3367933290237528,-1.1104990734462945,-0.1422269787758612,0.5,-0.31519663327462294,-0.4573827889747875,0.5,0.7927322105408628,0.1341166777849498,0.5,0.052949544664862486,0.009034337249976855,0.5,0,
1.0322752734062417,0.3845815096752619,0.022525607068047543,0.5,-0.5140072197466471,0.22181049912366885,1.206373221661817,-1.1138033253832256,0.04211795570616128,0.6441858564981816,-0.3223326201764879,-0.3849173552600768,0.5,0.7950321989933551,-0.010958102396117775,0.5,0.056098700400262214,-0.1658073589565724,0.5,0,
1.0402774073086156,0.38430827776788495,0.13449103757729938,0.5,-0.5133041914760333,-0.03460568640170636,0.5,-1.109825186154996,0.4947594761912366,0.618996564952903,-0.32135531095878417,-0.2650112362663007,0.5,0.792556880902525,0.1342609358337618,0.5,0.05029662692155733,-0.52211057220623,0.5,0,
1.0482795412109898,0.3867333662764987,0.3355182609807092,0.5,-0.5145609107290744,-0.07163861847098857,0.7446541502504576,-1.1058871737641658,0.010628143154986502,0.5,-0.3265727999567487,-0.4842170160574283,0.5,0.7971803739666953,0.02684016497728897,0.5,0.047744931244962534,-0.04225133028548916,0.5,0,
1.0562816751133637,0.3896765699435763,0.2781992759150892,0.5718662098872686,-0.5144504093715692,0.08995198216851796,0.9985961912105074,-1.1096551358645161,-0.30642739953172515,0.7498710925265052,-0.329102783215703,-0.2160428272512671,0.5,0.7929863235421616,-0.20647092664882044,0.5,0.0496206056369895,-0.161790756670859,0.5,0,
1.0642838090157376,0.3911845546911401,-0.019720438350769726,0.5,-0.5131216790143781,0.2989189496160338,0.7815281070006801,-1.1107900121566734,0.17408025370076186,0.5,-0.330029485192769,-0.18855345266581558,0.5,0.7938768391403142,0.08485445481869885,0.5,0.04515627913822879,-0.29516999360578106,0.5,0,
1.0722859429181115,0.389361042929964,-0.2116422358101784,0.5,-0.5096677061777126,0.1512641234344969,0.5,-1.106869851805304,0.28202952233676026,0.8390924528551126,-0.33211963845835607,-0.5054642460712091,0.5,0.7943439948192608,0.003714605638603652,0.5,0.044897885739297004,-0.08462638373080102,0.5,0,
1.0802880768204854,0.38779827891817725,-0.0642048798694464,0.9209867261843621,-0.5107014530394262,0.07663125110203561,0.5,-1.1062775397992852,-0.2800866795798912,0.5464618982892332,-0.3381169131299083,-0.5155962375679689,0.5,0.7939362728305318,-0.1382505836946893,0.5,0.043802256998535974,-0.3278547412667314,0.5,0,
1.0882902107228596,0.38833376485205284,0.4284461338219109,0.5,-0.50844160616008,0.08381360804068233,0.8219455370872604,-1.1113512386785822,0.05570922092823505,0.6291277099281827,-0.34036917825944357,-0.20658960776909208,0.5,0.7921319854801457,0.13361786437934148,0.5,0.0396522098790293,-0.6955856746055471,0.5,0,
1.0962923446252335,0.3946534170593278,0.38248782082117916,0.7161158277591799,-0.5093604353107752,-0.09297763863899688,1.6528307958852357,-1.1053861922644335,0.49674196204427257,0.6581890381466245,-0.3414223468542138,-0.0976868625934893,0.5,0.7960741586606013,0.24140746421968257,0.5,0.03267288620484722,-0.26751848109783993,0.5,0,
1.1042944785276074,0.3944535699851917,0.03968204119996627,0.5,-0.509929248378304,0.28657007425353376,0.7543869984157726,-1.1034033672858738,0.04237420766846356,0.5,-0.3419321680609394,-0.5030077694022882,0.5,0.7959945049076607,0.09334715506525981,0.5,0.03537191418146386,0.010204966437319697,0.5,0,
1.1122966124299813,0.3952883297185273,0.11120713459814718,0.5,-0.5047753141227187,0.15043246686866074,0.658626267850289,-1.104708204941738,-0.034070307560668533,0.5,-0.3494704711646504,-0.6539689754218557,0.5,0.7975677131416454,0.138330836820591,0.5,0.032836165667844336,-0.17797032107906,0.5,0,
1.1202987463323555,0.39623288413876206,0.1298159574353655,0.5,-0.5075223289084054,0.04374196134469821,0.6523437360662042,-1.1039484922068445,0.24319359918416328,0.5,-0.3523956716676891,-0.4466366790674692,0.5,0.7982077982967901,0.10644045748370301,0.5,0.0325243890441989,-0.022558582281909535,0.5,0,
1.1283008802347294,0.39736538503749314,0.06738817206258796,0.5,-0.5040754427412035,0.16391713820972792,1.4826018697126429,-1.1008171073547914,0.07272515865396068,0.5,-0.3566166580297299,-0.21435715667974392,0.5,0.7992707604613847,-0.06615128256116237,0.5,0.03247522835133378,-0.23628534682402427,0.5,0,
1.1363030141371033,0.39731109489176347,0.11592105992000099,0.5,-0.5048996546970498,-0.13588479699745692,1.8099539912114964,-1.1027848896683812,0.06318042545903901,0.5,-0.355825386174565,-0.10884185737504437,0.5,0.7971493777758115,-0.18025604832548614,0.5,0.028743823495014514,-0.41983236964357895,0.5,0,
1.1443051480394772,0.39922012199621315,0.0304452477668804,0.5,-0.5062495994931628,0.2577981189628917,1.2890756412736306,-1.0998062205474468,0.06373425528427568,0.5,-0.3583581277477306,-0.5258662043359021,0.5,0.7963866636881769,0.08765889779883268,0.5,0.02575791043703652,-0.23279510994052788,0.5,0,
1.1523072819418512,0.39779821885603356,-0.1266281086386746,0.5,-0.5007748847936435,0.00604915522071231,0.5,-1.1017651415838328,-0.17564813559385606,0.5,-0.36423924544393943,-0.38113336210971943,0.5,0.7985519201405928,0.19029647055331111,0.5,0.025019101735966068,-0.22117135654454478,0.5,0,
1.1603094158442253,0.39719407225799436,0.0005088101056420491,0.5,-0.5061528130096314,-0.08312679941483575,2.0065177096709497,-1.1026165907169485,-0.11951904629152466,0.5,-0.36445626154148614,-0.2688684452433615,0.5,0.7994314072170299,-0.06620666444313167,0.5,0.022219168732323803,-0.3537626156347444,0.5,0,
1.1683115497465992,0.39780635981772383,0.010604731248389093,0.5,-0.5021049135842809,0.3803865381725863,1.5854750341283657,-1.1036774463244972,0.06556751154444818,0.5,-0.3685411405678332,-0.4805809432196495,0.5,0.7974926135095027,-0.06764978186560994,0.5,0.019358899885810157,-0.32736470086788966,0.5,0,
1.1763136836489732,0.3973637479579686,0.0050329150304458115,0.5,-0.5000666283988701,0.04057870643480593,0.5,-1.1015675105322373,0.0778904243830536,0.5,-0.37214555663300053,-0.5538731919489704,0.5,0.7983490107071801,0.13131533620514696,0.5,0.01698133351843757,-0.2842859568669169,0.5,0,
1.184315817551347,0.39788688645821096,0.010521955767905239,0.5,-0.501455654281324,0.05494558426274304,0.6155200382089276,-1.1024311995343683,-0.09822222571582995,0.5,-0.37740311163901674,-0.2862051305672873,0.5,0.7995936588887851,0.08611874026111244,0.5,0.014810324575939487,-0.3335029842128508,0.5,0,
1.192317951453721,0.39753209925025507,0.2376582442570295,0.5,-0.4991874990506662,-0.06195439708064909,0.9254892121349543,-1.1031390661436906,0.0450930343355721,0.5,-0.3767248387220771,-0.21261591096233962,0.5,0.7997269105513579,0.018246540488028873,0.5,0.011645285771031955,0.02319574094054465,0.5,0,
1.2003200853560951,0.40168941836632344,0.06379972073269902,0.5749454292435078,-0.5024469246346144,0.13322048347195678,1.0974401506994886,-1.1017097109849991,0.2464238612619324,0.5,-0.3808049662144142,-0.2643104882770822,0.5,0.7998856035365935,0.04911443161267903,0.5,0.015181456430988201,0.06477440823373834,0.5,0,
1.208322219258469,0.39855289478197825,-0.19603807253855063,0.5,-0.49705597131511486,-0.09092198852757305,0.5,-1.0991962843634997,-0.081539535384062,0.5,-0.38095380653451044,-0.35222254041428896,0.5,0.8005127414571608,0.1709222774310057,0.5,0.012681676302771769,-0.6088069747321049,0.5,0,
1.216324353160843,0.3985528092057066,-0.15327777504703377,0.5,-0.5039016764510555,-0.07876265199161653,1.617826002943697,-1.1030143435511441,-0.4113934364297356,0.908074818323119,-0.3864405268610428,-0.7296282181898303,0.5,0.8026203599754896,0.1067380855182265,0.5,0.005440544835274524,-0.5739904889938661,0.5,0,
1.224326487063217,0.3961004503812257,-0.03717330695322124,0.5,-0.49831617374698073,0.282013281684295,1.6484705913635658,-1.1057785793463755,0.28552784578593504,0.5,-0.3926278580255477,-0.5299640559491836,0.5,0.8022205508254524,-0.1739883450557686,0.5,0.0034978284788699126,-0.05411107935364786,0.5,0,
1.2323286209655908,0.3979580362944551,0.16527428907907316,0.5,-0.4993894639441068,-0.08345834941043268,1.033604148431503,-1.0984458980185692,0.4051082222744501,0.584713587985199,-0.39491995175622974,-0.2455376136991788,0.5,0.7998365464545973,-0.15628917006375864,0.5,0.0045747675656161585,-0.04872455173466876,0.5,0,
1.240330754867965,0.3987448390064909,0.08061051085598778,0.5,-0.49965150733754765,0.13712242425380217,0.7656698129453209,-1.0992968477899843,-0.04479964657547186,0.5,-0.3965564598447346,-0.21904090007793947,0.5,0.7997199241044323,0.06040147514201066,0.5,0.0027182356511152124,-0.3805085714166889,0.5,0,
1.2483328887703389,0.3992478044681509,0.06415604294354033,0.5,-0.497195505156046,-0.03890478136371958,1.8678969733711932,-1.0991626923637767,-0.09889682480762607,0.5,-0.39842460615747677,-0.444461318206503,0.5,0.8008029700568695,-0.017986825923639593,0.5,-0.001513369577050864,-0.2916097448041183,0.5,0,
1.2563350226727128,0.3997713356935875,0.18770136885274194,0.5,-0.5002739838393672,-0.48212452024004937,2.191506345752216,-1.1008791969869063,-0.033271683738331226,0.5,-0.40366784093603864,-0.5744347496495702,0.5,0.799432134889654,-0.05063956139674669,0.5,-0.0019475202657506807,-0.016329222229019353,0.5,0,
1.2643371565750867,0.40225102636979476,0.016688654510564616,0.5,-0.5049094974798868,0.02106249912419908,0.9319010757334717,-1.09969503930359,0.07131893675145495,0.5,-0.4076155621518699,-0.30630237519742654,0.5,0.7999927370745216,-0.012056308077310063,0.5,-0.0017746371327151736,-0.03440681580898579,0.5,0,
1.2723392904774609,0.40003835416575656,-0.20344404529280824,0.5,-0.49993698385338,0.20827728284625313,1.138462586075268,-1.099738093998883,0.024256365637534416,0.5,-0.40856867893919746,-0.23230923792456545,0.5,0.7992392339604171,-0.14305537004905,0.5,-0.0024980293186944533,-0.3378514553335901,0.5,0,
1.2803414243798348,0.39899592164510983,-0.05724506762046569,0.5,-0.5015770609543467,-0.06094181528549722,1.6417466560698726,-1.0993069374533895,-0.15025631540294127,0.5,-0.41133250995866294,-0.20015834145147016,0.5,0.7977038511537368,0.16103322282273735,0.5,-0.007180260418052616,-0.37832844481498196,0.5,0,
1.2883435582822087,0.3991224330838291,-0.3050343538801743,0.784027306195649,-0.5009120528979479,0.29903333155498546,1.0343457406676215,-1.10214219504533,-0.08684239490294732,0.5,-0.411771212402421,-0.27915408764387845,0.5,0.8018157655255809,0.10446928186082921,0.5,-0.008551284435734165,-0.3498510968620872,0.5,0,
1.2963456921845826,0.39411537198302704,0.13003430729884372,0.5,-0.49679252764946696,0.09780136327462371,2.0381941517512527,-1.1006964157718366,-0.15945670692986413,0.5161935265067485,-0.415798975360965,-0.4128340173594411,0.5,0.79937535966351,-0.1517684467620406,0.5,-0.012777877967846012,-0.4822044321808595,0.5,0,
1.3043478260869565,0.4012029820006106,0.1017183874787303,0.6120810883388269,-0.49934723108555396,-0.3336771420958846,0.5,-1.104693502356208,0.17507209987892292,0.5,-0.41837655668017204,-0.35818355133559326,0.5,0.7993874703773882,-0.05922134502442389,0.5,-0.016266555350627918,-0.03167373053798478,0.5,0,
1.3123499599893307,0.3957428661826867,-0.2726787492879912,0.7770691936670076,-0.5021313619230011,-0.25676195686531383,1.2575411563049506,-1.0978952621737739,0.14396055093690574,0.7072980698168919,-0.4215299121823345,-0.35362133178540656,0.5,0.7984278181431193,0.26141102385022347,0.5,-0.013284657656453768,-0.13094935620062412,0.5,0,
1.3203520938917046,0.39684012201200275,0.1747979083568385,0.5070822167376583,-0.503455422395399,0.030554446980787797,0.7730812690318077,-1.1023901335412174,-0.4172062469204457,0.6102506478597511,-0.42403449798873855,-0.40602304636795994,0.5,0.8035700467589918,-0.1449402332435179,0.5,-0.018361745049837903,-0.38999515512080746,0.5,0,
1.3283542277940785,0.39853963271639614,-0.08397091586418576,0.5,-0.5016424907713085,-0.12722886457400273,0.5,-1.104570562124501,-0.00545573586825665,0.5,-0.42802628092422185,-0.5213896187957097,0.5,0.796108774411223,-0.2599543771208135,0.5,-0.019524580138386687,-0.27142118355028,0.5,0,
1.3363563616964524,0.3954965873581758,0.15147666014200117,0.5,-0.505491084228583,-0.09377489407550593,0.873385860845667,-1.1024774253151095,0.0281292298318081,0.5,-0.4323767318894699,-0.30991670547398514,0.5,0.7994107767250588,0.16842676705641768,0.5,-0.022704483986642383,-0.35337666613478674,0.5,0,
1.3443584955988264,0.40096325927866816,0.05439189284354995,0.9359430356711119,-0.5031428890765166,0.07623128093051795,0.5,-1.104120494447192,0.08394569549625974,0.5,-0.4329849482118056,-0.131846085416297,0.5,0.7988036026841256,-0.005875489190294847,0.5,-0.025178606796543275,-0.21443375635296852,0.5,0,
1.3523606295012005,0.3963668576436726,-0.4157953161442324,0.5,-0.5042713837336947,0.11579201009074419,0.5,-1.1011342941871693,0.13720904627514963,0.5,-0.43448626925613065,-0.547887009879594,0.5,0.7993167688980141,-0.09793463695255411,0.5,-0.02613542408828988,-0.0977109298188803,0.5,0,
1.3603627634035744,0.39431053422036044,-0.11661405826465104,0.5,-0.5012902169150647,0.0694272038583646,1.8709752896026692,-1.1019251497067897,-0.045316857068780636,0.5,-0.4417511403698791,-0.5839778936528351,0.5,0.7972366484928848,-0.2870547251162328,0.5,-0.02674198167364536,-0.08662657648297444,0.5,0,
1.3683648973059483,0.39450103271143816,0.08655383177677209,0.6800839219972538,-0.5031605484719609,-0.34825430440630495,1.0968926794322942,-1.1018593639002698,-0.1329294720885249,0.5,-0.443829915554576,-0.45950457779268816,0.5,0.7947238932961543,0.07886169681551453,0.5,-0.02752144931201747,-0.23073065909064572,0.5,0,
1.3763670312083223,0.3956953955287888,0.4431563191335426,1.4154455750042176,-0.5068622857855656,-0.11553470703087182,0.8724301819123055,-1.104052021260206,-0.3310550860467498,0.5,-0.4491032136145621,-0.41307723239098965,0.5,0.798498435641933,0.26797118556114163,0.5,-0.03043367221909569,-0.26285250590573445,0.5,0,
1.3843691651106962,0.40159153381757484,-0.2977812662830793,0.5,-0.5050091037844548,0.08068841168344665,1.264430644196276,-1.1071562452770178,-0.017526716862795166,0.5,-0.45043915127283185,-0.3758758504034815,0.5,0.7990114322651326,-0.11938903318706867,0.5,-0.03172708940650922,-0.17509055527161377,0.5,0,
1.3923712990130703,0.3909308952682595,-0.38848691228419996,1.0889072555485608,-0.5055712711986304,-0.20688991700200388,0.7141298865176227,-1.1043324487300108,0.1004668068927822,0.5,-0.45511722722101783,-0.4390653680909802,0.5,0.7965882111109399,0.06028575336069347,0.5,-0.03323512110344151,-0.29517320492517807,0.5,0,
1.4003734329154442,0.39537574322102764,0.1881134981233691,0.5106097765241682,-0.5083193424564869,-0.05023229185865258,0.6095258261999167,-1.1055487763667333,-0.023857734484447612,0.5,-0.45746419716228753,-0.3188326685545223,0.5,0.7999760043189037,-0.148651209729303,0.5,-0.03644986068531207,-0.293058921422899,0.5,0,
1.4083755668178182,0.39394071123823343,-0.1039397963534007,0.6971714340960814,-0.5063749878683689,-0.16974630746864616,0.5,-1.104714172481762,-0.21257675179406355,0.5,-0.4602185499178902,-0.24979441294169583,0.5,0.7942097917552711,-0.3459553895865247,0.5,-0.037924063846207896,-0.14221934569522576,0.5,0,
1.416377700720192,0.39371270647937323,-0.47334719051151175,0.5,-0.5110352833759852,-0.10666091845959458,0.8855578689213951,-1.1089500043954383,-0.07462497894097919,0.5,-0.46146090776935467,-0.4208386515774827,0.5,0.7944407180855193,-0.01497395784995359,0.5,-0.038725370216435684,-0.2623075987301365,0.5,0,
1.4243798346225662,0.38636715619004924,-0.36335273510139027,0.8056773538534651,-0.5080815625637224,0.07855613268194922,0.5,-1.1059081721448176,0.12057848620147804,0.5273165791156542,-0.4669519683431299,-0.4602000585416897,0.5,0.7939702084296718,0.2542728425036292,0.5,-0.04212098542589008,-0.4262620245203824,0.5,0,
1.4323819685249402,0.387899062717751,0.029036827028056794,0.5,-0.5097783852530741,-0.032614158648781866,0.5523901173626942,-1.1070207486162147,-0.27828285817059484,0.5,-0.4688241087060217,-0.16968546130489287,0.5,0.7985090835655774,-0.009562093786441572,0.5,-0.0455455626087618,-0.3775036190064762,0.5,0,
1.440384102427314,0.38683174542249815,-0.08115870046931581,0.5,-0.5086033891021029,-0.14805462487046256,0.901635008297955,-1.1103606978755471,-0.27888153776904623,0.5,-0.4696669357240082,-0.1276482819989322,0.5,0.7938172149290887,-0.1589687035588247,0.5,-0.0481610433299937,-0.16416080382821363,0.5,0,
1.448386236329688,0.38660052351024193,0.05340907398368455,0.7019833561490363,-0.5121472592510015,-0.3228528747001233,0.7813127282646926,-1.1114828532205194,-0.08532383388112907,0.5,-0.4708664812180046,-0.433262939084314,0.5,0.7959655843086362,-0.022219070453521894,0.5,-0.04817213547001322,0.08811546632820927,0.5,0,
1.456388370232062,0.3876862906062371,-0.3096488839231873,0.5,-0.5137690350973049,-0.15519567191472905,0.5357473211926564,-1.1117258792176452,0.17768163051008756,0.5,-0.4765991427493572,-0.3999215739023884,0.5,0.7934617098018324,-0.1934202827521686,0.5,-0.04675119586874235,-0.20587055037361682,0.5,0,
1.464390504134436,0.38164614136747094,-0.14106463344365494,0.5,-0.5146303900016371,-0.2585894607636391,0.5,-1.108639947132358,-0.08026268841020145,0.5,-0.47726522640044283,-0.34304232708624177,0.5,0.7928708597846015,0.005068613351526252,0.5,-0.05146606427599109,-0.40771206904461527,0.5,0,
1.47239263803681,0.3854292564711386,0.07631731731213079,0.7771563583579141,-0.5179064664695231,-0.3078036355803823,1.1723787403986294,-1.1130100822322084,-0.07181146700462049,0.5,-0.4820878199827371,-0.3578940329483464,0.5,0.7935428076154568,-0.24249854603067278,0.5,-0.053274588973456195,-0.15513509505846657,0.5,0,
1.480394771939184,0.38286721844446503,-0.32603316088017015,0.5,-0.5195552481709232,-0.06191313963905404,0.5240009786016925,-1.109788930604432,-0.02777862091681016,0.5059914507070515,-0.4829915309276164,-0.4820719353097434,0.5,0.7889908830481107,-0.04647384288253287,0.5,-0.053948225796926555,-0.11599890429524326,0.5,0,
1.4883969058415578,0.3802127258970559,-0.1413792147239301,0.5,-0.518897076703748,0.03722786792968724,0.6444642097171879,-1.1134545401668774,-0.35096080765005533,0.550780822556235,-0.489800970947693,-0.6112461028950321,0.5,0.7927992261293363,-0.060280011640934106,0.5,-0.05513057144218009,-0.11948985669098938,0.5,0,
1.4963990397439317,0.38060515100888215,-0.0870850366223204,0.5,-0.5189596022840482,-0.08340021953705257,0.6542899480891325,-1.1154043035268328,0.011797985910694253,0.5,-0.4927714685739369,-0.2568152796721089,0.5,0.7880264028618558,0.05072415323428836,0.5,-0.055860063503982385,-0.28599112841478813,0.5,0,
1.5044011736463059,0.3788193653110988,-0.2198543841809078,0.5,-0.5202314802163408,-0.21566128824439257,0.5,-1.1132657723923063,-0.1535069181550358,0.5,-0.4939100154224467,-0.05609699004638716,0.5,0.7936108125810849,0.319024145118231,0.5,-0.0597064294968167,-0.17538666934538513,0.5,0,
1.5124033075486798,0.3770874808619876,-0.20886026932878665,0.5,-0.5224101828959585,-0.1982140913759367,1.0231104566451423,-1.1178604142173134,-0.246063676584668,0.5,-0.4936690204146791,-0.045353963670311664,0.5,0.7931307891837475,-0.11596559088246361,0.5,-0.05866625021350855,-0.09043135718801633,0.5,0,
1.5204054414510537,0.3754776010018382,-0.20742828553735326,0.5,-0.5234029056783558,0.010219731588906322,1.0960740392497512,-1.117202791217661,-0.08103158319995585,0.5,-0.4946356788411717,-0.5955061296528465,0.5,0.7917553631269655,-0.4036513265579314,0.5,-0.06115333121182496,-0.11285808524426387,0.5,0,
1.5284075753534276,0.37376862829338997,-0.03482286999970455,0.5,-0.522246667190536,-0.2203446484441568,0.5,-1.1191569195485127,-0.024167094049454274,0.5,-0.5031971184891246,-0.5870749736515795,0.5,0.7866723679588206,-0.23327309571538613,0.5,-0.06047197957741677,-0.5438603693472878,0.5,0,
1.5364097092558016,0.3749204350818429,-0.05215824734363869,0.5,-0.5269284200534623,-0.2435170177440063,0.6375180450349545,-1.1175894647224522,0.10022777344363687,0.5,-0.504028878419597,-0.36915103873901706,0.5,0.7880229935955193,0.18520882139744232,0.5,-0.06985509712138156,-0.5270056489472684,0.5,0,
1.5444118431581757,0.37293409633589175,-0.24931566541332856,0.5,-0.5261429394744401,-0.13954760073624922,1.798292458823089,-1.1175532751734145,-0.12156733214309379,0.5,-0.5091035351089489,-0.6071269181073465,0.5,0.7896357091011796,-0.24866061211803459,0.5,-0.06890406996057306,0.1261731699513588,0.5,0,
1.5524139770605496,0.37093138443522966,-0.3155131190469111,0.5,-0.5291611816652423,-0.5400071639227316,2.0565757129566373,-1.1195345420367417,-0.3783166812337535,0.5,-0.5137429091093145,-0.3809431135986252,0.5,0.7840444238016308,-0.5962020959917463,0.5,-0.06783632640215982,-0.18170540467161903,0.5,0,
1.5604161109629235,0.3678858864311412,-0.25925196526522737,0.8169531826505048,-0.5347830540972038,-0.07602263759652617,1.072042860155986,-1.1236063420731546,-0.374673389164179,0.5,-0.5151986249265269,-0.019775327635931927,0.5,0.7800964755653117,-0.0612635746785814,0.5,-0.07181135643531897,-0.23995095287957305,0.5,0,
1.5684182448652975,0.366783352990986,0.11495211539456346,0.5,-0.5303775438667867,0.15626646870410543,0.7930133107232065,-1.1255293162633686,-0.07759771326940057,0.5,-0.5140593143514894,-0.24283905672304457,0.5,0.7830642066067734,0.4371236756565075,0.5,-0.07167554164823299,-0.10271041209989826,0.5,0,
1.5764203787676716,0.3697251202774542,-0.07004055873958276,0.5,-0.5322827905979381,-0.010020755586655217,0.7807685980307569,-1.124847905485465,-0.27898062915847344,0.5,-0.5190840498340956,-0.5788159316741925,0.5,0.7870904543758158,0.02759719527407195,0.5,-0.07345472302891734,-0.22314639161202623,0.5,0,
1.5844225126700455,0.3656627040511527,-0.2229918524461437,0.5,-0.5305378759561732,-0.17045953238153944,0.9286390044803803,-1.1299930063299042,-0.16853148575336763,0.5,-0.5233203692582765,-0.343760420923378,0.5,0.7835057617311586,-0.36459441962467115,0.5,-0.07524588391402541,-0.13139711541702415,0.5,0,
1.5924246465724194,0.3661572506383159,-0.24775647404621376,0.5,-0.5350101431160428,-0.34990480712820266,0.5,-1.1275444092575189,0.06719432291910077,0.5,-0.5245842165688697,-0.31605158007978057,0.5,0.7812569436618211,-0.18997598879182814,0.5,-0.07555707687558973,-0.21032965467740905,0.5,0,
1.6004267804747934,0.3616986004664133,-0.39923950392738855,0.5,-0.5361363528702244,-0.32652320984742633,0.5809959426012095,-1.1289178971631986,-0.1786189864808191,0.5,-0.528377194539553,-0.1500098248236742,0.5,0.7804661459104894,-0.017096746179459665,0.5,-0.07861115838886396,-0.05763802625038516,0.5,0,
1.6084289143771673,0.3597694185754777,-0.4305490793898338,0.5,-0.5402345144736016,-0.45027424789453874,1.4558739131726386,-1.130402313041212,-0.2024545443082143,0.5,-0.5269843737660485,-0.38712545082483785,0.5,0.7809833957229497,0.056447240633993034,0.5,-0.07647928529559589,-0.3274018198051471,0.5,0,
1.6164310482795414,0.35480981519617594,-0.2767863362201084,0.6793458837064993,-0.543340740836537,-0.14175718072533677,1.1884818532441646,-1.13215716987213,-0.23785913765579647,0.5,-0.5345712017527504,-0.3082605165511537,0.5,0.7813693017606332,-0.25704333503752397,0.5,-0.08384958750574631,-0.26151213129279455,0.5,0,
1.6244331821819153,0.35534083719595594,0.0337223191278907,0.5,-0.542502629365207,-0.3805502637265687,0.5,-1.1342080592437047,-0.05000133703077225,0.5,-0.5319165420308669,-0.1967775241432171,0.5,0.7768707023623493,-0.21270861841821143,0.5,-0.0806634793962806,0.08286758129305831,0.5,0,
1.6324353160842893,0.3553493723022222,-0.16342543607363036,0.5,-0.5494295450561621,-0.3459774377828004,2.3700888910660307,-1.1329571912646224,0.03141063796292809,0.5,-0.5377196421390419,-0.4051577323483935,0.5,0.7779659638659419,0.08089760816542418,0.5,-0.08252370620505738,-0.37213524362343914,0.5,0,
1.6404374499866632,0.35272603021877785,-0.32927356260907187,0.5,-0.5480382683697318,0.17787662796533293,2.2755749069778304,-1.1337054890362979,-0.032814999201630224,0.5,-0.5383990657484412,-0.3175886616231943,0.5,0.7781650640929961,-0.1735851459397711,0.5,-0.08661764329425563,-0.16864120600663077,0.5,0,
1.648439583889037,0.35008099530047704,-0.3039166458499477,0.5,-0.5465835190087168,-0.34621106611923413,0.6090382694922298,-1.1334822312518484,-0.21770297576129138,0.5,-0.542801060725013,-0.6291259585925052,0.5,0.7751886015309055,-0.427412880433041,0.5,-0.08522196550116347,0.19991418454903212,0.5,0,
1.6564417177914113,0.3478633638851787,-0.12787269580211147,0.5,-0.5535776454276395,-0.4764062668851099,1.5048778224072628,-1.1371887366484785,-0.3616486635730637,0.5,-0.5484650810859213,-0.4273638162032578,0.5,0.7713264580060675,-0.041755009128952025,0.5,-0.08341901634147111,-0.08822689474011647,0.5,0,
1.6644438516937852,0.34803503216764325,-0.11707590348519759,0.5,-0.5542060192788786,-0.17213164848949025,0.8234230400767129,-1.1392686098690175,-0.13921898791958986,0.5,-0.5496388817842651,-0.3758762589472081,0.5,0.7745205213848423,-0.01785498326997703,0.5,-0.08663359581700533,-0.2665429143540454,0.5,0,
1.672445985596159,0.3459901494294155,-0.28778541434155286,0.5,-0.5563317518034714,0.0074238718622207656,1.6277398730885393,-1.139416240455192,0.04686777661419561,0.5536364431722897,-0.5544791012290766,-0.42790293442676597,0.5,0.7710407782737478,-0.027869440535052692,0.5,-0.08768370297113584,-0.1733319856450921,0.5,0,
1.680448119498533,0.3434304655381784,-0.2606137475964741,0.5,-0.554087237329083,-0.3752327761230023,0.5511443245289847,-1.1385187254431903,-0.3879084967138152,0.5,-0.5564853287350934,-0.2537865400921227,0.5,0.7740746103362814,-0.06601121964162904,0.5,-0.0894069075873268,0.042005925680096284,0.5,0,
1.6884502534009072,0.34182032946787194,-0.2785625643585421,0.5,-0.5623354762214394,-0.48428690798134333,2.108222626617605,-1.145622776402613,-0.6919720766280502,1.0274763862808747,-0.5585396858705506,-0.058045762454710104,0.5,0.7699845987594818,-0.28122762911213933,0.5,-0.0870116081602543,0.03797909386002527,0.5,0,
1.696452387303281,0.33897346450844174,-0.40419304364732594,0.5,-0.5618358278567845,-0.005365638949789142,1.6832060104426585,-1.1495902786692391,0.03226783305483594,0.5,-0.5574140609343687,-0.18306168961717412,0.5,0.7695749682704872,0.02765976720576352,0.5,-0.0887992420855664,-0.3760084906906502,0.5,0,
1.704454521205655,0.3353532407695147,-0.22068865156830986,0.5,-0.562421326444636,-0.3811437029334411,0.5,-1.1451064910737356,-0.05645362253912933,0.5,-0.5614686729044254,-0.39183947533830144,0.5,0.770427155034774,-0.22463867453965947,0.5,-0.0930277440113047,-0.04931274895694435,0.5,0,
1.712456655108029,0.3354424460833488,-0.09488122483567937,0.5,-0.5679341271037196,-0.33044254827854086,1.0249601230531966,-1.1504935366298652,-0.4028050271046024,0.5,-0.5636834925397816,-0.560938184592713,0.5,0.7659807494778527,-0.18422681945604036,0.5,-0.08958824606887751,-0.0198476334930444,0.5,0,
1.7204587890104028,0.33383514117214386,-0.30544582675648063,0.5,-0.5677084072170927,-0.10706565802617862,0.5518048499121171,-1.1515513715074093,-0.11411104297091856,0.5,-0.5704436838579088,-0.4049454246690884,0.5,0.7674795259234773,0.19119406962991858,0.5,-0.09334530614719341,0.010229876208979992,0.5,0,
1.728460922912777,0.3305553128552451,-0.4314398670388839,0.5,-0.5696471776321385,-0.21655163966898677,0.9348119618985513,-1.1523193133174,-0.3567977637686237,0.6127591631436121,-0.570162619334487,-0.16248408992479424,0.5,0.7690398545919314,-0.14309122125116813,0.5,-0.08942456804953383,0.02871194256114616,0.5,0,
1.736463056815151,0.3269321032995217,-0.21639544750956183,0.5,-0.5711732334517965,-0.4326295827740065,0.5,-1.1572601357277073,0.05703944596710531,0.5,-0.5730434292967055,-0.246843537580671,0.5,0.7651900663834587,-0.40776531247332937,0.5,-0.09288591506621507,-0.5202220036538496,0.5,0,
1.7444651907175248,0.3270929856950921,-0.12610204515787343,0.8295759843658531,-0.5765692509565226,-0.41934021045094555,1.5226864932832338,-1.1514066821819262,-0.07329484909071593,0.5,-0.5741121159357777,-0.514073245640137,0.5,0.7625156095923581,-0.44180804040992727,0.5,-0.09774812010799543,-0.2486192761235583,0.5,0,
1.7524673246198987,0.32491447057699574,-0.5763460315482728,0.5,-0.5778826768190116,-0.07988769276486007,0.7343511084896713,-1.1584328533131587,-0.3736145311009631,0.5,-0.5812686012269477,-0.36553394538009487,0.5,0.7581211377368998,-0.11726152376022314,0.5,-0.09686382348419201,0.23220923998514084,0.5,0,
1.7604694585222727,0.31787144919031973,-0.5575403393775942,0.546620403857812,-0.5778474540407603,0.04642109805181455,1.7113620799810836,-1.1573845146795416,-0.132734564690401,0.5,-0.5799606590618592,0.005396924639605727,0.5,0.7606394252121945,0.13812448356011198,0.5,-0.09403277226823317,0.19679254899176035,0.5,0,
1.7684715924246468,0.31599382514695423,-0.2717994366038465,0.5,-0.5771399392501826,-0.34402885805968897,1.6375211966840963,-1.1605566063482051,-0.4162040740051248,0.5,-0.581182250432714,-0.16029437337293506,0.5,0.7603311294738616,-0.2732477273569428,0.5,-0.09371514270032384,-0.18882740193960912,0.5,0,
1.7764737263270207,0.3135226582046582,-0.2092026761211091,0.5,-0.5833519157697153,-0.7211874417786535,1.6712099291615685,-1.1640437798636236,-0.22132246215600393,0.5,-0.5825253690358262,-0.4901527077281892,0.5,0.7562674615744834,-0.10769015500011053,0.5,-0.09705401069926692,-0.0783864565438875,0.5,0,
1.7844758602293946,0.3126465823290165,-0.2775991448279863,0.5,-0.588678938318641,-0.3398502738099496,1.2733435194689608,-1.1640977657427012,-0.2543208988531054,0.5,-0.589024693756365,-0.5143585077563642,0.5,0.7586080869938598,0.1242934962682185,0.5,-0.09496932600502604,-0.19593932603004324,0.5,0,
1.7924779941317686,0.3090810718874104,-0.32918241051490754,0.5,-0.5887895201506745,-0.05639809808127144,1.9334954861961378,-1.1681129142452733,-0.15460768618394405,0.5,-0.590755105159928,-0.32618794132990847,0.5,0.7582561575147749,-0.32719224362172394,0.5,-0.10018903991574761,-0.023928311503359882,0.5,0,
1.8004801280341425,0.30737966376077797,-0.17145685227220112,0.5,-0.5895813078879414,-0.497087694287357,0.5,-1.1665714887216443,-0.002398187247260042,0.5,-0.5942437008176435,-0.4402280192276828,0.5,0.7533730110959123,-0.3544523676361211,0.5,-0.0953521789890798,0.39680619812067564,0.5,0,
1.8084822619365166,0.3063377622510552,-0.2674565476944238,0.5,-0.5967429232592723,-0.5219861505693854,2.235142879041843,-1.1681512852412295,-0.32542741975814804,0.5,-0.5977987534675709,-0.1630999018490259,0.5,0.752584919632597,-0.22122801897739297,0.5,-0.0938401407458168,-0.24848124715739617,0.5,0,
1.8164843958388905,0.3031003589976672,-0.27244230067712677,0.5,-0.5979330862970516,-0.021064535421617958,1.453227356940835,-1.1717783274377747,-0.29448048502704605,0.5,-0.596853299247228,-0.1712036429491956,0.5,0.749833362792274,-0.37888718138196636,0.5,-0.09932787894359814,-0.5275745104270837,0.5,0,
1.8244865297412645,0.30197868544022116,-0.3905182688770901,0.5,-0.5970799558260181,-0.33307778034780827,0.5,-1.1728629730016622,-0.4012777173374865,0.5,-0.6005380117547581,-0.25580406753793195,0.5,0.7465227247304855,-0.2167873151874694,0.5,-0.10228133291265014,0.02024916493773097,0.5,0,
1.8324886636436384,0.29685206669563374,-0.3404809351112356,0.541018841056625,-0.6032623307826165,-0.39996732303966553,0.6580777988040799,-1.1781987709151744,-0.406967948501577,0.5,-0.6009461643278349,-0.13847796964708975,0.5,0.7463647657492745,0.07961538291690468,0.5,-0.09900389230459444,0.15605833693900678,0.5,0,
1.8404907975460125,0.2965309904784414,-0.06432703317332117,0.6069320078814995,-0.6034794329946528,-0.5287835164719881,0.5022262977789145,-1.1793744601776874,-0.20476609564823445,0.5,-0.6027536592691115,-0.3012907083056529,0.5,0.747796570857156,0.11473062480708146,0.5,-0.09978439952162603,-0.21765610777583003,0.5,0,
1.8484929314483864,0.2958228341648606,-0.3740533388010038,0.5,-0.6117228670461683,-0.4443503697745682,0.9932745115199909,-1.1814750284455462,-0.15134539592838447,0.5,-0.6057668156607253,-0.18728867422088818,0.5,0.7482004557461878,-0.26268729651432454,0.5,-0.10248639002900772,0.29540473692349095,0.5,0,
1.8564950653507604,0.29054613705762533,-0.41813268630175315,0.5,-0.6105890389110459,-0.2369614542875806,0.5,-1.1817959865125416,-0.05842891674433248,0.5,-0.6057502780566457,-0.2584427673856457,0.5,0.7435935741129268,-0.20215801661049165,0.5,-0.09505792373085017,0.14697168401400956,0.5,0,
1.8644971992531343,0.28913271118403255,-0.23256484441467815,0.5,-0.6155142503147696,-0.24055543690738174,1.2704700596169318,-1.1824098911134555,-0.22674965605413988,0.5,-0.6099018999388957,-0.4556352745250028,0.5,0.7449659274804199,-0.0027785658957696358,0.5,-0.10013484308478357,-0.31398781897721756,0.5,0,
1.8724993331555082,0.2868250995469905,-0.3778474050359602,0.5885449163166232,-0.614437925901564,-0.5075748399891513,0.6631546797101536,-1.1854239810094078,-0.26576187762326897,0.5020760016630912,-0.6130404424490458,-0.2303659134700875,0.5,0.7435491170585945,-0.28298024850718223,0.5,-0.10008172883448566,-0.15062420055633827,0.5,0,
1.8805014670578823,0.2830871527034572,-0.6919765334182439,0.6619772546880602,-0.623635447754596,-0.38998405086266424,0.9311550670640513,-1.1866620811554278,-0.5673632066995893,0.5,-0.613587754554417,-0.2281014891809055,0.5,0.740438243504305,-0.11545119023297773,0.5,-0.10254483029368498,0.0061666723072473575,0.5,0,
1.8885036009602563,0.2757534750122986,-0.3472500778159554,0.5,-0.6206776707153666,-0.1946820791575432,1.9040841245218472,-1.1945017923166013,-0.5372414776310674,0.7292539128456635,-0.6166900662759403,-0.2536994032597967,0.5,0.7417018980148669,-0.04108537980376803,0.5,-0.0999830620775697,0.20451238534297497,0.5,0,
1.8965057348626302,0.2775311514584019,-0.18424267066526404,0.5842929909005455,-0.6267503610211167,-0.6092565206994651,1.4223137949586977,-1.195257944797525,0.005848151942863811,0.5,-0.6176469450065738,0.13717947277851195,0.5,0.7397808774274447,-0.2749482817287485,0.5,-0.09927263212819738,0.02208935850670033,0.5,0,
1.904507868765004,0.27280559228165435,-0.5045174576471418,0.5,-0.6304257750465581,-0.3046992663729778,0.5860680727760426,-1.1944082218855154,-0.22304992020459602,0.5,-0.6144951947114841,-0.40278373548301855,0.5,0.7373027255072069,-0.36243874234728746,0.5,-0.09962963234146249,0.07419058568051018,0.5,0,
1.912510002667378,0.26945887213604763,-0.41524224925560543,0.5,-0.6316255492830843,-0.4062981735290308,0.5,-1.1988267435207984,-0.4608128999475797,0.5,-0.6240914847743021,-0.6639419447736702,0.5,0.7339818575498881,-0.14666473877032737,0.5,-0.09808558275730922,0.043489864819071244,0.5,0,
1.9205121365697522,0.26616171629356467,-0.3970719981410131,0.5,-0.6369265458230225,-0.3762861863578215,1.1901362733604164,-1.2017812282846767,-0.29443144505716945,0.5,-0.6251182658278628,-0.1126946615410962,0.5,0.7349560896868816,-0.3379522131389673,0.5,-0.09893379450435735,-0.13129303077580484,0.5,0,
1.928514270472126,0.2631057201657914,-0.3948694692440975,0.5,-0.6376461282648095,-0.13529744733244142,1.0390018449997371,-1.2035376466417131,0.053856514731651095,0.5,-0.6258945993589596,-0.1302208501103852,0.5,0.7285746221396646,-0.3394058039250733,0.5,-0.1001862712497221,0.05249840254196395,0.5,0,
1.9365164043745,0.2598438047856591,-0.3240016798877164,0.5,-0.6390913049803416,-0.3468089031536739,0.636979337718866,-1.2009195240489703,-0.11820787032704172,0.5705026169030372,-0.627201799429629,-0.1708230266851199,0.5,0.7295255968240805,0.12431670798328243,0.5,-0.09809382006368593,-0.03108449197737704,0.5,0,
1.944518538276874,0.25792169328758796,-0.44144235075990745,0.5,-0.6431950707152683,-0.46391035569171707,0.8958834247685389,-1.2054289725669458,-0.5695321967296441,0.5,-0.6286277677859216,-0.17203949326591306,0.5,0.7305636894673971,-0.10291246592600972,0.5,-0.10068362312136013,-0.09780389104811336,0.5,0,
1.9525206721792479,0.2527807271735006,-0.2537968564284738,0.5,-0.6465138706714091,-0.3036814426720172,0.5,-1.2100320391966446,-0.38042045130884383,0.5,-0.6299544313218836,-0.3034876648671109,0.5,0.7278789973692643,-0.1365692466599247,0.5,-0.09965868232045574,0.2898412322225822,0.5,0,
1.960522806081622,0.2538609435847324,-0.20844275550757976,0.6714711919287288,-0.6480539737980205,-0.34199333765384116,1.0125592229636737,-1.2115156997878873,-0.18631097121242501,0.5,-0.6334835704237953,-0.4665536795493211,0.5,0.7283785815208383,-0.38126344297088194,0.5,-0.09604616340579882,0.1070275294174864,0.5,0,
1.968524939983996,0.2494456430853793,-0.5560389844068512,0.5,-0.6519857640738705,-0.5605414819649518,0.5287806018622067,-1.2130130147360434,-0.15003589397426242,0.5,-0.6374192901946727,-0.20249662590954287,0.5,0.7217787822817302,-0.46337253851549964,0.5,-0.09794624184977596,-0.003933535925300033,0.5,0,
1.9765270738863698,0.24496431983422276,-0.583158754091,0.5,-0.6570226375094598,-0.48133475848612106,0.5753425271688192,-1.2139162740914755,-0.35404891123022586,0.5,-0.636723516438348,-0.2349679061123544,0.5,0.7209646209045903,-0.31697171935108487,0.5,-0.09610909998060362,-0.025345776314951093,0.5,0,
1.9845292077887438,0.2401151030199233,-0.5358948226789166,0.5739292509044852,-0.6596871202096485,-0.3785776921652051,1.060212970823709,-1.218677797315727,-0.4231504621007298,0.5,-0.6411787766924704,-0.34611205081279406,0.5,0.7167072347721128,-0.3868212917578287,0.5,-0.09835177427081518,-0.015963684709836487,0.5,0,
1.992531341691118,0.2363900026713601,-0.22258885601456058,0.5,-0.663079880584103,-0.6032420040907316,1.815967589954575,-1.2206866814850872,-0.45553820485889907,0.5,-0.6422613092513527,-0.10198963768527636,0.5,0.7147754802364651,0.07646515019848338,0.5,-0.096364518935961,0.32887775146996434,0.5,0,
2.0005334755934916,0.23655368132369034,-0.24605487611943816,0.5022126550637249,-0.6693389922751002,-0.20863446241838057,1.195546944415509,-1.2259664085934694,-0.3380581941059002,0.5,-0.6428106108954348,-0.1419473998936216,0.5,0.7179306771752886,0.13703930623833183,0.5,-0.09308973024729575,0.12632223973909826,0.5,0,
2.0085356094958655,0.23245312465344908,-0.5045657598627163,0.5,-0.6664180319827971,0.04028513095774566,2.9614285329636947,-1.2260956125907816,-0.30539597058523715,0.5,-0.6445324676496507,-0.3466069108305145,0.5,0.7169681091362784,-0.2034876234702776,0.5,-0.09434336310013543,-0.056830611732772846,0.5,0,
2.01653774339824,0.22848062916588688,-0.5022545346771278,0.5,-0.6686944301797763,-0.6413931695991234,0.8372344300337949,-1.2308527441228332,-0.31207949153799763,0.6336238063934542,-0.648356321468723,-0.1596454988145521,0.5,0.7146748751997641,-0.20057291689476453,0.5,-0.09399902003502011,0.16500960548054053,0.5,0,
2.024539877300614,0.22441705209861504,-0.35375551428567725,0.5,-0.6766803226963831,-0.815762343413677,1.886605366767151,-1.2310888844553896,0.1714638916964356,0.8883637795967669,-0.6470867956306835,-0.10855354225194902,0.5,0.7137589424659622,-0.15116163989013082,0.5,-0.09170320941244678,0.20489152918917816,0.5,0,
2.0325420112029877,0.22282054093731604,-0.359507815476872,0.5,-0.6817466276743951,-0.4309849860761328,1.5034003110103773,-1.2281093218556902,-0.5066852989696474,0.5,-0.6500931781447542,-0.2752111182763514,0.5,0.712256288961522,-0.42213343814579557,0.5,-0.09072075556799326,-0.04928179473197292,0.5,0,
2.0405441451053616,0.2186649270509851,-0.4771175237583622,0.5,-0.6835760824736012,-0.11167879324533447,0.6537056393375221,-1.239195849238904,-0.7033002289874024,0.7438909399452969,-0.6514901735231051,-0.21097257951852022,0.5,0.7070048074556294,-0.23611614449919882,0.5,-0.09249171812815835,0.004021956089413255,0.5,0,
2.0485462790077356,0.21518666055718225,-0.37132166500380115,0.5,-0.6835334883663204,-0.24564007426547407,1.5593516820154518,-1.2393621255194887,-0.1967327484240916,0.5,-0.6534687394170505,-0.20853652903531777,0.5,0.7084784306495349,-0.06441365958310269,0.5,-0.09065640427056265,0.22728032049684851,0.5,0,
2.0565484129101095,0.21272378041092427,-0.5037916691886576,0.5,-0.6875063236618488,-0.5736376525291783,0.6638102982438195,-1.2423435732136894,-0.16023463809659855,0.5,-0.6548267579876702,-0.1776938111371154,0.5,0.7059741889022998,-0.4407469678605405,0.5,-0.08885523300020877,0.13101500174069522,0.5,0,
2.0645505468124834,0.20712599385016373,-0.47825734232669753,0.5,-0.6927116908067873,-0.4453768232023439,0.5100173867687716,-1.2419258797290342,-0.44427152989726104,0.5,-0.6563118403952444,-0.14812961736061087,0.5,0.7014264791637662,-0.26484985596155614,0.5,-0.08856016424271153,0.029374267686332715,0.5,0,
2.0725526807148573,0.2050716629336971,-0.2755787960745243,0.5,-0.6946323528330863,-0.5032638169229289,0.9173098623849174,-1.2494519176920456,-0.3671436333866074,0.5,-0.65719683186544,-0.09460930761236164,0.5,0.7017365912069149,-0.08735591907940016,0.5,-0.08838524471722745,0.10591647908696124,0.5,0,
2.0805548146172312,0.20271673311297134,-0.4329492062261995,0.5,-0.7007639118775542,-0.32177794634233314,0.5,-1.24780017786322,-0.10755053896473188,0.5,-0.6578255893170422,-0.3567470631700778,0.5,0.7000287844584958,-0.1276589598050576,0.5,-0.08686550057732015,0.21709453337255025,0.5,0,
2.0885569485196056,0.19814447563407792,-0.5447004963609354,0.5,-0.6997807999745637,-0.2995843595544681,1.9043011013183333,-1.2511727263154813,-0.4226423517235539,0.5,-0.6629047848761612,-0.3279790936324689,0.5,0.699694047850034,-0.23440127265866167,0.5,-0.08491173218326664,0.08469104874973386,0.5,0,
2.0965590824219795,0.19400152517119637,-0.5535978344093292,0.5945117409696931,-0.7055572616304256,-0.7404400350329854,1.721893903922048,-1.2545624554907968,-0.23268319275604465,0.5,-0.6630732548151617,-0.34854901972142943,0.5,0.6962783640959572,-0.36427717868908055,0.5,-0.0855104437973244,0.2659059980120544,0.5,0,
2.1045612163243534,0.18928691028352865,-0.27225868995083524,0.5,-0.7116278405350914,-0.36618108978273695,0.8442798081497503,-1.254895657399578,-0.2400458036332237,0.5,-0.6684815691917041,0.1161416721481498,0.5,0.6938656129910087,-0.1590111288684512,0.5,-0.08065723621507377,0.22074366952931287,0.5,0,
2.1125633502267274,0.189645386131983,-0.3345030858296818,0.5,-0.7114161590669494,-0.1891605854525899,1.772773823619045,-1.2584031883489284,-0.3274608104354704,0.5,-0.6612149880607913,0.05786282236718704,0.5,0.693734186034062,-0.10324838354915794,0.5,-0.0819785450848554,0.10516626491550475,0.5,0,
2.1205654841291013,0.18393486091025374,-0.5033258453021345,0.5,-0.7146544099023329,-0.57458898494981,0.5755518252827714,-1.2601350303665455,-0.45519972613533577,0.5,-0.6675557640338291,-0.5723507640728667,0.5,0.6922136388542222,-0.34517498440034267,0.5,-0.0789745759764257,0.12673983227050062,0.5,0,
2.128567618031475,0.18159217260714886,-0.6639391393887042,0.5,-0.7206095828261464,-0.674890901409389,1.8939951690327406,-1.2656863839670938,-0.4189146595273002,0.5,-0.6703726002859571,-0.14945879021449615,0.5,0.6882113862836565,-0.21906153997559852,0.5,-0.07995070776852739,0.32712542818910323,0.5,0,
2.136569751933849,0.17331183468003447,-0.6887350769537951,0.5,-0.7254526643248831,-0.28187941398535865,1.0362820505598687,-1.2668376649189823,-0.4325621422833631,0.5,-0.669947104677261,-0.19680748638971346,0.5,0.6887086542146126,-0.1663094976388016,0.5,-0.07374056912540004,0.1900418320526691,0.5,0,
2.144571885836223,0.17057241137588813,-0.5754151261946634,0.5,-0.7251196534499121,-0.491890645483585,1.0450518298941118,-1.2726073782436276,-0.4284561998937758,0.5,-0.6735215200681925,0.05274837199468335,0.5,0.6855504343214357,-0.2963325633327102,0.5,-0.07691003845568468,-0.2536382201525789,0.5,0,
2.152574019738597,0.16410519266091986,-0.40289292970088936,0.8577831312427902,-0.7333229146526205,-0.6961336099740797,1.7389112522256698,-1.2736929641172827,-0.11167118527095898,0.5,-0.6691031307253461,-0.016678126725469533,0.5,0.6839673332012892,-0.26665793039450103,0.5,-0.0777987806478413,0.4370487795549802,0.5,0,
2.160576153640971,0.1641261245006739,0.03946765999894575,0.5,-0.7362577912094974,-0.3337563883099859,0.5,-1.274394117207963,-0.25394911786431884,0.5,-0.6737883700958001,-0.15984435590462448,0.5,0.6812839074351237,-0.04700535499012337,0.5,-0.069917257982805,0.2888318357183927,0.5,0,
2.1685782875433453,0.164736675220903,-0.13195664236370294,1.1433997912113198,-0.7386630168655802,-0.3524762708386406,0.5,-1.2777561500031118,-0.3284919585664625,0.5,-0.6716606404198201,-0.24432054246990853,0.5,0.6832152475214472,-0.23599832036578366,0.5,-0.07317747127634702,-0.07733106974203326,0.5,0,
2.176580421445719,0.16201481822285466,-0.6967112536582654,0.5,-0.7418974115429157,-0.33490103673633476,0.6258488776670433,-1.2796499885450263,-0.17115018927281456,0.5,-0.6776974987753186,-0.17821158560415995,0.5,0.6775079343092711,-0.38898483612294366,0.5,-0.07115455509867753,0.283540145008687,0.5,0,
2.184582555348093,0.15358929516237074,-0.7672171223559818,0.5526864043736417,-0.7440214334533616,-0.20896743089367925,1.588778888852338,-1.2804945530314769,-0.42864688143627594,0.5,-0.6745120257894867,-0.13684363143446482,0.5,0.6769914901434801,-0.2790760076463311,0.5,-0.06864082895620803,0.12018708186998031,0.5,0,
2.192584689250467,0.14973934426515895,-0.5214038438075292,0.5,-0.7452408904372145,-0.5476101364845706,0.6461065094328688,-1.2865083386480067,-0.5988463758193063,0.5,-0.67988699687827,-0.12261971172035369,0.5,0.6730427181869298,-0.30346156744943953,0.5,-0.06923156178875785,0.2650650835691335,0.5,0,
2.200586823152841,0.14524683366145028,-0.44927190519860294,0.5,-0.7527831956371147,-0.6489551685439007,1.847211620173529,-1.2900760950445858,-0.49579900490638595,0.5,-0.6764739411770123,-0.02808688665138781,0.5,0.6721361050642891,-0.1226879330093536,0.5,-0.0643997876191019,0.010951910961730892,0.5,0,
2.208588957055215,0.1425509937819813,-0.2402470536117373,0.9055744732098358,-0.7556241731339169,-0.23425022928528355,1.7818591567089817,-1.294441122726509,-0.3938374368245845,0.5,-0.6803363870646922,-0.26462782998697837,0.5,0.6710797112587802,-0.2234719483313538,0.5,-0.06905633121337015,-0.08901813886095979,0.5,0,
2.2165910909575888,0.14140288080366248,-0.7159107622778312,0.7091015167460146,-0.7565311993056792,-0.6333232404568053,0.5,-1.296377494033779,-0.20923515899101686,0.5,-0.680707986456804,-0.03994598575542824,0.5,0.6685605538909875,-0.06536829734094668,0.5,-0.06582407784087725,0.32927877033756336,0.5,0,
2.2245932248599627,0.131096421585536,-0.3591369481329813,0.5,-0.7657573449812258,-0.5814083001328685,1.0159105656699658,-1.2977888852703652,-0.20952557780844205,0.5,-0.6809755228367791,-0.22567100895232173,0.5,0.670033818501325,-0.1502617012272972,0.5,-0.06378787088796914,0.23052757050894684,0.5,0,
2.2325953587623366,0.13565668963353478,-0.34830100516293655,0.5331518090500219,-0.7658337321078051,-0.38724801357239297,0.5,-1.2997299032787142,-0.5380685108592881,0.5,-0.6843187226000411,-0.23742342605057032,0.5,0.6661563666713507,-0.3464662609740862,0.5,-0.0621356367127341,0.2864919238920278,0.5,0,
2.240597492664711,0.12552360550292901,-0.64828286726,1.0042194074487418,-0.7719533131983841,-0.4804736990385791,0.843310386501458,-1.3063979814441138,-0.6276411273358623,0.5,-0.6847742976535882,0.021243703144595283,0.5,0.6644903583257397,-0.2249764580729008,0.5,-0.059204000105696694,0.3552989198277981,0.5,0,
2.248599626567085,0.12528416375737478,-0.14921595234365215,0.8220689850567796,-0.7735213112924224,-0.651877964578787,0.7931605060652126,-1.309772161316088,-0.3176298611879541,0.5,-0.6839788233497276,-0.007828304308149514,0.5,0.6625567433421843,-0.3944248105630377,0.5,-0.05645085399548933,0.2869247753293524,0.5,0,
2.256601760469459,0.12313615026543058,-0.5788283539507793,0.5846784649901388,-0.7823833606316447,-0.5029020078754844,1.134860256346983,-1.311480059223121,-0.1499723640228795,0.5,-0.6848995505225186,-0.23046671985969824,0.5,0.6581795613567311,-0.1869634184608962,0.5,-0.054613203700427056,-0.14696932521318087,0.5,0,
2.2646038943718327,0.11602291009416231,-0.8725474363617258,1.2070237408484532,-0.7815677434184302,-0.26719430747760425,1.4851935407963364,-1.312171719140454,-0.27978801404954234,0.5,-0.6876662908674828,-0.24180348809601376,0.5,0.65956532864681,0.0678514285053361,0.5,-0.058802363198900226,-0.06704583028148371,0.5,0,
2.2726060282742067,0.10917539128364297,-0.27249262831218357,0.5,-0.7866584695512864,-0.5890186938341258,0.5,-1.3159566674479137,-0.5030290377401464,0.5,-0.6887684063320548,-0.23853145471647297,0.5,0.6592651842128164,-0.3631271854696305,0.5,-0.055685936984930795,0.30027536451966014,0.5,0,
2.2806081621765806,0.11166302804116737,-0.3123536767299356,0.6030881347979762,-0.7909920425197762,-0.5333456076703144,0.5,-1.3202201837442964,-0.34341608987184524,0.5,-0.6914827941429463,-0.008593247407352733,0.5,0.6537552936792959,-0.4684272533309816,0.5,-0.053997957366585664,0.10350463335348069,0.5,0,
2.2886102960789545,0.104177732455964,-0.6049531491914423,0.5,-0.7951919992740114,-0.46659079942355797,0.5,-1.3214513248858633,-0.12480533330516685,0.6256064083906443,-0.6889058982905725,0.08345634617253767,0.5,0.6517703481595207,-0.169591219518192,0.5,-0.054029862851275104,0.30393095790913394,0.5,0,
2.2966124299813284,0.1019837776541043,-0.4785201514128489,0.5,-0.7984574953105531,-0.5117650752818476,0.6685149099370581,-1.322217069077179,-0.5153735140055044,0.5,-0.6901474926041857,-0.333794437498848,0.5,0.6510418341670048,-0.3049009314451609,0.5,-0.04913506204003952,0.43480420588431434,0.5,0,
2.3046145638837023,0.09652141003335842,-0.6189840881570853,0.9290568541744624,-0.803380240478521,-0.3883915299280269,0.6895923900772888,-1.3296973011099513,-0.5320799855017544,0.6074452172988013,-0.694246609290554,-0.15055332300893676,0.5,0.6468919332563982,-0.08490046375421445,0.5,-0.047072995557126074,0.19842167784331516,0.5,0,
2.3126166977860763,0.09208003224359093,-0.14741261432688751,0.5,-0.8046717597894015,-0.25178719914065867,2.1592152530235933,-1.3307303488452071,-0.13535217024597535,0.5,-0.6925563457723287,0.2043327898627184,0.5,0.6496834267469374,0.05938780925165976,0.5,-0.04596031519454648,0.5008346253187156,0.5,0,
2.3206188316884506,0.09416280820412821,-0.3522268250546051,0.9506620503664909,-0.8074088356647715,-0.7359952849689196,1.3795210631427925,-1.331862935833887,-0.24275640159474032,0.5,-0.6909772846527505,0.10271326888512677,0.5,0.6478421382044247,-0.3135773072698092,0.5,-0.039059641552026625,0.21603644809079597,0.5,0,
2.3286209655908245,0.08644440304271725,-0.8203989581285365,0.7031808751397695,-0.8164476843489042,-0.4435869660661326,1.5061229002236292,-1.334614451270723,-0.5119208983019735,0.5,-0.6909129334701667,-0.0233702451290993,0.5,0.6446661898306204,-0.4178752121235113,0.5,-0.04250373202509374,0.044274235245870056,0.5,0,
2.3366230994931985,0.08103642487407163,-0.5073191498552602,0.5,-0.8145062271218296,-0.11026485987479517,2.325454807807917,-1.3400536702067185,-0.3673295502773094,0.5,-0.6913512085748161,-0.2199581827808661,0.5,0.6411561348104485,-0.45038702121282664,0.5,-0.038351253788092704,0.2655259349219788,0.5,0,
2.3446252333955724,0.07832729664503309,-0.5017903857023878,0.5,-0.818211922106901,-0.6517835769686842,0.5,-1.34049172407516,-0.37889226940303333,0.5,-0.6944322643946605,-0.46616992489426773,0.5,0.6374599974912152,-0.5685622265797843,0.5,-0.03825531706634208,0.32331863884161455,0.5,0,
2.3526273672979463,0.07300777870283343,-0.6442004353767807,0.5,-0.8249347643533286,-0.7029567371089964,0.5163929184106495,-1.346115946517167,-0.34419028409499175,0.5,-0.6988099273731244,-0.14301465906880334,0.5,0.632059139185172,-0.1648522639441305,0.5,-0.03317815556662687,0.2551074541551528,0.5,0,
2.3606295012003202,0.0680200896790046,-0.5256500734125433,0.5,-0.8294592299006449,-0.6182104723034404,0.5,-1.3459987686206798,-0.05870593097488663,0.55798250523802,-0.6967204989397614,0.04055295069871345,0.5,0.6348223612681091,-0.26263165268756994,0.5,-0.03417359779985964,-0.048549731072926317,0.5,0,
2.368631635102694,0.06459737752823273,-0.44383454053140753,0.5,-0.8348261319101836,-0.6030865559804796,0.5,-1.3470552414127652,-0.5205711004302865,0.5,-0.698161080161945,0.07811160947601703,0.5,0.6278570327421709,-0.18498368861780828,0.5,-0.03395495126379369,0.2867804338088451,0.5,0,
2.376633769005068,0.060918737030502074,-0.45109802383485037,0.5,-0.8391086147963326,-0.5334326419421248,0.5845720406769547,-1.3543279062275644,-0.5994317534872146,0.5,-0.6954707131881451,0.22045672390242493,0.5,0.6318626222502242,0.020561974546383366,0.5,-0.029585110858918115,0.3143478364204962,0.5,0,
2.384635902907442,0.05737980914687513,-0.3119459167076908,0.5,-0.8433610541812576,-0.43365980615177324,0.9480699332002507,-1.3566461494685607,-0.37021482252305726,0.5,-0.6946337725795062,-0.26966320879238254,0.5,0.628186024334913,-0.40571531109825226,0.5,-0.028925385881065753,0.2702656242731271,0.5,0,
2.3926380368098163,0.05592760236317902,-0.4645371217185984,0.6123610973806519,-0.846047171694761,-0.6354287103179159,0.7160768259329816,-1.3602513433879333,-0.5110936184063442,0.5,-0.6997853245288232,-0.18677061978251974,0.5,0.6253711772726521,-0.36843884883887984,0.5,-0.02526086087054808,0.2076510452905375,0.5,0,
2.4006401707121903,0.04994721519937755,-0.784164094330787,0.5,-0.8535279135463443,-0.4851461055250944,0.5,-1.3648236473630622,-0.34339050802024984,0.5,-0.6976221024960265,0.0888062332342135,0.5,0.6222910027534909,-0.0399154333050461,0.5,-0.025602969156417153,0.16678504372672798,0.5,0,
2.408642304614564,0.04338097685388643,-0.710674517687665,0.8677636369271173,-0.8538095093831625,-0.4287786525666096,1.2107610827816522,-1.3657455915162573,-0.2515782274046252,0.5,-0.6983644247970758,-0.05215928373154821,0.5,0.6247325303397714,-0.062299395996022466,0.5,-0.022592300170920433,0.30226404074046653,0.5,0,
2.416644438516938,0.03857642291637491,-0.2875931388518719,0.5,-0.86038837198741,-0.6867320287978276,1.126981508829744,-1.3688488990015362,-0.3126410457029438,0.5,-0.6984566510357313,-0.02991098536353487,0.5,0.6212942124175546,-0.6049410417406087,0.5,-0.02076674450456969,0.2944734762199961,0.5,0,
2.424646572419312,0.03877948663225648,-0.3692428067956109,0.5,-0.8647972218439277,-0.4528699384281354,0.5,-1.3707478482475044,-0.26378094790337203,0.5,-0.6988430005628924,0.16697678486081446,0.5,0.6150534736719216,-0.23494304140794092,0.5,-0.017880724551400495,0.26586808831673114,0.5,0,
2.432648706321686,0.03266853800764514,-0.5168857974112367,0.5,-0.8676342910022602,-0.4940222051988824,0.7331120692969462,-1.3730693941679901,-0.4243786244670644,0.5,-0.6957850224779583,0.07445507492202796,0.5,0.6175351237550275,0.05999647089835469,0.5,-0.01651285509150199,0.49692031741130294,0.5,0,
2.44065084022406,0.03050931387367669,-0.3728502845800133,0.5687637019331929,-0.8727015771271098,-0.35143799844807727,0.902937646053482,-1.3775379062389774,-0.5159157296814321,0.5,-0.6976517193641399,-0.2070323323221171,0.5,0.6160134172062953,-0.19292898319044072,0.5,-0.009929999472819648,0.18693119890320942,0.5,0,
2.448652974126434,0.026702933454364926,-0.6510372467980945,0.5,-0.8732572989774294,-0.5675743633556662,0.5,-1.381324045842893,-0.35870109280312923,0.5,-0.6990975397951121,-0.20278711820084783,0.5,0.6144482600239805,-0.6233742239488068,0.5,-0.013521955909050639,-0.012548399990674834,0.5,0,
2.4566551080288077,0.020092717924907178,-0.535752743133466,0.5,-0.8817827669408005,-0.5992314995783427,1.1642988138648465,-1.3832771237238275,-0.2730420137031092,0.5,-0.7008963132553535,0.16843534125438736,0.5,0.6060394296231144,-0.2710444954735769,0.5,-0.010130773872670445,0.3756274357998336,0.5,0,
2.4646572419311816,0.01813088956422947,-0.3268979241247886,0.537796241788098,-0.8828450029706829,-0.34722929755708065,1.512195140953843,-1.3856927180621428,-0.6327216135352254,0.5,-0.6964025743350419,0.09947370745312656,0.5,0.6101115480964032,0.13273159672220342,0.5,-0.007511916936253301,0.38224862927735637,0.5,0,
2.472659375833556,0.014862351138910561,-0.5830530525432941,0.5,-0.8873384357017138,-0.6697486280153666,1.0465317540700865,-1.393400669540391,-0.4837895655811497,0.5,-0.6993047339361035,-0.21481067783964136,0.5,0.6081631351706697,-0.4238141908793139,0.5,-0.004014795804232744,0.23108772153892568,0.5,0,
2.48066150973593,0.008802040723536764,-0.6706744701341449,0.5,-0.8935609810189288,-0.4580294135862195,0.8427797295227768,-1.3934333511114412,-0.17972595085588572,0.5830562531983152,-0.6998395451804762,-0.12564015944940138,0.5,0.6033305210423342,-0.3207545877916343,0.5,-0.00381451339163049,-0.009689639863735736,0.5,0,
2.488663643638304,0.004131559616764242,-0.5077165322548378,0.514798398372608,-0.8946669063190933,-0.2991114117079502,0.5,-1.3962762847540853,-0.6127696592847509,0.5,-0.7013149764872939,-0.0867837462931384,0.5,0.6030310617660035,-0.31937754654702555,0.5,-0.004169830042052515,0.007209305777346225,0.5,0,
2.4966657775406778,0.0006785762074593593,-0.25350829515823653,0.5,-0.898346763606256,-0.3575109395649173,1.5442532877117237,-1.4032376656599972,-0.315077170589359,0.5,-0.7012280851211664,0.2730412708274732,0.5,0.5982204802975818,-0.34911940580199113,0.5,-0.0036991644991929504,0.4088238109674917,0.5,0,
2.5046679114430517,7.542689423245758e-05,-0.5159390342285195,0.5,-0.900387081352132,-0.688400433500387,0.5,-1.401317519483515,0.007706368026091925,0.6713907295920909,-0.6969463161540543,0.04915222273033093,0.5,0.5974451512731717,0.1381606021614301,0.5,0.0023713509334273523,0.4543840670176537,0.5,0,
2.5126700453454256,-0.0075764483401969535,-0.5328103972190441,0.7192066190367575,-0.9093611705422622,-0.6934090784431884,1.52446429397828,-1.4031143637715797,-0.44783631058795126,0.5,-0.7004416495574811,-0.1314184992680656,0.5,0.6004310499321647,-0.17907103687696269,0.5,0.0035709805730895095,0.16942262310045325,0.5,0,
2.5206721792477995,-0.008449539461272249,-0.1853375096766978,0.5875090190333319,-0.911481626607223,-0.35270929498233683,0.8419162812900162,-1.4084829004529222,-0.34099883702208567,0.5,-0.6990490121423434,0.18064331746551338,0.5,0.5945800146831403,-0.28619701994334057,0.5,0.005082112903034604,0.10090191721156605,0.5,0,
2.5286743131501734,-0.010541848495024118,-0.5014034765569728,0.7540395290658753,-0.9150045192619796,-0.5231142979015487,0.5,-1.408570345163933,-0.3573190589568759,0.5,-0.6975513564780329,0.14224675026104638,0.5,0.5958518976130712,-0.2772597656588646,0.5,0.0051854112484745665,0.23706436762798402,0.5,0,
2.5366764470525474,-0.016471995086183813,-0.8823347396428936,0.5,-0.9198514553736478,-0.5031817166695901,0.8096042262713068,-1.4142000053962323,-0.3849572830908615,0.5,-0.6967730641381666,-0.323365784184855,0.5,0.5901438584325984,-0.5777663622514375,0.5,0.008875142785082349,0.1143569336130415,0.5,0,
2.5446785809549217,-0.024659204329310416,-0.8781105835154426,0.8528792326082278,-0.923055426728693,-0.3389214617304584,0.9368786005355189,-1.4147296616933869,-0.24763314021002125,0.5,-0.7027252090249906,-0.18538624805129744,0.5,0.5866076358170482,-0.25840788373483053,0.5,0.0070151221862832305,0.1821624663621707,0.5,0,
2.5526807148572956,-0.030521764422430896,-0.4364178592705875,0.5,-0.9252741987613351,-0.5312733868528818,0.5856079828422159,-1.4181621356395926,-0.4533066681877418,0.5,-0.6997392441069874,0.2528471053305087,0.5,0.5860093322928411,-0.09146943987147632,0.5,0.01178974224687708,0.4200123485304758,0.5,0,
2.5606828487596696,-0.03164189007763982,-0.24034058895773838,0.5343321513712742,-0.9315558009183391,-0.43494564353883935,0.7676038239353055,-1.4219825683843907,-0.41135874198289235,0.5,-0.6986796553397024,-0.041004165842406515,0.5,0.5851441247791046,-0.4864802263427337,0.5,0.013735319762770844,0.34652219734709694,0.5,0,
2.5686849826620435,-0.03436721384575471,-0.5240917825549114,0.5,-0.9322333290579565,-0.29061076599605495,1.2415454590458384,-1.4247438755113189,-0.30254149913497286,0.5361531586719621,-0.7003953107604659,-0.07800336373556954,0.5,0.5782256486713574,-0.3089801690425373,0.5,0.01733409740443063,0.11517260356646382,0.5,0,
2.5766871165644174,-0.0400273585985184,-0.5361968954036822,0.6010085444947043,-0.936205573174276,-0.5645099001144529,0.5,-1.4268232323705503,-0.6311184486799126,0.5,-0.6999277091594716,0.3120780404724452,0.5,0.580200442074424,-0.078798803313955,0.5,0.015578081419834265,0.3120732250993471,0.5,0,
2.5846892504667913,-0.042946364172213626,-0.2627543492798416,0.5,-0.9412654874597878,-0.5651359123391708,0.666080992243422,-1.4348417706901975,-0.6132941619475529,0.8956945411843068,-0.6954020621129068,0.26487717773637093,0.5,0.5769648678183341,-0.3615583006325168,0.5,0.022327269006020185,0.6168770895881295,0.5,0,
