samirx20/RADAR/data/datasets/heating_j3_14.csv
timestamp,actual_q_0,actual_qd_0,actual_current_0,actual_q_1,actual_qd_1,actual_current_1,actual_q_2,actual_qd_2,actual_current_2,actual_q_3,actual_qd_3,actual_current_3,actual_q_4,actual_qd_4,actual_current_4,actual_q_5,actual_qd_5,actual_current_5,protective_stop,fault_code
0.0,0.3003058818727162,0.5169133514061688,0.2,-0.8023936983496118,1.0424077295440175,0.2,-1.2034920524786803,1.1575095488839948,0.2,-0.5008459939945803,0.5841728042448036,0.2,0.8011088952166474,-0.15020094444054277,0.2,-0.002125340856778838,0.12039881610569983,0.2,0,
0.008002133902373967,0.3044411886839655,0.35309276842185666,0.2,-0.7940544365132597,0.8628266052376904,0.2,-1.1942319760876083,1.1868764867587338,0.2,-0.49617261156062187,0.5928890229087713,0.2,0.7999072876611231,-0.03949689704473708,0.2,-0.0011621503279332392,0.25250474134693085,0.2,0,
0.016004267804747934,0.3059553661674659,0.32990195329238997,0.2,-0.7885884726658088,0.6715885026122372,0.2,-1.1845020286905406,1.1353049150858578,0.2,-0.49135976962803996,0.7117991878881624,0.2,0.8004769448639316,0.0715472962783889,0.2,0.0019147350047720563,0.004356172609960596,0.2,0,
0.0240064017071219,0.30971961993664376,0.6315113300176777,0.2,-0.7833090204714639,0.7321241080083043,0.2,-1.1760670974462346,0.9058209293616726,0.2,-0.48478382455441127,0.383398843577732,0.2,0.8010520444015773,-0.14330714142831574,0.2,-0.0010924515661738696,-0.10808557953745124,0.2,0,
0.03200853560949587,0.3160595474477487,0.7147036605152819,0.2,-0.7768744869376759,1.1246186861200573,0.2,-1.1700088938207538,1.0606503885131484,0.2,-0.48522538813079624,0.3844142630991948,0.2,0.7981840306010786,-0.00802960292278776,0.2,0.00018536573217283646,0.2712362334493861,0.2,0,
0.04001066951186984,0.3211548785048883,0.6594774134391981,0.2,-0.765315121493543,0.9055934506872892,0.2,-1.1590966912300242,1.3534372319610743,0.2,-0.47863319634482415,0.5802999642246232,0.2,0.8009235707548127,0.0052403826482916305,0.2,0.0032473281690163077,0.21428206083691723,0.2,0,
0.0480128034142438,0.3266111860627759,0.47908534322320045,0.2,-0.7623849917266793,0.677545295748247,0.2,-1.1483538981093766,0.6831512614305368,0.2,-0.47594058870320227,0.5607463614899707,0.2,0.7982678767234512,-0.16130368204200773,0.2,0.003613878705563512,-0.24312522558191094,0.2,0,
0.05601493731661777,0.3288202439964595,0.3673297708502929,0.2,-0.754474396761571,0.5975768411669025,0.2,-1.1481662710471356,0.7826848666524777,0.2,-0.4696612545609846,0.5718227730139926,0.2,0.7983427118421406,-0.11682297148955106,0.2,-0.0006426754402942672,-0.040414979018714714,0.2,0,
0.06401707121899174,0.3324884623963806,0.5184804749697492,0.2,-0.7528237622680088,0.6988261566708703,0.2,-1.135830940242937,1.5536010743944921,0.2,-0.4667914243349784,0.5464190414286307,0.2,0.7963987091796184,0.048371555213207185,0.2,0.0029672390412640768,-0.023644945955898153,0.2,0,
0.0720192051213657,0.33711593159597547,0.5712124594410978,0.2,-0.7432931782548371,0.962711438489347,0.2,-1.1233086538568238,1.2685685882897202,0.2,-0.46091854989812653,0.68871474976364,0.2,0.7991166567255519,0.4395170969047277,0.2,-0.0010209945755886376,-0.32874509509135,0.2,0,
0.08002133902373967,0.34162786174743814,0.5568769798014114,0.2,-0.7374203792521793,0.7967496874720161,0.2,-1.1155338428303014,0.9072373797475303,0.2,-0.45577198833876015,0.4926556649498398,0.2,0.8034309827300941,0.06230390571379529,0.2,-0.002292682480197524,-0.04782466654417796,0.2,0,
0.08802347292611364,0.34602596327279805,0.5981316267811426,0.2,-0.7305451832552848,0.7837398726951924,0.2,-1.1087928557808633,0.9027688184824606,0.2,-0.4530360592589291,0.5771072500596435,0.2,0.8001135192169726,-0.21595151971304932,0.2,-0.001786189240295485,0.2249729562695954,0.2,0,
0.0960256068284876,0.3511979677759364,0.4110483476240205,0.2,-0.7248805412890562,0.6474149057331818,0.2,-1.101089541734582,1.0278097576211647,0.2,-0.44653827233780585,0.4039127937790314,0.2,0.7999757584146853,-0.02382331450881403,0.2,0.0013068848201160021,0.10702047483433276,0.2,0,
0.10402774073086157,0.3526027368347824,0.1661413712286293,0.2,-0.7201865447635539,0.9639744018846153,0.2,-1.0923478996589246,1.0491595463670844,0.2,-0.4465734545584646,0.16090000694528317,0.2,0.7997323461848316,0.13239948692397863,0.2,-7.386164294616078e-05,-0.14851815175997193,0.2,0,
0.11202987463323553,0.3538562297155945,0.7711893658544737,0.2,-0.7094569508589024,0.7093153306645463,0.2,-1.0843029889927087,1.1893078661757983,0.2,-0.4439638722266813,0.41287504271580316,0.2,0.8020941502054689,0.12255395507328876,0.2,-0.0010694056080435487,-0.09632659608048214,0.2,0,
0.12003200853560951,0.36494176668845396,0.66068393247826,0.2,-0.7088374994729212,0.5372627602157134,0.2,-1.0733189738001119,1.105303710525779,0.2,-0.43996745387501174,0.5661091587380318,0.2,0.8016932094660042,-0.037054250396371946,0.2,-0.001615087180233875,0.13692145476065526,0.2,0,
0.12803414243798347,0.36442717263524665,0.12008250235480064,0.2,-0.700860746695451,0.8739161905464143,0.2,-1.0666181296242963,0.6686655095287514,0.2,-0.4349061256868728,0.6044118501652395,0.2,0.801501282199127,0.017551458902781425,0.2,0.0011213376681269353,0.10662335141670166,0.2,0,
0.13603627634035745,0.36686308672613077,0.5327659745594897,0.2,-0.6948548404241786,0.5946547803378499,0.2,-1.0626203256476519,1.004822738555955,0.2,-0.4302968642723679,0.7490051404449548,0.2,0.8019740328084487,-0.05531049595193516,0.2,9.088644243335167e-05,-0.10557665867030906,0.2,0,
0.1440384102427314,0.3729514282281985,0.5425217795893937,0.2,-0.6913462702100454,0.9077781551851613,0.2,-1.050540965807401,1.1078829627488989,0.2,-0.42292204343975354,0.4083553595183448,0.2,0.800616314263896,-0.07536214431529825,0.2,-0.0005678888705980097,-0.20317083355842733,0.2,0,
0.15204054414510537,0.37554343519956107,0.4470851127790082,0.2,-0.680330389941216,0.747924455413787,0.2,-1.0448941982436695,0.7567726325310165,0.2,-0.4237631785200744,0.1973499705990346,0.2,0.8007682384994039,0.09655261883017435,0.2,-0.0031598468945014855,0.13069732841280332,0.2,0,
0.16004267804747935,0.3801047900326626,0.47928017601934697,0.2,-0.6793794789234248,0.5092631416187959,0.2,-1.0384326036869047,1.077439843519809,0.2,-0.419764443910169,0.4842807572755618,0.2,0.8021611561651788,-0.015658713138320957,0.2,0.0015232683840068432,0.09354043718322737,0.2,0,
0.1680448119498533,0.3832119180158706,0.5301622678788656,0.2,-0.6721821796753152,0.5755054395717163,0.2,-1.0276551607473525,0.7935271520864845,0.2,-0.4160146864036654,0.3783273990938252,0.2,0.8005176990891908,-0.05653336877160797,0.2,-0.0016631998995698476,-0.26395156701074146,0.2,0,
0.17604694585222727,0.38858738631872447,0.5216711638364249,0.2,-0.6701713918902773,0.8305731944297651,0.2,-1.025736169253521,0.7612416335593397,0.2,-0.4137112055246678,0.4776608875450769,0.2,0.8012566222648331,-0.09387454156996322,0.2,-0.0026999566881650205,0.03789555678803746,0.2,0,
0.18404907975460125,0.3915586566372534,0.41625405505840013,0.2,-0.658893008564439,0.8303459162670584,0.2,-1.015475294610403,1.4587802319060843,0.2,-0.40837211220294417,0.7250586339492271,0.2,0.7990157064240714,-0.3471506169777719,0.2,-0.0010568709909612483,0.08564621785390254,0.2,0,
0.1920512136569752,0.3952474511996589,0.48947833892095877,0.2,-0.6568858572300044,0.6101426221372316,0.2,-1.0023956855430236,0.967272128628488,0.2,-0.40211026738148015,0.4916940267632175,0.2,0.7957022123931887,0.029580128887062018,0.2,-0.0013296172025025798,-0.09441506807537961,0.2,0,
0.20005334755934917,0.39939031005998876,0.6277796076357735,0.2,-0.6491307266102433,0.7884588036982665,0.2,-0.9999989405523473,0.41549609458321757,0.2,-0.4005050077747327,0.278245398431947,0.2,0.7994889884862644,0.33265290101099076,0.2,-0.002567512080167322,0.10690330852006864,0.2,0,
0.20805548146172315,0.40529192492183125,0.22761096940566647,0.2,-0.6442705163708321,0.33889484028996886,0.2,-0.9957477480296921,0.902371843963537,0.2,-0.397658341006569,0.29934009841424414,0.2,0.8010246588093646,0.045290745301941604,0.2,0.0003808357338185186,0.3721686223696673,0.2,0,
0.21605761536409712,0.4030320855704794,0.4160641420520479,0.2,-0.6437084091656038,0.5260775715096241,0.2,-0.9855609910489307,0.89865950095213,0.2,-0.3957155662001048,0.3130633741061338,0.2,0.8002136404110954,-0.11353923316843179,0.2,0.0033871858777473553,0.2643624606237312,0.2,0,
0.22405974926647107,0.411948951194664,0.5423140517527951,0.2,-0.6358532752266781,0.8305821955687173,0.2,-0.981369196014458,0.9023443818403643,0.2,-0.39264932702087085,0.41876237674592226,0.2,0.7992080310786697,0.08314472519667382,0.2,0.0046106351037982175,-0.19085542274643025,0.2,0,
0.23206188316884505,0.41170911039852415,0.21687757539618283,0.2,-0.6304190940365043,0.8384774212124579,0.2,-0.9711234809394849,0.9880213745160765,0.2,-0.38901536817217003,0.5041390326281092,0.2,0.8015439560142422,-0.036069916699570104,0.2,0.0003334991138044713,0.03532150507056208,0.2,0,
0.24006401707121902,0.41541899240100294,0.5060321965561984,0.2,-0.6224376364872788,0.7250972794016347,0.2,-0.9655608540222008,0.7198777098621697,0.2,-0.3845831024988211,0.7676214527702862,0.2,0.7986309124114765,-0.10586844909377113,0.2,0.005175779184927211,-0.08887036475214681,0.2,0,
0.24806615097359297,0.4198056255434233,0.5090413586891565,0.2,-0.6188175375660782,0.39762732774305254,0.2,-0.9596054375816901,0.9864196020004586,0.2,-0.37673342492784545,0.6110544035422133,0.2,0.7998500608287419,-0.09078891274003076,0.2,-0.0010884267222298777,-0.38123948524022105,0.2,0,
0.25606828487596694,0.42356365414002944,0.6226685619852845,0.2,-0.61607559924339,0.6298406032292647,0.2,-0.9497781403901935,0.9244875439270785,0.2,-0.3748062320421457,0.30654150875290137,0.2,0.797178289807636,-0.20133947395443302,0.2,-0.0009240525789163263,0.08168965969678445,0.2,0,
0.2640704187783409,0.4297683225351879,0.5858239570344405,0.2,-0.6087400879144099,0.9238403143840279,0.2,-0.9448136368788569,0.6928619380379281,0.2,-0.37182876078779903,0.4197357265735141,0.2,0.796628629245471,0.28603004673014715,0.2,0.00021860783291867346,0.1255070524377851,0.2,0,
0.2720725526807149,0.4329368374525805,0.35776856491792974,0.2,-0.6012941542132455,0.5085072640907337,0.2,-0.9386923493815866,0.8639179306434499,0.2,-0.36809046041696947,0.4113641020028619,0.2,0.8017547705553184,0.286028738431178,0.2,0.0010840602600882352,0.07280496251695517,0.2,0,
0.28007468658308887,0.43549261957387475,0.25611579386035016,0.2,-0.6006039716889582,0.6408124598417178,0.2,-0.9309909499885617,0.9153599449703564,0.2,-0.36524693515575324,0.4195693509581079,0.2,0.8012050890603698,-0.15894815512453725,0.2,0.0013834872331899564,0.16265888631185974,0.2,0,
0.2880768204854628,0.4370346901543461,0.3904615314235908,0.2,-0.591041154855778,0.7881967897865882,0.2,-0.9240465902620609,0.9864063353367258,0.2,-0.36137735080163974,0.26839068614541506,0.2,0.7992116000733258,-0.015118016476162177,0.2,0.003686602441077991,-0.07861091721765673,0.2,0,
0.29607895438783677,0.4417400040766522,0.5200588705193826,0.2,-0.5879928230523728,0.3304101077660007,0.2,-0.9152084486231741,0.6467600356263383,0.2,-0.3609526841774266,0.05156277035307799,0.2,0.8009632007967512,-0.03725427622108812,0.2,0.00012571255770744855,-0.46817440145523276,0.2,0,
0.30408108829021074,0.4453556320826562,0.19888693167001079,0.2,-0.585754593131522,0.5155155351503418,0.2,-0.9136984296920395,0.2538464308073224,0.2,-0.3605523464759905,0.4485919753268903,0.2,0.7986155316537884,-0.2039042354403317,0.2,-0.003804187982205734,0.08332911188816432,0.2,0,
0.3120832221925847,0.4449221949833724,0.1060653771205039,0.2,-0.5797445744899673,0.6415115809838764,0.2,-0.9111469057302569,0.5935323014695376,0.2,-0.35377521257219635,0.40975476056733307,0.2,0.7977007330297059,0.3473588440067038,0.2,0.0014589783479180777,0.08809905223543187,0.2,0,
0.3200853560949587,0.4470526781165843,0.27669910031969874,0.2,-0.57549040783578,0.46644527043322725,0.2,-0.9042019128685269,0.9157276611163612,0.2,-0.35399627030691316,0.40486248588912294,0.2,0.8041732731578957,0.2635050286894647,0.2,-0.002394603146438824,-0.04021360694596775,0.2,0,
0.32808748999733267,0.44934938058848756,0.4183671771140138,0.2,-0.5722814501630357,0.4342196249795052,0.2,-0.8964952631523951,0.6767592074183523,0.2,-0.3472974127979704,0.6620719182119477,0.2,0.8019168134887373,-0.2478554901854252,0.2,0.0008155606367825937,-0.0690423685197885,0.2,0,
0.3360896238997066,0.4537465529504085,0.34915871169907337,0.2,-0.5685428938361079,0.5611376047968061,0.2,-0.8933737655498333,0.331965431531335,0.2,-0.343403119615522,0.22290433991834294,0.2,0.8002075853149289,-0.10472971965101718,0.2,-0.00349928104275544,-0.2533131505331367,0.2,0,
0.34409175780208057,0.45493591997567273,0.08831689006836077,0.2,-0.5633032484862868,0.6264410528906208,0.2,-0.8911838162478938,0.978014965957473,0.2,-0.3437309433592769,0.03638421643404818,0.2,0.8002411379743211,0.11100758744590072,0.2,-0.0032374497717475932,0.21217683639461532,0.2,0,
0.35209389170445454,0.45515962319150227,0.40630284550957974,0.2,-0.558519836989858,0.5007912028498276,0.2,-0.8777255260945137,1.0364262083979934,0.2,-0.34282097215257723,0.37878687195037547,0.2,0.8019837067140633,-0.3508513646200001,0.2,-0.00010445166044159492,0.362655360373082,0.2,0,
0.3600960256068285,0.461436765503826,0.2892753029014247,0.2,-0.5552905892406895,0.29505746343524986,0.2,-0.8746009969135259,0.22364070429909538,0.2,-0.3376703534080709,0.4873670474905313,0.2,0.7946275161404011,-0.324056703143602,0.2,0.002565035994221718,-0.148518241095708,0.2,0,
0.3680981595092025,0.45978802803792507,0.3865562338118689,0.2,-0.553798917574894,0.008022811498566151,0.2,-0.8741472748257282,0.39159394226108424,0.2,-0.33502309939272873,0.2460033587634962,0.2,0.7967987994637656,0.2921962329651487,0.2,-0.002480743517972923,-0.1844620731530244,0.2,0,
0.37610029341157647,0.4676216652448159,0.6266096924270881,0.2,-0.5551622242567125,0.5606333517286649,0.2,-0.8683354938373485,0.4962358983466378,0.2,-0.33373429966785495,0.34542595086234706,0.2,0.7993026558678434,0.1223307083117603,0.2,-0.0003863571762266724,0.1899299260028225,0.2,0,
0.3841024273139504,0.4698137831167585,0.151418330888501,0.2,-0.5448287839472353,0.753748824543772,0.2,-0.866207500452182,0.6056313138236221,0.2,-0.3294962841789312,0.2701316332926161,0.2,0.7987560907967538,-0.02478341033149145,0.2,0.0005581352980722371,-0.007879031639275128,0.2,0,
0.39210456121632437,0.4700443585390319,0.4538223889096644,0.2,-0.5431022430640121,0.2403512071625924,0.2,-0.8586453928161706,0.9269211714062267,0.2,-0.3294121935351731,0.18470727347141835,0.2,0.7989061213025396,0.006039345333018475,0.2,-0.0005124216824550744,-0.1032792441587689,0.2,0,
0.40010669511869834,0.4770749413393131,0.026176014812872433,0.2,-0.5409831646326339,0.33072241136820196,0.2,-0.8513767617096824,0.7459694214164355,0.2,-0.3265409678033885,0.5602485698511794,0.2,0.7988527203220821,0.19778089078560657,0.2,-0.0010943326084680654,0.00520512630996329,0.2,0,
0.4081088290210723,0.4704631747760379,0.10439857648504233,0.2,-0.5378106844821209,0.4549384545603635,0.2,-0.8467098820735076,0.40876403383766774,0.2,-0.3204482164175542,0.21276011909169765,0.2,0.8020706155551093,0.03950973294921528,0.2,-0.0004291396614956618,0.07746777854313802,0.2,0,
0.4161109629234463,0.4787453185630738,0.5429883657160558,0.2,-0.533704149359668,0.3239629338083472,0.2,-0.8448365371682797,0.34227859504492447,0.2,-0.3231368058979213,0.23718314555263784,0.2,0.7994848760492695,-0.09599284462192409,0.2,0.00014515184822214302,-0.11695336206636844,0.2,0,
0.42411309682582027,0.4791509886274948,0.25876632404081207,0.2,-0.5326272775411873,0.3608729678394873,0.2,-0.8412334245527888,0.3363008588625066,0.2,-0.316653286088712,0.1491542584363438,0.2,0.8005347300411585,0.1975127085389397,0.2,-0.002300393454557557,0.1323429442765506,0.2,0,
0.43211523072819424,0.4828855797477268,0.18853264673017456,0.2,-0.5279301818742362,0.3578619129003466,0.2,-0.8394557234264796,0.4242687212372906,0.2,-0.3207503377629398,-0.04586755349207314,0.2,0.8026450793858926,-0.1427944282920493,0.2,0.002262638956646953,0.29355581949908355,0.2,0,
0.44011736463056816,0.48216751097517757,0.3360460032547051,0.2,-0.5269014869347818,0.22270321363140194,0.2,-0.8344451250129922,0.3384171292702687,0.2,-0.3173871669445852,0.26999418442233064,0.2,0.7982500191884857,-0.16481974248753334,0.2,0.00239649965742778,-0.15731314251025555,0.2,0,
0.44811949853294214,0.48826231579980206,0.25057232209849817,0.2,-0.5243669304561338,0.5898066470816157,0.2,-0.8340410493581553,0.39843986214109506,0.2,-0.31643043081218253,0.35026466986960364,0.2,0.800007963506092,-0.005745378060771633,0.2,-0.0002543713235171356,0.04892610146773373,0.2,0,
0.4561216324353161,0.48617666812875354,-0.04458290091007705,0.2,-0.5174645805814759,0.5051843213527487,0.2,-0.8280700872187347,0.7328904357642232,0.2,-0.3117829322266715,0.22805406568146905,0.2,0.7981580931395134,0.13329079677582706,0.2,0.00317931728091152,0.07531892100191566,0.2,0,
0.4641237663376901,0.4875489893852408,0.5088725336049316,0.2,-0.5162839813144898,0.04075805774371444,0.2,-0.8223148023859277,0.48357401881881507,0.2,-0.312781565761279,0.11933749974911076,0.2,0.8021406162545053,0.12123622004925338,0.2,0.0009507314125135149,-0.3986852482822837,0.2,0,
0.47212590024006407,0.49431862866643245,0.13620776430934775,0.2,-0.5168124516575765,0.03687612565324294,0.2,-0.8203329029176336,0.22762959634956698,0.2,-0.30987353223068576,0.24558791791573845,0.2,0.8000978726603014,-0.07880681363398728,0.2,-0.0031996466916050198,-0.012230481304566816,0.2,0,
0.48012803414243804,0.4897283136141904,-0.18316355991358085,0.2,-0.5156939633040379,0.11665354318152882,0.2,-0.8186727288443346,0.19472045902855367,0.2,-0.3088521590746272,0.03874101091405971,0.2,0.8008797072363615,0.010384181689360172,0.2,0.0007550437116404458,0.3010334739214322,0.2,0,
0.48813016804481196,0.49138801170781515,0.16320208892236024,0.2,-0.514945994966672,0.3419845772966307,0.2,-0.8172173755731768,0.14891469611772595,0.2,-0.3092536760560608,0.15246595480128064,0.2,0.8002640195673312,-0.12568508184281763,0.2,0.0016168888911378947,-0.06462164672362967,0.2,0,
0.49613230194718594,0.49233954703694816,0.18113127554968828,0.2,-0.5102222100672918,0.40471142762050355,0.2,-0.816290093706451,0.14499614472988226,0.2,-0.3064127037978067,0.29145706778619174,0.2,0.7988687459268764,0.07098358295593021,0.2,-0.0002789026359376289,-0.13649608773649777,0.2,0,
0.50413443584956,0.49428611211661017,0.05121507530646621,0.2,-0.508470612124744,0.2457221953246283,0.2,-0.8148974372574986,0.571003024480432,0.2,-0.30459036297148173,0.06869435386146899,0.2,0.8013997568946261,0.1347868363006932,0.2,-0.0005670485126460692,-0.2623554800849083,0.2,0,
0.5121365697519339,0.4931589882418516,0.10246687603231164,0.2,-0.5062906549420978,0.1246952036896426,0.2,-0.8071540453147641,0.5009234603552611,0.2,-0.3053135941360232,0.0029006161463146496,0.2,0.8010253353076875,-0.36230519465164923,0.2,-0.0044765903172961615,0.03378248809057091,0.2,0,
0.5201387036543078,0.49592558213312715,0.4866112484080871,0.2,-0.5064754888657097,0.29167544360812064,0.2,-0.8068826618918145,0.07144831286989145,0.2,-0.3045439531131407,0.1996858061144996,0.2,0.7956028737801997,-0.11781998093386703,0.2,-2.652870319693451e-05,0.08683848909757488,0.2,0,
0.5281408375566818,0.500944768216381,0.19487931091292932,0.2,-0.5016238478443679,0.0948511021287915,0.2,-0.8060108723088458,-0.06316433971237378,0.2,-0.3021186212381912,0.12980379794596056,0.2,0.7991402156127456,0.311908838322196,0.2,-0.0030871744917349633,0.22038217877003827,0.2,0,
0.5361429714590558,0.499043651107734,-0.20328665095930426,0.2,-0.504957871231649,-0.024947723815414713,0.2,-0.8078932913272124,-0.03100030835105627,0.2,-0.30246709234600533,0.005023179112478154,0.2,0.8005934151933548,-0.003959716386545131,0.2,0.003499586157123678,0.1525198172179064,0.2,0,
0.5441451053614298,0.49769218180103214,0.008339359933422913,0.2,-0.5020230114254145,0.20765508683954353,0.2,-0.8065068772424627,0.18630569755562904,0.2,-0.30203825037239157,0.06432431944283779,0.2,0.7990768601505609,0.12299779750490208,0.2,-0.0006468574162484606,-0.23584281571284135,0.2,0,
0.5521472392638037,0.4991770808666688,-0.10559995456252413,0.2,-0.5016353898422163,0.14501561095491347,0.2,-0.8049124001663224,0.1981801722958504,0.2,-0.3014379032349199,0.03498388433281069,0.2,0.8025613799534332,0.03138540472060608,0.2,-0.0002738988942817833,0.084591360768811,0.2,0,
0.5601493731661777,0.49600258252803175,-0.08256852254071717,0.2,-0.4997027616501359,-0.01783167377465006,0.2,-0.8033359944857291,0.32177167242743165,0.2,-0.3014785082230666,0.007325776006414375,0.2,0.7995790266260906,-0.041995644348410965,0.2,0.0007066043560525155,-0.17902893483638918,0.2,0,
0.5681515070685517,0.4978559845060173,0.2925998598170415,0.2,-0.5019206966226107,-0.11923932450296978,0.2,-0.7997640534074835,0.1824514950185402,0.2,-0.3013206908188173,0.05546680761301173,0.2,0.8018894496438587,0.11444820706327935,0.2,-0.0031383618516640103,-0.16095303677584386,0.2,0,
0.5761536409709256,0.5006841802851044,0.20160231304220538,0.2,-0.5016105908421834,0.06635617649263653,0.2,-0.8004167705654325,-0.20735396138921863,0.2,-0.3005910393012584,0.08982783630659755,0.2,0.8014101979391031,-0.19260278016611232,0.2,-0.001868644232360986,0.15992751920274478,0.2,0,
0.5841557748732996,0.5010816215146926,-0.16634485620651424,0.2,-0.5008589977987286,0.21002186227584568,0.2,-0.803081716789711,-0.02733753390787852,0.2,-0.29988344543791173,0.22761275638664286,0.2,0.7988078051612009,-0.24325714555150507,0.2,-0.0005795215444200935,0.19887525914241747,0.2,0,
0.5921579087756735,0.4980226625858002,0.12787134042804849,0.2,-0.49825024104576987,0.09512556358114502,0.2,-0.8008541711079585,0.22004390488374742,0.2,-0.2969492351990721,0.14444943295669962,0.2,0.797518083610279,0.1001426674451869,0.2,0.001313359913917694,0.059924376986071615,0.2,0,
0.6001600426780476,0.5031275629615414,0.07902800663552034,0.2,-0.49933698878143024,-0.028660353097061803,0.2,-0.799561014311571,-0.14493197755052062,0.2,-0.29757225451060454,-0.22885419137094395,0.2,0.8004100878403239,0.21603795933405195,0.2,0.0003792684873570524,-0.18219532466239657,0.2,0,
0.6081621765804215,0.4992871106919685,-0.13559899986245044,0.2,-0.49870880669532286,0.16307867858326996,0.2,-0.8031730827487669,0.19909294451082166,0.2,-0.30061090226100723,-0.4226799711523517,0.2,0.8009746909596238,0.16574339097913393,0.2,-0.0016017652806806513,-0.16688073395603417,0.2,0,
0.6161643104827954,0.5009579789637422,0.01277206931848962,0.2,-0.4967277299240979,-0.16465731786688767,0.2,-0.7963755271993979,0.29892259005201427,0.2,-0.30433513404904217,0.045322209623610554,0.2,0.80306198209599,-0.13299756149522113,0.2,-0.002290823255939495,0.02830187614099946,0.2,0,
0.6241664443851694,0.49949146380106435,0.039124573277413144,0.2,-0.5013433237811931,-0.23368719519129347,0.2,-0.7983903213079346,-0.30855440820666546,0.2,-0.29988574690702946,0.14445299450220953,0.2,0.7988467299757003,-0.17275246441929987,0.2,-0.00114893526242466,0.03397263289778215,0.2,0,
0.6321685782875434,0.5015839721361808,-0.1346253256897141,0.2,-0.5004667250471586,-0.0014384328442737515,0.2,-0.8013123977307045,-0.2113730280150286,0.2,-0.3020238861370068,-0.1764168267439671,0.2,0.8002979426652812,0.11548421452153845,0.2,-0.0017472611295749805,0.004147945298162202,0.2,0,
0.6401707121899174,0.4973374585900289,-0.14852798183517119,0.2,-0.5013663387067014,0.034549041692907845,0.2,-0.8017722897561751,0.19065405271242314,0.2,-0.30270841613493293,0.22865457262885233,0.2,0.8006944774080449,0.1982138717813997,0.2,-0.0010825681376540647,0.24904465511215237,0.2,0,
0.6481728460922913,0.49920752442681804,0.03705795762458386,0.2,-0.4999139403800721,-0.1981044883121244,0.2,-0.7982619328873057,-0.058431541481260285,0.2,-0.2983654129749452,-0.09135860939416332,0.2,0.8034693646137836,0.025174091629359685,0.2,0.002237453352219458,0.08846916555855365,0.2,0,
0.6561749799946653,0.49793038591202227,-0.1781530236159047,0.2,-0.5045360105196954,-0.4419647113629993,0.2,-0.8027071944198753,-0.42362627033148276,0.2,-0.30417015388523955,-0.37121985328910506,0.2,0.8010972628741146,-0.21975649191022933,0.2,0.0003329385112827937,-0.19914961117196586,0.2,0,
0.6641771138970393,0.49635707604896356,0.04795971681463562,0.2,-0.5069853757618801,0.12321530335480252,0.2,-0.8050399532126095,-0.23667191908992996,0.2,-0.30430493062757086,-0.03940953440046899,0.2,0.7999532607432199,0.07322997903695672,0.2,-0.0009489404265319959,0.1893412672737496,0.2,0,
0.6721792477994132,0.49869774138105644,-0.0278680351910969,0.2,-0.5025645656660186,0.0085171708884349,0.2,-0.8064939451253141,-0.340026987163268,0.2,-0.30480070643564705,-0.07062224163621039,0.2,0.802268942538706,-0.02310379778443228,0.2,0.0033623987876627874,0.2255818106303887,0.2,0,
0.6801813817017872,0.495911187485906,-0.14221433549794701,0.2,-0.5068491010276651,-0.532874212474041,0.2,-0.8104803850072217,-0.4694216921455399,0.2,-0.3054348864937502,0.05607470423030919,0.2,0.799583599978669,-0.06929656379717902,0.2,0.0026603685435542235,-0.10388575724646598,0.2,0,
0.6881835156041611,0.4964223120130893,-0.10994672938895514,0.2,-0.5110905530656032,-0.11137445198555057,0.2,-0.8140046921996428,-0.0979089103793837,0.2,-0.3039035111679621,0.11510278216735753,0.2,0.8011601975179511,0.21367114000797605,0.2,0.0017002266717193316,-0.036065204025761674,0.2,0,
0.6961856495065352,0.49415203981568273,-0.2788272144299865,0.2,-0.5086310922594339,0.05503397637864754,0.2,-0.8120469275732919,-0.0035794441678171918,0.2,-0.3035932419790725,-0.2966477953889358,0.2,0.8030023382187966,-0.09678861515836218,0.2,0.0020833252791420368,-0.1877851189844409,0.2,0,
0.7041877834089091,0.4919610765822095,-0.14802105158535916,0.2,-0.5102100094435449,-0.14525526685525703,0.2,-0.8140619633063279,-0.15076607873003994,0.2,-0.3086498758941851,-0.4409383097988169,0.2,0.7996115796754173,-0.3564903572125522,0.2,-0.0013043352320317228,-0.272372404326151,0.2,0,
0.7121899173112831,0.491783702990317,-0.016434964557422715,0.2,-0.510955176529118,-0.2100756299441911,0.2,-0.8144591848329725,-0.229531540961031,0.2,-0.3106482549358536,-0.11250264808919039,0.2,0.7972984925033958,0.1302159126826269,0.2,-0.00227463319007638,-0.174768580463221,0.2,0,
0.720192051213657,0.49169811714929074,0.013755467633307789,0.2,-0.513571219522652,-0.17646863009278257,0.2,-0.8177344679617043,-0.43708602291062104,0.2,-0.3104499182636121,0.04329386035811095,0.2,0.8016950342783393,-0.002995716844561569,0.2,-0.004100632519443259,-0.08065318576445386,0.2,0,
0.728194185116031,0.4920037904724499,-0.42593688005664043,0.2,-0.5137786746106026,-0.38313812328334,0.2,-0.8214525611995425,-0.40304479762141854,0.2,-0.3099555531701238,-0.11789879243112242,0.2,0.7972505610338828,-0.1910805416636685,0.2,-0.0035650841623076418,0.26047509609633057,0.2,0,
0.736196319018405,0.4848831270683845,-0.4328584278400389,0.2,-0.5197014294951854,-0.42709110175226384,0.2,-0.824183184723647,-0.5679683945195232,0.2,-0.3123362989425101,-0.3569188623188946,0.2,0.7986377456117206,0.2965327460893799,0.2,6.696901809803051e-05,0.24195890971856868,0.2,0,
0.7441984529207789,0.4850780556270093,-0.20724743837668633,0.2,-0.5206121322386388,-0.0834083387693807,0.2,-0.8305400555118548,-0.46001407512694104,0.2,-0.3156662549672261,-0.12750180622548776,0.2,0.8019950849713129,0.17570815327758865,0.2,0.0003062583931894575,0.004827826731809553,0.2,0,
0.7522005868231529,0.4815671680543575,-0.2665462535266054,0.2,-0.5210359629154955,-0.37144132423989895,0.2,-0.8315434099256781,-0.36560045355721327,0.2,-0.3143763278421179,-0.21338986424191894,0.2,0.801449076064162,-0.20416485098601056,0.2,0.00014421424580698337,-0.0340117072200736,0.2,0,
0.7602027207255269,0.4808133155705836,0.02721756409811843,0.2,-0.5265551934264772,-0.45218255529528434,0.2,-0.8363896627687702,-0.36871836252213436,0.2,-0.3190804927950968,-0.412221492513503,0.2,0.7987284473555367,0.05879367120202594,0.2,-0.00023792892233172018,0.06587306523666932,0.2,0,
0.7682048546279008,0.4820026490799274,-0.24727431144872317,0.2,-0.52827088380022,-0.24427617075076236,0.2,-0.8374429037260323,-0.2748912220978533,0.2,-0.32097187172233393,-0.05311048815361333,0.2,0.8023897748033945,0.15428787056216003,0.2,0.0011981832895936926,0.012852225126987844,0.2,0,
0.7762069885302748,0.47685692658740403,-0.3868377543546214,0.2,-0.5304636121584894,-0.37197521382477394,0.2,-0.8407879223223359,-0.28958813946080436,0.2,-0.31993026060555463,-0.06664666971978664,0.2,0.8011970532845313,-0.12245840609796665,0.2,-3.229332029991467e-05,-0.2758820824595014,0.2,0,
0.7842091224326487,0.47581324501025346,-0.29082261048160235,0.2,-0.5342224872214164,-0.45285486347942244,0.2,-0.8420763139574051,-0.39958561969988954,0.2,-0.3220382184378505,-0.49462784431030665,0.2,0.800430440305827,-0.3826275421714362,0.2,-0.0032159300297583304,0.15794144717553102,0.2,0,
0.7922112563350228,0.4722037648196984,-0.24283703709910773,0.2,-0.5377092899741601,-0.23450867274658893,0.2,-0.8471812922375341,-0.8054992535578565,0.2,-0.32784430611451953,-0.3572504629153553,0.2,0.7950750126097883,-0.044795072576445105,0.2,0.0024947698345085816,0.07372323916329653,0.2,0,
0.8002133902373967,0.47192785241666774,-0.003299567871751369,0.2,-0.5379746259853618,-0.3083480503441524,0.2,-0.8549643020143308,-0.7125802834024586,0.2,-0.3277542258444962,0.09422347260233666,0.2,0.7997137191446039,0.37998619602837985,0.2,-0.002036358203145586,-0.20344980888350533,0.2,0,
0.8082155241397707,0.47215097173375037,0.023955974471741998,0.2,-0.5426428587796666,-0.4568994885390601,0.2,-0.8585825767719735,-0.37355361169531115,0.2,-0.32633673055288215,-0.2087147069200282,0.2,0.8011547917462424,0.33133649899825396,0.2,-0.0007604271076275037,0.04434435259664433,0.2,0,
0.8162176580421446,0.4723111480082156,-0.30894962727608805,0.2,-0.5452850178019868,-0.4207717187426005,0.2,-0.8609411598014558,-0.5031923623147402,0.2,-0.33109366115521666,-0.30079851702032034,0.2,0.8050151031285759,0.1445476462904327,0.2,-0.001326848561599277,0.052415486903323386,0.2,0,
0.8242197919445186,0.46720777769733296,-0.36873162685435723,0.2,-0.5493752062795482,-0.4719665029741943,0.2,-0.8666336545690093,-0.7694270521648657,0.2,-0.3311495068252073,-0.5924703330372413,0.2,0.8034675540868893,-0.11225075029293319,0.2,7.822068282567035e-05,0.1831754846919901,0.2,0,
0.8322219258468926,0.4664114419785459,-0.5406208650620449,0.2,-0.5528364818495739,-0.6240700062472362,0.2,-0.8732519926360937,-0.8814180943036432,0.2,-0.3405731864838125,-0.16077201546159728,0.2,0.803219091123889,-0.18388369444406055,0.2,0.0016039591934725646,0.0005336515882658292,0.2,0,
0.8402240597492665,0.45855784385634024,-0.4204458462308512,0.2,-0.559360326379504,-0.525121747631016,0.2,-0.8807363440778676,-0.5224440130621246,0.2,-0.33372185907259283,0.1127486889614844,0.2,0.8005254149757843,-0.2109736976239618,0.2,8.675910823792362e-05,0.1982812226279151,0.2,0,
0.8482261936516405,0.4596843084388523,-0.1770145517207694,0.2,-0.5612384298116702,-0.34814943771119267,0.2,-0.8816110968450876,-0.4671733089780805,0.2,-0.33876920746042877,-0.5972890043833452,0.2,0.7998435119619056,-0.008902784407543995,0.2,0.004776458755519206,-0.21903391678821305,0.2,0,
0.8562283275540145,0.45572561102880793,-0.4944964620367982,0.2,-0.564930717382883,-0.49386488028922704,0.2,-0.8882111170215169,-0.6754695317961814,0.2,-0.34327848314272635,-0.42751452175965665,0.2,0.8003829704252636,-0.05594605185130219,0.2,-0.0034177835603734852,-0.16065787885712632,0.2,0,
0.8642304614563885,0.4517723650462635,-0.38160491617989994,0.2,-0.5691402678962978,-0.4546183551589339,0.2,-0.8924186093538266,-0.6900825101816762,0.2,-0.3456094398085833,-0.24690183470794935,0.2,0.7989483751322848,-0.29235070150118725,0.2,0.002205932693805185,0.3205796215156856,0.2,0,
0.8722325953587624,0.44961993236992953,0.028375694385268657,0.2,-0.572204611065426,-0.4208218900301694,0.2,-0.8992524371844237,-0.6675088666377379,0.2,-0.34722891249805354,-0.31235081685297705,0.2,0.7957053592012446,0.016978298894326782,0.2,0.001711490383877484,-0.012205010068429918,0.2,0,
0.8802347292611363,0.4522263761564278,-0.35986925053834923,0.2,-0.5758734181367805,-0.523103091682714,0.2,-0.9030987512200304,-0.3976564718520467,0.2,-0.3506070528782309,-0.4583200560461728,0.2,0.799220027914594,0.043524237200852356,0.2,0.0020106525327103063,0.23968853902438425,0.2,0,
0.8882368631635104,0.44386202436131594,-0.559145071099526,0.2,-0.5805742605323494,-0.5227414444871487,0.2,-0.9056149407340565,-0.6131827440412837,0.2,-0.3545620333947923,-0.3021076057000069,0.2,0.7964017469964583,0.08084411590927876,0.2,0.005546507008267632,-0.18945692759422647,0.2,0,
0.8962389970658843,0.4432800550188354,-0.23964097968797934,0.2,-0.5842372812485749,-0.40304059965138445,0.2,-0.9129096751246909,-1.0120827047402567,0.2,-0.355440774569431,-0.2068661090633278,0.2,0.8005135337691425,0.21875853495915976,0.2,-0.0010206583087973176,-0.4136351914719946,0.2,0,
0.9042411309682583,0.4400277686863083,-0.354599105863003,0.2,-0.5870229101267715,-0.7116805256860009,0.2,-0.9218082640099006,-0.7759364739799504,0.2,-0.35787189113980555,-0.4047058130040235,0.2,0.7999018835558048,-0.11985344034458334,0.2,-0.0010716560552842824,0.10230699723309407,0.2,0,
0.9122432648706322,0.43760646932502734,-0.3795035397472328,0.2,-0.5956241696595509,-0.935200292623721,0.2,-0.9253246587083701,-0.7472714031246593,0.2,-0.3619160675774954,-0.5147614312487718,0.2,0.7985958787236291,0.07836535049354776,0.2,0.0006162536469321875,-0.03560694250945941,0.2,0,
0.9202453987730063,0.43395571205035255,-0.4597148770459081,0.2,-0.6019861148087511,-0.5706179365457877,0.2,-0.9337646064598951,-0.9290620368948912,0.2,-0.3661080740397859,-0.5257025018641781,0.2,0.8011557291637016,0.2531545095174337,0.2,-0.0016413671354356329,-0.003737517163280172,0.2,0,
0.9282475326753802,0.4302510312922928,-0.6121518882262027,0.2,-0.6047540566442835,-0.32952975484480673,0.2,-0.9401896512986884,-0.5256668704493456,0.2,-0.37032730760732224,-0.5390264112052762,0.2,0.8026463508759081,0.04803270926583003,0.2,0.0005564533723197047,-0.022368561475719053,0.2,0,
0.9362496665777541,0.4241612818387333,-0.35666610572967006,0.2,-0.607258590886268,-0.7857631697353387,0.2,-0.9421752763870846,-0.5993589758247971,0.2,-0.3747324966190703,-0.3916508560481216,0.2,0.8019242525119549,-0.11936385856378684,0.2,-0.0019992641190471378,-0.030907935886998236,0.2,0,
0.9442518004801281,0.4245443736006181,0.05757795492550635,0.2,-0.6173262673600489,-0.5680045062829847,0.2,-0.9497793949118851,-0.979642721201511,0.2,-0.3765937213040922,-0.3197141142552463,0.2,0.8007365291388875,0.015210350980246479,0.2,6.192639812773293e-05,0.2842748891563193,0.2,0,
0.952253934382502,0.4250825291175414,-0.4597688776778533,0.2,-0.6163466629867957,-0.4107381846910896,0.2,-0.9578495599263088,-1.0612582985749797,0.2,-0.37984792244715426,-0.4712476235065183,0.2,0.8021676181276388,0.070407937958053,0.2,0.0025491341074539713,-0.19788478954836156,0.2,0,
0.9602560682848761,0.41718807155777243,-0.8467645096260981,0.2,-0.6238980783151064,-1.1439366894570728,0.2,-0.9667595276890848,-0.6655984286294061,0.2,-0.3841336832801965,-0.41419024567387536,0.2,0.8018630561462163,-0.03337329277944279,0.2,-0.003104230234646052,-0.11526994615948118,0.2,0,
0.96825820218725,0.41153429696352384,-0.2949279619893184,0.2,-0.6346496500181089,-0.5646400042017274,0.2,-0.9684991347843793,-0.8142072826815561,0.2,-0.38647496637793627,-0.27047877456676944,0.2,0.8016336454431677,-0.08039507054345696,0.2,0.0007048149689022723,0.12515104511822533,0.2,0,
0.9762603360896239,0.41246922416594334,-0.41122868824978315,0.2,-0.632932318382334,-0.40803686030052577,0.2,-0.9797868442119897,-0.9545323196664679,0.2,-0.3884613436732648,-0.4147921820569708,0.2,0.800576735017521,-0.2434467084464001,0.2,-0.0011018135127544469,-0.10934070256071701,0.2,0,
0.984262469991998,0.4049546379515273,-0.6499774913367763,0.2,-0.6411782397829173,-0.6835483286693478,0.2,-0.9837716518990428,-1.0462748805142723,0.2,-0.3931116412908478,-0.5466533060632591,0.2,0.7977384981080253,-0.2637658499735143,0.2,-0.0010446362720692001,-0.07076023109774025,0.2,0,
0.9922646038943719,0.4020695843045549,-0.48519841077924314,0.2,-0.6438690916410436,-0.6247424444853489,0.2,-0.996527242300218,-1.1253552583307749,0.2,-0.39720779657027694,-0.6232276880625831,0.2,0.7963564814179448,0.2890766624151983,0.2,-0.002233977210318291,0.025967386370517553,0.2,0,
1.0002667377967458,0.3971914633790594,-0.5136260114758755,0.2,-0.6511741188946829,-0.9146032274576915,0.2,-1.0017773360323352,-0.5781874120874969,0.2,-0.40308328429984913,-0.42404458258554767,0.2,0.8023637247066685,0.3217642528126202,0.2,-0.0006291580901409192,0.25332414251935065,0.2,0,
1.00826887169912,0.3938515681209409,-0.4098434931819085,0.2,-0.6585027432803666,-0.3173451486678247,0.2,-1.005778240893618,-0.7437389234741243,0.2,-0.4039925098916457,-0.20573308729525744,0.2,0.8015047094629467,-0.10468048886212722,0.2,0.0018192090699913205,0.382569857558606,0.2,0,
1.0162710056014939,0.3906339674881489,-0.4180716602999075,0.2,-0.6562516412733681,-0.6145814046515304,0.2,-1.0136771588079212,-1.0351984235874578,0.2,-0.40637501369657325,-0.2671686571512691,0.2,0.8006888368848745,-0.14155014807110816,0.2,0.005491959630796777,-0.09249140168167866,0.2,0,
1.0242731395038678,0.3871624215561424,-0.5157448823268836,0.2,-0.6683360457547911,-1.0786097261828858,0.2,-1.0223414156710173,-0.8998408828726628,0.2,-0.408267208406066,-0.4888344001945724,0.2,0.799239907093809,-0.0010027300040710285,0.2,0.000339346643084462,-0.5951748140426935,0.2,0,
1.0322752734062417,0.38238204937091874,-0.2814141120204283,0.2,-0.6735093968922943,-0.5958923050166376,0.2,-1.0280746129338838,-0.9607202577952417,0.2,-0.4141963640996864,-0.5031372496977875,0.2,0.8006727932048093,-0.0679615024464994,0.2,-0.004030837393886318,-0.022711198715039255,0.2,0,
1.0402774073086156,0.38265979576381554,-0.1310579515099511,0.2,-0.6778703226350573,-0.8049327567409766,0.2,-1.0377129397957412,-0.990919027949011,0.2,-0.4163174044012306,-0.3756703474924669,0.2,0.798152523054665,-0.21279431212500866,0.2,-2.4032536356166078e-05,0.3607533816761009,0.2,0,
1.0482795412109898,0.3802851221467595,-0.711045189914751,0.2,-0.6863883210001499,-0.8484822916116214,0.2,-1.043929317381068,-0.9553201882940704,0.2,-0.4202070896595659,-0.6352372995249641,0.2,0.7972680842108092,0.09929150297068728,0.2,0.0017412167129312957,0.060383158959491416,0.2,0,
1.0562816751133637,0.3712830727251795,-0.7515800182596732,0.2,-0.6914460393008433,-0.8820984694377989,0.2,-1.0529980628084463,-1.0087563785079328,0.2,-0.42648120119363003,-0.8120096034552188,0.2,0.799741187102196,0.07256103589518142,0.2,0.0009420980069956966,-0.20898656228795862,0.2,0,
1.0642838090157376,0.36825984185460475,-0.3501524718557934,0.2,-0.7005018965111547,-0.8063286604093056,0.2,-1.060069419437195,-0.7444892601447678,0.2,-0.4331992433148494,-0.7319969832206493,0.2,0.7984290607851321,-0.08909516340122048,0.2,-0.0016025682836760423,-0.17831258793004992,0.2,0,
1.0722859429181115,0.3656806331754868,-0.4306400884177414,0.2,-0.7043472978673921,-0.2256105052263896,0.2,-1.0649098909707626,-1.0550434916442446,0.2,-0.4381931529251604,-0.18802728879868322,0.2,0.7983156644877765,0.034738865477230985,0.2,-0.0019109033998851025,0.191799314081564,0.2,0,
1.0802880768204854,0.3613696004399209,-0.5430689630372375,0.2,-0.7041116645947769,-0.5230923740382822,0.2,-1.0769501153035028,-1.324774702925413,0.2,-0.4362076799356283,0.06290233069562376,0.2,0.7989848826327678,0.22092939463894123,0.2,0.001466220741628982,0.12188172304576118,0.2,0,
1.0882902107228596,0.356991529766891,-0.44045849475445387,0.2,-0.7127167758520047,-0.8963109244065833,0.2,-1.0861062862175692,-0.9893528693109277,0.2,-0.43718671563403044,-0.6064136997619013,0.2,0.8018505348019995,-0.10121705049806473,0.2,3.920416884707648e-05,-0.23387752089212696,0.2,0,
1.0962923446252335,0.35432226452384963,-0.603312770183554,0.2,-0.7184526393852823,-0.7489949763566441,0.2,-1.0927797612124777,-0.8953179819004564,0.2,-0.44591029913181873,-0.8583482476234167,0.2,0.7973654098247988,-0.024871758880253003,0.2,-0.0022758195926450495,-0.02432812697880182,0.2,0,
1.1042944785276074,0.34733852544395416,-0.5188325665890364,0.2,-0.724700695473711,-0.6574741571529832,0.2,-1.1004313739279765,-0.9018742885749942,0.2,-0.4509202875960051,-0.5068626486267116,0.2,0.8014525866599155,0.30034913978149724,0.2,-0.00035004586281375263,0.07346934805550165,0.2,0,
1.1122966124299813,0.34602094345842505,-0.33035975953499275,0.2,-0.72897222589973,-0.7509103591292199,0.2,-1.1072097498296776,-0.9664542807677062,0.2,-0.4540201015098461,-0.43889198721242667,0.2,0.8021709960613027,-0.2717764626775296,0.2,-0.001100310023757023,-0.03169521913675248,0.2,0,
1.1202987463323555,0.3420527692913943,-0.46455624420078945,0.2,-0.7367152612197785,-0.9908264416798179,0.2,-1.1158946424202598,-1.156078167292504,0.2,-0.45794255939140394,-0.576920715884159,0.2,0.797104163257075,-0.14905479096744,0.2,-0.0008571693690017923,0.10210585719952714,0.2,0,
1.1283008802347294,0.3385880435512124,-0.568256793267028,0.2,-0.7448254489666071,-0.7807115149927115,0.2,-1.1257070005063576,-1.114727194735085,0.2,-0.46325083296399266,-0.4038217849536424,0.2,0.7997861194058237,0.20422567526903745,0.2,0.0005333836914354111,0.06759947886756101,0.2,0,
1.1363030141371033,0.3329606605991218,-0.6428767942878305,0.2,-0.7492066454596619,-0.740144953723737,0.2,-1.1337302775360212,-0.8894642166273198,0.2,-0.4644037079506622,-0.5225024801583517,0.2,0.8003717740613796,-0.06343245123956176,0.2,0.000224422292879184,0.14994725821640675,0.2,0,
1.1443051480394772,0.3283020148426071,-0.6992737724747338,0.2,-0.7566677682261869,-0.6779684611495986,0.2,-1.1399384279723948,-0.7721442028055525,0.2,-0.4716108726465263,-0.513400186439198,0.2,0.7987712001859907,0.15200004523304583,0.2,0.002932539822897919,0.0756497805387278,0.2,0,
1.1523072819418512,0.3217722802395261,-0.3574070394933293,0.2,-0.7600541408380554,-0.7718231465887251,0.2,-1.14608458478091,-1.1094792520040668,0.2,-0.4726181109336894,-0.4082570243251933,0.2,0.8028037747851083,-0.008176415164290463,0.2,0.0014348187814988288,-0.014660523328307716,0.2,0,
1.1603094158442253,0.32258350221071386,-0.5317529127528627,0.2,-0.7690169385716065,-0.9792630942098631,0.2,-1.1576900960044598,-1.2536476098169158,0.2,-0.4781429850357294,-0.323681824333219,0.2,0.798640377543362,-0.12106902663248237,0.2,0.0026979714496449957,-0.03132451822469532,0.2,0,
1.1683115497465992,0.3132642336354803,-0.5535265385271798,0.2,-0.7757223503454133,-0.8981188217275157,0.2,-1.1661429465379807,-1.4809637122771002,0.2,-0.4777970201230209,-0.3682445300833177,0.2,0.8008666703589886,0.14213559218001492,0.2,0.0009336264899037037,-0.1535574840680361,0.2,0,
1.1763136836489732,0.313727077594279,-0.3504272108786309,0.2,-0.7833868397192467,-1.079339571431484,0.2,-1.1813855154008934,-1.055979135186652,0.2,-0.48403489751706247,-0.6024595382136226,0.2,0.8009145470182423,-0.12508733506842729,0.2,0.00024105170455641779,0.03734060769900012,0.2,0,
1.184315817551347,0.3076573982614222,-0.6197659005318344,0.2,-0.792991783488317,-0.799286507012907,0.2,-1.183038612700967,-0.6886811070462712,0.2,-0.48743637273443885,-0.6825717696768395,0.2,0.7988652729978938,-0.14800178769432126,0.2,0.0015310762130877056,-0.2052492787171443,0.2,0,
1.192317951453721,0.30381082318576963,-0.265466087507972,0.2,-0.7961754238314532,-0.12681739130472602,0.2,-1.1924044131136338,-0.5913094280193126,0.2,-0.4949560458318919,-0.6404165592358534,0.2,0.7985465184151331,0.16661955315601384,0.2,-0.0030429367549178908,0.03585775189782588,0.2,0,
1.2003200853560951,0.30340994086129464,-0.17593859462704947,0.2,-0.7950208617491926,0.10974175339124176,0.2,-1.192499563549276,-0.12801932975907426,0.2,-0.4976830376822125,-0.07817194289970117,0.2,0.80153118584839,-0.021939854759581157,0.2,0.0021048002434529197,0.20174740432210128,0.2,0,
1.208322219258469,0.30099580567173684,-0.1440363664719918,0.2,-0.7944195557771934,0.16085745501670523,0.2,-1.194452722389779,-0.14367700974604602,0.2,-0.4962067969182871,0.0960716021527093,0.2,0.7981954807389798,0.03184034420919413,0.2,0.00018502171423572956,-0.2860822938755935,0.2,0,
1.216324353160843,0.30110535899774277,0.25377618593142026,0.2,-0.7924471424689253,-0.03936190286029512,0.2,-1.1947983957052128,0.21500517949411824,0.2,-0.49614589204776915,0.13655034658457618,0.2,0.8020406313557371,0.17368354049111107,0.2,-0.002472516458556575,-0.07043737318133207,0.2,0,
1.224326487063217,0.30505622464663956,0.3765354899718312,0.2,-0.7950493462229581,-0.05297435053355781,0.2,-1.191012639517873,0.09470449802795322,0.2,-0.4940219913729339,0.051850173810933514,0.2,0.8009744173868376,-0.26492794129696906,0.2,-0.0009419762566655836,0.12707384718289055,0.2,0,
1.2323286209655908,0.30712992683729207,-0.2187379936672354,0.2,-0.7932947320774623,0.1354034823481537,0.2,-1.1932831237367656,-0.18760474709499098,0.2,-0.4953162892667942,-0.3418999843321328,0.2,0.7978017842949856,-0.016136916976633442,0.2,-0.00043933490363032654,0.08430852193752819,0.2,0,
1.240330754867965,0.3015564167479638,-0.2224617881070104,0.2,-0.7928828905053876,0.09546239397594664,0.2,-1.194014315471393,-0.0200750248717102,0.2,-0.499492391122248,0.11505396549282149,0.2,0.8007162267152115,0.35500834428060096,0.2,0.00040696009433486766,0.11575819583633315,0.2,0,
1.2483328887703389,0.3035705382275799,0.31523586381023216,0.2,-0.7917673337738471,-0.27660509760187024,0.2,-1.193604324134713,0.055465235028612225,0.2,-0.4934754258189091,0.19230389845163384,0.2,0.8034819178034752,-0.02200226158689811,0.2,0.0014127962297510038,-0.11588420790980278,0.2,0,
1.2563350226727128,0.3066001905689275,0.0009095512728887756,0.2,-0.7973085720670176,-0.12149420051194015,0.2,-1.1931268717109351,0.20985943923988726,0.2,-0.4964155287470219,-0.027276129298463986,0.2,0.8003641905298211,-0.3350446964007561,0.2,-0.0014471872322219768,-0.29544506570421136,0.2,0,
1.2643371565750867,0.3035850910479461,-0.02286824693023548,0.2,-0.7937112409820382,0.3187458533879389,0.2,-1.1902465731068748,-0.032704418992737794,0.2,-0.4939118438876845,0.023231380831975623,0.2,0.7981212026610631,-0.03644935911129715,0.2,-0.0033143248215163784,-0.029675151428646927,0.2,0,
1.2723392904774609,0.30623429861804374,0.04374421383058005,0.2,-0.7922086384128105,0.03959137025064813,0.2,-1.193650142414819,0.053589456926281254,0.2,-0.4960438266537103,0.043862254870553896,0.2,0.7997810007840404,-0.05234911718433183,0.2,-0.0019219896550803277,0.03370262026729549,0.2,0,
1.2803414243798348,0.3042849984692354,-0.12056546082649111,0.2,-0.7930777790580278,-0.10691017820473048,0.2,-1.1893891417960543,-0.01295802524228784,0.2,-0.49321004780975564,-0.15451993306943648,0.2,0.7972836167861138,0.13758037778818094,0.2,-0.0027750828972396505,0.15359667500854443,0.2,0,
1.2883435582822087,0.3043052512448199,-0.2424791095733403,0.2,-0.7939192012640862,-0.037200744208355785,0.2,-1.1938574708186955,-0.10206155653799676,0.2,-0.49851614558282126,-0.14385991474311424,0.2,0.8019822868286512,0.1444265795611105,0.2,0.0005355571450563831,0.02636846753164773,0.2,0,
1.2963456921845826,0.30040533271606196,-0.0021779623314496788,0.2,-0.7936729909653615,0.07408387507621544,0.2,-1.1910221267006622,0.2266682184987323,0.2,-0.49551180644564546,0.13151865804070934,0.2,0.7995944420590916,-0.16000894202101296,0.2,-0.002353187416733287,-0.3412108407362339,0.2,0,
1.3043478260869565,0.3042704038475167,0.40040362632991905,0.2,-0.7927338592628668,0.10204232277649661,0.2,-1.1902307793227158,-0.04765353264694905,0.2,-0.4964118470541699,0.06056626525056952,0.2,0.799422143756315,-0.0024014874485528415,0.2,-0.0049238163067233595,0.4182494225731859,0.2,0,
1.3123499599893307,0.30681179073734066,0.005514832647723206,0.2,-0.7920403138009375,-0.2809882412860634,0.2,-1.1917845832230134,-0.046620823130019695,0.2,-0.49454274620163635,0.029661101837920312,0.2,0.7995560182599147,0.1422485590445166,0.2,0.004338803344437689,0.21436644468335656,0.2,0,
1.3203520938917046,0.30435864116988026,-0.060372548716849245,0.2,-0.7972296711234438,-0.2964622781531784,0.2,-1.1909767124927961,-0.03670925424646698,0.2,-0.4959372694247632,-0.1259038689333837,0.2,0.8016981207010273,0.004428541369672079,0.2,-0.0014939531917896546,0.07871842424613293,0.2,0,
1.3283542277940785,0.3058458299578711,0.05491808039581603,0.2,-0.7967837102513884,0.1545316181482681,0.2,-1.1923719312909569,-0.09575569464760625,0.2,-0.4965572081045705,0.09583725570030954,0.2,0.7996268749218295,-0.11031561060637768,0.2,0.005598298132375816,-0.023486210092502326,0.2,0,
1.3363563616964524,0.3052373304562133,-0.25402908130946894,0.2,-0.7947571652330715,0.05106975002191344,0.2,-1.1925088036071578,0.06927435813267047,0.2,-0.49440387333355823,0.12505989609670753,0.2,0.7999330709313253,0.014301446580822219,0.2,-0.0018697325532696918,-0.012300699951015633,0.2,0,
1.3443584955988264,0.30178136465691957,-0.13910993199318586,0.2,-0.7959665942510378,0.06671728913049124,0.2,-1.1912635415608341,-0.08877241934930613,0.2,-0.49455624976702317,-0.13750908455567937,0.2,0.7998556980671226,-0.16947409588030649,0.2,0.005401486933159566,0.10563238637647525,0.2,0,
1.3523606295012005,0.30301157154432234,0.29380197783195405,0.2,-0.7936896886069836,0.10796747620153702,0.2,-1.1939291623167467,-0.12712915924069368,0.2,-0.4966040186864491,0.08045538672884697,0.2,0.7972214853972404,0.08921495632796539,0.2,-0.0001796143712460877,-0.44974536886382127,0.2,0,
1.3603627634035744,0.30648219630223084,0.06320841034983954,0.2,-0.7942391146318132,0.2869889645456883,0.2,-1.1932976081086852,0.1070154391956124,0.2,-0.4932689635793616,-0.04823325738885498,0.2,0.8012831373683701,0.2519189897761606,0.2,-0.0017944389686615748,-0.03251151178869527,0.2,0,
1.3683648973059483,0.3040229061099198,-0.2899415181434224,0.2,-0.7890978651742526,0.2241491479142363,0.2,-1.192216915289617,0.2240873325726339,0.2,-0.4973757508046708,-0.26453933836017435,0.2,0.8012521892336589,-0.09044802154452997,0.2,-0.000699798559865212,0.1725840240202573,0.2,0,
1.3763670312083223,0.3018431320119361,0.07275333209697671,0.2,-0.7906527282651854,-0.30239875999982235,0.2,-1.189712210787523,-0.1570578741646178,0.2,-0.4975015929931244,0.13190679213791884,0.2,0.7998359690236576,-0.09843418905591123,0.2,0.0009669054156625421,0.03341650662948834,0.2,0,
1.3843691651106962,0.3051869594234714,0.19955617928870892,0.2,-0.7939362453342498,-0.03227918700531712,0.2,-1.1947298412762508,-0.24103609617880106,0.2,-0.4952652421304641,0.2007170074193529,0.2,0.7996772422087643,-0.11435552766743406,0.2,-0.00016513445379339855,0.014313993936655042,0.2,0,
1.3923712990130703,0.3050360308805554,-0.18539404155263478,0.2,-0.7911691952572705,-0.03447273125693068,0.2,-1.193568788326384,0.3848242626014048,0.2,-0.49429012087441476,-0.04116384233342901,0.2,0.7980062805809787,0.30558752550713386,0.2,0.0011959293186490228,0.16742362317791382,0.2,0,
1.4003734329154442,0.30222065475862925,-0.1268239893398998,0.2,-0.7944878090343607,0.030359289519631127,0.2,-1.1885726530746283,0.08212096612968123,0.2,-0.49592386360779894,-0.019927760493861774,0.2,0.8045666426168785,0.36870247019631097,0.2,0.0025136435170532226,0.07231566382900674,0.2,0,
1.4083755668178182,0.303006847051117,0.1414091632197731,0.2,-0.7906834466249564,-0.18873358028675957,0.2,-1.192254852868309,-0.22096302918031552,0.2,-0.49460896504231655,-0.12565358258321765,0.2,0.8039055201041196,-0.1255988894737145,0.2,0.0023529799399131307,-0.2306538365671608,0.2,0,
1.416377700720192,0.3044832013701456,0.08769576335180065,0.2,-0.7975075463189488,-0.48150112265534645,0.2,-1.1921080615415134,0.09744278830547959,0.2,-0.4979343209291304,-0.2338701539645327,0.2,0.8025570603852991,-0.2106644517899034,0.2,-0.0011768178680213503,0.022441599165726554,0.2,0,
1.4243798346225662,0.30440997926474583,0.11642469589095983,0.2,-0.7983874645874419,0.12947111049783216,0.2,-1.1906957682554213,-0.04403015008436206,0.2,-0.4983508875057491,0.14171944321220847,0.2,0.8005348888754812,-0.11219034754891832,0.2,0.0027120455265647555,0.019767766381067923,0.2,0,
1.4323819685249402,0.306345996504401,-0.08098492807936258,0.2,-0.7954360085509835,0.1751330027529724,0.2,-1.1928125439428632,-0.1293270755920034,0.2,-0.4956668098377351,0.27545014449562033,0.2,0.8007620148245164,-0.11061970847007357,0.2,-0.0008605336059242635,-0.10888096191653766,0.2,0,
1.440384102427314,0.30311422041547603,0.024163327188631012,0.2,-0.7955853365433944,0.27278442447333656,0.2,-1.1927650014648934,0.14940320921524863,0.2,-0.49394368519381915,0.1258236932086959,0.2,0.79876497353996,-0.08899849240997376,0.2,0.0009699501359001528,0.007398101521699561,0.2,0,
1.448386236329688,0.30673260973941907,0.27074919220046106,0.2,-0.7910714577594101,0.06869070504343655,0.2,-1.1904220925954192,0.16094993968836235,0.2,-0.49365363074639595,-0.2281333343531547,0.2,0.7993380389459568,0.26973591920747414,0.2,-0.0007421639815770705,-0.10445501688250786,0.2,0,
1.456388370232062,0.3074462074906834,-0.35740351836906215,0.2,-0.7944862852626994,-0.29432167882276206,0.2,-1.1901898024298796,-0.02660652902822247,0.2,-0.4975938185434696,-0.012210001713017227,0.2,0.8030807482472796,0.1615193483472943,0.2,-0.0007013301342199728,-0.1261436493948843,0.2,0,
1.464390504134436,0.3010141534455141,-0.3036788342723959,0.2,-0.7957806046205743,0.016326695651443235,0.2,-1.1908477970598708,-0.28127778336423104,0.2,-0.49384899077380423,0.015579615557922283,0.2,0.8019223485195135,-0.3724835923520631,0.2,-0.0027604623718952195,0.14181071385192698,0.2,0,
1.47239263803681,0.3025873461423251,0.17261859436103894,0.2,-0.7942250581322763,0.10172615312204619,0.2,-1.1946902469637073,-0.19278566518408924,0.2,-0.49734454469454287,-0.30782418327202077,0.2,0.7971210107696466,-0.08918149734474246,0.2,0.0015676412874108586,0.2503540008280428,0.2,0,
1.480394771939184,0.3037760509552907,-0.08221812166990528,0.2,-0.7941529861706216,0.12298316234367335,0.2,-1.1939323677028162,0.02874975934209767,0.2,-0.49877417770615656,0.1016406044740785,0.2,0.8004954445619976,0.17351223174544295,0.2,0.0012452016413534658,0.08937155817626491,0.2,0,
1.4883969058415578,0.3012718561956066,-0.08137195434903405,0.2,-0.7922573275347775,0.1714608154673794,0.2,-1.1942302508142337,0.20815575472830916,0.2,-0.4957182950229576,0.25620775409521124,0.2,0.7998972064775737,-0.05106773262619768,0.2,0.0029975862182310973,-0.03041147574503865,0.2,0,
1.4963990397439317,0.30247409968570615,-0.02364242121952534,0.2,-0.7914096131231435,-0.1748756784305458,0.2,-1.1906018756271632,0.3783682971323782,0.2,-0.4946748536406332,-0.25288470179838857,0.2,0.7996783608399785,0.006721107694139528,0.2,0.0007586180294328474,-0.2789343100493736,0.2,0,
1.5044011736463059,0.3008935774560942,0.0061518533936780195,0.2,-0.7950553383896662,-0.19966420435318238,0.2,-1.1881763580601157,-0.21474776304068743,0.2,-0.49976445025173183,-0.07401310172935535,0.2,0.8000047442006799,0.06859077373794903,0.2,-0.00146536274255888,-0.12233213242277295,0.2,0,
1.5124033075486798,0.302572529340005,0.12129413997926525,0.2,-0.7946042403927944,-0.0036932389715915726,0.2,-1.1940378398358142,-0.4057207112171668,0.2,-0.49585906326830287,0.33773284576594714,0.2,0.8007758132197856,0.05283503232932085,0.2,-0.0011986960893315196,0.1955435971779308,0.2,0,
1.5204054414510537,0.30283428369576243,0.3295280357353165,0.2,-0.7951144302132117,-0.06741970180165757,0.2,-1.1946678894395903,0.12815813660198294,0.2,-0.4943607247194767,-0.040974087743120974,0.2,0.800850104717949,-0.12536852148984506,0.2,0.0016633348122880127,0.17690623626374283,0.2,0,
1.5284075753534276,0.30784497791177007,0.10169452356945108,0.2,-0.795682955621621,0.10256695481317135,0.2,-1.1919873096501825,0.20627124874482428,0.2,-0.4965146486721928,-0.19236597995753169,0.2,0.7987699168759481,-0.1566956344653328,0.2,0.001631803690888366,-0.21538540566945816,0.2,0,
1.5364097092558016,0.30446139607287365,-0.41862867695764,0.2,-0.793473358936201,0.14482771011949114,0.2,-1.1913675494596732,0.018458265500287396,0.2,-0.4974385803987972,-0.039047150543234516,0.2,0.7983429745665037,-0.01788122789494334,0.2,-0.001782831678423318,-0.2724429611830172,0.2,0,
1.5444118431581757,0.30114691908044783,-0.1189325741453029,0.2,-0.7933657122597091,-0.05560437422799658,0.2,-1.191691977402178,-0.10632133446505931,0.2,-0.49713940308088456,0.1119279354319068,0.2,0.798483817229629,0.08049312724713736,0.2,-0.002727283688039909,0.1079916151189284,0.2,0,
1.5524139770605496,0.3025584748865488,0.3229538530485111,0.2,-0.7943630289238489,-0.03262379848140151,0.2,-1.193068690811114,-0.13983167838715893,0.2,-0.4956477334318867,0.2025202960988931,0.2,0.7996308646024579,-0.024642841353055,0.2,-5.4965836520463745e-05,0.03606596487087672,0.2,0,
1.5604161109629235,0.306314180729224,-0.02333408481869706,0.2,-0.7938876930354115,0.1456130715964607,0.2,-1.1939292842563725,-0.13719070177883874,0.2,-0.49389907834330227,-0.06139773567136533,0.2,0.7980895317679801,0.04513478564450307,0.2,-0.0021502282501058814,-0.10674704233101691,0.2,0,
1.5684182448652975,0.30218512952944965,-0.23311059740343393,0.2,-0.7920332197783055,0.027112716353666633,0.2,-1.1952637420395755,-0.0013802852741606753,0.2,-0.4966300972026285,-0.05511158485257614,0.2,0.80035302117277,-0.09832575044836644,0.2,-0.0017629185138167342,0.13293561857499614,0.2,0,
1.5764203787676716,0.30258441117076906,0.2835938468589358,0.2,-0.7934538895737528,-0.20481405479359088,0.2,-1.193951368820759,0.25432740718001057,0.2,-0.4947808637009435,0.17481237934914226,0.2,0.7965163197608063,0.015127080327720366,0.2,-2.3258352905942957e-05,0.38096300160561847,0.2,0,
1.5844225126700455,0.3067226310791926,0.11130098049585285,0.2,-0.795310244655003,-0.0025093155276156853,0.2,-1.1911945035246954,-0.016810865322111623,0.2,-0.49383309913304224,-0.020162128994777317,0.2,0.8005950544580135,0.29104931175592125,0.2,0.004332489511873161,-0.10158674168118673,0.2,0,
1.5924246465724194,0.3043652268587027,-0.06629395099064239,0.2,-0.7934940386221947,0.08835797010497276,0.2,-1.1942203426659128,0.13051663184794615,0.2,-0.4951034577648599,-0.22181424638707814,0.2,0.801173108748901,-0.12939832575418336,0.2,-0.0016486462198049307,-0.3632596600579052,0.2,0,
1.6004267804747934,0.30566192786334234,-0.1331828844865976,0.2,-0.7938965171333234,-0.2527471441950979,0.2,-1.1891062374151282,0.2152137523923764,0.2,-0.4973821270752355,-0.18926556019232751,0.2,0.7985246812459466,-0.07863070249712611,0.2,-0.0014796650490533228,-0.042931982805534896,0.2,0,
1.6084289143771673,0.30223430070691715,0.012527938103173292,0.2,-0.7975379929293163,-0.046133830243565155,0.2,-1.1907769226276348,-0.4087881222405998,0.2,-0.49813170672793716,0.01801998287927903,0.2,0.799915017508947,0.0930435329958984,0.2,-0.002335557944693489,0.09989351297287043,0.2,0,
1.6164310482795414,0.3058623748729931,0.1440495908123264,0.2,-0.7946346584172205,0.2539302491551196,0.2,-1.1956468473709778,0.0501899143008494,0.2,-0.497093807349167,-0.04395477681000404,0.2,0.8000133777738809,0.18365601304749096,0.2,0.00011863115851260389,0.09429307654855423,0.2,0,
1.6244331821819153,0.30453909415991437,-0.16085134831912012,0.2,-0.7934751089428344,0.1084088609393033,0.2,-1.1899738839988212,0.2826553105918367,0.2,-0.4988349831568972,0.11765239381584039,0.2,0.8028535137177069,-0.2602640629016245,0.2,-0.0008268687199166212,0.043297160270857095,0.2,0,
1.6324353160842893,0.3032887532998872,-0.2269327970077402,0.2,-0.7929001166421916,0.018901056098558078,0.2,-1.1911243624015084,-0.13172267147008865,0.2,-0.4952113690481136,0.23973431949219845,0.2,0.7958491527674549,-0.21145574177627163,0.2,0.0008113857228463174,-0.19044705154221933,0.2,0,
1.6404374499866632,0.3009081694077905,-0.0543716646147184,0.2,-0.7931726920452574,-0.19058902447587067,0.2,-1.1920814467423426,0.13433373397150894,0.2,-0.49499923404502205,-0.12737262382302508,0.2,0.7994702218492865,0.3314575813606474,0.2,-0.0038740215445921306,-0.14700482823897565,0.2,0,
1.648439583889037,0.3024188066660517,-0.13017500531039075,0.2,-0.7959495410338056,-0.19247116091348354,0.2,-1.1889750226579643,0.02181296507292041,0.2,-0.497249331029282,-0.18995110199645365,0.2,0.8011524740692253,-0.05219137603519608,0.2,-0.0015406915289772928,0.4709305792260005,0.2,0,
1.6564417177914113,0.2988253693228243,0.08707778368827884,0.2,-0.7962522306198732,-0.08010269761900973,0.2,-1.191732439301176,-0.16697915580606015,0.2,-0.4980384516769653,0.006490833532879492,0.2,0.7986351598327234,0.03201593658303664,0.2,0.0036608677230238777,-0.09304223889582199,0.2,0,
1.6644438516937852,0.30381205120506416,0.37867910118540016,0.2,-0.7972311841957097,0.13270552511038258,0.2,-1.1916466891508612,-0.002822599695820327,0.2,-0.4971454776927559,-0.0534788165560858,0.2,0.8016647290545539,0.14381768087939895,0.2,-0.0030293673513104445,-0.11627726459362961,0.2,0,
1.672445985596159,0.3048842349417907,-0.15737535633456382,0.2,-0.794128942218107,0.2641996258154547,0.2,-1.191777600896309,0.021723442676091498,0.2,-0.4988941127418627,0.21563811713616945,0.2,0.8009362427267938,-0.24487232152602123,0.2,0.001800431489525804,0.2068464433831884,0.2,0,
1.680448119498533,0.30129404550371114,0.16731612788440514,0.2,-0.7930039901826624,0.11515899043239991,0.2,-1.1912991140680438,-0.11881402129661212,0.2,-0.4936952678185772,0.19218262879076853,0.2,0.7977467719101375,0.020887058642719836,0.2,0.00028017574282056983,-0.16878742587591494,0.2,0,
1.6884502534009072,0.30756129298794116,0.2414720762032238,0.2,-0.7922863983711886,-0.20022475399743972,0.2,-1.1936786252370548,-0.04777051136042876,0.2,-0.4958191906812104,0.1008572216549819,0.2,0.8012704356650773,0.4564949861165235,0.2,-0.0009001673244888354,0.10899315068427871,0.2,0,
1.696452387303281,0.3051575987229627,-0.041398534776398294,0.2,-0.7962075862466215,-0.0774034287989861,0.2,-1.1920634422498106,0.1436473734806737,0.2,-0.4920815522720975,-0.06912482112839818,0.2,0.8050506916880019,-0.019178664256519484,0.2,0.0020240661537690293,0.1768883343896552,0.2,0,
1.704454521205655,0.3068989164315188,0.1472162954635689,0.2,-0.7935248532319724,0.26717188098599604,0.2,-1.191380267261364,0.22024863972835984,0.2,-0.49692518781926476,-0.26994866503809306,0.2,0.800963577036973,-0.3366661369870391,0.2,0.0019300460257456477,-0.03648880454237396,0.2,0,
1.712456655108029,0.3075130594503798,0.005252493535622821,0.2,-0.7919328361508455,0.09521690902154767,0.2,-1.1885394640141569,-0.07037373648463574,0.2,-0.496400730912707,0.07994461331321465,0.2,0.7996640334962093,-0.22523751699233402,0.2,0.001440245281091046,-0.20481242644143485,0.2,0,
1.7204587890104028,0.30698295632808875,-0.09621147061590618,0.2,-0.7920013826876277,-0.09596771868033288,0.2,-1.1925062470451182,-0.07477757650285743,0.2,-0.4956460740062533,0.00793274652561779,0.2,0.7973597767650956,-0.04169330557612233,0.2,-0.00134695279731731,-0.1974961513040611,0.2,0,
1.728460922912777,0.3059736759205253,-0.20921329657947949,0.2,-0.7934683196497309,-0.11857097852960297,0.2,-1.1897359052382026,0.2210594904729496,0.2,-0.4962738069682971,0.10800744854245689,0.2,0.7989969406069913,0.3339446983225136,0.2,-0.0017196931397739318,0.1784848634692568,0.2,0,
1.736463056815151,0.3036355435828171,-0.2254907533691744,0.2,-0.7938985183441013,0.16551514025262004,0.2,-1.188969295197551,-0.22665012928468897,0.2,-0.493917954829574,0.02592831175190352,0.2,0.8027028919382558,0.058305219317343615,0.2,0.001508805018190799,0.10087962197530444,0.2,0,
1.7444651907175248,0.30236582386661853,-0.03548060671051609,0.2,-0.7908200774056889,-0.021811831928578163,0.2,-1.1933623073067576,-0.26231218061686934,0.2,-0.49585895398026664,-0.17656800571583253,0.2,0.7999298241160688,-0.2986480816786555,0.2,-0.0001056191881690607,-0.26115200913050063,0.2,0,
1.7524673246198987,0.3030678538754488,0.14576232753914578,0.2,-0.7942475076549586,-0.10222738070164716,0.2,-1.193166290087421,0.3393961104418419,0.2,-0.49674304292102733,-0.21227210992209866,0.2,0.7979245226313973,-0.01995692548571737,0.2,-0.002669627127897211,-0.21515110943022664,0.2,0,
1.7604694585222727,0.30469802110724487,0.045300193151697615,0.2,-0.7924557154969153,0.11427243668309106,0.2,-1.1879319695396882,-0.10080606789900082,0.2,-0.4992553077390202,-0.11138113673152261,0.2,0.7996105133082974,0.1779121418906196,0.2,-0.003548036939052687,0.2404641566647132,0.2,0,
1.7684715924246468,0.303792656965876,-0.020113298354246245,0.2,-0.7924191486680291,0.043905522403180075,0.2,-1.194779187173805,-0.6294110404230502,0.2,-0.4985251411087317,0.14971228439129153,0.2,0.8007711169016473,0.19278876664730743,0.2,0.0011777993787382003,0.09260734512394196,0.2,0,
1.7764737263270207,0.3043762083335769,-0.10578408312733947,0.2,-0.7917532271384644,-0.016039026333236617,0.2,-1.198002546186457,0.3952248495024263,0.2,-0.49685991118875955,0.1511472275200071,0.2,0.8026951335746543,-0.21498572659190557,0.2,-0.0020663194170696154,-0.08237816823614232,0.2,0,
1.7844758602293946,0.30210011163583855,-0.048893346123273645,0.2,-0.7926757730893609,-0.25270473192700454,0.2,-1.1884555895817661,0.5821313752152751,0.2,-0.4961067854684116,-0.059703374837734996,0.2,0.7973313452761768,0.10735458923811364,0.2,-0.00014025131304007678,0.22665611192621465,0.2,0,
1.7924779941317686,0.30359391479560455,0.3473886767688117,0.2,-0.7957965028492965,-0.19050189943740914,0.2,-1.1886884441830126,-0.049679264662899625,0.2,-0.4978151651861633,0.013939349187152422,0.2,0.8044128070024641,0.3042574781549831,0.2,0.001560178373749819,-0.1027458650315817,0.2,0,
1.8004801280341425,0.30765833046413954,-0.11907667948810735,0.2,-0.7957238034803594,0.2745492630674626,0.2,-1.1892504578163725,-0.21830805528720576,0.2,-0.49588375588141714,-0.10704909577323105,0.2,0.8021994649266565,-0.0649565414147027,0.2,-0.001784185153545384,-0.034461983515204075,0.2,0,
1.8084822619365166,0.30168868792379483,-0.25996520629118985,0.2,-0.7914037146402171,0.3192614500657637,0.2,-1.1921813730676079,-0.13175391158033734,0.2,-0.499527950718535,0.22584500135325314,0.2,0.8033735023398288,-0.12903909071675101,0.2,0.0010087866375065539,-0.02757576261199114,0.2,0,
1.8164843958388905,0.3034988871634805,0.05045952553494812,0.2,-0.7906156202793072,-0.22889879544794878,0.2,-1.191358520401658,-0.07150127902114112,0.2,-0.4922702358597651,0.2762600842668647,0.2,0.8001348394751885,-0.28205638458327076,0.2,-0.0022253973553372423,-0.07620069999781537,0.2,0,
1.8244865297412645,0.302496040332354,0.06699485740381192,0.2,-0.7950660953673843,-0.25463677816220387,0.2,-1.193325393531946,-0.056393104716293,0.2,-0.49510778937026517,0.1217336961936398,0.2,0.7988606001864965,-0.09464747131992385,0.2,-0.0002104245624584921,0.18306174293895236,0.2,0,
1.8324886636436384,0.3045708048819415,0.44975973976132955,0.2,-0.7946898087299025,0.1353904704739714,0.2,-1.1922608100771186,0.13342089490391007,0.2,-0.49032249672066686,-0.3735814286116405,0.2,0.7986204799340697,0.0659871171957635,0.2,0.0007035905316859956,-0.12543433256985748,0.2,0,
1.8404907975460125,0.30969219616853527,-0.17748917884649953,0.2,-0.7928998478398007,0.018835288764770808,0.2,-1.1911906592134835,-0.029112680461976237,0.2,-0.5010850922280514,-0.22383801978273846,0.2,0.7999163940616287,0.07740682755065509,0.2,-0.0022173738835762117,-0.059476421485206786,0.2,0,
1.8484929314483864,0.3017309780203975,-0.23709478339369386,0.2,-0.7943884441096661,-0.12170316844067192,0.2,-1.1927266129645102,-0.08472075202160811,0.2,-0.49390390503719067,0.10268911977700731,0.2,0.7998589891748802,0.1452110209212154,0.2,-0.00024803221207731304,0.01166493983164514,0.2,0,
1.8564950653507604,0.30589867963423617,0.15358582749430347,0.2,-0.7948470985348515,0.16414484326786327,0.2,-1.1925461912458293,-0.02921984640918973,0.2,-0.4994420663116193,0.004835783770976848,0.2,0.8022397703963682,0.008262830925462317,0.2,-0.0020307348462698894,0.1748212803155201,0.2,0,
1.8644971992531343,0.30418835126030636,-0.2347715465508063,0.2,-0.7917621266173803,0.0897906065294371,0.2,-1.1931941305070572,-0.0340644143591029,0.2,-0.49382653249685504,0.27539206419606443,0.2,0.7999911944696876,0.05383745617554975,0.2,0.0025491082729710087,0.18190810809297078,0.2,0,
1.8724993331555082,0.30214233488942327,0.008651332141333679,0.2,-0.7934104488303805,-0.31062979966325205,0.2,-1.193091221875575,0.06210844992478315,0.2,-0.4950357932844823,-0.09425324492130446,0.2,0.803101169695177,0.02767572917793809,0.2,0.0008797948832176434,0.02662774481370774,0.2,0,
1.8805014670578823,0.3043267725745677,0.3027738076913054,0.2,-0.7967322034119924,-0.17809948207035686,0.2,-1.1922003953082607,-0.04948333922843995,0.2,-0.4953345844155959,-0.182530686673385,0.2,0.8004340061365346,-0.39928418767151,0.2,0.0029751521899903325,0.06877860431007396,0.2,0,
1.8885036009602563,0.30698671581248416,-0.0002890059392010591,0.2,-0.7962600405435062,0.31727543879014886,0.2,-1.19388295530323,0.08581810451342708,0.2,-0.49795628427125643,0.1469510700139766,0.2,0.7967126226924328,0.06012954886464722,0.2,0.0019802525521788266,-0.1323903421416534,0.2,0,
1.8965057348626302,0.3043221484795405,-0.14702620249366916,0.2,-0.79165579639135,0.16094274598524305,0.2,-1.1908273056360459,0.28865553704907065,0.2,-0.4929833672953723,0.01431733593757964,0.2,0.801396078918369,0.1416751254088855,0.2,0.0008569067157238777,-0.2968631589425246,0.2,0,
1.904507868765004,0.30463429657258545,0.008224815329891527,0.2,-0.7936849566077423,-0.024042045846536797,0.2,-1.1892644667104448,-0.14257431154914013,0.2,-0.49772720689625516,-0.1210584743344574,0.2,0.798979424698975,-0.02613241316071907,0.2,-0.0027695579909015667,0.05059694496500715,0.2,0,
1.912510002667378,0.30445374552481874,-0.04381897943228977,0.2,-0.7920404691248946,0.028713439234745453,0.2,-1.1931084946208321,0.02553454149413492,0.2,-0.4949203028847236,0.11356247446401777,0.2,0.8009779603077974,-0.03878366444017012,0.2,0.001666457835163992,-0.004746948892416273,0.2,0,
1.9205121365697522,0.3039331929016688,0.028613685587625115,0.2,-0.7932255415799864,0.10033506933725816,0.2,-1.1888559140465387,0.13484067637574426,0.2,-0.4959102073048309,-0.3937814503369545,0.2,0.7983588860679323,-0.1156749065471252,0.2,-0.002845509173180227,-0.31512400092463744,0.2,0,
1.928514270472126,0.30491156449422074,0.09862319082757504,0.2,-0.7904351080154984,0.1590197219164119,0.2,-1.1909510437988202,-0.09799366740372017,0.2,-0.5012208060901149,-0.08891879744122103,0.2,0.7991271618030434,-0.01759287077579552,0.2,-0.003375526179630207,0.05889662780531114,0.2,0,
1.9365164043745,0.30551116395491,-0.1771367123112079,0.2,-0.7906812260293238,0.009253837892679584,0.2,-1.1904238127249982,-0.02866952346412821,0.2,-0.4973329080638904,0.36345866233801827,0.2,0.7980774001355195,0.1617982162249107,0.2,-0.0019031631282952488,0.3700684714415133,0.2,0,
1.944518538276874,0.3020773770972414,-0.11794120751230583,0.2,-0.7902870466092156,-0.15627385518300618,0.2,-1.1914097561742463,-0.17441531868923887,0.2,-0.4954054674927066,0.06962094221098919,0.2,0.801715933262642,-0.069839479613025,0.2,0.0025455693634340057,-0.10610288305996549,0.2,0,
1.9525206721792479,0.3036241046347131,0.04628801569105459,0.2,-0.7931816077122519,-0.3470165451158677,0.2,-1.193214457824026,0.03565307397668249,0.2,-0.4962189729885146,-0.1331065329018416,0.2,0.7969599684617111,0.11245133040288513,0.2,-0.0036008092572546967,-0.047826661383791956,0.2,0,
1.960522806081622,0.3028179853482983,-0.16589032187186784,0.2,-0.7958393113310694,0.016400783495185145,0.2,-1.1908393069906194,0.0827113190515344,0.2,-0.49753517201913605,-0.10988600425646325,0.2,0.8035151545490882,0.16951451296610964,0.2,0.0017803427812933344,0.04293721310282878,0.2,0,
1.968524939983996,0.30096985948476324,0.14784161567728965,0.2,-0.7929191951763289,0.11231025079086465,0.2,-1.1918910767192015,-0.10412359181523334,0.2,-0.497977149056618,0.23798855829991125,0.2,0.7996722006691689,-0.33200327070107005,0.2,-0.002913813847609436,-0.10690560572112515,0.2,0,
1.9765270738863698,0.3051834511991349,-0.050246979754153126,0.2,-0.7940423473184156,-0.024144088177108225,0.2,-1.192505284459663,0.1262557398048758,0.2,-0.49372735508633747,-0.014437540622639494,0.2,0.798203102217871,0.01968401245304452,0.2,6.985308975533203e-05,0.23896204230710283,0.2,0,
1.9845292077887438,0.3001659078086968,-0.13193194052299115,0.3021776397191072,-0.7933055005871626,0.04026419479202792,0.561955493322129,-1.1898709848823235,0.07056511344739891,0.4496788066756582,-0.49820814970658023,-0.03893298467392073,0.2,0.7999871448684176,0.22648786906268037,0.2,0.0009095788293042095,0.11635737027779308,0.2,0,
1.992531341691118,0.30307254015076707,12.641278241218911,0.6377644136030564,-0.7933981202017432,18.44059309846654,0.934137026465619,-1.1913762426445047,24.416964894892505,1.235895839348862,-0.4943502828411202,12.672953233684572,0.6447639434533073,0.8018269081228739,-0.20688741368391633,0.2,0.0019315710142000213,-0.018024197353778457,0.2,0,
2.0005334755934916,0.5024263596681994,12.456280577277944,0.8946859833996428,-0.49825601101169803,18.173214786022363,1.4864209805411124,-0.7991995465640434,24.58432669740717,1.6757460982785624,-0.29544089796762707,12.386456342519512,0.7675057073912765,0.7966769462494749,-0.4899555813961537,0.2,0.0006211916716437542,-0.038280586898432375,0.2,0,
2.0085356094958655,0.5023730293872142,0.3815953919743473,0.2,-0.5026266836253853,-0.7061882674029712,0.2,-0.79802701548599,0.39576649117889495,0.2,-0.296166981360808,0.21194708575343266,0.2,0.7939876188205355,0.006068114077335818,0.2,0.0013190816238251033,0.19665946235680706,0.2,0,
2.01653774339824,0.5085318859397889,0.5560078650873185,0.2,-0.5095550232901456,-0.7364919115889975,0.2,-0.792867282705181,0.23340195201745212,0.2,-0.29204974459557215,0.47843862554214006,0.2,0.7967740360747123,-0.153328467126429,0.2,0.0037677430693526673,0.48038577391985854,0.2,0,
2.024539877300614,0.5112691552286113,0.34540621594081333,0.2,-0.5144105542108093,-0.21582566632095956,0.2,-0.7942925842537107,0.3542859432833015,0.2,-0.28851196335213375,0.33570880914388435,0.2,0.7915343633465126,-0.36673388405541324,0.2,0.00900525400654284,0.6461929048359847,0.2,0,
2.0325420112029877,0.5140583853948419,0.47203075179639425,0.2,-0.5130082339512809,-0.21485996459111312,0.2,-0.7871987076126482,0.4400881336895021,0.2,-0.28667840364927,0.3520097899947956,0.2,0.7909062939298257,-0.20266389678365304,0.2,0.01410682954672842,0.3780516162178317,0.2,0,
2.0405441451053616,0.5188216472573536,0.5508760872671298,0.2,-0.5178483136442671,-0.529729701025175,0.2,-0.7872511741146787,-0.12929928796932139,0.2,-0.282879806712217,0.626177641366809,0.2,0.7882917409979742,-0.23608247774069974,0.2,0.015054079866028146,0.07219157666676435,0.2,0,
2.0485462790077356,0.522872402791116,0.19060507921786485,0.2,-0.5214839091676837,-0.5022736648900086,0.2,-0.7892674962201573,-0.04629476169955293,0.2,-0.27665956138740105,0.42618821141327323,0.2,0.7871289742859745,-0.6153593966230775,0.2,0.01526189477339665,0.6028166834501422,0.2,0,
2.0565484129101095,0.5218713285248394,0.24091705919562084,0.2,-0.5258846922825072,-0.28121474103095373,0.2,-0.7879918903018716,0.3544504801915385,0.2,-0.27606079532960465,0.15896196770354837,0.2,0.7784459906520049,-0.07793813677874073,0.2,0.02469914680123042,0.7172225921512441,0.2,0,
2.0645505468124834,0.526727075738246,0.5779965357416567,0.2,-0.525983345024179,-0.568167022427228,0.2,-0.7835962885370927,0.23164365044759522,0.2,-0.2741161699041443,0.32274668453638466,0.2,0.7858819640975147,-0.00046834556885477774,0.2,0.026737456247816555,0.27010728043104243,0.2,0,
2.0725526807148573,0.5311192730967059,0.23204173124520555,0.2,-0.5349753646413429,-0.5143699437999694,0.2,-0.78428559189471,0.29309285987129396,0.2,-0.2708968483770225,0.5892866586100844,0.2,0.7784384971229033,-0.6152947913292406,0.2,0.0290208632881271,0.4887011845201882,0.2,0,
2.0805548146172312,0.5304397434381692,0.5278539267133397,0.2,-0.5342132641249785,0.16606122424029507,0.2,-0.778906802779152,0.3831178612736241,0.2,-0.26468758336638293,0.45466306665856854,0.2,0.7760372474362468,0.12382816013542519,0.2,0.03455667520013957,0.5310640080301499,0.2,0,
2.0885569485196056,0.5395649359241194,0.6217063897632976,0.2,-0.5323183850534982,-0.25282807698730897,0.2,-0.778155706114332,-0.017536742106347147,0.2,-0.2636222393104854,0.17505798242918244,0.2,0.78041974768507,-0.13393448332691543,0.2,0.0375178874166095,0.40347185463822854,0.2,0,
2.0965590824219795,0.540387045674382,0.2047159869314058,0.2,-0.5382585133567754,-0.7170372252423007,0.2,-0.7791873906528536,0.3783371718091011,0.2,-0.261886655647516,0.7202031883777015,0.2,0.7738942957030162,-0.7183699526412263,0.2,0.04101222487435122,0.33911761524856987,0.2,0,
2.1045612163243534,0.5428403917150219,0.6246888730449263,0.2,-0.543790980657375,-0.5660018059197441,0.2,-0.7721023113653864,0.3700038050761939,0.2,-0.2520989882964422,0.5339955325527092,0.2,0.7689258284428104,0.014383004388808518,0.2,0.042943769260586614,0.5102793164033872,0.2,0,
2.1125633502267274,0.5503820676431008,0.40777055206608903,0.2,-0.5473145422514913,-0.4437143612221611,0.2,-0.7732673297716345,0.26459606130462693,0.2,-0.25334272712667266,0.04690907669283387,0.2,0.7741244237732371,-0.018468193775454667,0.2,0.04917669393680542,0.34538712345581063,0.2,0,
2.1205654841291013,0.5493647205480793,0.22499853562248096,0.2,-0.5508904104369295,-0.5287470192628859,0.2,-0.7678687743845124,0.3531714520826276,0.2,-0.25134844306935683,0.3980421317183302,0.2,0.7686303373424032,-0.0724665851656453,0.2,0.048469963235879585,0.012787077043383607,0.2,0,
2.128567618031475,0.5539820442130605,0.4945109741748069,0.2,-0.5557744945596975,-0.2741293630454736,0.2,-0.7676165865383124,0.06449831976872156,0.2,-0.24697405301917938,0.4577370021750862,0.2,0.7729649584105868,-0.31876102662114353,0.2,0.049381287169499556,0.5931322094424973,0.2,0,
2.136569751933849,0.5572768961348762,0.4233860924141575,0.2,-0.5552764802456571,-0.3641060414741881,0.2,-0.7668368012682129,0.2783788244861002,0.2,-0.24402465103455545,0.42276489106878556,0.2,0.7635301609164649,-0.5840623095205235,0.2,0.05796007858695954,0.7277676698118516,0.2,0,
2.144571885836223,0.560756221691687,0.194451010336813,0.2,-0.5616001912232845,-0.43896554388113407,0.2,-0.7631625253465348,0.1754944406450118,0.2,-0.2402098147620788,0.5537626831290335,0.2,0.7636199614582584,0.0034074955895246894,0.2,0.06102556988648918,0.23335788306239708,0.2,0,
2.152574019738597,0.5603881123002652,0.5060423044170315,0.2,-0.5622999289477553,-0.5367573967139729,0.2,-0.7640288902178927,0.3082324221492516,0.2,-0.23516444810449091,0.5977658264988382,0.2,0.7635846808458973,-0.17870655749814557,0.2,0.061693804715957895,0.17239369328730805,0.2,0,
2.160576153640971,0.5688528985623595,0.7748518408355748,0.2,-0.5701883095707081,-0.5752562977813513,0.2,-0.7582308065921468,0.3106005991608124,0.2,-0.2306455615380974,0.2713989286558735,0.2,0.7607606565382881,-0.38771107130155386,0.2,0.06378386897908611,0.6125878173263406,0.2,0,
2.1685782875433453,0.5727857417536344,0.31838679301595535,0.2,-0.5715040297122569,-0.32622166034687594,0.2,-0.7590592806313197,0.06750812175132515,0.2,-0.23082206524599694,0.3699507736548407,0.2,0.7573813037050724,-0.34431311133351766,0.2,0.07149520979317935,0.5069550732379191,0.2,0,
2.176580421445719,0.5739470872506148,0.1794458800237972,0.2,-0.5754078561362581,-0.20860813405115808,0.2,-0.7571506766441256,0.24026578133738707,0.2,-0.22472634915961995,0.6007374744607697,0.2,0.7552516467569518,-0.47462336398926275,0.2,0.07189515015089282,0.18644775878058714,0.2,0,
2.184582555348093,0.5756568758340151,0.6880152756836011,0.2,-0.5748417598570754,-0.42205291252853105,0.2,-0.7552150281299215,0.25516894918949096,0.2,-0.22121026565462462,0.3574374431414961,0.2,0.7497873298812442,-0.09749149305667698,0.2,0.07447837393366874,0.14063924495509844,0.2,0,
2.192584689250467,0.5849553316615524,0.7544061953146941,0.2,-0.5821607027367146,-0.6216933984164175,0.2,-0.7530679734570938,0.43457757976688577,0.2,-0.219007350069356,0.35201410369534,0.2,0.753691782868045,0.12714885586688485,0.2,0.07414537807017439,0.602903113813895,0.2,0,
2.200586823152841,0.5877273749590503,0.14079456707258298,0.2,-0.5847888542317381,-0.3182529747488283,0.2,-0.7482617868536513,0.2929880033309476,0.2,-0.21557803999549918,0.44910236676382054,0.2,0.7518217115751143,-0.350773182175905,0.2,0.08412482375469106,1.070438647433479,0.2,0,
2.208588957055215,0.5872080447347138,0.18931702904861902,0.2,-0.5872527503326959,-0.33929762320585033,0.2,-0.7483801654037986,0.1985706150898145,0.2,-0.21182171220113488,0.5686657052786596,0.2,0.7480794119532305,-0.18158154879398258,0.2,0.09127239642911006,0.2793415519460737,0.2,0,
2.2165910909575888,0.5907564474238282,0.19681482364224817,0.2,-0.5902176162030317,-0.1998818937973823,0.2,-0.7450846570122143,0.34271936220407057,0.2,-0.20647938871104063,0.3493342156780689,0.2,0.7489164067944106,-0.10613289574475104,0.2,0.08859428858582824,0.1465374815020305,0.2,0,
2.2245932248599627,0.5903570819129897,0.31753625652570366,0.2,-0.590450860633454,-0.591380680323883,0.2,-0.7428966556085335,0.2287564185392485,0.2,-0.20623236475028578,0.3410171904610279,0.2,0.7463812856213144,-0.5505492762270386,0.2,0.09361699613314255,0.5587661709692505,0.2,0,
2.2325953587623366,0.5958370275282394,0.7871870803244987,0.2,-0.5996797070882138,-0.6357476416808047,0.2,-0.7414245543155863,0.21824101836127874,0.2,-0.20102311366366418,0.4332971200819661,0.2,0.740107618374778,-0.11036424626934688,0.2,0.09753454732133625,0.3258732892771057,0.2,0,
2.240597492664711,0.6029520751981817,0.4103092992020843,0.2,-0.6006228229003469,-0.30023960888437423,0.2,-0.739404799314753,0.23308279633652007,0.2,-0.19929961082897432,0.42058235130995253,0.2,0.7446154576810049,-0.26422974029243623,0.2,0.09883096876157624,0.24545452408302348,0.2,0,
2.248599626567085,0.6024019763154728,0.1829136342623508,0.2,-0.6044835408303638,-0.35364425531634464,0.2,-0.737695229574202,0.2696945762378361,0.2,-0.19429379604270494,0.5388975904757916,0.2,0.735879942530099,-0.7926754778673217,0.2,0.10146181970666462,0.6260105803365416,0.2,0,
2.256601760469459,0.6058786933463793,0.46315981981422116,0.2,-0.6062811309854084,-0.45509631213593027,0.2,-0.7350896860949476,0.38797533536689965,0.2,-0.19067724938136166,0.15244569688751575,0.2,0.7319326500351278,-0.15005757073995735,0.2,0.1088471380469609,0.5429298235614033,0.2,0,
2.2646038943718327,0.6098125334325003,0.5479601878971424,0.2,-0.6117650818245387,-0.5599249382840094,0.2,-0.7314876242083316,0.16910822541249537,0.2,-0.1918546648925047,0.2886659526712132,0.2,0.7334790213982597,0.15647650379173317,0.2,0.11014869688364708,0.2986668846839888,0.2,0,
2.2726060282742067,0.6146460563527336,0.5006512375044444,0.2,-0.6152399299979525,-0.32598807279447806,0.2,-0.7323839544883477,0.145929574533063,0.2,-0.18605859413862225,0.7330799061845191,0.2,0.7344362740957955,-0.22996089890232885,0.2,0.11362580820190472,0.30488001515836893,0.2,0,
2.2806081621765806,0.6178229532325714,0.42685629063331926,0.2,-0.6169808909892504,-0.33082558098682796,0.2,-0.7291527510158026,0.28380520466207704,0.2,-0.18012538639355238,0.43180634702553145,0.2,0.7297996470158225,-0.3753343805429632,0.2,0.11502677712618098,0.30250321195672386,0.2,0,
2.2886102960789545,0.6214757570028667,0.38720121630551885,0.2,-0.6205331392937418,-0.4822181527143893,0.2,-0.7278430712137545,0.23125869433507362,0.2,-0.17914969258621374,0.2778017587521664,0.2,0.7284309240071081,-0.4340037600130478,0.2,0.1184658595932123,0.5229168405186182,0.2,0,
2.2966124299813284,0.6240181726934597,0.2710191960876643,0.2,-0.6246963814326806,-0.4853234639476192,0.2,-0.7254526119064414,0.3047742195797995,0.2,-0.17568055825351772,0.5451029337320227,0.2,0.7228555868556137,-0.3403380716492724,0.2,0.12339344657447887,0.21908348589294147,0.2,0,
2.3046145638837023,0.6258120641402694,0.3594446693977252,0.2,-0.6282983147169037,-0.4558311116581448,0.2,-0.7229666837004777,0.06964716925101505,0.2,-0.17042804564650138,0.37108758569147704,0.2,0.7229855148607197,-0.08633730873895684,0.2,0.12197119536749937,0.1906477627463994,0.2,0,
2.3126166977860763,0.6297692874038233,0.5110675427443186,0.2,-0.6319896792192109,-0.23966597762520303,0.2,-0.7243382571984252,0.03855550236205735,0.2,-0.1697431568824541,0.3905771286368785,0.2,0.7214741899157904,-0.27537544840391254,0.2,0.12644381077842126,0.7426100160891451,0.2,0,
2.3206188316884506,0.6339891448241785,0.6062436631404446,0.2,-0.6321329703589069,-0.2573223584790216,0.2,-0.7223497956626848,0.3878612256326894,0.2,-0.16417881158831132,0.6351382257507258,0.2,0.7185795076862571,-0.12489722590401653,0.2,0.1338529556249257,0.7385943376495927,0.2,0,
2.3286209655908245,0.6394691860140704,0.5042724956785885,0.2,-0.6361068369548752,-0.31484715385735745,0.2,-0.7181324775883021,0.4820073360212243,0.2,-0.15958094527044248,0.1416810456227862,0.2,0.7194758343013261,-0.06749991956185586,0.2,0.13826132018081475,0.5391209740473711,0.2,0,
2.3366230994931985,0.6420575047550359,0.21699918235779797,0.2,-0.6371705248206246,-0.5723105272547115,0.2,-0.7146376782863452,0.35820317525957907,0.2,-0.16191191485834674,0.05959484603211204,0.2,0.7174995089732674,-0.24262757713758298,0.2,0.14247889120968363,0.4252979685106274,0.2,0,
2.3446252333955724,0.6429411729317952,0.37910867161320555,0.2,-0.6452638053909506,-0.62966059801655,0.2,-0.7124012267841489,0.09006721778186816,0.2,-0.15862742773392868,0.7134037300697282,0.2,0.7155937930671248,-0.30670248639671355,0.2,0.14506608767698478,0.07747398351488737,0.2,0,
2.3526273672979463,0.6481232435008472,0.537848414268377,0.2,-0.6472450943888894,-0.2897083753946525,0.2,-0.7131966028018353,0.3912445378665211,0.2,-0.1504974551772311,0.8800985510656073,0.2,0.71259226919092,-0.4430242479598473,0.2,0.14371847494592183,0.3740239734851877,0.2,0,
2.3606295012003202,0.6515467475600892,0.5071343956722513,0.2,-0.6498991393972651,-0.5009257645140416,0.2,-0.7061413141782845,0.21220604195490433,0.2,-0.14454585091687897,0.35314378512118005,0.2,0.7085054050997672,-0.16531338131368922,0.2,0.1510504712527478,0.7845659403345681,0.2,0,
2.368631635102694,0.6562373938316032,0.3262490582171679,0.2,-0.6552599066211141,-0.28068737027368146,0.2,-0.7098013061305568,0.04867678134160697,0.2,-0.1448471546152922,0.0744157553372489,0.2,0.709947255089901,0.01750090176419472,0.2,0.15627152999127492,0.3662843579860884,0.2,0,
2.376633769005068,0.6567667324915639,0.42003496393218376,0.2,-0.654390137321644,-0.2363993222830041,0.2,-0.7053624856768188,0.32388505402358714,0.2,-0.14335519883148298,0.3363950472483057,0.2,0.7087854195279943,-0.13307663348469806,0.2,0.1569110209805252,0.09128548514506993,0.2,0,
2.384635902907442,0.6629579532545181,0.2082592530936525,0.2,-0.6590422957776422,-0.6415770638649523,0.2,-0.7046191452661794,0.20883013343341722,0.2,-0.13946483385931932,0.6597433279858598,0.2,0.7078180289541458,-0.360146450214191,0.2,0.15773209775359603,0.29534018410131907,0.2,0,
2.3926380368098163,0.6600988805410624,0.18719438822634854,0.2,-0.6646553703434832,-0.40093747675989944,0.2,-0.7020212035418841,0.14602019011603073,0.2,-0.13279930558370923,0.2793692957167547,0.2,0.7030230763245673,-0.3575929348941381,0.2,0.1616364639261463,0.6636555103087475,0.2,0,
2.4006401707121903,0.6659530634661397,0.6586032783248569,0.2,-0.6654572954058006,-0.09078599780276003,0.2,-0.7022828222243229,0.13555411904970366,0.2,-0.13499492512785125,0.35666622490932925,0.2,0.7020965419958396,-0.006687827364369736,0.2,0.168350585918536,0.5937278559390753,0.2,0,
2.408642304614564,0.6706365329942601,0.30953469140401757,0.2,-0.6661079463083274,-0.2770166481713132,0.2,-0.6998523376370889,0.359325437858736,0.2,-0.12709264598515996,0.46815441670783503,0.2,0.7029160710867374,-0.3948247421412185,0.2,0.1711361096211715,0.29626235261334677,0.2,0,
2.416644438516938,0.670905618528604,0.3840997829016937,0.2,-0.6698895617765416,-0.6013656315066035,0.2,-0.6965336152185831,0.4389772573729564,0.2,-0.12750445446052588,0.27987308680531287,0.2,0.6957793461215801,-0.5796976345218835,0.2,0.17309078356034954,0.5067027766962536,0.2,0,
2.424646572419312,0.6767821295206872,0.3846660421351622,0.2,-0.675729796412433,-0.6469666274093246,0.2,-0.6928287015191216,0.2155146577153752,0.2,-0.12261467659627495,0.5235197151173152,0.2,0.6936409089343872,-0.1822355330671349,0.2,0.17924335404831157,0.4994413810535236,0.2,0,
2.432648706321686,0.6770602752027666,0.17201592164983737,0.2,-0.6802410278150908,-0.3384677537551367,0.2,-0.6930853806951371,0.19326098987614004,0.2,-0.11912813901864884,0.25351562732238603,0.2,0.6928635775925059,-0.07389774219170031,0.2,0.18108184565720592,0.327498701034358,0.2,0,
2.44065084022406,0.6795343842670846,0.4444976397007666,0.2,-0.6811452804725152,-0.4926473952660826,0.2,-0.6897365256811033,0.5211892802648096,0.2,-0.11855842655911678,0.4390301209332703,0.2,0.69245854505932,-0.20645496048750378,0.2,0.1844833332648613,0.2305422211770821,0.2,0,
2.448652974126434,0.6841722374379788,0.8406291568772497,0.2,-0.6881233861393481,-0.7238183333111228,0.2,-0.6847463522109002,0.06582196115776512,0.2,-0.11210365708371652,0.6680896491045273,0.2,0.6895602982247059,-0.31328785507122453,0.2,0.18477052119603923,0.3635805634240544,0.2,0,
2.4566551080288077,0.6929844507771206,0.5115830684105233,0.2,-0.6927263738054932,-0.39146749754790516,0.2,-0.6886833743025791,0.07251180069337004,0.2,-0.10786899217344434,0.3882690993182959,0.2,0.6874459393781804,-0.41932050805669474,0.2,0.19030062227964617,0.5230340250929576,0.2,0,
2.4646572419311816,0.6923575665325472,0.3964088600063795,0.2,-0.6943868661001146,-0.11831965387094218,0.2,-0.6835861633998063,0.5020248165543695,0.2,-0.10589135149462378,0.25177543337753533,0.2,0.6828511700957988,-0.2887194887986888,0.2,0.19313906559752655,0.3898177747846433,0.2,0,
2.472659375833556,0.6993269925372226,0.470244116502129,0.2,-0.6946194882674283,-0.5063689254207054,0.2,-0.6806509772377092,0.2694205293715182,0.2,-0.10384058523940377,0.3552902485495779,0.2,0.6828264275574014,-0.34657890445192324,0.2,0.19653770667620046,0.1333071131534389,0.2,0,
2.48066150973593,0.6998814723965813,0.3324676053557893,0.2,-0.7024887689068459,-0.7668580799639058,0.2,-0.679275434929862,0.04929209579360855,0.2,-0.10020670751783053,0.608903907127741,0.2,0.677305907624568,-0.1969391613737062,0.2,0.19527197940798158,0.8521500164881627,0.2,0,
2.488663643638304,0.7046464742229153,0.33030310843235045,0.2,-0.7068892175468507,-0.19201947607559722,0.2,-0.6798623037050114,0.32902647787406286,0.2,-0.09409812272535992,0.20506657459350586,0.2,0.6796754009754221,-0.012931223276675674,0.2,0.21017210694001107,0.6432999189592229,0.2,0,
2.4966657775406778,0.7051663221314989,0.19743131106760015,0.2,-0.7055610805240554,-0.35371559228744576,0.2,-0.674011011283877,0.31640332150695283,0.2,-0.09692564232433444,0.27602864419167505,0.2,0.6770990080521412,-0.5627002646921494,0.2,0.20556477811132914,-0.006820807322055825,0.2,0,
2.5046679114430517,0.7078053751999969,0.4652055241218117,0.2,-0.7125486670234499,-0.6499131142505138,0.2,-0.6747998505609002,0.17477429515552062,0.2,-0.08968166441829312,0.7878103866603164,0.2,0.6706721967403477,-0.33025284649831205,0.2,0.21006297402285817,0.23734970990890897,0.2,0,
2.5126700453454256,0.7126096105174479,0.8007805949348107,0.2,-0.7159596903520636,-0.4259429233918685,0.2,-0.6712146225613886,0.23489353821024017,0.2,-0.08432067613776938,0.4821022870665267,0.2,0.6718149625081682,-0.14949013770595987,0.2,0.2093623734698717,0.33804555608593806,0.2,0,
2.5206721792477995,0.7206178647189538,0.4532466433428278,0.2,-0.7193637537977198,-0.4400566186398905,0.2,-0.6710415539495364,-0.011646807743494192,0.2,-0.08196802782522869,0.30281913096406965,0.2,0.6682803545370524,-0.18174158269736174,0.2,0.21547170292023318,0.7531138355850574,0.2,0,
2.5286743131501734,0.7198615568109331,0.13821950857237364,0.2,-0.7230005962503019,-0.2949370610236951,0.2,-0.6714009714852845,0.16550821694868295,0.2,-0.07947557004234426,0.2677634666028309,0.2,0.6689070971850104,-0.041750991232214485,0.2,0.2214121948392326,0.5765181628358141,0.2,0,
2.5366764470525474,0.7228293768561118,0.5901273431529394,0.2,-0.7240827467740989,0.053159076957590146,0.2,-0.6683934224783574,0.2766934652214184,0.2,-0.0776838123595834,0.31729053642267757,0.2,0.6676123386773369,-0.12903475263520425,0.2,0.2246959935256062,0.4628509785247811,0.2,0,
2.5446785809549217,0.7293035943013801,0.3380305472309858,0.2,-0.7221500510189804,-0.4160092725249212,0.2,-0.6669738760417419,0.3275584332551179,0.2,-0.07439892145958142,0.5455246224664112,0.2,0.6668425411428471,-0.3278877687610468,0.2,0.2288178104956291,0.2876803742487381,0.2,0,
2.5526807148572956,0.7282378656118076,0.17720161841938697,0.2,-0.7307388951344976,-0.6205258441181055,0.2,-0.6631524875462755,0.3562183438561087,0.2,-0.06895541840012082,0.43222949240802416,0.2,0.6623661343771602,-0.4559444606130475,0.2,0.22929887951358602,0.2717637205344476,0.2,0,
2.5606828487596696,0.7321388201960903,0.5235349784869225,0.2,-0.7320784645248701,-0.3849731258748004,0.2,-0.6612743825400441,0.5036399176107237,0.2,-0.06748324958105303,0.4023927797404394,0.2,0.6595474297730384,-0.23109097943291995,0.2,0.23316603002418027,0.4502645025150978,0.2,0,
2.5686849826620435,0.7366144252675983,0.5685059851251242,0.2,-0.7368984651484944,-0.48381994644132453,0.2,-0.655094248864504,0.2946146935308286,0.2,-0.06251713392427379,0.6571251937867619,0.2,0.6586686787062335,-0.42668136212720836,0.2,0.23650311155382758,0.35907400895406927,0.2,0,
2.5766871165644174,0.7412349159580923,0.6058115280407685,0.2,-0.7398195836679313,-0.5939859526368149,0.2,-0.6565605474435509,0.14354366167634164,0.2,-0.05696924648046484,0.16661147754245187,0.2,0.652720527979003,-0.2561068262304095,0.2,0.23891121416744537,0.4278400894515491,0.2,0,
2.5846892504667913,0.7463074097162506,0.3098614235483299,0.2,-0.7464022403906835,-0.7152634098685703,0.2,-0.6527975502776825,0.44820096585304614,0.2,-0.059851350283594555,0.39207341981232435,0.2,0.6545709694865469,0.001988857597348681,0.2,0.24334855298505237,0.606068362712547,0.2,0,
2.5926913843691652,0.7461926987348656,0.35495485749114514,0.2,-0.7512637982258284,-0.33127620413733044,0.2,-0.6493893319899021,0.08294975267071625,0.2,-0.05069607176346765,0.44006682737097275,0.2,0.6527523497005606,-0.4290002192590958,0.2,0.24860830797084613,0.5412190236482733,0.2,0,
2.600693518271539,0.751986687436109,0.7526946445055929,0.2,-0.7517026596568808,-0.28446351816694554,0.2,-0.651470354234951,0.10773560612184485,0.2,-0.05281028104565899,0.21201927257331107,0.2,0.6477069659784014,-0.36623985693108596,0.2,0.25200805736342474,0.07180971883048726,0.2,0,
2.608695652173913,0.7582358130469551,0.2589529465929219,0.2,-0.7558152145164996,-0.23249185458195515,0.2,-0.6476655622919526,0.4822016166236079,0.2,-0.047303763402294675,0.6595245556520746,0.2,0.6468925119896632,0.02533131733825633,0.2,0.24975726347213392,0.07182180455400991,0.2,0,
2.616697786076287,0.7561299345815957,0.09043181467929817,0.2,-0.755422529330192,-0.15042939160878066,0.2,-0.6437551283689733,0.3136562699101869,0.2,-0.0422578881552258,0.4662403954462375,0.2,0.6481122670558135,-0.1910866003702466,0.2,0.2531572062362889,0.6496018403499785,0.2,0,
2.6246999199786614,0.7596827220818239,0.3936769151767494,0.2,-0.7582220847822401,-0.3205337683302237,0.2,-0.6426470619733896,0.13859753777605704,0.2,-0.039843917075154875,0.26016161652468944,0.2,0.6438351263837393,-0.6840811854241374,0.2,0.2601508929177336,0.7643128224264911,0.2,0,
2.6327020538810353,0.7624287652244237,0.48262795369283934,0.2,-0.7605510696234756,-0.5656832695279113,0.2,-0.6415375677645564,0.1292045052248142,0.2,-0.03809530229083077,0.4526922121507264,0.2,0.6371669680890273,-0.33633407669111937,0.2,0.26538621139511276,0.2314882723575412,0.2,0,
2.640704187783409,0.7674047693409093,0.5274395453334704,0.2,-0.7672730170946866,-0.5405553671904567,0.2,-0.6405797898897926,0.5208183696252185,0.2,-0.03260084168074325,0.3915247724738582,0.2,0.6384537811566814,0.07675574493152398,0.2,0.26385470527545424,0.3390417722258197,0.2,0,
2.648706321685783,0.7708677979497592,0.694801685521787,0.2,-0.7691999554985229,-0.494051295664516,0.2,-0.6332044738505529,0.1643363728393507,0.2,-0.031830905931249036,0.13489028337763465,0.2,0.6383950600079317,-0.17493746814008226,0.2,0.2708108797507259,0.5635183281764294,0.2,0,
2.656708455588157,0.7785215963092579,0.3677733243469955,0.2,-0.7751778378253189,-0.5109807473645533,0.2,-0.637950407924363,-0.12868548291612714,0.2,-0.030442597146701098,0.6891589895488437,0.2,0.6356547816664401,-0.05472817300952032,0.2,0.2728709985262771,0.3037078673041142,0.2,0,
2.664710589490531,0.7767521711393112,0.12322861848409333,0.2,-0.7773756474563558,-0.24064952718569343,0.2,-0.6352634415772109,0.30132034280173914,0.2,-0.020804362098467536,0.7286757663177209,0.2,0.6375194092397793,0.08272051519239015,0.2,0.2756702056275917,0.47071189562797666,0.2,0,
2.672712723392905,0.7804932542050034,0.5392119839162864,0.2,-0.77902823026029,-0.3946655880283437,0.2,-0.6331292824395351,0.40796478628651184,0.2,-0.018783784885617563,0.13934152878707237,0.2,0.6369783099095183,-0.7866173415805588,0.2,0.28040238885632474,0.4732105971983827,0.2,0,
2.680714857295279,0.7853795628819717,0.4025508376129597,0.2,-0.7836902968648093,-0.3636141229381232,0.2,-0.6287360049966267,0.1927231919027772,0.2,-0.018574897637874378,0.2574334770811007,0.2,0.6249335317744904,-0.7861364658041936,0.2,0.2832415751827658,0.3559147296331028,0.2,0,
2.6887169911976527,0.7869340676068107,0.4383954229478376,0.2,-0.7848460562273,-0.3378779028803333,0.2,-0.6300457113690907,0.47077607368096325,0.2,-0.014664849252319952,0.7355073002959427,0.2,0.6244001264566512,0.15055953529981986,0.2,0.2860970245304544,0.2847558204439535,0.2,0,
2.696719125100027,0.7923938896491372,0.4939004559278981,0.2,-0.7890963433108946,-0.5258080704793611,0.2,-0.6212035878177313,0.3397896492514166,0.2,-0.0068067808331392955,0.41637653536403074,0.2,0.6273424843392875,0.30646320034243,0.2,0.2877976683098691,0.364677972498062,0.2,0,
2.704721259002401,0.7948364749016571,0.2116771564877329,0.2,-0.7932589853549697,-0.7546653039377516,0.2,-0.624609076981068,-0.05531687203219615,0.2,-0.00800282468649546,0.20422567732403235,0.2,0.6293035376621301,-0.21787461725974316,0.2,0.29193187209042337,0.5767746916334887,0.2,0,
2.712723392904775,0.7957807241529409,0.24256717210964507,0.2,-0.8011709881738986,-0.39483052143787084,0.2,-0.6220886577702465,0.6248245311950076,0.2,-0.003539169995954778,0.5097409907530456,0.2,0.6238564904631316,-0.5421802826523769,0.2,0.2970260633760049,0.7410357183536103,0.2,0,
2.720725526807149,0.7987175496554114,0.5042930265041281,0.2,-0.7995762736979757,-0.18769030171351953,0.2,-0.6146118844819479,0.36874828742886057,0.2,0.0001530311655532698,0.33242572166221657,0.2,0.6206286531396921,-0.42817002624811334,0.2,0.30378844358408114,0.38317085341477847,0.2,0,
2.7287276607095228,0.8038494125770069,0.5534737058431674,0.2,-0.804174033001315,-0.38097918326636393,0.2,-0.6161886851713847,-0.17150050823661056,0.2,0.001779641550640687,0.6379587240865392,0.2,0.6170057700431618,-0.41398220804744756,0.2,0.30315679703064136,0.26849270932133296,0.2,0,
2.7367297946118967,0.8075731289489021,0.3812581052738129,0.2,-0.8056719406302375,-0.40917610597260984,0.2,-0.6173558926137337,0.06581660149704294,0.2,0.010360370750937898,0.5405798910578345,0.2,0.6140049378109329,-0.22528597306639697,0.2,0.30808432693322246,0.5565913248894265,0.2,0,
2.7447319285142706,0.8099495422613879,0.3623437224128945,0.2,-0.8107208506968767,-0.17099205352759383,0.2,-0.615135619547432,0.1575059098483239,0.2,0.010428919807566038,-0.023378813451738374,0.2,0.6134011944740995,-0.08087859254612279,0.2,0.3120622582288722,0.31927924307640143,0.2,0,
2.7527340624166445,0.8133706285075084,0.29227365702616526,0.2,-0.808407813486679,-0.46478151192651945,0.2,-0.6148357980561605,0.5544467121231939,0.2,0.009986309735710084,0.19619700056852607,0.2,0.6127108803301949,0.03136219087761932,0.2,0.3131927948224449,0.14028059126989026,0.2,0,
2.7607361963190185,0.8146259207738066,0.4083802019831939,0.2,-0.818157354887701,-0.6599919254546005,0.2,-0.6062644721534609,0.3560582561509193,0.2,0.013568071816662456,0.8149692764908657,0.2,0.6139029895281414,-0.34769974602461007,0.2,0.3143067476891904,0.6019077545589557,0.2,0,
2.7687383302213924,0.8199047117392395,0.773085949465381,0.2,-0.8189676842939526,-0.4823627653947338,0.2,-0.6091388659577458,0.1398176714763888,0.2,0.023025818159563935,0.5688931247372215,0.2,0.6071476843938012,-0.46327824941604784,0.2,0.3228233188953882,0.6315459841159006,0.2,0,
2.7767404641237667,0.8269952959652527,0.3142569679381313,0.2,-0.8258751591340168,-0.3788296707394334,0.2,-0.6040273894098387,0.2829894251566434,0.2,0.022670361812458,0.3418439654224608,0.2,0.6064905375374846,0.03165456933226091,0.2,0.32441148343504483,0.3239714919614223,0.2,0,
