samirx20/RADAR/data/datasets/heating_j0_40.csv
timestamp,actual_q_0,actual_qd_0,actual_current_0,actual_q_1,actual_qd_1,actual_current_1,actual_q_2,actual_qd_2,actual_current_2,actual_q_3,actual_qd_3,actual_current_3,actual_q_4,actual_qd_4,actual_current_4,actual_q_5,actual_qd_5,actual_current_5,protective_stop,fault_code
0.0,0.0006619950743170094,0.4370024936208426,0.2,-0.8996764542952776,1.3265703700465619,0.2,-1.397116465447051,-0.46336207958097564,0.2,-0.10158135354192917,-0.05906735529645317,0.2,0.59746780702696,0.6708443264823588,0.2,2.748001969532495e-05,0.4349384221962507,0.2,0,
0.008002133902373967,0.00415801502328375,0.35593414283559704,0.2,-0.8890638913349052,0.6146843012933902,0.2,-1.4008233620836987,0.24653007962537055,0.2,-0.10205389238430079,0.021419897268945727,0.2,0.6028345616388189,0.461633173669318,0.2,0.0035069873972653305,0.10608861887896807,0.2,0,
0.016004267804747934,0.006356941359686562,0.4342176852044067,0.2,-0.8898415054745834,0.0802194757895322,0.2,-1.393171984173045,0.6292978535357985,0.2,-0.10123863518562604,0.2577160726924422,0.2,0.6048539378056691,0.16387418634253997,0.2,0.0017248979217588142,0.1962181720266701,0.2,0,
0.0240064017071219,0.011105497986554257,0.6007665802902047,0.2,-0.8877803797222726,0.3660084826693985,0.2,-1.390754596427126,0.31664406499853914,0.2,-0.09793043522122172,0.14050720813581652,0.2,0.6054565486202995,0.13002823935518576,0.2,0.006646478149692052,0.5950748157238412,0.2,0,
0.03200853560949587,0.01596920664432984,0.6720496297862752,0.2,-0.883985369751873,0.45399844689436586,0.2,-1.3881056791330684,0.41000378798340675,0.2,-0.09899051985545297,-0.16682294473530956,0.2,0.6069343896353521,0.3230690772136405,0.2,0.011246094973340275,0.34038079292545464,0.2,0,
0.04001066951186984,0.021858292063134662,0.49193501093557146,0.2,-0.8805164045719628,0.5266779940073171,0.2,-1.3841945358193914,0.39125423447347596,0.2,-0.10059960233698667,-0.2090624561360806,0.2,0.6106256538557178,0.4613465786544313,0.2,0.012092570836499327,-0.03213478310934046,0.2,0,
0.0480128034142438,0.023840166819298982,0.41342324660080615,0.2,-0.875558521847756,0.49529710799108007,0.2,-1.3818456113814928,0.41336162077480754,0.2,-0.10233551915363026,-0.22973616394492308,0.2,0.614315934893823,0.12760567188961625,0.2,0.010731938443590827,0.26233693489085314,0.2,0,
0.05601493731661777,0.02847306400874756,0.5658373358877644,0.2,-0.8725916508441055,0.5417450441185175,0.2,-1.3775807498869945,0.18482795731915302,0.2,-0.10427538096010544,0.13902602730927852,0.2,0.6126673446059516,0.08207102690013096,0.2,0.016289961794752977,0.2465739846388028,0.2,0,
0.06401707121899174,0.032893564193503214,0.41072577394586746,0.2,-0.8668906011418597,0.5024275197398481,0.2,-1.3788883640643863,0.23734273125931848,0.2,-0.1001111027166818,0.368692247531284,0.2,0.6156290713242251,0.4340282184274666,0.2,0.014677122197811672,0.2029585077843758,0.2,0,
0.0720192051213657,0.03504467639188144,0.4803703384313003,0.2,-0.8645528105282679,0.3080459489887208,0.2,-1.3737832661868454,0.46726907961240627,0.2,-0.0983763049996049,-0.12499381075770782,0.2,0.6196117961007911,0.37219254582713385,0.2,0.01953729791930299,0.18833637954867177,0.2,0,
0.08002133902373967,0.04057948960840402,0.5434213496181305,0.2,-0.8619618659580401,0.5561499645974146,0.2,-1.3714120587905878,0.6041374396142246,0.2,-0.10211100368880513,-0.23360176590854312,0.2,0.6215841520574592,0.09393993803374218,0.2,0.01769050427059042,0.04529073251012387,0.2,0,
0.08802347292611364,0.04373941798577153,0.35001440764280584,0.2,-0.8556544110947093,0.7128747542683097,0.2,-1.3641170671530178,0.4527587223856905,0.2,-0.10211393325414159,0.06785823206370295,0.2,0.621114835109331,0.21422677644378912,0.2,0.020261949639464972,0.5328707014318945,0.2,0,
0.0960256068284876,0.04617972013068891,0.30923098354331513,0.2,-0.8505558698897472,0.5823306874800788,0.2,-1.3641679192324168,0.3626742803096439,0.2,-0.10102527197578588,-0.1781153615596073,0.2,0.6250117804805598,0.3378162777497862,0.2,0.026216435493500733,0.43806236470023213,0.2,0,
0.10402774073086157,0.04868711372246457,0.7050709383681487,0.2,-0.846337120095028,0.38735187088272116,0.2,-1.3583142786680635,0.35535616700169137,0.2,-0.1049637790390953,-0.21422857257231195,0.2,0.6265198955533275,0.3882470646088265,0.2,0.027270947474668687,0.1590885110067414,0.2,0,
0.11202987463323553,0.05746085514457929,0.5935713548171554,0.2,-0.8443582399556236,0.568586553688008,0.2,-1.3584822205603897,0.32384122599393717,0.2,-0.10445292913694287,-0.08439162618711915,0.2,0.631223733514301,0.2527039989440802,0.2,0.028761851669608596,0.27939944907406683,0.2,0,
0.12003200853560951,0.05818425539953906,0.2646448581031134,0.2,-0.8372397352360199,0.5935387500103778,0.2,-1.3531328190521605,0.4760187690960871,0.2,-0.10631404505808921,0.026252957148321585,0.2,0.6305631595364328,-0.10943995001981566,0.2,0.031741338659853756,0.09204102346323283,0.2,0,
0.12803414243798347,0.061695172874229105,0.7707924175202546,0.2,-0.8348616199554576,0.3298059339617368,0.2,-1.3508659202548523,0.028794796196315864,0.2,-0.10403288182256973,0.17339987331393622,0.2,0.629472694313984,0.5019082020251766,0.2,0.03023450804502032,0.3222602171142723,0.2,0,
0.13603627634035745,0.07051693407986313,0.798381829953431,0.2,-0.8319628402926321,0.42711286003217774,0.2,-1.3526721023130195,0.5177000948008298,0.2,-0.10353964708506623,-0.029667277066065985,0.2,0.6385936907688357,0.24226226876403884,0.2,0.03689750213368211,0.2575734749877198,0.2,0,
0.1440384102427314,0.074469282153484,0.300105817148494,0.2,-0.8280278141949428,0.8218957504151081,0.2,-1.342582718738039,0.44506084722828465,0.2,-0.10450755825562678,-0.15247300215214063,0.2,0.6333488906142086,-0.11693982187584162,0.2,0.03435568364482384,0.005710881310337992,0.2,0,
0.15204054414510537,0.07531862715423904,0.18613529253528552,0.2,-0.8188125082859904,0.46407390640329504,0.2,-1.345551128757367,0.2436062730250682,0.2,-0.10597921511950048,-0.10405591175773402,0.2,0.6367226536188222,0.36047796950775673,0.2,0.03698887623464752,0.35003970578270865,0.2,0,
0.16004267804747935,0.07744744683404857,0.32211032424837166,0.2,-0.82060263169249,0.18519196933503013,0.2,-1.338685018369638,0.46788619097364037,0.2,-0.10617245284375053,-0.29561167299877594,0.2,0.6391165381263327,0.3395500391871961,0.2,0.03995631893734718,0.32954206105695455,0.2,0,
0.1680448119498533,0.08047239234221298,0.675477757960387,0.2,-0.8158494367766299,0.6773374215715833,0.2,-1.3380649497017887,0.5327516607749605,0.2,-0.1107090018874809,-0.2685712775401293,0.2,0.6421554542458173,0.11347619389440872,0.2,0.042261549211558794,0.14009455717377967,0.2,0,
0.17604694585222727,0.08825509096141476,0.8286996793555063,0.2,-0.8097652329473447,0.44442162769812305,0.2,-1.3301609917972386,0.3882252679488357,0.2,-0.1104695932843926,0.078792457525091,0.2,0.6409321572286433,0.2812368390206002,0.2,0.04219783185212765,0.209115800176545,0.2,0,
0.18404907975460125,0.09373158721190109,0.6288687718251292,0.2,-0.8087386907334599,0.32980402793249264,0.2,-1.3318533454146073,0.15217191568027422,0.2,-0.10944832256707944,0.11491805017022505,0.2,0.6466552436701469,0.11581988374414348,0.2,0.045607402014383513,0.14844389055104812,0.2,0,
0.1920512136569752,0.09831699131061683,0.32341317117546425,0.2,-0.8044883685004248,0.31656725781006867,0.2,-1.3277262411463542,0.45584224574411747,0.2,-0.108630904481669,0.014945135404713199,0.2,0.6427852753685496,0.07100278887185729,0.2,0.04457293410094442,0.18527098374592496,0.2,0,
0.20005334755934917,0.09890619795070851,0.2886498514458472,0.2,-0.8036736146084988,0.4160767932131909,0.2,-1.3245598694827014,0.6513197120841252,0.2,-0.10920920040060403,-0.1484013236639223,0.2,0.6477912882920966,0.7936676404465409,0.2,0.04857173775431831,0.548182757536873,0.2,0,
0.20805548146172315,0.10293538893375039,0.536257918457953,0.2,-0.7978311398090138,0.6844518445308229,0.2,-1.3173051257530082,0.38821857983901975,0.2,-0.11100532566029175,-0.2210156811824687,0.2,0.6554839576156942,0.2907488176645129,0.2,0.05334385822153439,0.32379288816461504,0.2,0,
0.21605761536409712,0.10748632464603576,0.603023496963324,0.2,-0.7927223850960057,0.7188762541102469,0.2,-1.3183483722052771,0.15623121379956806,0.2,-0.11274545129952353,-0.25712947175707873,0.2,0.6524432693747289,-0.06451658254023884,0.2,0.05375242396495215,0.05383893903616269,0.2,0,
0.22405974926647107,0.11258376488516357,0.46905768068892206,0.2,-0.7863291197432498,0.4318134698484827,0.2,-1.314805426332215,0.30923499373954055,0.2,-0.11511939720840501,-0.10086899483248597,0.2,0.6544516922950504,0.3535537097558647,0.2,0.05420528124611299,0.054997961957410635,0.2,0,
0.23206188316884505,0.11499124753705851,0.45383747855865136,0.2,-0.78581336957843,0.49182138397159403,0.2,-1.3134006123054445,0.10308757633034626,0.2,-0.1143593552168433,0.2965439177305294,0.2,0.6581001287308227,0.3205138213863562,0.2,0.054632391356270724,0.049944063169918194,0.2,0,
0.24006401707121902,0.11984516454210199,0.2803887148574852,0.2,-0.7784599775997043,0.5641302251201477,0.2,-1.3131560251109295,0.43810144231175296,0.2,-0.11037469452471654,-0.03929087225247683,0.2,0.6595799134372321,0.10411132868643619,0.2,0.05500438625683168,0.1567583589880809,0.2,0,
0.24806615097359297,0.11947746697477828,0.45034242786310114,0.2,-0.7767872859765076,0.33088078987972974,0.2,-1.3063909892284564,0.7207560596136781,0.2,-0.11498800917288293,-0.408670934929899,0.2,0.6597659099898057,0.36871038384669874,0.2,0.05714052510008002,0.259866486420267,0.2,0,
0.25606828487596694,0.1270506433879116,0.6696531915865331,0.2,-0.7731658849616286,0.7140459586921984,0.2,-1.3016239281571107,0.2120011291964763,0.2,-0.11691342948359493,-0.27077823613526253,0.2,0.6654792795787793,0.2942988845581612,0.2,0.059162250039555955,0.20630583741812003,0.2,0,
0.2640704187783409,0.1301919180401628,0.41630680596547315,0.2,-0.7653625506374324,0.3531529204721731,0.2,-1.3029989711613128,0.3148756009720699,0.2,-0.11932046095104713,-0.09090305544408056,0.2,0.6644746921427362,-0.07043375745319908,0.2,0.06044141849876994,0.20370560654400402,0.2,0,
0.2720725526807149,0.13371155228335918,0.5848262789678195,0.2,-0.7675154382340739,0.22705243656988977,0.2,-1.2965859185415576,0.3562341112983147,0.2,-0.11836787837070022,0.08613124868399324,0.2,0.6643523394595281,0.26000253220092445,0.2,0.06242153974426002,0.10546385513720766,0.2,0,
0.28007468658308887,0.13954913850364792,0.5903635232486562,0.2,-0.7617297116523142,0.7432722807943493,0.2,-1.2972992253805398,0.16981347486433318,0.2,-0.11794236097210324,-0.1127022725452044,0.2,0.668634732657951,0.5420483243219267,0.2,0.06212884018096526,0.22164779791258643,0.2,0,
0.2880768204854628,0.14315736865533768,0.344684938014957,0.2,-0.7556230817413643,0.644198722522582,0.2,-1.2938689029437282,0.4299972537395169,0.2,-0.12017111473142349,-0.308895754442276,0.2,0.6730251126486789,0.3351772658219815,0.2,0.0659679045108614,0.34742803667717287,0.2,0,
0.29607895438783677,0.14506409751188723,0.15364870141254885,0.2,-0.7514225320919529,0.1896953643876556,0.2,-1.2904192693207075,0.18654460557879227,0.2,-0.12288469304317966,-0.2948056930500934,0.2,0.6739975689111027,0.3314954944982698,0.2,0.06768768876780003,0.25184253184987526,0.2,0,
0.30408108829021074,0.14561574787793846,0.4458026541502274,0.2,-0.7525879559111618,0.34280189261538113,0.2,-1.2908841892544676,0.3684936582595971,0.2,-0.12488800582022498,-0.06831630836187044,0.2,0.6783290405606512,0.014962522273682943,0.2,0.06999738502045941,0.061671909688286626,0.2,0,
0.3120832221925847,0.15219693997829087,0.6023574685222969,0.2,-0.7459377018101068,0.6633924184272152,0.2,-1.284523370788554,0.4647700936171867,0.2,-0.12397775397696958,-0.0011752103900360827,0.2,0.6742369692674817,-0.006451350449042381,0.2,0.06867443932281261,0.1326494415147825,0.2,0,
0.3200853560949587,0.1552534673742952,0.34947938596515193,0.2,-0.7419736772163263,0.35802742023859774,0.2,-1.2834478677565926,0.5241102101454648,0.2,-0.12490680918646556,-0.1007077678569189,0.2,0.6782258189534666,0.33239260662548675,0.2,0.07211977608469593,0.3293661011268059,0.2,0,
0.32808748999733267,0.1577886101537333,0.6091981223756513,0.2,-0.7402092630862892,0.23287243807530028,0.2,-1.2761376074262265,0.4174817925758356,0.2,-0.1255890782626803,-0.015576315132235195,0.2,0.6795552509734895,0.3248802007712673,0.2,0.07394429694084151,0.2984908659860591,0.2,0,
0.3360896238997066,0.16500063733230563,0.2964481216598397,0.2,-0.7382477182071215,0.46701160837154393,0.2,-1.2767681590753792,0.1696430790436021,0.2,-0.12515603022858132,-0.3609044691737263,0.2,0.6834239021658068,0.5475410046795955,0.2,0.07689562994047287,0.16823853480601828,0.2,0,
0.34409175780208057,0.16253178010029073,0.38142423526035285,0.2,-0.7327370773523445,0.6474597107287774,0.2,-1.2734233181615289,0.09690034244276557,0.2,-0.1313635497694599,-0.11851238002557468,0.2,0.688315907048363,0.07110066266664827,0.2,0.0766361134977378,0.1452285366811655,0.2,0,
0.35209389170445454,0.17110342509647128,0.6237156821108074,0.2,-0.7278883628354611,0.4536381481098639,0.2,-1.275217753596295,0.2388170586014593,0.2,-0.12705222830899052,0.17826667568173263,0.2,0.6845615127684732,0.046514893508646515,0.2,0.07921928652737152,0.019541079654842274,0.2,0,
0.3600960256068285,0.17251123101406365,0.286182378136832,0.2,-0.7254788669825867,0.4778932138396405,0.2,-1.2696022452239055,0.7471478093028783,0.2,-0.1285112829585522,-0.21067829624663892,0.2,0.6890601453445013,0.3024038886482311,0.2,0.07694877077221528,-0.1511098008422215,0.2,0,
0.3680981595092025,0.1756823431466606,0.3951927300293138,0.2,-0.7202420714140269,0.44244733315582097,0.2,-1.263263388647449,0.4280322394938363,0.2,-0.13042308104893674,-0.05795459874597536,0.2,0.6893999749868449,0.17820438933403154,0.2,0.07680152971389598,0.37641626160095537,0.2,0,
0.37610029341157647,0.17883431469453268,0.6452560971827032,0.2,-0.7183997096520935,0.31751060106927076,0.2,-1.2627537293920041,0.12800773476449867,0.2,-0.1294385565384878,-0.25067021299372655,0.2,0.6919114155738458,0.27640723914808957,0.2,0.08297143095783056,0.43564087638386667,0.2,0,
0.3841024273139504,0.18600644070158384,0.7536896254827299,0.2,-0.7151619017969185,0.5567270545974723,0.2,-1.261215264891217,0.4842123277798427,0.2,-0.13443380445683636,-0.36535309104514246,0.2,0.6938224908132143,0.22004872257810892,0.2,0.08377178373603784,0.043451227137579485,0.2,0,
0.39210456121632437,0.19089334870225635,0.5935492649188113,0.2,-0.709492076778534,0.397828472355366,0.2,-1.2550063321475267,0.458714727658599,0.2,-0.13528420599521007,-0.18476326577751034,0.2,0.6954321951350956,0.5228727920113391,0.2,0.08366665059203184,0.1059016766707466,0.2,0,
0.40010669511869834,0.19550322894028482,0.14710820407849884,0.2,-0.7087966462392327,0.2642028684211664,0.2,-1.2538758292486794,0.21311875272983505,0.2,-0.13739001670927653,-0.27665254181404375,0.2,0.7021884554853958,0.011527093440995284,0.2,0.08546621056276979,0.05608462075425407,0.2,1,C153A8
0.4081088290210723,0.19324707996751234,0.15198102660885643,0.20016,-0.7052648308837953,0.40359061979954036,0.2,-1.2515964321038493,0.28253403340648686,0.2,-0.13971064666423477,-0.22922170863883679,0.2,0.6956166286301515,-0.18829365157230216,0.2,0.0845640045240999,0.0493785987464232,0.2,1,C153A8
0.4161109629234463,0.19793492536602653,0.6546651617570873,0.20032000000000003,-0.70233919632244,0.597734421888478,0.2,-1.2493552847141756,0.2829637125941614,0.2,-0.14105756404749792,0.25354771944134485,0.2,0.6991757570602389,0.26413218080999223,0.2,0.08625626814271256,0.2964871943510784,0.2,1,C153A8
0.42411309682582027,0.20372172255562573,0.48158585460887465,0.20048,-0.6957010801335797,0.3963865234022021,0.2,-1.2470690127023427,0.03283103025349121,0.2,-0.13565388315317325,-0.20216060745611128,0.2,0.6998427435231114,0.2534207524587176,0.2,0.08930779963371716,0.2019910324212301,0.2,1,C153A8
0.43211523072819424,0.20564029903976852,0.4527610001986218,0.20064000000000004,-0.6959970119480048,0.3708247859686639,0.2,-1.2488299882301197,0.42671234620438037,0.2,-0.1442921337667957,-0.6340382055795482,0.2,0.7032304890995784,0.14927219913786482,0.2,0.08948812466145224,0.30044149638915657,0.2,1,C153A8
0.44011736463056816,0.21096589855880368,0.28129478236494676,0.2008,-0.689767883558081,0.5020778544215995,0.2,-1.2402416151630726,0.5131240351836236,0.2,-0.14579849444244602,-0.09224911389672623,0.2,0.7022310987093172,0.21236284121237126,0.2,0.09411486357594366,-0.032472704289882026,0.2,1,C153A8
0.44811949853294214,0.21014101555760767,0.4900438814662636,0.20096,-0.6879637662772592,0.3531565418517027,0.2,-1.2406200036671817,0.20058191628287425,0.2,-0.14576811958914332,-0.13231425999946955,0.2,0.7066282945589764,0.4439376115061913,0.2,0.08896856139281413,-0.11364113447544492,0.2,1,C153A8
0.4561216324353161,0.2188066006622639,0.5877028180260192,0.20112000000000002,-0.6841173788884538,0.6458673902764583,0.2,-1.2370323045025466,0.137115826782927,0.2,-0.14791552260243754,-0.1345797335666702,0.2,0.7093341004934163,0.27865315245336614,0.2,0.09229660542433654,0.17760396012814725,0.2,1,C153A8
0.4641237663376901,0.21954426064602398,0.394348067652062,0.20128000000000001,-0.6776298880328359,0.5342700028443322,0.2,-1.238426150438655,0.2745097331642854,0.2,-0.14792139532621004,-0.243666239633393,0.2,0.7110867449982302,0.19120020132939314,0.2,0.09181022475486449,0.28848769805040353,0.2,1,C153A8
0.47212590024006407,0.2251161697446969,0.5735070607621271,0.20144000000000004,-0.6755690588429445,0.19525764372812365,0.2,-1.232640148771918,0.6596991204370628,0.2,-0.15181418243657183,-0.15777469461781754,0.2,0.7123933037146866,0.1589881483396588,0.2,0.096912408593143,0.2165821321445929,0.2,1,C153A8
0.48012803414243804,0.228720373618218,0.5030684854753983,0.2016,-0.6745057657331859,0.28968052183996756,0.2,-1.2278709645116619,0.27048102029045284,0.2,-0.15044579044009512,-0.26061584966173207,0.2,0.7136305553716648,0.07199785820474064,0.2,0.09527553886917797,0.049771974036969674,0.2,1,C153A8
0.48813016804481196,0.23316526551230327,-0.07265252578146468,0.20176,-0.670934170493505,0.5049440188161433,0.2,-1.2283124524472708,-0.06194291394383267,0.2,-0.15598403603115954,-0.17318829236144007,0.2,0.7135452694459624,0.18411968615588553,0.2,0.09770876017773451,-0.06803281341980198,0.2,1,C153A8
0.49613230194718594,0.22755793320571457,0.021723360431909547,0.20192000000000002,-0.6664266614321276,0.37076433538155845,0.2,-1.2288620511347632,0.21124242553870187,0.2,-0.15321680311787816,-0.22083468264616143,0.2,0.7165764703501589,0.25590232824015263,0.2,0.09418701385446114,-0.2271584428031664,0.2,1,C153A8
0.50413443584956,0.23351283927921382,0.8309966841644963,0.20208,-0.6650019411274001,0.4755884776851335,0.2,-1.2249325736386516,0.3651288247542295,0.2,-0.15951739095349812,-0.39363660061732597,0.2,0.7176397066978049,0.26206847515824333,0.2,0.09407422509288385,0.05080278419356248,0.2,1,C153A8
0.5121365697519339,0.24085388015234652,0.7439251020111611,0.20224000000000003,-0.6588172457891655,0.6752823684303896,0.2,-1.2230199899386955,0.19184754506730572,0.2,-0.15951498872775538,-0.2308383620494899,0.2,0.7207695659526908,0.42413925228057536,0.2,0.09499985840155814,0.20034814563889453,0.2,1,C153A8
0.5201387036543078,0.2454156409113924,0.4065188177197268,0.20240000000000002,-0.6541974232325138,0.1444693495353533,0.2,-1.2218630129175747,0.3778424468841024,0.2,-0.16321080474628996,-0.09134525220195339,0.2,0.7244259347342941,0.11269247037052482,0.2,0.09727979542310616,0.13551555682617208,0.2,1,C153A8
0.5281408375566818,0.24735818123586215,0.24389763678126472,0.20256,-0.6565057361965998,0.15584000954951827,0.2,-1.21697451078855,0.48512430082475744,0.2,-0.16097651276298663,-0.13058917508117218,0.2,0.7225726454786192,0.08432988278971737,0.2,0.0971681073107769,0.08716310208495194,0.2,1,C153A8
0.5361429714590558,0.24931800309989263,0.4477887023173078,0.20272,-0.6517039830797215,0.46260501653488245,0.2,-1.2141010241043786,0.4410787253122106,0.2,-0.16530023154758872,-0.49348928553893423,0.2,0.7257752128589295,0.2664920346824029,0.2,0.0986744050564654,0.08351264494568279,0.2,1,C153A8
0.5441451053614298,0.25452280047293907,0.5527813400682553,0.20288,-0.6491040559320417,0.5632036975131566,0.2,-1.2099172511835545,0.11296895357773562,0.2,-0.16887234133160958,-0.32017086059843264,0.2,0.7268365180335377,0.03663506633023311,0.2,0.09850430962990782,-0.1469358900247934,0.2,1,C153A8
0.5521472392638037,0.2581625045409847,0.2915687095120245,0.20304000000000003,-0.642692723919511,0.7325334606069767,0.2,-1.2122935208471348,0.376230073144454,0.2,-0.17042296531716364,0.013510738812715431,0.2,0.7263613739202133,0.4528543449695069,0.2,0.0963234308160687,-0.04689190369493602,0.2,1,C153A8
0.5601493731661777,0.25918789982513146,0.2649442682010894,0.20320000000000002,-0.63738352056233,0.42468267291062567,0.2,-1.2038975700132433,0.5289819143440427,0.2,-0.16865616951060614,-0.30785707175680876,0.2,0.7340821875530498,0.3077255490456579,0.2,0.09775403917078884,0.07391619803520567,0.2,1,C153A8
0.5681515070685517,0.26240161283220215,0.6264731653022222,0.20335999999999999,-0.635897801152941,0.25023116746045876,0.2,-1.2038298102176301,0.14286305627181362,0.2,-0.17534867846527258,-0.3227611127369287,0.2,0.7312849827049438,-0.1139802843083057,0.2,0.09750608998463199,0.1433820699836422,0.2,1,C153A8
0.5761536409709256,0.269211470469967,0.26943590614169133,0.20352000000000003,-0.6333798218829627,0.00978340528145355,0.2,-1.2016117611128942,0.17004073593426816,0.2,-0.173820347314397,-0.05529174123261246,0.2,0.7322585030041169,0.1290300994662083,0.2,0.10004815229052712,-0.006984661990868182,0.2,1,C153A8
0.5841557748732996,0.2667125873304692,0.06879895708404235,0.20368,-0.6357412666684378,0.40582471286807614,0.2,-1.2011091584426818,0.2831620082158759,0.2,-0.17623334632499438,-0.24850044676012067,0.2,0.7333494642964031,0.2944943663091837,0.2,0.0973943353927781,0.04966678432930926,0.2,1,C153A8
0.5921579087756735,0.2703122537833117,0.5692261849445484,0.20384000000000002,-0.6268866264770735,0.5201124923447931,0.2,-1.1970811689814402,0.3744896554319921,0.2,-0.17779635446255893,-0.6671629171164546,0.2,0.7369704128650638,0.3818672320328245,0.2,0.10084282083979607,0.06803121842449515,0.2,1,C153A8
0.6001600426780476,0.275820206289582,0.2975374756502766,0.20400000000000001,-0.6274194667909211,0.29922207025413067,0.2,-1.19511732395577,0.2633984742854145,0.2,-0.18690795299885765,-0.3032704717668925,0.2,0.7394593400089283,-0.045225823607622506,0.2,0.09848283488757002,0.025589084221060154,0.2,1,C153A8
0.6081621765804215,0.2750728533937161,0.3306831154248034,0.20416,-0.6220990733530074,0.33361470929153814,0.2,-1.1928667933928736,0.11242352499886421,0.2,-0.1826486820108292,-0.0470759938274324,0.2,0.7362467996873419,-0.20844253273648305,0.2,0.10125224618733303,0.08263302438816199,0.2,1,C153A8
0.6161643104827954,0.28111113613637884,0.4876068504331386,0.20432000000000003,-0.6220816314422565,0.2726692928995897,0.2,-1.1933185475557881,0.2798716491754366,0.2,-0.18766116890009657,-0.20108712461095432,0.2,0.7361242594851446,0.288466561339025,0.2,0.09980496327778061,-0.23605235065193592,0.2,1,C153A8
0.6241664443851694,0.28287456300064634,0.13434091315494417,0.20448,-0.617736364666614,0.5427425232883282,0.2,-1.1883888470060666,0.19267199678399405,0.2,-0.18586607600460447,-0.05542828104375397,0.2,0.7408622646687663,0.4217814233000716,0.2,0.09747540857690205,-0.13201882092566622,0.2,1,C153A8
0.6321685782875434,0.28326059074685794,0.16771738449841006,0.20464000000000004,-0.6133977510696432,0.45697460564190356,0.2,-1.1902357956072442,0.37046022884554275,0.2,-0.18854802139679663,-0.4874450585120697,0.2,0.7428727622579457,0.08845779623206651,0.2,0.09769266214296995,0.029759947145926655,0.2,1,C153A8
0.6401707121899174,0.2855580411526209,0.514847118476814,0.2048,-0.6104247709763435,0.2710915127589683,0.2,-1.182461483344538,0.5973383643017166,0.2,-0.1936651969407976,-0.31631040297667135,0.2,0.7422775894084793,0.13112817811734845,0.2,0.09795156773123688,0.2632080012495534,0.2,1,C153A8
0.6481728460922913,0.29149814464248697,0.4614303851378926,0.20496,-0.6090602868654997,0.16415191212956065,0.2,-1.1806783817784168,0.23425275633934262,0.2,-0.19360898784442337,-0.23770509867917197,0.2,0.7449708131078233,0.24355614975908602,0.2,0.10190399016296281,0.0823871530868589,0.2,1,C153A8
0.6561749799946653,0.2929409273148272,0.12465825736286337,0.20512000000000002,-0.6077983403822705,0.41494045645323885,0.2,-1.1787134392431085,0.16821995743748763,0.2,-0.19746847851966434,-0.44281478382818434,0.2,0.7461744878046247,0.09841070795191947,0.2,0.09926976218062662,-0.22626179941964958,0.2,1,C153A8
0.6641771138970393,0.2934926767602928,0.316823769994385,0.20528000000000002,-0.6024212395622479,0.38338612137176625,0.2,-1.177986862459417,0.42402582049579085,0.2,-0.20069402438567432,-0.22809893877140733,0.2,0.746545384435054,0.07266355688803627,0.2,0.09828380137224842,-0.13519742462074752,0.2,1,C153A8
0.6721792477994132,0.29801010763473734,0.5284811930377116,0.20544000000000004,-0.6016641624403223,0.1770304429096134,0.2,-1.1719290261151758,0.08629484437097656,0.2,-0.20111806154000686,-0.15186062466564232,0.2,0.7473371047148333,0.44164484490084865,0.2,0.09710660338669466,0.06035817615621542,0.2,1,C153A8
0.6801813817017872,0.30194837584889617,0.2686616393227925,0.2056,-0.5995887524756941,0.5112519041611113,0.2,-1.1766061449494813,0.13064190879180648,0.2,-0.2031237943803246,-0.2371639061164877,0.2,0.7536117019534676,0.4517019594448002,0.2,0.09924953219074786,-0.10579395574974049,0.2,1,C153A8
0.6881835156041611,0.302308693863902,0.16347612913895915,0.20576,-0.5934841319737445,0.13358819315665432,0.2,-1.169838755574507,0.3937982483363106,0.2,-0.20491268403787066,-0.17834671834952853,0.2,0.7545643360659501,-0.22894844185494811,0.2,0.09541390009469881,-0.15196335558842217,0.2,1,C153A8
0.6961856495065352,0.3045639939151195,0.4610016095442752,0.20592000000000002,-0.5974513413851876,0.10278800840397145,0.2,-1.1703053729761004,-0.1858251364914021,0.2,-0.20597734187391706,-0.045940411104124224,0.2,0.7499485268837884,0.16046155255790978,0.2,0.09681811850133311,0.18914169774360798,0.2,1,C153A8
0.7041877834089091,0.3096847196166104,0.49169899023038255,0.20608,-0.591839523839281,0.6896944768672932,0.2,-1.1728119577583693,0.15055345533782072,0.2,-0.20564773061553665,-0.4008775472439524,0.2,0.7571317209068766,0.3635333918325864,0.2,0.09844016725859654,-0.04086250033905579,0.2,1,C153A8
0.7121899173112831,0.31243117775880563,0.20095765741451332,0.20623999999999998,-0.5864162297553109,0.24159135066988136,0.2,-1.1678965176906952,0.5602052254479045,0.2,-0.2123913826298203,-0.36004189055271335,0.2,0.7557650611531098,-0.058598569457037064,0.2,0.09616431849590822,-0.08690723116356376,0.2,1,C153A8
0.720192051213657,0.31290004213524264,0.2362753991557616,0.20640000000000003,-0.5879740622285629,0.029313180307549702,0.2,-1.1638486741512029,0.3930439080573056,0.2,-0.21140840086438006,-0.4665208133506193,0.2,0.756194143795564,-0.08079674787579705,0.2,0.09704965155997952,0.004573458787685697,0.2,1,C153A8
0.728194185116031,0.3162115841452978,0.390074813727298,0.20656,-0.5859472188703901,0.4959244506115776,0.2,-1.1616078151617784,0.2865232857604122,0.2,-0.2198557156434302,-0.44638615502420526,0.2,0.7544723131870971,0.33684319902736737,0.2,0.09623749383651119,-0.007043111424975129,0.2,1,C153A8
0.736196319018405,0.3191412391548794,0.25979115977884865,0.20672000000000001,-0.5800392710187776,0.27031485091519314,0.2,-1.1592643015790363,0.24765407899590697,0.2,-0.21855057934476735,-0.3140509255958723,0.2,0.7615836349800019,0.0972989412621611,0.2,0.09693696177717992,-0.05624894484686574,0.2,1,C153A8
0.7441984529207789,0.3203682427017594,0.35527955899313995,0.20688,-0.581622181255747,0.46445578825332623,0.2,-1.1576453498978438,-0.016621518032833293,0.2,-0.22488053045296416,-0.19172603425022736,0.2,0.7560290962472916,0.12175113203376914,0.2,0.09533751071896134,-0.36519249733242726,0.2,1,C153A8
0.7522005868231529,0.32482571209876965,0.4316407942142365,0.20704,-0.5726079784067244,0.5637128148465592,0.2,-1.1595302458675616,0.1049704247769595,0.2,-0.22161819589277099,0.03828329085138818,0.2,0.7635316530925422,0.43898544610438545,0.2,0.09109388181986108,0.09172468900339996,0.2,1,C153A8
0.7602027207255269,0.3272744954091872,0.32380166303462227,0.20720000000000002,-0.5726027762182021,0.3804631092956326,0.2,-1.1559658231014125,0.1994707512523175,0.2,-0.22426799779934195,-0.21313892307453508,0.2,0.7630528633849618,-0.06841684793831848,0.2,0.09680510574301573,0.1040859397721432,0.2,1,C153A8
0.7682048546279008,0.3300065387073236,0.2565492840920051,0.20736,-0.5665205686579943,-0.1217231231398011,0.2,-1.1563387138475245,0.0977862446072536,0.2,-0.22502841866196355,-0.3738930111178984,0.2,0.7624369835255291,0.2770851761382531,0.2,0.09275925685621537,-0.30425726036408757,0.2,1,C153A8
0.7762069885302748,0.33137928395465927,0.36376576596087656,0.20752000000000004,-0.5745503461884389,0.036035066869680166,0.2,-1.1544012431876964,0.22254940896133946,0.2,-0.23025028597722833,-0.6974622183424355,0.2,0.7674862262031739,0.21769672896555792,0.2,0.09193698957719033,-0.11031276598058841,0.2,1,C153A8
0.7842091224326487,0.33582679096269763,0.2837526841151239,0.20768,-0.5659440075880794,0.6876922263651039,0.2,-1.152777923304143,0.2278905135887077,0.2,-0.23618781415544252,-0.2667979493141768,0.2,0.7659201311889781,0.08646696491870082,0.2,0.09099425260052596,0.04686428210802767,0.2,1,C153A8
0.7922112563350228,0.33591932690050125,0.10929631528516087,0.20784,-0.5635472705665973,0.09047202224563705,0.2,-1.1507549949702771,0.20926692276827807,0.2,-0.23451905316625515,-0.20768556981742847,0.2,0.7688696976418731,0.2795263967041786,0.2,0.09268681809091878,-0.09348250074910948,0.2,1,C153A8
0.8002133902373967,0.3375755320072602,0.21655890457563873,0.20800000000000002,-0.5644964552321492,0.29940968017823366,0.2,-1.1494296525398506,0.493002159154321,0.2,-0.23951078327252137,-0.3351439872371579,0.2,0.7703925535362449,0.11269621820322873,0.2,0.08949853258854021,-0.23286625505383565,0.2,1,C153A8
0.8082155241397707,0.33938426937371147,0.10720732149458595,0.20816,-0.5587567156837455,0.2964092043880942,0.2,-1.142866960423808,0.4964856914574378,0.2,-0.23988135696204968,-0.2802816499839905,0.2,0.7706728371331247,-0.023078705397666655,0.2,0.0889609580100574,-0.23716808264203584,0.2,1,C153A8
0.8162176580421446,0.3392908491511736,0.3026629827716058,0.20832000000000003,-0.5597539079619397,0.18303268515906107,0.2,-1.1414858814765316,-0.032405630480028536,0.2,-0.24399528967226522,-0.3538733526832413,0.2,0.7700232942498823,0.17258860759139516,0.2,0.08570384326626763,-0.09160351136234396,0.2,1,C153A8
0.8242197919445186,0.34422687709805716,0.3771607449786114,0.20848,-0.5558281927212005,0.208500863157407,0.2,-1.1433854505114884,0.3071299392136545,0.2,-0.24554333060498154,-0.3964723306298223,0.2,0.773434254854587,0.24353795288681312,0.2,0.0874953018282599,-0.23123749415346948,0.2,1,C153A8
0.8322219258468926,0.34532542107083136,0.3833793326724483,0.20864,-0.5564178941514212,0.2723166676481953,0.2,-1.1365718024491132,0.4064504643180311,0.2,-0.2503388469623424,-0.37829736903477634,0.2,0.7739199014960713,-0.1635070833086727,0.2,0.08200404335981212,-0.25302612297342303,0.2,1,C153A8
0.8402240597492665,0.35036094642081633,0.3196022790274526,0.2088,-0.5514711260388294,0.38596885475186693,0.2,-1.1368822430824,-0.3371230680282028,0.2,-0.25159608850953796,-0.33662329291613,0.2,0.7708181415216483,0.1723507505450722,0.2,0.08344688386068513,0.14797355661641617,0.2,1,C153A8
0.8482261936516405,0.3504390575352706,0.20622251289012516,0.20896,-0.5502423924753913,0.2510504455101731,0.2,-1.1419657715375644,0.028696390428933904,0.2,-0.25572481964900046,-0.3217783837088581,0.2,0.7766775135047924,0.38054968728131605,0.2,0.08437162026567478,0.04108826150457396,0.2,1,C153A8
0.8562283275540145,0.35366050662705834,0.008929203759465432,0.20912000000000003,-0.5474543189106666,0.2854904555923965,0.2,-1.136423100835537,0.2596645561922517,0.2,-0.2567445426488797,-0.3790758460936669,0.2,0.7769069365181493,0.04723944979464351,0.2,0.08410429604475832,-0.13478221806876353,0.2,1,C153A8
0.8642304614563885,0.35058192479542205,0.17740765269242884,0.20928000000000002,-0.545674545185913,0.3015640473285064,0.2,-1.1378111386384884,0.22027653780309908,0.2,-0.2617900331864991,-0.2602819192710874,0.2,0.7774333447015067,0.05279257922513603,0.2,0.08221510477657457,-0.10129425917664805,0.2,1,C153A8
0.8722325953587624,0.3564990290701372,0.48765755071184663,0.20944,-0.5426292941534105,0.3510786028609672,0.2,-1.1328986762306874,0.3198534055344343,0.2,-0.2609090533572171,-0.39954489248458097,0.2,0.7777516177857515,0.027455686040782357,0.2,0.08248358789793195,0.01982040116376132,0.2,1,C153A8
0.8802347292611363,0.3583844456068116,0.2557811536002333,0.2096,-0.5400572875401375,-0.03516393654343086,0.2,-1.1326934841499374,-0.04479357905053105,0.2,-0.2681827514662524,-0.4645352584992414,0.2,0.7778726356781592,0.2435791798275494,0.2,0.08253223119519475,-0.1352859387756854,0.2,1,C153A8
0.8882368631635104,0.36059152752774093,0.18211786473133762,0.20976,-0.5431919171381054,-0.2356219505050619,0.2,-1.133615373495496,0.2115249411777237,0.2,-0.26834161749320495,-0.31238838499423116,0.2,0.7816488846629923,0.19322283107350846,0.2,0.08031901287752098,-0.28948829704135515,0.2,1,C153A8
0.8962389970658843,0.361298331442513,0.1713786773221808,0.20992000000000002,-0.5438272387482185,0.46649601484512193,0.2,-1.1293090850910938,0.39082678408389193,0.2,-0.2731809656261601,-0.4651346831677297,0.2,0.7809642009753354,-0.07357921373626203,0.2,0.07790041844253306,-0.37242823368087863,0.2,1,C153A8
0.9042411309682583,0.3633335863648958,0.25504104841113373,0.21008000000000002,-0.5357279809005835,0.7263333637298752,0.2,-1.1273621449501536,0.30019470323906783,0.2,-0.27578377242388863,-0.3296571318105179,0.2,0.7804716172432121,0.08574750725665742,0.2,0.07436016113862692,-0.13829314729104508,0.2,1,C153A8
0.9122432648706322,0.36537898821709114,0.1356933331562865,0.21023999999999998,-0.5322059049285405,-0.012845940014105661,0.2,-1.1245059698392688,0.30511344962594333,0.2,-0.2784554797351284,-0.3628651991483822,0.2,0.7823361610914419,0.18026223884133608,0.2,0.07568772808587634,0.04101038020995311,0.2,1,C153A8
0.9202453987730063,0.3655046796953964,0.23035611468107814,0.21040000000000003,-0.5359335159408092,-0.03216514802018011,0.2,-1.1224803297561385,0.030879866853225635,0.2,-0.28158961561026274,-0.26702839031889425,0.2,0.7833558130646735,0.07137538864739751,0.2,0.07501632722198617,0.012658423029640424,0.2,1,C153A8
0.9282475326753802,0.3690646860519884,0.15050195458871443,0.21056,-0.5327205472968634,0.3137683717406789,0.2,-1.1240118919696171,0.07321967946607999,0.2,-0.2827279339802307,-0.29679293675852547,0.2,0.7834781673098002,-0.20070483446071874,0.2,0.07589026285435059,-0.17465830293493262,0.2,1,C153A8
0.9362496665777541,0.36791271096881584,0.10842070952916949,0.21072000000000002,-0.5309132219929583,0.34733538394694785,0.2,-1.1213088148846813,0.06298241392972692,0.2,-0.28633830259839915,-0.1698526916321802,0.2,0.780144535713302,-0.045243382261521414,0.2,0.07222179437502725,-0.363086466198129,0.2,1,C153A8
0.9442518004801281,0.3707994174044551,0.16330079010253712,0.21088,-0.5271631811537122,-0.022653104327204077,0.2,-1.1230041733467415,-0.045871982296566416,0.2,-0.2854455770463456,-0.18526705717538533,0.2,0.7827542731936159,0.376859216243329,0.2,0.07008087939518053,-0.23467057605924824,0.2,1,C153A8
0.952253934382502,0.37052552361045643,0.3935729995103894,0.21104,-0.5312756716621936,0.15286577849599886,0.2,-1.1220427666014263,0.0642192573433592,0.2,-0.2893025755132053,-0.6275912950259137,0.2,0.7861742831731953,0.2961552567932596,0.2,0.06846706515807928,-0.17466400098606857,0.2,1,C153A8
0.9602560682848761,0.37709658539662133,0.16377404785348007,0.21120000000000003,-0.5247173286977762,0.5194096437927467,0.2,-1.1219766652292478,0.2914844117137688,0.2,-0.2954870377667602,-0.4282034216228567,0.2,0.787492757302308,-0.02680200346251438,0.2,0.06728625537940343,-0.08583726250147895,0.2,1,C153A8
0.96825820218725,0.3731459083761121,-0.016966964088260816,0.21136,-0.5229651173615096,0.0544549790845103,0.2,-1.117379016014006,0.3019154043168021,0.2,-0.296153830259171,-0.23346227255178695,0.2,0.785745451117795,0.10083923032860181,0.2,0.06709366895805562,-0.20423272463991093,0.2,1,C153A8
0.9762603360896239,0.37682511397120916,0.4332061921298695,0.21152000000000004,-0.523846049032424,0.24658876652959572,0.2,-1.117146018760179,-0.31795845572407666,0.2,-0.2992224341275888,-0.1990731741335766,0.2,0.7891061849875657,0.26488411839172,0.2,0.06401853178516485,-0.4225881637335521,0.2,1,C153A8
0.984262469991998,0.38007720745019,0.3217144138270428,0.21168,-0.5190196970970361,0.32825890571529237,0.2,-1.1224663513055912,0.08313913392112016,0.2,-0.29933900104530825,-0.36249935004390926,0.2,0.7899835970120626,0.06566649654506096,0.2,0.06033225833831878,-0.19706336860267132,0.2,1,C153A8
0.9922646038943719,0.38197254459244184,0.019831656957583488,0.21184,-0.5185939065409794,0.01896779227101436,0.2,-1.115815792617441,0.442890078936109,0.2,-0.30502242372829136,-0.6618743131641888,0.2,0.7901568489322867,-0.15591256164753514,0.2,0.06086551788752211,-0.07456961226504381,0.2,1,C153A8
1.0002667377967458,0.38039451396151136,-0.029159516569066124,0.21200000000000002,-0.5187162124206999,0.10817349032229973,0.2,-1.1153801100426135,0.12512020033203508,0.2,-0.30992899005593527,-0.1543886537866447,0.2,0.787488996025702,-0.031552873679265014,0.2,0.05913914454207808,-0.3745357011483278,0.2,1,C153A8
1.00826887169912,0.3815059923273368,0.2937611854231352,0.21216000000000002,-0.5168631306958226,-0.002978337067353898,0.2,-1.1138138694121285,0.1415796012950027,0.2,-0.3074926421888777,-0.35413544032179484,0.2,0.7896520029534184,0.3897852350196532,0.2,0.05487294666914887,-0.3213050060578829,0.2,1,C153A8
1.0162710056014939,0.3850946929282815,0.41065825237660697,0.21232000000000004,-0.5187638658137775,0.32117302003848575,0.2,-1.1131148364218935,0.05840270342850895,0.2,-0.315595157101084,-0.3745011169002943,0.2,0.7937255597860164,0.15392189866432482,0.2,0.053998264445151954,0.03627510341086418,0.2,1,C153A8
1.0242731395038678,0.3880765243653625,0.0787706738736016,0.21248,-0.5117243623752068,0.26530744447959137,0.2,-1.1128794261572723,0.3411163684131774,0.2,-0.3134846600592824,0.09921318625830469,0.2,0.7921147533320476,-0.1782777308609665,0.2,0.055453348323722694,0.13513441524971773,0.2,1,C153A8
1.0322752734062417,0.38635502371025915,-0.14616167384587375,0.21264,-0.5145189467021041,-0.07396776670109267,0.2,-1.1076569745272826,-0.03748196319673658,0.2,-0.3140077461209511,-0.589568953218253,0.2,0.790873116092241,0.08348032910888287,0.2,0.05616041508914744,-0.4576424438173213,0.2,1,C153A8
1.0402774073086156,0.3857379375838285,0.10165478306024822,0.21280000000000002,-0.5129078466424243,0.18257322726645403,0.2,-1.11347913756842,-0.37262275433443126,0.2,-0.32291776331077443,-0.794645952339832,0.2,0.7934504385977897,0.2857089254475545,0.2,0.04813106922264555,-0.4395277788452672,0.2,1,C153A8
1.0482795412109898,0.3879815002392231,0.16166450216898234,0.21296,-0.5115977750658408,-0.08476427075873594,0.2,-1.1136189385966335,0.3336548548064783,0.2,-0.3267220813583884,-0.22054353360504222,0.2,0.7954444588994019,0.07789622488976744,0.2,0.04912797062762316,-0.34619652080699603,0.2,1,C153A8
1.0562816751133637,0.38832456961853223,0.1860859388343461,0.21312000000000003,-0.5142640749745641,0.17746339626927704,0.2,-1.1081406598915164,0.30298030421183064,0.2,-0.3264464598484551,-0.26066634006188455,0.2,0.794696778196026,-0.03258384333097719,0.2,0.042591924889733616,-0.1749233842668566,0.2,1,C153A8
1.0642838090157376,0.39095887526057266,0.24432134854860538,0.21328000000000003,-0.5087583607255324,0.17224694563929693,0.2,-1.1087712537292442,0.05653019134836679,0.2,-0.3308927427993786,-0.46891698619664146,0.2,0.7949231174061062,0.017510261245475,0.2,0.046329196479353456,0.14778918605083896,0.2,1,C153A8
1.0722859429181115,0.3922337111953099,0.04072934803563133,0.21344,-0.5115081238443353,-0.1783405137815719,0.2,-1.1072361768299426,-0.02159248753466625,0.2,-0.33394913162760137,-0.287401424742751,0.2,0.7949769423759536,-0.19786683198430577,0.2,0.04495655186654704,-0.46440607398784284,0.2,1,C153A8
1.0802880768204854,0.39161054482914276,-0.20806220997705155,0.2136,-0.5116118089460375,0.34241915434098796,0.2,-1.109116733529799,0.3184586404079426,0.2,-0.3354911655952626,-0.4766779593098798,0.2,0.7917572480943573,0.13078910191689774,0.2,0.03889869929554797,-0.38025818993335037,0.2,1,C153A8
1.0882902107228596,0.3889047158356771,-0.11233817717010847,0.21376,-0.5060294173748795,0.21463601937548454,0.2,-1.1021408385834155,0.40906133496385055,0.2,-0.34157597897655945,-0.3116056528983807,0.2,0.797069568006624,0.32026878249693386,0.2,0.038872420827613434,-0.17054129713255703,0.2,1,C153A8
1.0962923446252335,0.389813133994421,0.3015405088207315,0.21392,-0.5081776326360298,-0.01686008343172729,0.2,-1.1025717521703773,-0.44533191802752226,0.2,-0.3404768560416367,-0.45221430576072513,0.2,0.7968815486143083,0.06756979565779309,0.2,0.03617003854142706,-0.39755187731970765,0.2,1,C153A8
1.1042944785276074,0.3937293639768088,0.21830308089755557,0.21408000000000002,-0.5062991787097871,0.11601657969438628,0.2,-1.1092661492718559,-0.21515757241384603,0.2,-0.34881140786873105,-0.589998051553433,0.2,0.7981506847371487,-0.022493524382334595,0.2,0.03251159079049811,-0.27587391081531926,0.2,1,C153A8
1.1122966124299813,0.3933059832887819,0.11608815484574764,0.21423999999999999,-0.5063213673609196,0.2107434465284247,0.2,-1.1060142733289988,0.4150230221250939,0.2,-0.3499168248664916,-0.20719679123600357,0.2,0.7965216522241909,-0.4197326167570889,0.2,0.03175605596838195,0.015753285554067666,0.2,1,C153A8
1.1202987463323555,0.39558677445434076,0.33756915448302643,0.21440000000000003,-0.5029272835653323,0.1523864287085938,0.2,-1.1026257809178543,0.3621134582073443,0.2,-0.3521265565285071,-0.31862270935248405,0.2,0.7914349628690353,0.29172013122911317,0.2,0.032763643359363194,-0.14423505865269592,0.2,1,C153A8
1.1283008802347294,0.39870708976051034,0.08408496651435282,0.21456,-0.5038831845015821,0.08032646094240786,0.2,-1.1002204579976813,-0.0030845366676690578,0.2,-0.35501478821613136,-0.21282487236598535,0.2,0.8011891743238567,0.5135209152749356,0.2,0.029448295029938815,0.01021614685411086,0.2,1,C153A8
1.1363030141371033,0.3969321339185704,-0.20613624197280203,0.21472,-0.5016420601902538,-0.14868590243316548,0.2,-1.102675133504537,-0.05308199327445917,0.2,-0.35553175448636287,-0.3086696974306108,0.2,0.7996512975134342,-0.43696091322500963,0.2,0.03292710170902897,0.02113118306504248,0.2,1,C153A8
1.1443051480394772,0.3954089098889455,-0.16915197042563848,0.21488000000000002,-0.5062621589405127,-0.03446963566307998,0.2,-1.1010697698900727,0.06877612110957332,0.2,-0.35995350337502113,-0.38185485439556216,0.2,0.7941977997122566,-0.14983396518018083,0.2,0.029786393958979494,-0.5507833897290351,0.2,1,C153A8
1.1523072819418512,0.3942257023917602,0.06822940961296112,0.21504,-0.5021935743608631,0.22426155265801995,0.2,-1.1015747155667839,0.1163068467665701,0.2,-0.36164143215669187,-0.5905509527226009,0.2,0.7972539540705513,0.3740266634944048,0.2,0.024114567473364407,-0.39140485775561995,0.2,1,C153A8
1.1603094158442253,0.3965005804427529,0.14611246782303064,0.21520000000000003,-0.5026739740979844,0.024571397031734887,0.2,-1.0992088603418075,-0.08501356342609234,0.2,-0.36940231861858275,-0.285019519738465,0.2,0.800182226328167,0.187383449624913,0.2,0.023523916234889575,-0.17940058305817003,0.2,1,C153A8
1.1683115497465992,0.3965635018769287,0.24789707068789343,0.21536,-0.5018004320083553,0.1816307716419538,0.2,-1.1029349325816014,-0.253698459215676,0.2,-0.3662017444725073,-0.3606580538299368,0.2,0.8002520892645499,-0.1468062391893621,0.2,0.021244158144433686,-0.36695516288044566,0.2,1,C153A8
1.1763136836489732,0.4004669335737592,0.1119778771478501,0.21552,-0.49976788175171316,-0.14566690958148915,0.2,-1.1032680356892584,0.05230985570775504,0.2,-0.37517284747986174,-0.5610918920942245,0.2,0.7978333265011373,-0.028135571728635234,0.2,0.017652633628802445,-0.09145270633841951,0.2,1,C153A8
1.184315817551347,0.3983551479112943,-0.2777715954731148,0.21568,-0.5041311025616592,-0.20545731457754374,0.2,-1.1020979748902773,0.1504221131147926,0.2,-0.3751792147460149,-0.36889252780508347,0.2,0.7998019201168918,-0.0901519259119965,0.2,0.019780914843018974,-0.26277765225178,0.2,1,C153A8
1.192317951453721,0.39602258804618934,0.08965170803109171,0.21584,-0.5030551987849539,0.017152724565913657,0.2,-1.1008612818794217,0.253101678130363,0.2,-0.3810751279247431,-0.535252649049342,0.2,0.7963908956865453,0.10207060289391112,0.2,0.013448191192773965,-0.5266261615805957,0.2,1,C153A8
1.2003200853560951,0.39978957523979175,0.30594945065940193,0.21600000000000003,-0.5038566589686045,0.1753691215578418,0.2,-1.0980483480401915,-0.06474485288231191,0.2,-0.38374325713080437,-0.36614761650906325,0.2,0.8014350497631944,0.3641450393160675,0.2,0.011354896257729442,-0.1441028635026147,0.2,1,C153A8
1.208322219258469,0.40091777925673977,0.0043812536100022725,0.21616000000000002,-0.5002492928400284,0.2923394512779273,0.2,-1.1018971995255387,-0.15997654458634047,0.2,-0.3869334897888881,-0.32024127215184506,0.2,0.8022172163156024,-0.13109237750326408,0.2,0.01114254537673213,0.0077787096803834214,0.2,1,C153A8
1.216324353160843,0.3998596752975518,-0.24966064380866487,0.21631999999999998,-0.4991792277481577,-0.14350525964410693,0.2,-1.100607972753573,0.03843273621283172,0.2,-0.3888671174852339,-0.35440049202901597,0.2,0.7993375717231421,-0.19549051659166483,0.2,0.011479355612615576,-0.23501938282580426,0.2,1,C153A8
1.224326487063217,0.39692320895580113,0.0871491242672752,0.21648,-0.5025453769943341,-0.031080630839997597,0.2,-1.1012822757461334,0.0633271056674628,0.2,-0.39260389766135234,-0.37039624166528007,0.2,0.7990893680501358,-0.09129865968484502,0.2,0.007382235251519262,-0.5254498344040739,0.2,1,C153A8
1.2323286209655908,0.4012540612858282,0.2666217966097346,0.21664,-0.49967651784159767,0.08261451384837526,0.2,-1.0995947390628935,0.07420027447034572,0.2,-0.3947934573518784,-0.24146752588819279,0.2,0.7978767931681846,-0.05628434081392936,0.2,0.0030721582621503927,-0.39887514716715244,0.2,1,C153A8
1.240330754867965,0.4011891577015569,-0.037861000989420496,0.21680000000000002,-0.5012235447727601,-0.23314685710582386,0.2,-1.1000950713546078,-0.05685830809255832,0.2,-0.3964673780755634,-0.3435793943114343,0.2,0.7981888185971129,0.0169586879094491,0.2,0.0010002328968448226,0.06419268000252788,0.2,1,C153A8
1.2483328887703389,0.40064828526999746,-0.13586965806469328,0.21696000000000001,-0.5034068675552908,0.017537565434537494,0.2,-1.1005044719923744,-0.13364075170768652,0.2,-0.4002907276608613,-0.4502545030418657,0.2,0.7981481321747358,0.038254120194286534,0.2,0.004099241142190839,0.04218786351048998,0.2,1,C153A8
1.2563350226727128,0.3990152431725218,-0.026477610705434584,0.21711999999999998,-0.5009429437258075,0.20634364930249838,0.2,-1.1022333233819308,0.17270551875604723,0.2,-0.4036714501242333,-0.520827489423361,0.2,0.7988008845202215,0.16992022299127524,0.2,0.0016752387130126623,-0.40601006702474285,0.2,1,C153A8
1.2643371565750867,0.4002246434987105,0.15034776437532552,0.21728000000000003,-0.5001053691664509,-0.13724056399062878,0.2,-1.0977411836922777,0.2571353015149713,0.2,-0.4086239674916351,-0.41082866152836184,0.2,0.8008668557425962,-0.007882110968804312,0.2,-0.0023969199302050466,-0.5479617682059642,0.2,1,C153A8
1.2723392904774609,0.401420807402527,-0.19402253642646083,0.21744,-0.5031387927496576,0.1718967800370362,0.2,-1.0981191585576913,0.03927142078337387,0.2,-0.41024470870868707,-0.34728880820542735,0.2,0.7986747707447206,-0.06399897202084143,0.2,-0.007092149578282765,-0.18069539961253042,0.2,1,C153A8
1.2803414243798348,0.39712028291588714,-0.3024467526674887,0.21760000000000002,-0.4973550206858583,0.2637174973135585,0.2,-1.0971128409597437,-0.15060895059368362,0.2,-0.41418058842292194,-0.3821718688657126,0.2,0.7998428721902627,0.255194948317633,0.2,-0.005288046324005534,-0.22951120030506397,0.2,1,C153A8
1.2883435582822087,0.3965816593598472,0.16061839656821703,0.21776,-0.4989193127926406,-0.14905006377470206,0.2,-1.1005289017671902,-0.30256047546978193,0.2,-0.41635945861053847,-0.3018985536972669,0.2,0.8027578899178027,0.12484696166277509,0.2,-0.010764328783163789,-0.6274528974497539,0.2,1,C153A8
1.2963456921845826,0.3996901772609786,0.3647669584556784,0.21792,-0.49973982170625353,0.06319538043090406,0.2,-1.1019538085672602,0.005987535391660526,0.2,-0.4190109652820782,-0.22444763919539368,0.2,0.8018404235768671,-0.2596869066955332,0.2,-0.015327292683201595,-0.2741098717412005,0.2,1,C153A8
1.3043478260869565,0.40241793069513804,0.03142636343524477,0.21808000000000002,-0.49790818670574616,-0.12342409188287329,0.2,-1.1004331012009236,-0.10713003051943115,0.2,-0.41995062083766477,-0.06094043208873523,0.2,0.7986028994106742,-0.3420523879519369,0.2,-0.015150086731022997,-0.244638561676122,0.2,1,C153A8
1.3123499599893307,0.4001929990759425,-0.11182273393754022,0.21824,-0.5017146071763795,-0.1471202189548583,0.2,-1.1036678890555711,0.07585449868065253,0.2,-0.41998601219549797,-0.32817913359340156,0.2,0.7963675853696361,-0.04122129940926228,0.2,-0.019241509670019547,-0.20439809796070948,0.2,1,C153A8
1.3203520938917046,0.4006287669521374,-0.20557156675289276,0.21840000000000004,-0.5002621102090239,-0.2666571366441231,0.2,-1.0992194292220332,0.0774205500637809,0.2,-0.4252014869751592,-0.6099324835657332,0.2,0.797943358620126,0.19953036822097786,0.2,-0.01842045629839435,-0.08557813037504149,0.2,1,C153A8
1.3283542277940785,0.39690385400789624,-0.269921119714564,0.21856,-0.5059811213626855,0.009729741566377736,0.2,-1.1024291602545506,-0.15515372782864967,0.2,-0.4297449319325497,-0.5596113891619056,0.2,0.7995600712611718,0.15322772248052563,0.2,-0.02061075975602021,-0.12782714361351719,0.2,1,C153A8
1.3363563616964524,0.39631002903670437,0.0568130700141882,0.21872,-0.5001064343439618,-0.0016633990574457802,0.2,-1.1017018888672916,0.12723170506491466,0.2,-0.4341552692017497,-0.27130235981520645,0.2,0.8003950021798144,-0.021429463705945062,0.2,-0.020465690596210624,-0.06885396161377516,0.2,1,C153A8
1.3443584955988264,0.39781286312812325,0.044925564088828945,0.21888000000000002,-0.5060077357476046,-0.0887851916234611,0.2,-1.100393452973512,-0.24861917026190727,0.2,-0.434085769689593,-0.25771523360411386,0.2,0.7992171998418767,-0.09935499983221296,0.2,-0.021712423141840614,-0.3821294265085671,0.2,1,C153A8
1.3523606295012005,0.39702883806212563,-0.15553721762421105,0.21904,-0.5015269974099372,-0.04293929251111134,0.2,-1.105679795591482,-0.17763892166965112,0.2,-0.4382787129394155,-0.47040303709798903,0.2,0.798805322182499,-0.12195812902405373,0.2,-0.026579761420347698,-0.26748305859387433,0.2,1,C153A8
1.3603627634035744,0.3953242676461359,-0.06375423331009614,0.21920000000000003,-0.5066947644277824,-0.1723071859555947,0.2,-1.1032356757202264,0.220705400193269,0.2,-0.44161221828316083,-0.4294696944450935,0.2,0.7972658697774918,-0.03455466011684921,0.2,-0.025992152079342603,-0.03010341928161319,0.2,1,C153A8
1.3683648973059483,0.3960087703291641,-0.17128168838939292,0.21936,-0.5042839123852267,0.10492845082798324,0.2,-1.1021485091883898,-0.09829080066918461,0.2,-0.445150228050537,-0.22862419147512414,0.2,0.7982524476206294,0.05661921914435625,0.2,-0.02706141612885351,-0.3572788639590338,0.2,1,C153A8
1.3763670312083223,0.3925837606319056,-0.20404814274424185,0.21952,-0.5050159092145347,-0.11496193857969683,0.2,-1.1048083285309334,-0.28035106353542505,0.2,-0.4452702053467628,-0.3245830635143047,0.2,0.7981717772838015,0.2615234324932006,0.2,-0.031708613902687144,-0.15299692107514634,0.2,1,C153A8
1.3843691651106962,0.3927440000452562,0.13556646279774126,0.21968000000000001,-0.5061233034025019,-0.12828312368918376,0.2,-1.1066341262049566,0.08549772789435972,0.2,-0.4503435570667659,-0.3954828077400822,0.2,0.8024368225405206,-0.07181370811816523,0.2,-0.02950936686605585,-0.14537374015166463,0.2,1,C153A8
1.3923712990130703,0.39475282403666945,-0.2255620350352025,0.21984,-0.5070684391935616,-0.11674978712730016,0.2,-1.1034403648846236,0.13445748592863516,0.2,-0.45159793027060413,-0.32236866234630274,0.2,0.7970227579539109,-0.6111987970020688,0.2,-0.03403459374511378,-0.35813816901933304,0.2,1,C153A8
1.4003734329154442,0.389135007484693,-0.2430950232821874,0.22000000000000003,-0.5079912999965387,-0.08887237136596254,0.2,-1.1044828064300984,-0.2562241391533132,0.2,-0.4555014556643067,-0.5420399589710841,0.2,0.7926576417884875,-0.10299479143897894,0.2,-0.03523957757036518,-0.3028269943903491,0.2,1,C153A8
1.4083755668178182,0.39086330366415445,-0.019463439713353348,0.22016000000000002,-0.508490397135417,-0.16301949281477546,0.2,-1.1075399511110766,-0.006122667544836147,0.2,-0.4602705696141415,-0.40049388772369493,0.2,0.7953748412908872,0.45295861503776014,0.2,-0.038879825655359364,-0.3138979111976239,0.2,1,C153A8
1.416377700720192,0.38882359244927933,-0.01992146957107907,0.22032,-0.5105996118815751,-0.2034156628603831,0.2,-1.1045807691108158,-0.1291189374936358,0.2,-0.46190935786788584,-0.41751851923812683,0.2,0.7999049796290917,0.10652149661652399,0.2,-0.04026194414952716,-0.2915772197424884,0.2,1,C153A8
1.4243798346225662,0.3905445601510172,-0.019378578610659836,0.22048,-0.5117450477411831,-0.027368110893793984,0.2,-1.1096058541109748,-0.3780918401557476,0.2,-0.4669508659219515,-0.5250291681840151,0.2,0.7970791852367516,-0.2951880389110151,0.2,-0.04354506117123918,-0.1772291488814767,0.2,1,C153A8
1.4323819685249402,0.3885135351915088,-0.01680561927058788,0.22064,-0.5110375016558758,-0.15131370374195374,0.2,-1.1106302385533078,0.07216988871534824,0.2,-0.4703098245588301,-0.29361727762968953,0.2,0.7951819710065154,0.11476562397558926,0.2,-0.04309761053163079,0.02379516242963101,0.2,1,C153A8
1.440384102427314,0.3902756702426878,0.04981528772460969,0.22080000000000002,-0.5141660670010544,0.14023766580092967,0.2,-1.1084511358915292,0.12062175324005497,0.2,-0.47164874236402654,-0.16598633922449563,0.2,0.798915435220361,-0.34209752822095263,0.2,-0.04316433857236508,-0.2580523679824804,0.2,1,C153A8
1.448386236329688,0.38931057979510253,-0.20688661462515273,0.22096000000000002,-0.5087936990030609,0.20233703893710042,0.2,-1.108700290501467,-0.2214268743647857,0.2,-0.472965605986422,-0.40651682298895386,0.2,0.7897084105549802,-0.5522026552309683,0.2,-0.047226448419350475,-0.2919489364819061,0.2,1,C153A8
1.456388370232062,0.38696548440868533,-0.00579397238439916,0.22111999999999998,-0.5109286743780608,-0.3140594717540163,0.2,-1.1119939658813658,-0.26623808546026584,0.2,-0.4781530115318498,-0.4151260209750915,0.2,0.7900801927366655,0.25660298870106013,0.2,-0.04783552155607558,-0.35890318095550083,0.2,1,C153A8
1.464390504134436,0.38921787623695214,-0.060865615049893185,0.22128000000000003,-0.5138186505511252,-0.30669526195750696,0.2,-1.1129600998688312,-0.05396834405013706,0.2,-0.4796076223220235,-0.2129752564375871,0.2,0.7938140583741972,0.16766971202235303,0.2,-0.05296889931463849,-0.17828194495951663,0.2,1,C153A8
1.47239263803681,0.38599163456788704,-0.15501728299407644,0.22144,-0.5158357985693809,-0.2654040377329109,0.2,-1.112857459386168,-0.17856097731865084,0.2,-0.4815606156348512,-0.39913842257274096,0.2,0.7927629081290232,-0.2443003717388023,0.2,-0.050688032675427847,-0.08566098604430565,0.2,1,C153A8
1.480394771939184,0.3867375997090469,-0.25771896044019316,0.22160000000000002,-0.5180651151548518,0.019524858498112807,0.2,-1.1158170755059296,0.11632654790989794,0.2,-0.48599383708318733,-0.4099354026001235,0.2,0.7899052524263763,-0.32870666780215885,0.2,-0.05433947509134738,-0.461495920028354,0.2,1,C153A8
1.4883969058415578,0.38186813120084395,-0.688718105593164,0.22176,-0.5155234008334111,0.039492487414555244,0.2,-1.1109962346196096,-0.03641165423483306,0.2,-0.4881195820764532,-0.24779654975767493,0.2,0.7875036014441886,-0.03688203653278571,0.2,-0.05807196739588151,-0.2506315135285104,0.2,1,C153A8
1.4963990397439317,0.3757181100195563,-0.3623351054580538,0.22192,-0.5174332353562189,-0.4204040631154496,0.2,-1.116399661973687,-0.37118643826226927,0.2,-0.48995858187931013,-0.2813676588341099,0.2,0.7893151398418518,0.2865178756133735,0.2,-0.058349579307803545,-0.27763477142906007,0.2,1,C153A8
1.5044011736463059,0.3760707695135151,0.14986972844833676,0.22208000000000003,-0.5222498658432583,-0.19771192514154295,0.2,-1.116935217631806,0.15932739572398213,0.2,-0.49262146461779893,-0.3155222600497616,0.2,0.7920878874540026,0.12121030857396159,0.2,-0.06251412373874647,0.04862456317143585,0.2,1,C153A8
1.5124033075486798,0.3781160256747297,-0.09201869806471294,0.22224,-0.5205966261584836,-0.1384466938978285,0.2,-1.1138504236421032,-0.11041173268942772,0.2,-0.4950069380401063,-0.42131469567016633,0.2,0.7912545047790351,-0.1978683938741177,0.2,-0.05757158629706057,-0.07849073369845319,0.2,1,C153A8
1.5204054414510537,0.3745984703444797,-0.3774614680798691,0.22240000000000004,-0.5244650129456235,-0.35020169266335166,0.2,-1.1187018053548368,-0.4355425352694092,0.2,-0.4993624997485216,-0.29321056308493837,0.2,0.7889219931520167,-0.24042610479333565,0.2,-0.06376997547792172,-0.5267106125163277,0.2,1,C153A8
1.5284075753534276,0.3720766421854518,0.12841797009069053,0.22256,-0.5261998532410972,-0.17684077439771018,0.2,-1.1208191042064137,0.09261034076091246,0.2,-0.49969830704946533,-0.6181718820392306,0.2,0.7874076871023418,-0.3413596042929762,0.2,-0.06599895609732181,-0.15793524502496092,0.2,1,C153A8
1.5364097092558016,0.37665315786593073,0.07585494212122498,0.22272,-0.5272944653359869,0.20498828103401867,0.2,-1.1172200399026622,-0.08072582571964915,0.2,-0.5092532498611493,-0.6367155017391428,0.2,0.7834602394833291,-0.1985639959878327,0.2,-0.0662969393983211,-0.11608260480519116,0.2,1,C153A8
1.5444118431581757,0.3732903212593914,-0.23215800916125476,0.22288000000000002,-0.5229200407445529,-0.20339936577121187,0.2,-1.1221107174179281,-0.25334410817479114,0.2,-0.5098857550772916,-0.1788054824169022,0.2,0.7842306631665364,0.1924112788320373,0.2,-0.06785627777420487,-0.4402656639449099,0.2,1,C153A8
1.5524139770605496,0.37293862971935066,-0.14427900212769795,0.22304000000000002,-0.5305488551883263,-0.4150578367643973,0.2,-1.1212735456334588,-0.041388662543162535,0.2,-0.5121141375798197,-0.3257752227022945,0.2,0.7865388199446417,0.09083145777601803,0.2,-0.07334119002143966,-0.15918551908352274,0.2,1,C153A8
1.5604161109629235,0.3709818572253482,-0.24475102501577903,0.22320000000000004,-0.5295609661327833,-0.10144919288784804,0.2,-1.1227729360186187,0.0811191580681464,0.2,-0.5150981586405283,-0.2608403664619771,0.2,0.7856839664909527,-0.26718306604022607,0.2,-0.07040324607954124,-0.033285429935981,0.2,1,C153A8
1.5684182448652975,0.3690226133190982,-0.22045281242705564,0.22336,-0.5321720422745319,0.10146004148076787,0.2,-1.1199756391043685,-0.3031794182133396,0.2,-0.5162875834432114,-0.22224782686572353,0.2,0.7822638908879981,-0.3439708322302282,0.2,-0.07387375690041535,-0.09446411256205325,0.2,1,C153A8
1.5764203787676716,0.3674546122265153,0.026724605548828634,0.22352,-0.527937605469091,-0.051168019957283095,0.2,-1.1276238067100322,-0.4487775735856625,0.2,-0.5186541238703799,-0.3252398400843612,0.2,0.7801804331752691,0.14187948096158753,0.2,-0.07191467188053409,-0.017183636073433116,0.2,1,C153A8
1.5844225126700455,0.36945020700787945,-0.3507098727356904,0.22368000000000002,-0.5329907305938484,-0.7170286465040393,0.2,-1.127156080281739,0.19677814244967173,0.2,-0.5214914208845611,-0.35114169639274134,0.2,0.7845339625833835,0.25523352933289056,0.2,-0.07414869507759028,-0.16060073230593583,0.2,1,C153A8
1.5924246465724194,0.3618432542627443,-0.37547097524480777,0.22384,-0.5394100638131556,-0.34775612397689587,0.2,-1.1244753564308374,-0.1085416118498106,0.2,-0.5242723910126638,-0.4092969722616288,0.2,0.7842641696445953,-0.23149625029124377,0.2,-0.07448428359742906,-0.22787906641962874,0.2,1,C153A8
1.6004267804747934,0.3634426714039625,-0.0784795364493461,0.22400000000000003,-0.5385548285774787,-0.006162241049233186,0.2,-1.128892746071336,-0.25363119853780147,0.2,-0.5280401724407472,-0.5840604250247002,0.2,0.7808300225787236,-0.3429083077298514,0.2,-0.07779476014030434,-0.21583867711516286,0.2,1,C153A8
1.6084289143771673,0.36058758167955474,-0.47470685738410995,0.22416000000000003,-0.5395086596699433,-0.16475732642131508,0.2,-1.1285334556074422,-0.020820518949596356,0.2,-0.533617357813059,-0.3950492947805209,0.2,0.7787776367209177,0.1767844677144914,0.2,-0.07793770243127167,-0.2317573605224721,0.2,1,C153A8
1.6164310482795414,0.35584736168581677,-0.3005272562797909,0.22432,-0.5411909458002198,-0.328577541463565,0.2,-1.1292258743745296,-0.029884246230668654,0.2,-0.5343609611572355,-0.2128574103991629,0.2,0.7836585740621554,-0.05218529320729498,0.2,-0.0815028779086639,-0.2371631555050978,0.2,1,C153A8
1.6244331821819153,0.3557791455790781,-0.1589509050385421,0.22448,-0.5447659003333604,-0.3666172361744338,0.2,-1.129011603547133,-0.0988380418714685,0.2,-0.5370230763794456,-0.40573491039794934,0.2,0.777942672029601,-0.3618567653815505,0.2,-0.08173231291935323,0.08565463852239132,0.2,1,C153A8
1.6324353160842893,0.3533041472052001,0.007094227669736386,0.22464,-0.5470568215790107,-0.05594563916510448,0.2,-1.130807283044473,-0.24152152977245656,0.2,-0.5408527197236027,-0.374487874269587,0.2,0.7778688658160506,-0.2650786654054271,0.2,-0.08013240369230563,-0.10532036970212123,0.2,1,C153A8
1.6404374499866632,0.35589265322179386,-0.11323614386978681,0.22480000000000003,-0.545661030560002,-0.28886282807900204,0.2,-1.1328759480234922,-0.5508696450240436,0.2,-0.543014882367759,-0.2581050053110656,0.2,0.7737014133831142,0.10978338697797962,0.2,-0.08341743883458717,-0.23025078435759666,0.2,1,C153A8
1.648439583889037,0.3514923689032835,-0.35106692174375825,0.22496000000000002,-0.5516786268282747,-0.09442500096144835,0.2,-1.1396211973648578,-0.2721287356050872,0.2,-0.5449823998085798,-0.24083064241537527,0.2,0.7796254000076983,-0.12915136357109086,0.2,-0.08381641624202718,-0.14174462537680424,0.2,1,C153A8
1.6564417177914113,0.35027558247389373,-0.19193506942624672,0.22512,-0.5471718305753852,-0.14477841286020948,0.2,-1.1372300077931736,0.021314961279120248,0.2,-0.546868172646405,-0.07745178824788285,0.2,0.7716349915659767,-0.12175543205363015,0.2,-0.08568535284061604,-0.23151238906810034,0.2,1,C153A8
1.6644438516937852,0.34842140779246356,-0.5668977760193601,0.22528000000000004,-0.5539950814340381,-0.2939744028434138,0.2,-1.1392801579843919,-0.2936971734836813,0.2,-0.5462216284205459,-0.27904421316920364,0.2,0.7776773130948402,-0.11775390225987614,0.2,-0.08752061446711679,-0.15716033718422925,0.2,1,C153A8
1.672445985596159,0.34120521805758397,-0.4000214458913798,0.22544,-0.5518754210208798,-0.20844692694863692,0.2,-1.1419291625689125,-0.014330468332421353,0.2,-0.5513328800571122,-0.5391099587767691,0.2,0.7697509291298187,-0.46360982596479333,0.2,-0.08819991823556371,0.0009617825275235262,0.2,1,C153A8
1.680448119498533,0.3420210646582015,-0.21027303076441572,0.22560000000000002,-0.5573302322652163,-0.43304195430540066,0.2,-1.1395094454777106,-0.30751588995441004,0.2,-0.5548473877609742,-0.2324499516347181,0.2,0.7702595558794035,-0.11411250817087298,0.2,-0.08750522594667641,-0.020772374299669882,0.2,1,C153A8
1.6884502534009072,0.3378408495653533,-0.15033815628847508,0.22576000000000002,-0.5588040922897662,-0.3085625648642301,0.2,-1.146849416808183,-0.5705213832726541,0.2,-0.5550520792832677,-0.4419547780407304,0.2,0.7679251289990847,-0.05314106503011978,0.2,-0.08853227622435843,-0.3091215533063008,0.2,1,C153A8
1.696452387303281,0.3396156541575859,0.003561528041040596,0.22592,-0.562267233303044,-0.3122479786088275,0.2,-1.148637787610073,-0.15997769494160985,0.2,-0.5619186642096259,-0.2712739560378555,0.2,0.7694092988389216,0.04746028933622776,0.2,-0.09245117079957722,-0.18684797591762922,0.2,1,C153A8
1.704454521205655,0.33789783401400997,-0.34064911145108634,0.22608000000000003,-0.5638000599475075,-0.053504653347712094,0.2,-1.1494090599272488,-0.11557741728855653,0.2,-0.5593924625798734,-0.0278445986048384,0.2,0.7686844936284644,0.11841180114106203,0.2,-0.0915218438390405,0.047946102656866614,0.2,1,C153A8
1.712456655108029,0.3341652683743685,-0.5149837556383332,0.22624,-0.5631233077566073,-0.40742768600000867,0.2,-1.15048702628669,0.0764243667954051,0.2,-0.5623641777873033,-0.47234079789115757,0.2,0.7713038876571786,-0.2388341774826816,0.2,-0.09168403315706736,-0.027270406426893254,0.2,1,C153A8
1.7204587890104028,0.32965809392379664,-0.2568960183122713,0.22640000000000005,-0.5703189029235076,-0.6030852513549192,0.2,-1.1481862700585224,-0.2588345587273,0.2,-0.5669499153461319,-0.23534915732106865,0.2,0.7648631467887415,-0.34596645950451393,0.2,-0.09195817034187079,-0.015521618215542238,0.2,1,C153A8
1.728460922912777,0.33005493208137215,-0.024640099858454223,0.22656,-0.5727726717782861,-0.14931197555322073,0.2,-1.1546283792263268,-0.3252536762287095,0.2,-0.5661297643044404,-0.29278209811456346,0.2,0.7657684243051064,-0.0577208679634067,0.2,-0.09193237904851603,-0.08438721321766834,0.2,1,C153A8
1.736463056815151,0.32926385232606137,-0.4104295009262938,0.22672,-0.5727078945323592,0.03789392189983143,0.2,-1.1533903288781817,-0.1665801716824733,0.2,-0.5716344289159649,-0.6785644560677734,0.2,0.763939612901327,-0.359847364833403,0.2,-0.09330836575335348,-0.18228449791051013,0.2,1,C153A8
1.7444651907175248,0.32348806006655145,-0.29731728655714784,0.22688000000000003,-0.5721663690278888,-0.43281748463019215,0.2,-1.1572936619732463,-0.36556600792059246,0.2,-0.5769867956015248,-0.18770935315017695,0.2,0.7600108664677719,-0.21530931348962,0.2,-0.0948489310150842,-0.2275604626356788,0.2,1,C153A8
1.7524673246198987,0.324506775741147,-0.23229473684070398,0.22704000000000002,-0.5796329742864422,-0.53652175204736,0.2,-1.1592393850049112,-0.23423530485658373,0.2,-0.5746377785663678,-0.15500433436133748,0.2,0.760494663885493,-0.14109595204963438,0.2,-0.09694933315552434,-0.13157112702526144,0.2,1,C153A8
1.7604694585222727,0.3197713442771002,-0.32401550719603905,0.22720000000000004,-0.5807507170606465,-0.14917757351951694,0.2,-1.1610414268509517,-0.2752019890125412,0.2,-0.5794668649513062,-0.4255390028723785,0.2,0.7577533312349778,-0.22838505013305505,0.2,-0.09695406904748838,0.1926593318166414,0.2,1,C153A8
1.7684715924246468,0.3193225276260104,-0.29492328904827736,0.22736,-0.5820198154627545,-0.4468353943586009,0.2,-1.1636426168291119,-0.28256896568161494,0.2,-0.5814464026123258,-0.2808431872626596,0.2,0.7568405030833641,-0.07320527569870672,0.2,-0.09386678384645808,-0.02770172662789304,0.2,1,C153A8
1.7764737263270207,0.31505257165232775,-0.15894045887430291,0.22752,-0.5879000833703841,-0.28190958373382896,0.2,-1.1655625303018575,-0.1659158012728007,0.2,-0.5839603559475087,-0.4277612294115718,0.2,0.7565820468237985,0.0994143074296433,0.2,-0.09739729667353467,-0.17655176805175982,0.2,1,C153A8
1.7844758602293946,0.31677948028402153,-0.20114917717063696,0.22768000000000002,-0.5865303688024958,-0.2793887499730058,0.2,-1.1662972696494767,0.06319123747298983,0.2,-0.588290582282911,-0.41842796879193456,0.2,0.7584311320022384,0.029285100384773832,0.2,-0.09669161213528624,-0.07490601341160213,0.2,1,C153A8
1.7924779941317686,0.31183418481759756,-0.6591639688713173,0.22784000000000001,-0.5923703033699522,-0.3329234388557492,0.2,-1.1645514705022897,0.02400042590257334,0.2,-0.5906552034481797,-0.14316650145033277,0.2,0.7570506084299549,-0.27287279115609936,0.2,-0.0985957928881203,-0.26073320108639314,0.2,1,C153A8
1.8004801280341425,0.30623285678208045,-0.4045120220405006,0.22799999999999998,-0.5918571438241877,-0.3858243689590715,0.2,-1.1659132628350355,-0.4702363278478727,0.2,-0.5905812463061163,-0.14700699597908207,0.2,0.7540651673437408,-0.001208362147696318,0.2,-0.10086334335266853,-0.143666670797956,0.2,1,C153A8
1.8084822619365166,0.30536199246494955,0.012425332945615458,0.22816000000000003,-0.5985434932732974,-0.2282819373501388,0.2,-1.1720752517478557,-0.18828074073010126,0.2,-0.593007315383845,-0.2639298149748545,0.2,0.7570312746355917,-0.11292641697269179,0.2,-0.1008944596208876,0.3054382874419989,0.2,1,C153A8
1.8164843958388905,0.3064316621092103,-0.37490479925871706,0.22832,-0.59550965482179,-0.21805838643060987,0.2,-1.1689257546867171,-0.30839166802423823,0.2,-0.594804123345714,-0.4922277997557595,0.2,0.7522583446721778,-0.326339295203891,0.2,-0.09597633075359654,-0.0704953992132799,0.2,1,C153A8
1.8244865297412645,0.2993635156768101,-0.2767061395064149,0.22848000000000002,-0.6020324274561871,-0.5395553537049236,0.2,-1.1770095184362435,-0.551251720687207,0.2,-0.6008829601799371,-0.03989018213666762,0.2,0.7518098459123295,-0.16181576147908383,0.2,-0.10202238600830008,-0.28172952336693363,0.2,1,C153A8
1.8324886636436384,0.30200436387710766,-0.2132405388293214,0.22864,-0.6041425404810687,-0.17628476304357155,0.2,-1.1777457822177124,-0.12817069502565892,0.2,-0.5954423662599007,0.13176599537404604,0.2,0.7496692924885124,-0.21780918075772066,0.2,-0.10048400312746748,0.3850284445797583,0.2,1,C153A8
1.8404907975460125,0.29595166705554093,-0.44303574703741244,0.2288,-0.6048529836648843,-0.18551843956528952,0.2,-1.179060249556654,-0.30437710519987116,0.2,-0.5987747042539524,-0.7576212046072062,0.2,0.7483248990202059,-0.11861504211477247,0.2,-0.09586193089502394,-0.1275445391442781,0.2,1,C153A8
1.8484929314483864,0.29491579192450906,-0.5500477745283388,0.22896000000000002,-0.6071108355141134,-0.48822695091378654,0.2,-1.1826158159009104,-0.24083682271167084,0.2,-0.607564305533616,-0.5167414979635049,0.2,0.7477714518146761,-0.09595815098242116,0.2,-0.10252471575377593,-0.25178993161522645,0.2,1,C153A8
1.8564950653507604,0.2871509026630875,-0.4165085361768038,0.22912,-0.6126646148795049,-0.42536314880706194,0.2,-1.1829136387200407,-0.2853872537383756,0.2,-0.6070425682213685,-0.2851421148273581,0.2,0.7467895686044872,-0.4129763892161756,0.2,-0.09989056980086757,0.015074760659396051,0.2,1,C153A8
1.8644971992531343,0.2882516553456802,-0.2345287014660219,0.22928000000000004,-0.6139166458950264,-0.1288430809185323,0.2,-1.1871820119607244,-0.2817542700629949,0.2,-0.6121265793708537,-0.26063645953513376,0.2,0.7411638295872173,-0.2099245696864302,0.2,-0.1022835195832256,0.16695590446235645,0.2,1,C153A8
1.8724993331555082,0.28339844343963116,-0.41085122048772904,0.22944,-0.6147261041742014,-0.3354393631970487,0.2,-1.1874217070410487,0.06168762537009376,0.2,-0.6112127515739306,-0.13667581535978246,0.2,0.7434307754895043,-0.29385919478020633,0.2,-0.09721927532946986,-0.11005152963081133,0.2,1,C153A8
1.8805014670578823,0.28167803581787654,-0.43717013151104916,0.2296,-0.6192836757061791,-0.5654865347090101,0.2,-1.1861950099548029,-0.13218706465871477,0.2,-0.6143133924166102,-0.4145637513085221,0.2,0.736462082470734,-0.3146329750695759,0.2,-0.10404434405731858,0.08401319637957316,0.2,1,C153A8
1.8885036009602563,0.2764037213354544,-0.5082545937291245,0.22976000000000002,-0.6237738887295455,-0.2891077508585735,0.2,-1.189536700075588,-0.4500236766822596,0.2,-0.617845771594867,-0.31166082428010083,0.2,0.7383966478883911,0.11160936640618874,0.2,-0.09587506418739669,0.25079244203861023,0.2,1,C153A8
1.8965057348626302,0.27354596231821054,-0.11327646702597241,0.22992,-0.6239093997199163,-0.2618005678597865,0.2,-1.193395388781719,-0.46474967720304405,0.2,-0.6192999656050918,-0.06152923845040292,0.2,0.738247832333233,-0.04301664521538795,0.2,-0.10003166498470081,-0.07442514013653208,0.2,1,C153A8
1.904507868765004,0.2745912978630388,-0.291354252916029,0.23008000000000003,-0.6279626978153021,-0.5186374426587522,0.2,-1.1969726949108368,-0.30094442070680016,0.2,-0.6188302394100734,-0.1230688656989748,0.2,0.7377083815649449,-0.14431075631197304,0.2,-0.0970658664295812,0.02906944795647102,0.2,1,C153A8
1.912510002667378,0.2688842942715541,-0.46955179009925546,0.23024,-0.6322075988024564,-0.3419352618553792,0.2,-1.1982104995130278,-0.28915462902831535,0.2,-0.6212690674562754,-0.4472171629760213,0.2,0.7359388602322414,-0.1644460649205537,0.2,-0.09956655381739728,-0.13903793301128525,0.2,1,C153A8
1.9205121365697522,0.26707846922145073,-0.17332646010077835,0.23040000000000005,-0.6334336620049882,-0.30880031777130723,0.2,-1.2015991689752898,-0.26551738972169225,0.2,-0.6259857140176898,-0.12966888675859656,0.2,0.735077244526216,-0.08010897653466104,0.2,-0.09929047335776177,0.02776605557324157,0.2,1,C153A8
1.928514270472126,0.2661110709099416,-0.4515285631355448,0.23056000000000001,-0.6371484038867973,-0.5149209413333674,0.2,-1.202458777748575,-0.28229499690757276,0.2,-0.623343769644413,-0.12382081996543254,0.2,0.7346571166076868,-0.24751446563531926,0.2,-0.09912229692822541,0.0235813572208015,0.2,1,C153A8
1.9365164043745,0.259854012211282,-0.634441333227237,0.23072,-0.6416723970663221,-0.3270740313236348,0.2,-1.206115888925811,-0.3231067978537311,0.2,-0.6279668471371367,-0.23675052984840905,0.2,0.7311170130760509,-0.32801333649642994,0.2,-0.09891317164222894,0.11162272216669149,0.2,1,C153A8
1.944518538276874,0.25596000957830584,-0.6057999257234187,0.23088000000000003,-0.6423815883879754,-0.2435896421246614,0.2,-1.2076284865142346,-0.2535881780697802,0.2,-0.6271317781219875,-0.2681426488381211,0.2,0.729408903223744,-0.3374144393546441,0.2,-0.09733633337355835,0.16940309017980312,0.2,1,C153A8
1.9525206721792479,0.2501612133997073,-0.2607748589676523,0.23104000000000002,-0.6455698313403166,-0.5285951574149697,0.2,-1.2101732997749275,0.032114838666372214,0.2,-0.6322571295185466,-0.5764036552189724,0.2,0.7257183820463766,-0.1269624121190277,0.2,-0.0962027221993521,0.11662614569010656,0.2,1,C153A8
1.960522806081622,0.2517876118348234,-0.3350616312783605,0.23120000000000004,-0.650839110906615,-0.39758589084133017,0.2,-1.2071146490955726,-0.46676124092057125,0.2,-0.6363542366054911,-0.027643844626924763,0.2,0.7273775046298395,-0.2039833175950731,0.2,-0.09547031504251664,0.09604658993977738,0.2,1,C153A8
1.968524939983996,0.24480022729925355,-0.24913949998673843,0.23136,-0.6519312055937779,-0.3442267208619426,0.2,-1.2176414796296566,-0.6327636299499756,0.2,-0.6326994310325774,0.022400420792378917,0.2,0.7224546489648555,-0.5783755090216641,0.2,-0.09466597676031566,0.07839957679274707,0.2,1,C153A8
1.9765270738863698,0.24780137983503558,-0.1636731995068169,0.23152,-0.656346738440406,-0.5868794951377001,0.2,-1.2172388671747723,0.12205054440767027,0.2,-0.635995829872813,-0.13106654020841185,0.2,0.7181234964854929,-0.24876727470333343,0.2,-0.09421592181383269,0.037801241757172074,0.2,1,C153A8
1.9845292077887438,0.24218145610714448,-0.6531080706462001,0.23168000000000002,-0.6613212775159811,-0.4292090794844952,0.2,-1.215688670919134,-0.10490563249714036,0.2,-0.634796495675912,-0.36738320446167566,0.2,0.7184743725696021,0.1502511209668725,0.2,-0.0940611568922009,-0.049634203555784864,0.2,1,C153A8
1.992531341691118,0.23735165070469638,-0.6818951122084543,0.23184000000000002,-0.663214083712158,-0.3314495940171455,0.2,-1.2189173572947265,-0.34915200103941,0.2,-0.6418739611441998,-0.5213342656827171,0.2,0.7205275144209629,-0.06929035655449389,0.2,-0.09501006907072525,-0.04066575280369314,0.2,1,C153A8
2.0005334755934916,0.2312711343118092,-0.5238776532256114,0.23200000000000004,-0.6666244710202555,-0.2565848546219815,0.2,-1.2212751029357645,-0.5153173100719,0.2,-0.6431378439268355,-0.055282563410322116,0.2,0.7173657268647302,-0.2701654705672546,0.2,-0.09471180893706,-0.11400599072848831,0.2,1,C153A8
2.0085356094958655,0.2289696082530866,-0.3047011256727666,0.23216000000000003,-0.6673194413861097,-0.19388138745608796,0.2,-1.227162434255877,-0.5298620223804923,0.2,-0.642758482158765,-0.19063466741327945,0.2,0.7162048668918868,-0.21561877540263868,0.2,-0.09683416492238106,-0.013548114223096638,0.2,1,C153A8
2.01653774339824,0.22639591630104494,-0.22822972889998022,0.23232,-0.6697265732195529,-0.496166022760626,0.2,-1.2297528952938523,-0.49328547093185904,0.2,-0.646187998605448,-0.3505796079809262,0.2,0.713915826458288,-0.33958538930095594,0.2,-0.09492857876462954,0.35040526493745283,0.2,1,C153A8
2.024539877300614,0.22531793259068691,-0.19526873062588115,0.23248000000000002,-0.6752580977502797,-0.6589004395644998,0.2,-1.2350550017907866,-0.060119314744311314,0.2,-0.6483677558864598,-0.37441196809777366,0.2,0.7107715006630715,0.09295889251349082,0.2,-0.09122768068338181,0.09019531160067619,0.2,1,C153A8
2.0325420112029877,0.22327161661103084,-0.3782803456576344,0.23264,-0.6802689802525849,-0.48793587275246936,0.2,-1.2307148043297613,-0.13618011661774287,0.2,-0.6521785900950123,-0.12837522693971704,0.2,0.7154031687385038,-0.05624708302350706,0.2,-0.09348545377901872,-0.04423849461258032,0.2,1,C153A8
2.0405441451053616,0.21926544706016476,-0.48241327993856287,0.2328,-0.6830650717143192,-0.2546709136503414,0.2,-1.2372338836566705,-0.2922131444118292,0.2,-0.6504217595174953,-0.06164868327412226,0.2,0.7098715473346954,-0.44261839613084913,0.2,-0.0919354965971831,0.22080636294537734,0.2,1,C153A8
2.0485462790077356,0.21555300413201384,-0.40880624349415307,0.23296000000000003,-0.6843437148709903,-0.4241992717402693,0.2,-1.2353902146403506,-0.3735727436825764,0.2,-0.6531649690273983,-0.2068044692346213,0.2,0.7083212744004103,-0.18162455571985037,0.2,-0.08995255197189268,0.2355920525093525,0.2,1,C153A8
2.0565484129101095,0.21272454716425832,-0.4509589907954782,0.23312,-0.6898522600621635,-0.5581776712645925,0.2,-1.2432110475555918,-0.6382578025023317,0.2,-0.6537306310252492,-0.387561167373332,0.2,0.7069655544431778,-0.17528736681156343,0.2,-0.08816602375703346,0.1468274692134081,0.2,1,C153A8
2.0645505468124834,0.20833766027928619,-0.7525869935746873,0.23328,-0.6932745576112238,-0.464501333652792,0.2,-1.245602339480388,0.016637007728095843,0.2,-0.6593659477053716,-0.3339427704951575,0.2,0.7055166765314252,-0.5141011559990429,0.2,-0.08760331246447815,0.029282398866557237,0.2,1,C153A8
2.0725526807148573,0.20068315526706332,-0.36181201110229916,0.23344,-0.6972842814006082,-0.3504579511112785,0.2,-1.2429448554319422,-0.2804482570952088,0.2,-0.6590737153531717,-0.024728031212915835,0.2,0.6987399359471931,-0.32496863756687616,0.2,-0.08769750537516854,0.13967427862878085,0.2,1,C153A8
2.0805548146172312,0.2025486681016494,-0.03458755911912165,0.2336,-0.6988818848290043,-0.3515954084785111,0.2,-1.2500895115939112,-0.5655789254265242,0.2,-0.6597615962047783,0.03667907432556433,0.2,0.7003171783303552,0.012134264584948151,0.2,-0.08536852400641766,0.4001159513627355,0.2,1,C153A8
2.0885569485196056,0.20012975432115737,-0.5106548487141868,0.23376000000000002,-0.7029098079362643,-0.4012455846548399,0.2,-1.2519941182387666,-0.2908541460941716,0.2,-0.6584868501639627,-0.26156929063017587,0.2,0.6989340841805523,0.14408522966596893,0.2,-0.08129565015336478,-0.16886376634722267,0.2,1,C153A8
2.0965590824219795,0.1943781905222224,-0.6213173800212763,0.23392000000000002,-0.7053018141834817,-0.25799860776015704,0.2,-1.254743177931418,-0.25654695089810664,0.2,-0.6639467048548611,-0.2911955140281336,0.2,0.7026225420050107,-0.3173850590633409,0.2,-0.08807034426797322,-0.18978305836107878,0.2,1,C153A8
2.1045612163243534,0.19018867624081695,-0.38021482570339826,0.23407999999999998,-0.7070377856604269,-0.369736676069779,0.2,-1.2560988694531363,-0.37156804447485703,0.2,-0.6631459783884128,-0.06518951501344877,0.2,0.6938559232355388,-0.6114636880072272,0.2,-0.08433217908714204,0.32854126719389537,0.2,1,C153A8
2.1125633502267274,0.18829475331096804,-0.30099998323231647,0.23424,-0.7112176010005982,-0.4756014982912615,0.2,-1.2606882666430157,-0.5919439386862652,0.2,-0.6649897370950762,-0.4387890192818211,0.2,0.6928391229968951,-0.06026380768792833,0.2,-0.0828136839928709,0.1429410903746155,0.2,1,C153A8
2.1205654841291013,0.1853726765090999,-0.5418543626135065,0.2344,-0.714647409633087,-0.4892896519298473,0.2,-1.2655699724721166,-0.28059811190869755,0.2,-0.670166602696922,-0.24569246187688965,0.2,0.6928917023125319,-0.28317614059942403,0.2,-0.08204512164114819,0.11891317801421361,0.2,1,C153A8
2.128567618031475,0.17962508350915193,-0.5772010748063567,0.23456000000000002,-0.7190462354314757,-0.3429293379819953,0.2,-1.2651778364335549,-0.03439063242924312,0.2,-0.6689208164851065,0.26370512423590925,0.2,0.6883083047473043,-0.4431127514456165,0.2,-0.08091107314464348,-0.028182447890791155,0.2,1,C153A8
2.136569751933849,0.17613745931219818,-0.47003540375692954,0.23472,-0.720134279040799,-0.8070681157432771,0.2,-1.2661202225909844,-0.29903698158269265,0.2,-0.6659473207091474,-0.029931977905704732,0.2,0.6858018982894021,0.05774856658240929,0.2,-0.08249604080740085,0.3645215992591601,0.2,1,C153A8
2.144571885836223,0.17210451704904106,-0.413671926295045,0.23487999999999998,-0.7319593252833682,-0.8884427057340577,0.2,-1.269962428138878,-0.4064735922286872,0.2,-0.6693997281315978,-0.3673458669619864,0.2,0.6892322818126229,-0.22613361197974802,0.2,-0.07507872755649692,0.39856738750409204,0.2,1,C153A8
2.152574019738597,0.16951870849147746,-0.30060175496880553,0.23504000000000003,-0.7343493623325439,-0.053909409574635914,0.2,-1.2726238000666434,-0.29125719167703845,0.2,-0.6718248545805392,-0.30240681067704445,0.2,0.6821837604977261,-0.48472790226125606,0.2,-0.07611896260733537,-0.12502158650545997,0.2,1,C153A8
2.160576153640971,0.16729488896954017,-0.6880820689425734,0.2352,-0.7328218758365623,-0.15507632631896195,0.2,-1.2746225432057106,-0.24338210384280967,0.2,-0.6742382371024305,-0.163363221456804,0.2,0.6814766353764428,-0.21596187688516233,0.2,-0.07707907294058428,0.22579796980535907,0.2,1,C153A8
2.1685782875433453,0.15850939538839628,-0.6995826165432182,0.23536,-0.7368305835536473,-0.42449330273382213,0.2,-1.2765179137281284,-0.48828927425433044,0.2,-0.6744386661238481,-0.11980974148409484,0.2,0.6787283704675635,0.0011855238202726492,0.2,-0.07250619509044963,0.3336225845270747,0.2,1,C153A8
2.176580421445719,0.15610156710484868,-0.3847934554486419,0.23552,-0.7396137686803035,-0.6293801851948722,0.2,-1.2824351715937798,-0.4556485691566414,0.2,-0.676155192966176,-0.18842691886470503,0.2,0.6814956037575671,0.006533311293147048,0.2,-0.07174111158815108,0.11898519664844866,0.2,1,C153A8
2.184582555348093,0.152352700101218,-0.3343104415981634,0.23568,-0.7469006665167652,-0.5125972184184951,0.2,-1.2838082908346347,-0.3905938520195329,0.2,-0.6774534968256833,0.05459005702606462,0.2,0.6788329034482539,-0.5285690679855681,0.2,-0.07060243194407445,0.12154565653825673,0.2,1,C153A8
2.192584689250467,0.15075260003927807,-0.1803916834355445,0.23584000000000002,-0.7478153241749994,-0.25173454858799793,0.2,-1.2886846732260924,-0.3174304028634306,0.2,-0.675281752053759,-0.08490803712186967,0.2,0.673038498669798,-0.3216206557406509,0.2,-0.06979638108353897,0.10401866065368105,0.2,1,C153A8
2.200586823152841,0.1494664331662493,-0.3514974207922093,0.236,-0.7509284192941732,-0.6350840994024248,0.2,-1.2888871772804495,-0.5138147987474723,0.2,-0.6788120254196333,-0.2917226785347435,0.2,0.6736869729564035,-0.10187208169455675,0.2,-0.06893813337361555,0.185371953194317,0.2,1,C153A8
2.208588957055215,0.14512864130660272,-0.6011476039666473,0.23616000000000004,-0.7579766697654382,-0.5183551103337333,0.2,-1.296905710006052,-0.3692527586997285,0.2,-0.6799493149103149,-0.12043218566716585,0.2,0.6714085453626851,-0.4164350825724694,0.2,-0.0668304298324299,0.4490910500090633,0.2,1,C153A8
2.2165910909575888,0.13984807150278294,-0.7906362176157509,0.23632,-0.7592221010595129,-0.3052261144950788,0.2,-1.2947952214196452,-0.13819741276765996,0.2,-0.6807389403903079,-0.2709767988629333,0.2,0.6670240116352439,-0.401758824919482,0.2,-0.06175267657347054,0.10499625898950475,0.2,1,C153A8
2.2245932248599627,0.1324784618247507,-0.6634943676690451,0.23648,-0.7628602875973595,-0.5016219391694651,0.2,-1.2991168686103345,-0.6190992555677594,0.2,-0.6842849436921218,-0.06054906587356357,0.2,0.6649804041639734,-0.0034543583779869658,0.2,-0.06515048968859782,0.02966881814551233,0.2,1,C153A8
2.2325953587623366,0.12923216162007822,-0.013807408443377439,0.23664000000000002,-0.7672480520862244,-0.7866156468935084,0.2,-1.3047008095087294,-0.4794837236552357,0.2,-0.6817077254442849,-0.008046806559844355,0.2,0.6669687419011961,0.03944706790331293,0.2,-0.061277975483142344,0.2668081447889585,0.2,1,C153A8
2.240597492664711,0.13225754328965666,-0.23660759472606505,0.2368,-0.7754461379476556,-0.4427967040336045,0.2,-1.3067886081888183,-0.17107139318359166,0.2,-0.6844136925970793,-0.07068895017346005,0.2,0.6656115572504264,-0.37271254496355766,0.2,-0.06088155937197449,0.12673526672648877,0.2,1,C153A8
2.248599626567085,0.12544644010446118,-0.7739467503157532,0.23696000000000003,-0.774332799350762,-0.1414391286856942,0.2,-1.3074379517996668,-0.21269283518406124,0.2,-0.6828387486470603,-0.14501159654023432,0.2,0.6610053411817792,-0.3110990104076422,0.2,-0.059250211215518524,0.1486129022988847,0.2,1,C153A8
2.256601760469459,0.11987439528460461,-0.582888168240917,0.23712,-0.7777091640066267,-0.7447562110406425,0.2,-1.3101916935517632,-0.3634706006386129,0.2,-0.686733878141723,-0.24835476033755605,0.2,0.6606339730839041,-0.1068191265218496,0.2,-0.05850375293519233,0.260854053602674,0.2,1,C153A8
2.2646038943718327,0.11612022941260651,-0.3900483876444474,0.23728,-0.7862488987274123,-0.8345824795971263,0.2,-1.3132534814098846,-0.43159657434299614,0.2,-0.6868124248124612,-0.2099578893489107,0.2,0.6592962351574296,-0.15090666345446424,0.2,-0.05507654635787574,0.11842126947580371,0.2,1,C153A8
2.2726060282742067,0.11363362108229345,-0.3898319910991968,0.23744,-0.7910624836801807,-0.1905272919261805,0.2,-1.3170972387412512,-0.3069108626251732,0.2,-0.6900932043713056,0.05338093825139195,0.2,0.6582194664686327,-0.2988712528280771,0.2,-0.05660901262357947,0.15107593433217464,0.2,1,C153A8
2.2806081621765806,0.10988291755501936,-0.7152086179544612,0.2376,-0.7892973353982312,-0.10508560284593071,0.2,-1.3181640552118874,-0.18848831695345014,0.2,-0.6859583298004389,0.12102846811169049,0.2,0.6545142951121804,-0.18196034540764877,0.2,-0.052659331408560946,0.13089358588234434,0.2,1,C153A8
2.2886102960789545,0.10219028319502207,-0.5099236232502654,0.23776000000000003,-0.7927438533257156,-0.712880274815364,0.2,-1.3201130518125064,-0.4266386313955539,0.2,-0.6881567488815186,-0.060978314496494546,0.2,0.6553081009421103,-0.19723566032654044,0.2,-0.05451471524946196,0.3452536850472453,0.2,1,C153A8
2.2966124299813284,0.10172413958301511,-0.45941918582160113,0.23792000000000002,-0.800703419795277,-0.852320484045016,0.2,-1.3249902733142163,-0.4597151717524173,0.2,-0.6869339828323828,-0.40608225979146123,0.2,0.6513585245469558,-0.2999533301312751,0.2,-0.04713527244780502,0.5975165649888636,0.2,1,C153A8
2.3046145638837023,0.09483957622187646,-0.5982647531251988,0.23807999999999999,-0.8063809810704359,-0.35473566588665323,0.2,-1.327468494560545,-0.10882762271033353,0.2,-0.694654065038182,-0.13510858628398847,0.2,0.6505088476600099,-0.33661468476011563,0.2,-0.044954450209640145,0.2530857183302309,0.2,1,C153A8
2.3126166977860763,0.09215190353301193,-0.40911919394944707,0.23824,-0.8063791904494635,-0.24422674120641585,0.2,-1.3267315152775816,-0.38357811540391806,0.2,-0.6890957202129266,0.06685977049954855,0.2,0.6459726895907939,-0.20049586929846153,0.2,-0.043085900954521326,0.1947508214870039,0.2,1,C153A8
2.3206188316884506,0.0882936691186853,-0.1170955008197444,0.2384,-0.8102886089297385,-0.4213386911639111,0.2,-1.3336057444070077,-0.6549015283405235,0.2,-0.6935843087101892,-0.2291002399935002,0.2,0.6473009137512346,-0.10011152353814334,0.2,-0.04183843706584808,0.08891599291975266,0.2,1,C153A8
2.3286209655908245,0.09027837551989602,-0.3216969279216924,0.23856000000000002,-0.8131206095080861,-0.5112747222974847,0.2,-1.33720993973103,-0.32373188089296345,0.2,-0.6927613240528226,0.022743367083945254,0.2,0.6443709052141836,-0.5923517129509254,0.2,-0.041663245067805284,0.11929442643682968,0.2,1,C153A8
2.3366230994931985,0.08314651827193822,-0.8623222257286983,0.23872000000000002,-0.8184690044864983,-0.4072903312897086,0.2,-1.3387854545012952,-0.4567844747527666,0.2,-0.693220414836846,-0.019259112710855175,0.2,0.6378232863440197,-0.26368398700318124,0.2,-0.03992972624285881,0.3289424474259774,0.2,1,C153A8
2.3446252333955724,0.07648121990823685,-0.5673424242881326,0.23887999999999998,-0.8196372548087214,-0.47946598023184545,0.2,-1.3445184913270742,-0.3902629534578983,0.2,-0.6930694698561963,0.02561296488490933,0.2,0.6401519614221327,-0.05121312267519773,0.2,-0.036400165908989646,0.008775347284919934,0.2,1,C153A8
2.3526273672979463,0.0740690394833281,-0.3845452208658864,0.23904000000000003,-0.8261404601702078,-0.6673593867972533,0.2,-1.3450296617566215,-0.14479508488725312,0.2,-0.6928106073986875,-0.17031458556293622,0.2,0.6370038763812166,-0.5335826040870975,0.2,-0.03978932068630009,0.12882026781104197,0.2,1,C153A8
2.3606295012003202,0.07032849637438267,-0.3412004528046165,0.2392,-0.8303150049974775,-0.5531703016372486,0.2,-1.3468352126852703,-0.20976611980649817,0.2,-0.6957945032252033,-0.3813509317106209,0.2,0.6316146397567391,-0.17984700915976704,0.2,-0.034339041624012974,0.4633825973827561,0.2,1,C153A8
2.368631635102694,0.06860983223845424,-0.5020528414576698,0.23936000000000002,-0.8349911849964038,-0.2835718815147395,0.2,-1.3483859196735255,-0.6983240114316197,0.2,-0.6989122223060574,0.03809232550684022,0.2,0.6341263242346603,0.13328275068996698,0.2,-0.03237519912817599,0.48432815728718087,0.2,1,C153A8
2.376633769005068,0.06229565091105995,-0.7582526158862423,0.23952,-0.8348521551017133,-0.6425360661120177,0.2,-1.3580083968681762,-0.3786134552079684,0.2,-0.6951850260170939,0.10397432541980889,0.2,0.6337471637677786,-0.2580409770396655,0.2,-0.02658979110741808,0.44843825807240933,0.2,1,C153A8
2.384635902907442,0.05647779038427436,-0.6811510681972665,0.23968,-0.8452717620541961,-0.6643919514163488,0.2,-1.354443734956853,-0.20768863009283656,0.2,-0.6972486330993405,-0.25502163190166405,0.2,0.6299976686020257,-0.2950581996958926,0.2,-0.02520018699901744,-0.22253782721119653,0.2,1,C153A8
2.3926380368098163,0.05139723381990369,-0.4635397163740996,0.23984000000000003,-0.8454824263243749,-0.1828297947028268,0.2,-1.3613314149496616,-0.48858662469423997,0.2,-0.6992653721275205,-0.058481434868508375,0.2,0.6290262325726443,-0.6958136161597863,0.2,-0.030150396342797224,-0.1223207329358537,0.2,1,C153A8
2.4006401707121903,0.04906115492228877,-0.27976370381400806,0.24,-0.8481970387694413,-0.3623811160442178,0.2,-1.3622611209519608,-0.41839895586243125,0.2,-0.6981843360572366,0.060207906938579414,0.2,0.6188646507434691,-0.669522400515897,0.2,-0.0271573187259911,0.6123278102412452,0.2,1,C153A8
2.408642304614564,0.04692101455887956,-0.5565056472656825,0.24016000000000004,-0.8512805241810824,-0.6928496018008892,0.2,-1.3680257982434605,-0.4856559870176358,0.2,-0.6983020456165032,-0.1468952708535698,0.2,0.61831387416439,0.07294107713920472,0.2,-0.0203531513789373,0.32912255681505875,0.2,1,C153A8
2.416644438516938,0.04015706456603785,-0.8329262659098782,0.24032,-0.8592826323982555,-0.6128034047445038,0.2,-1.370031616744243,-0.3427183662884081,0.2,-0.7005346603908937,-0.12547931151900282,0.2,0.6200317079776964,0.05915090206252277,0.2,-0.02189135781695016,0.2627731125873329,0.2,1,C153A8
2.424646572419312,0.033594194304321506,-0.3937127463524898,0.24048,-0.8610853786569944,-0.341177553587875,0.2,-1.373509292104075,-0.2626454065067091,0.2,-0.7003097146008073,-0.006748309730325586,0.2,0.6192602885973904,-0.3795240141556827,0.2,-0.016148781577539975,0.21677940517834732,0.2,1,C153A8
2.432648706321686,0.03385766062439801,-0.1777725095901113,0.24064000000000002,-0.8647414732556615,-0.5984480719069818,0.2,-1.3742339432483504,-0.2691465216556749,0.2,-0.700642633346579,0.3077563172362019,0.2,0.6139593237512054,-0.13417416298979606,0.2,-0.018422887334096603,0.14961642477136422,0.2,1,C153A8
2.44065084022406,0.030749834150879726,-0.582169272969435,0.24080000000000001,-0.8706605478075061,-0.6940822975656166,0.2,-1.3778156364505658,-0.38688195844834017,0.2,-0.695385613525028,0.08973979292670187,0.2,0.6171135019895536,-0.07189659963841716,0.2,-0.013754918781198147,0.4235136593468654,0.2,1,C153A8
2.448652974126434,0.02454295225688705,-0.48815886919545676,0.24096000000000004,-0.8758467900167114,-0.5198098708831533,0.2,-1.3804240545835238,-0.41806880306567706,0.2,-0.6992067966597517,-0.26413359595391095,0.2,0.6128089781569908,-0.2827578834490446,0.2,-0.011646668784546756,0.3369024411251509,0.2,1,C153A8
2.4566551080288077,0.022939292243752418,-0.515524469945244,0.24112,-0.8789775057416366,-0.40927610375207646,0.2,-1.3845047372996167,-0.34666041978875795,0.2,-0.6996117510602906,-0.06093004407049796,0.2,0.6125893758543689,-0.08367444488405901,0.2,-0.008364479723195734,0.31324248888791556,0.2,1,C153A8
2.4646572419311816,0.016294560737763145,-0.5677481388289245,0.24128,-0.8823952076767446,-0.4827972316544041,0.2,-1.385970621300144,-0.14957047857185046,0.2,-0.7001816773648797,-0.13614930553487725,0.2,0.6114701870388458,-0.39630151144996045,0.2,-0.006634788962340107,0.13054735152443223,0.2,1,C153A8
2.472659375833556,0.013855322022489626,-0.34841824828517515,0.24144000000000002,-0.886702261448107,-0.4630514316511028,0.2,-1.3868978649567663,-0.38917481555951483,0.2,-0.7017901399488486,-0.3557624693399722,0.2,0.6062485516711695,-0.40483220771980744,0.2,-0.006275722098804818,0.11503528960732422,0.2,1,C153A8
2.48066150973593,0.010719868765200343,-0.42424076370868674,0.2416,-0.8898040305831623,-0.36061669484274,0.2,-1.3921974183490962,-0.6354009566290203,0.2,-0.7058738768743192,-0.1007195389759949,0.2,0.6049928717153289,-0.01045579925106066,0.2,-0.004794224328622919,0.26080541077356334,0.2,1,C153A8
2.488663643638304,0.007067469803150638,-0.5947318123032262,0.24176000000000003,-0.8924721285655909,-0.42237877393500045,0.2,-1.3970642802628306,-0.5320944773288955,0.2,-0.7034016525724646,0.5489062656790639,0.2,0.6060812588831526,-0.4329413292406756,0.2,-0.002102835526427804,0.21161381096178203,0.2,1,C153A8
2.4966657775406778,0.001204159768348723,-0.8091883639699995,0.24192000000000002,-0.8965620909661223,-0.5769969427921184,0.2,-1.4007109299863585,-0.4575220095489746,0.2,-0.6970913766234542,0.22241164713384526,0.2,0.5980658104474781,-0.45192132593954715,0.2,-0.001408403353234407,0.31863055175863536,0.2,1,C153A8
2.5046679114430517,-0.005879544020369354,-0.3801191143787988,0.24208,-0.9017040796502648,-0.4567429984621979,0.2,-1.4043846324156142,-0.3381672410649045,0.2,-0.699843066218323,-0.393654587251116,0.2,0.5988505176681198,-0.34895472989430326,0.2,0.0029952533017103627,-0.015636861426803882,0.2,1,C153A8
2.5126700453454256,-0.004877746061712058,-0.2566797855168165,0.24224,-0.9038699789415174,-0.5364529518214131,0.2,-1.406121605843397,-0.08260152306953372,0.2,-0.7033898500194721,0.04266056091823539,0.2,0.5924825347691692,-0.16559579623579013,0.2,-0.001658593136063269,0.20650817464331572,0.2,1,C153A8
2.5206721792477995,-0.009986420588638419,-0.6192849647270856,0.2424,-0.9102873268794074,-0.6694004696204194,0.2,-1.4057062567847267,-0.2218098373753391,0.2,-0.6991604972436313,0.45978275560087933,0.2,0.5962009849283472,0.0387366382919932,0.2,0.006299384096003414,0.4586559199251684,0.2,1,C153A8
2.5286743131501734,-0.014786305497345428,-0.6464100925864815,0.24256000000000003,-0.9145803864554441,-0.5573725929444023,0.2,-1.4096705632414024,-0.3096792270175508,0.2,-0.696033325929858,-0.0484100826815409,0.2,0.5931023209818411,-0.2999899317360846,0.2,0.0056799015827394255,0.11234670389579211,0.2,1,C153A8
2.5366764470525474,-0.020328982070022122,-0.2557409590884059,0.24272000000000002,-0.9192052883665178,-0.3979196557928749,0.2,-1.4106611244170075,-0.7956549931622675,0.2,-0.6999350585665359,-0.17227643801781545,0.2,0.5914011460205698,-0.17016218804803002,0.2,0.008096931358336088,0.39701306852834367,0.2,1,C153A8
2.5446785809549217,-0.018878160842759922,-0.4612678576473511,0.24287999999999998,-0.9209471009481301,-0.4799907946629253,0.2,-1.4224010431319987,-0.4672381043442503,0.2,-0.698789748938143,0.038907293375377294,0.2,0.5903797259730726,-0.34699425733278333,0.2,0.012032110679192924,0.5296515278638873,0.2,1,C153A8
2.5526807148572956,-0.02770926779237974,-0.7699374030171171,0.24304000000000003,-0.9268851410811246,-0.7177873023272996,0.2,-1.4181369340865155,0.12493650988712468,0.2,-0.6993125418725299,-0.12129265240071185,0.2,0.5858492379032453,-0.1868325106563623,0.2,0.016571355804158285,0.24209035008243399,0.2,1,C153A8
2.5606828487596696,-0.031197159291033796,-0.42709645133407736,0.2432,-0.9324316977853669,-0.4547741995784074,0.2,-1.4204020589738047,-0.22406150659901036,0.2,-0.7007304313765544,0.0676933539046562,0.2,0.5873904058025708,-0.2945122332952896,0.2,0.01590555628051187,0.13865525233280124,0.2,1,C153A8
2.5686849826620435,-0.03454281101372498,-0.17531887226191054,0.24336000000000002,-0.9341615282743791,-0.47783379059244263,0.2,-1.4217219181920997,-0.4345934085657477,0.2,-0.6982294482100554,0.10580825280195882,0.2,0.5811370421705206,-0.44681644627133504,0.2,0.018789839841483105,0.3466477480414214,0.2,1,C153A8
2.5766871165644174,-0.034002261247224365,-0.48749212465984487,0.24352000000000001,-0.940077038434846,-0.5018064314728093,0.2,-1.4273555535108566,-0.5772030679322693,0.2,-0.6990374993317231,0.06248175565252284,0.2,0.5802413426622295,-0.4322596837345871,0.2,0.02145192024917461,0.10081084426912683,0.2,1,C153A8
2.5846892504667913,-0.0423426850082825,-0.8700756625024124,0.24368,-0.9421904311779441,-0.4207653177609322,0.2,-1.430957167279016,-0.41745777805908546,0.2,-0.697229740119615,0.43920798074737616,0.2,0.5742208872307673,-0.09788033341121688,0.2,0.020402813349789134,0.13380613244836692,0.2,1,C153A8
2.5926913843691652,-0.04792347184726296,-0.3306755473318182,0.24384000000000003,-0.9468092835190209,-0.46758499759270294,0.2,-1.434034877959802,-0.5634740134188854,0.2,-0.6920101716397651,-0.06342456064931112,0.2,0.57867525732765,-0.103669395539005,0.2,0.02359281836834848,0.27793769625444215,0.2,1,C153A8
2.600693518271539,-0.04763349376559159,-0.2910790906377764,0.244,-0.9496717911394273,-0.45984783694426323,0.2,-1.4399727514937182,-0.1994122572770568,0.2,-0.698244533090004,-0.19600583848585623,0.2,0.5725621769021432,-0.23780134776364703,0.2,0.024849816489860208,0.2151484688427377,0.2,1,C153A8
2.608695652173913,-0.052580737297467386,-0.658632996734021,0.24416000000000004,-0.9541668489101292,-0.4791077924010817,0.2,-1.437225474076235,-0.26318636815458873,0.2,-0.6951462650555388,-0.013115013762346472,0.2,0.5748704357634317,-0.14762644104860528,0.2,0.027035193869832285,0.2040315196074273,0.2,1,C153A8
2.616697786076287,-0.058171621713335925,-0.6528336332409044,0.24432,-0.9573375158178447,-0.38317824305865444,0.2,-1.4441837333841916,-0.5045797059118895,0.2,-0.6984543733102015,-0.11824711645092717,0.2,0.5702001538453655,-0.1630213557681573,0.2,0.028114320803579045,0.15933265826987858,0.2,1,C153A8
2.6246999199786614,-0.06302607542932186,-0.25606840455965785,0.24448,-0.9602977007990676,-0.8212468171994516,0.2,-1.4452987493708251,-0.3614481608597703,0.2,-0.6970382189187536,0.3622531379289251,0.2,0.5722620940711411,-0.23466115960667916,0.2,0.029584516402150342,0.31459553033495063,0.2,1,C153A8
2.6327020538810353,-0.06226871618629045,-0.6216042263126063,0.24464000000000002,-0.9704774648930359,-0.5123118474707339,0.2,-1.449966903957948,-0.49494723082234293,0.2,-0.6926583231033387,0.31359946426397917,0.2,0.5664455752916586,-0.6393746396770317,0.2,0.033147849288938255,0.3875132851779248,0.2,1,C153A8
2.640704187783409,-0.07297174305032356,-0.7406382184042275,0.24480000000000002,-0.9684946903585994,-0.3508105806607556,0.2,-1.4532179050639826,-0.4739870103330629,0.2,-0.69202062749053,-0.22255367204886828,0.2,0.5620320998363086,-0.19685356486050937,0.2,0.03578472896499714,0.21431480781700746,0.2,1,C153A8
2.648706321685783,-0.07411892768075809,-0.4475990962009317,0.24496000000000004,-0.976090434183608,-0.7220699217887829,0.2,-1.457550696123277,-0.40463295684865785,0.2,-0.6962191818561206,-0.11349284209666993,0.2,0.5632959182538905,-0.14294993184313376,0.2,0.036576886214010375,0.34071482908945183,0.2,1,C153A8
