samirx20/RADAR/data/datasets/heating_j0_17.csv
timestamp,actual_q_0,actual_qd_0,actual_current_0,actual_q_1,actual_qd_1,actual_current_1,actual_q_2,actual_qd_2,actual_current_2,actual_q_3,actual_qd_3,actual_current_3,actual_q_4,actual_qd_4,actual_current_4,actual_q_5,actual_qd_5,actual_current_5,protective_stop,fault_code
0.0,0.002881861703699567,-0.013978858182293993,0.2,-0.8998928174424766,0.9175571172938962,0.2,-1.4028497085790483,0.49602762542044765,0.2,-0.10378632015478349,0.5323659422415069,0.2,0.6016802644227471,-0.13837018429867232,0.2,0.0011653081916437075,0.594333278158193,0.2,0,
0.008002133902373967,0.002770030838241215,0.30267543897185883,0.2,-0.8925523605041255,0.34513941292167033,0.2,-1.3988814875756848,0.47623612390149117,0.2,-0.09952739261685144,0.04448736732690344,0.2,0.6005733029483578,0.3013401952168815,0.2,0.005919974416909252,0.20522622997425777,0.2,0,
0.016004267804747934,0.007724668727249308,0.4907186686551265,0.2,-0.8943705868357299,0.14332575000978315,0.2,-1.3952299305966245,0.6302871716117042,0.2,-0.10307452227755304,0.0013263381167302052,0.2,0.6065017075462172,0.11408219186479635,0.2,0.0044489278712318316,-0.14311802087078115,0.2,0,
0.0240064017071219,0.01062152953672324,0.5535115894629833,0.2,-0.8902591485039689,0.6123809273429481,0.2,-1.3887968928298975,0.4515474056109997,0.2,-0.09950617120698375,0.13731026269695346,0.2,0.6023986180181945,0.17319460529106878,0.2,0.0036300860829767533,0.20170050791991107,0.2,0,
0.03200853560949587,0.01658085415865704,0.718496444186616,0.2,-0.8845724919982427,0.37921110243831907,0.2,-1.3880051721068485,0.14245058094186636,0.2,-0.10087755807440178,-0.005903559285334002,0.2,0.6092728212308743,0.6699731157961547,0.2,0.007676135997950409,0.24913644439156168,0.2,0,
0.04001066951186984,0.022117472643709096,0.5523634995484924,0.2,-0.8841917708649558,0.8064665561449552,0.2,-1.3865176835348276,0.41222679650697314,0.2,-0.0996006281555491,-0.019377273662570145,0.2,0.613118187870933,0.36103867412241863,0.2,0.0076162691932417405,0.1552761396534059,0.2,0,
0.0480128034142438,0.02541867015143292,0.335525488146295,0.2,-0.8716690270999234,0.5310026774297607,0.2,-1.381409543362737,0.374262103067291,0.2,-0.1011875944530029,0.042601733597089075,0.2,0.615049440016833,0.34774736936940553,0.2,0.010160554232404903,0.42156482143797713,0.2,0,
0.05601493731661777,0.027485880454049816,0.6737796363926163,0.2,-0.8756957280260796,0.2593983814196954,0.2,-1.380529489885751,0.12166593236617729,0.2,-0.09891900041799567,-0.2708242737336731,0.2,0.6186821457808435,0.19083630850647015,0.2,0.014361306336249375,0.22801601460370305,0.2,0,
0.06401707121899174,0.03619914433371478,0.39962328406689457,0.2,-0.8675186529972083,0.7086134811268088,0.2,-1.379462888444878,0.37675055951441605,0.2,-0.10552078283274167,-0.23249915495406145,0.2,0.6181028209529366,-0.02561734750419764,0.2,0.013808810466064152,0.3425815675266115,0.2,0,
0.0720192051213657,0.03387985299912013,0.12700620311230415,0.2,-0.8643579123280507,0.34703388344978214,0.2,-1.3745014809335203,0.5081394432709524,0.2,-0.10263898689726066,0.15061029048729374,0.2,0.6182722682207763,0.12265090556921182,0.2,0.01984261141667516,0.33310327056585903,0.2,0,
0.08002133902373967,0.03823124358351165,0.6707436785718304,0.2,-0.8619661108620118,0.6408906980746795,0.2,-1.3713326573525428,0.6331247066595908,0.2,-0.10311101818494497,-0.09700454577118468,0.2,0.620065235442044,0.16790168033354452,0.2,0.019138462795117897,-0.018718995982936564,0.2,0,
0.08802347292611364,0.044611751856269415,0.6908977147093548,0.2,-0.8541036611588558,0.6377581640937685,0.2,-1.3643714856269669,0.4372255408802844,0.2,-0.10419105962959961,0.06849298547558033,0.2,0.620958695106113,0.020309365225471,0.2,0.019543107480948174,0.3943716947952883,0.2,0,
0.0960256068284876,0.049285607018861324,0.47663282906472815,0.2,-0.8517619802365115,0.41094266975790633,0.2,-1.3643370486984583,0.10026691157245804,0.2,-0.10201513041733569,-0.005213477983706007,0.2,0.6203901852856515,0.2755610752961865,0.2,0.02544840991184251,0.1410342026237335,0.2,0,
0.10402774073086157,0.052237877121305065,0.2708946077722772,0.2,-0.8475285784427293,0.5543233949231798,0.2,-1.3627672150418075,0.29411643359207595,0.2,-0.10427447527733891,-0.11221568470173945,0.2,0.625367672310852,0.5161752703382455,0.2,0.02179965472292791,0.19608595101974768,0.2,0,
0.11202987463323553,0.05361992074321776,0.454291118286273,0.2,-0.8428928059177406,0.4094567126843307,0.2,-1.359631185760985,0.2744491214514422,0.2,-0.10381058137256352,0.21354605661038586,0.2,0.6286489896110634,0.19616575824417393,0.2,0.028585785128158472,0.6273048368412397,0.2,0,
0.12003200853560951,0.059506535013885434,0.8686339930099652,0.2,-0.84097727103978,0.3264204021108594,0.2,-1.3583760290985845,0.3358898743312383,0.2,-0.10085773837157273,0.02129721558922354,0.2,0.6285063244427588,0.17739533368860833,0.2,0.031836532112387746,0.19413162707423298,0.2,0,
0.12803414243798347,0.0675180646313772,0.3644831828637212,0.2,-0.8376700794839669,0.5486627036910691,0.2,-1.3542569477716853,0.6146218313692331,0.2,-0.10346982592313594,-0.23659733421143095,0.2,0.6314873149500811,0.11876747640929969,0.2,0.0316918911613462,0.1607653206971405,0.2,0,
0.13603627634035745,0.06533826593970497,0.33002494647750047,0.2,-0.8321986677807229,0.5155099292710255,0.2,-1.3485420797966767,0.306735972465097,0.2,-0.10464329571895563,-0.20898876079384654,0.2,0.6304066040653076,0.3840197683138147,0.2,0.034408777243541994,0.1937027805262695,0.2,0,
0.1440384102427314,0.07279846377501721,0.5263496703229046,0.2,-0.8294219206156305,0.49150478241475476,0.2,-1.3493491722122437,0.41157972204707016,0.2,-0.10681364609583749,-0.4148631675522391,0.2,0.6376316312431022,0.18616846783854613,0.2,0.03479113564976651,0.07722875094470956,0.2,0,
0.15204054414510537,0.07375986066487145,0.5642597762925347,0.2,-0.8243345912620869,0.677177620927831,0.2,-1.3419568042439236,0.6699299746374815,0.2,-0.11128110639979145,-0.04012203240120766,0.2,0.6333852995507243,0.03425682384937401,0.2,0.03564443725865735,0.11989321454521952,0.2,0,
0.16004267804747935,0.08182662019569777,0.5144685993469866,0.2,-0.8185870786807852,0.4980385125384554,0.2,-1.338630292618044,0.26824271040502834,0.2,-0.10745559861425681,0.41793989352578287,0.2,0.6381797404246922,0.7311939021777472,0.2,0.036709427082490025,0.07125724818463075,0.2,0,
0.1680448119498533,0.08199135825442323,0.4166867607983569,0.2,-0.8163659750614716,0.29375888915374876,0.2,-1.3376649208774432,0.3045635583726475,0.2,-0.10459406810337893,0.05887536754738045,0.2,0.6450844019855683,0.35524927944271395,0.2,0.03678455322961144,0.41289989648120523,0.2,0,
0.17604694585222727,0.08849360836847148,0.5276951310001897,0.2,-0.8138869364543252,0.4462008974837617,0.2,-1.3337572756840816,0.2435808781449389,0.2,-0.10651359273349872,-0.2589911111167235,0.2,0.6438637288957756,-0.18494692390042672,0.2,0.04331582542618931,0.7482037824469218,0.2,0,
0.18404907975460125,0.09043448035042627,0.5097765288382431,0.2,-0.8092267607017314,0.5481311355075985,0.2,-1.3337676268271241,0.36186618530391346,0.2,-0.1087379258812465,0.028705801156562495,0.2,0.6421252512031614,0.27334259068489963,0.2,0.048755813748762186,0.026832305916854853,0.2,0,
0.1920512136569752,0.09665003282988337,0.5559570408185041,0.2,-0.8051168382862036,0.6619475439552658,0.2,-1.327967416719219,0.6691712344217282,0.2,-0.10605429991499372,0.03569186559376769,0.2,0.648237210346734,0.45041261314637815,0.2,0.043745142320858986,-0.06678799957130942,0.2,0,
0.20005334755934917,0.09932979300352233,0.5610082093178582,0.2,-0.7986355999984471,0.5718634792383145,0.2,-1.3230608870763765,0.2154758223932296,0.2,-0.10816685603174622,-0.44062667565808195,0.2,0.6493318530135035,0.3710620708678933,0.2,0.047687205755621236,0.21438499678948056,0.2,0,
0.20805548146172315,0.1056261641789691,0.629140720830622,0.2,-0.7959670226183906,0.43295490155710603,0.2,-1.3245198035609274,0.13273216008935496,0.2,-0.11310432672552304,-0.12606288117761408,0.2,0.6541742034806203,0.40162591139613485,0.2,0.047175302269490675,0.35511763049809714,0.2,0,
0.21605761536409712,0.10939604453681229,0.1578144234231629,0.2,-0.7917083215735334,0.5904230682715408,0.2,-1.3209371725149468,0.46395498484792796,0.2,-0.11018386213058805,0.12408208437269651,0.2,0.6557578675958416,-0.05190860963982108,0.2,0.05336908784359079,0.427736353690822,0.2,0,
0.22405974926647107,0.1081511949537397,0.42907204747180333,0.2,-0.7865202535260459,0.48684365342969993,0.2,-1.3170965238033605,0.3512878791025881,0.2,-0.11111901337555989,-0.044929150041640546,0.2,0.6533436657263831,-0.17864930851891475,0.2,0.05401908392854383,0.1508931653857559,0.2,0,
0.23206188316884505,0.11626119729636114,0.775605207514257,0.2,-0.7839188231186582,0.322175575276043,0.2,-1.3153165664493054,0.5101233163625901,0.2,-0.1109027285312543,-0.23811909268240447,0.2,0.652899478659539,0.371676651535896,0.2,0.055783378489762885,-0.030868272652437388,0.2,0,
0.24006401707121902,0.12056087827396782,0.4270035810348795,0.2,-0.7813654443216292,0.4999994574628186,0.2,-1.308934550741559,0.46512879550904274,0.2,-0.11492891885847836,-0.3236692098568597,0.2,0.6592904921509575,0.49966904650684124,0.2,0.05352519156610483,0.18869158209989167,0.2,0,
0.24806615097359297,0.12309325459291921,0.460017148491333,0.2,-0.7759188317992531,0.5143544136059843,0.2,-1.3078745057211607,0.5885317149469799,0.2,-0.11608143588896405,-0.13888105087946512,0.2,0.6608941834036485,0.23205921866586987,0.2,0.05880244380336115,0.5490941714173603,0.2,0,
0.25606828487596694,0.12792115264982915,0.7732177326776951,0.2,-0.7731357737039335,0.4754953641859655,0.2,-1.2995180433024074,0.08476421147855795,0.2,-0.1171510156725498,-0.1959404500302686,0.2,0.6630034396496114,0.2075236342974629,0.2,0.062310698308782594,0.18243140108235248,0.2,0,
0.2640704187783409,0.13546473831576233,0.4329359805347738,0.2,-0.7683109059722777,0.641082897165135,0.2,-1.3065182783375038,0.019269641465299858,0.2,-0.11921648308944835,-0.22490582661854885,0.2,0.6642145615524079,0.3091421672795497,0.2,0.06172134622067879,-0.08754133347471313,0.2,0,
0.2720725526807149,0.13484812833838553,0.3306616805267698,0.2,-0.7628784473492913,0.2943930777167675,0.2,-1.2992097290389626,0.588453166076433,0.2,-0.12074950889844659,-0.07938882024084627,0.2,0.6679497143260842,0.25928699612143974,0.2,0.060910036973187184,0.2864246295644305,0.2,0,
0.28007468658308887,0.14075532520419065,0.43324360131805595,0.2,-0.7636006167288094,0.054119138325189886,0.2,-1.2971030276802809,0.535626992648558,0.2,-0.12048670421330189,0.0911685789170254,0.2,0.6683631534903509,0.20812924360195245,0.2,0.06630414029370968,0.12187101515551829,0.2,0,
0.2880768204854628,0.14178002595947442,0.27127417348428784,0.2,-0.7620125411360883,0.6140425316919564,0.2,-1.2906396971565857,0.5843217142079415,0.2,-0.11929081163577418,0.2284829295571885,0.2,0.6712797822237154,0.4059454832984477,0.2,0.06285997321567548,-0.05731867323566925,0.2,0,
0.29607895438783677,0.14509571197993926,0.2115804130126738,0.2,-0.7537759362217381,0.837200755812631,0.2,-1.2877538802529538,0.15039267174654647,0.2,-0.11683097734038687,-0.18340960940135387,0.2,0.6748582812231261,0.19170683170768865,0.2,0.06538704152193897,0.40827783369488335,0.2,0,
0.30408108829021074,0.1451653125676772,0.6384256577826493,0.2,-0.7486173290430862,0.2891779444584783,0.2,-1.288233414408641,0.1079156181306995,0.2,-0.12222536538619584,-0.24805764454692394,0.2,0.6743470915310384,-0.08387452855966593,0.2,0.06939241855479361,0.23432777252103965,0.2,0,
0.3120832221925847,0.15531052250446165,0.5976806505295085,0.2,-0.7491490891104025,0.4639155010050869,0.2,-1.2860272303628626,0.3465027069569776,0.2,-0.12079989965313766,-0.26584875674137787,0.2,0.6735162887661714,0.28576621209597947,0.2,0.0691362858822756,0.148611367400687,0.2,0,
0.3200853560949587,0.15472820297614934,0.12149686318461451,0.2,-0.7411946810270048,0.31653193384621053,0.2,-1.2826893710973293,0.33598860365222083,0.2,-0.1264789454940579,-0.15193295507013974,0.2,0.6789193509245741,0.2838927947967987,0.2,0.0717702004332046,0.17453607435911206,0.2,0,
0.32808748999733267,0.15725447231541548,0.8152228922450513,0.2,-0.7440845781688631,0.34422764599496836,0.2,-1.280651412704427,0.2827631611747039,0.2,-0.1232308269342599,-0.12879914806362275,0.2,0.6780585734829202,0.10490513044716238,0.2,0.0719288630720214,0.21616432458753093,0.2,0,
0.3360896238997066,0.16777176925207016,0.45050868585235804,0.2,-0.7356870386910853,0.7469785702353612,0.2,-1.278165160518534,0.3236576581873152,0.2,-0.12853973186307585,-0.09648120602239081,0.2,0.6805978330117287,0.21293369742809293,0.2,0.0752288296266051,0.1552687185967837,0.2,0,
0.34409175780208057,0.1644626112890532,0.1519538839612894,0.2,-0.7321329210450973,0.3960560983424788,0.2,-1.27547289017343,0.4049819031828328,0.2,-0.12477452623061815,0.005051502962691301,0.2,0.6814655126417697,0.3031683119726,0.2,0.07441316256956994,0.10721650952464322,0.2,0,
0.35209389170445454,0.1702030313954508,0.7430846555100817,0.2,-0.7293501411176057,0.7885957024594061,0.2,-1.2716854500676087,0.4346299235949008,0.2,-0.1284589078156728,-0.3330438780429134,0.2,0.6854485260032903,0.35757941130543786,0.2,0.07694429377899939,0.19817518270626946,0.2,0,
0.3600960256068285,0.17635196577721451,0.47274707720241016,0.2,-0.7195153898057468,0.4150863446074349,0.2,-1.2685188113959116,0.5327181499098638,0.2,-0.13010322827930476,-0.01763954325006284,0.2,0.6871867832226567,0.09398469110428326,0.2,0.07758396549287025,0.1507270566574641,0.2,0,
0.3680981595092025,0.17776698463068935,0.4914040312895794,0.2,-0.7227087596038867,0.03987080683665739,0.2,-1.2631619596690509,0.22050142048182786,0.2,-0.1287411405076738,-0.23266750945509332,0.2,0.6869522810609588,0.22402347041031861,0.2,0.07935592668551882,0.3475914818490732,0.2,0,
0.37610029341157647,0.18421443027784778,0.3681765365036206,0.2,-0.7188774568963603,0.5875480174750771,0.2,-1.2649907886682024,0.06139041948546864,0.2,-0.13382590843058625,-0.19460461443765278,0.2,0.6907711587492218,0.23356881552620556,0.2,0.08314542920245542,0.1861641212704884,0.2,0,
0.3841024273139504,0.18365780921474728,0.3680891734472308,0.2,-0.7133079913242855,0.3537686508814225,0.2,-1.2621797129572834,0.4792542080138684,0.2,-0.13185481433867624,-0.07476979926156722,0.2,0.6906893821093781,0.04105661762496965,0.2,0.08233455262584663,-0.07603713890144345,0.2,0,
0.39210456121632437,0.19010385705300348,0.6120524442064633,0.2,-0.7132171584822575,0.32417881072745874,0.2,-1.2573227213399805,0.43286108441925597,0.2,-0.13502222521877133,-0.3423753857708621,0.2,0.6914280646312213,0.19631390645399177,0.2,0.08192883498003233,0.19737281159859857,0.2,0,
0.40010669511869834,0.1934506483220507,0.2785495668646085,0.2,-0.7081211303526461,0.676486922684856,0.2,-1.2552539356065753,0.05573798621082149,0.2,-0.13733282051101003,-0.09945021074531796,0.2,0.693830404612642,0.3054257839878796,0.2,0.0854925176114242,0.22966495839278014,0.2,0,
0.4081088290210723,0.19456065012283721,0.36904451626172674,0.2,-0.7023933677192998,0.656754513774449,0.2,-1.2564309135606073,0.20954395492209232,0.2,-0.13661342859069642,-0.023988770290412145,0.2,0.6963148771750274,0.12148870667332001,0.2,0.08560347431431681,0.13982016914826453,0.2,0,
0.4161109629234463,0.19935536058223832,0.40685292017379576,0.2,-0.6976130581322549,0.5540682104065026,0.2,-1.2519012323278218,0.3892354670974457,0.2,-0.13771664083565663,-0.23619150222553217,0.2,0.6957742239194151,0.7718875006827233,0.2,0.08772964031779644,0.059679295611386046,0.2,0,
0.42411309682582027,0.20107029684561795,0.6333503688601537,0.2,-0.6935282763527958,0.21564955120190188,0.2,-1.2502031460870482,0.27530195572392224,0.2,-0.14039249262630493,-0.37897931611598906,0.2,0.708665077185951,0.44438630142847046,0.2,0.08655834304409898,0.109218650006725,0.2,0,
0.43211523072819424,0.20948896648400078,0.3424497147865683,0.2,-0.6941626653130245,0.19798509669433084,0.2,-1.247496401036239,0.3411294200269116,0.2,-0.14378030989351245,-0.1506301139277289,0.2,0.7028844047422707,-0.08508109290197158,0.2,0.08947713871790404,0.13207607136979468,0.2,0,
0.44011736463056816,0.20654949228220304,0.3340442495488715,0.2,-0.6903605148056865,0.46721481306775253,0.2,-1.2447450753666176,0.47738779143331744,0.2,-0.1428025744491486,-0.13580939778616052,0.2,0.7073037796995194,0.17809161507315735,0.2,0.0886715601860157,0.18239323688689757,0.2,0,
0.44811949853294214,0.21483367447678273,0.6731785115624226,0.2,-0.6866872283039405,0.524136496305734,0.2,-1.239858196373306,0.5029062130783579,0.2,-0.14595326025809102,-0.5267088323942775,0.2,0.7057338705834412,0.0852543212432888,0.2,0.0923954305080944,0.1881599756517853,0.2,0,
0.4561216324353161,0.2173203484672018,0.3396841314600527,0.2,-0.6819743308647948,0.6903454285521471,0.2,-1.2366985759573639,0.4449668206138596,0.2,-0.15122991576745703,-0.4117190010036915,0.2,0.708667848839412,0.45646482836397134,0.2,0.09168211979644426,-0.14021244777137706,0.2,0,
0.4641237663376901,0.22026862058014357,0.6038109480128433,0.2,-0.6756417014471061,0.1989997044320943,0.2,-1.2327387272434842,0.3807768593652311,0.2,-0.1525407642741501,0.01740551206556515,0.2,0.7130373078372647,0.1611202806783285,0.2,0.09015203134375237,0.06847738575457059,0.2,0,
0.47212590024006407,0.2269813236354073,0.4293857350286031,0.2,-0.6787903355938812,0.33747666445509833,0.2,-1.2306061462075202,0.16300273336772308,0.2,-0.150951427574408,-0.033496775284984695,0.2,0.7112457733302653,-0.07519035979389188,0.2,0.0927777579685174,0.21754851550760765,0.2,0,
0.48012803414243804,0.22713879234060122,0.4720937812747322,0.2,-0.6702420748158245,0.5629250516486564,0.2,-1.2301306835096006,-0.01779076158527071,0.2,-0.15307671267870984,-0.6099193192633089,0.2,0.7118342620805624,0.16123420037717634,0.2,0.09363280759187409,-0.057589722080682824,0.2,0,
0.48813016804481196,0.234534824135803,0.41940571182129577,0.2,-0.6697835347675027,0.19139991990371752,0.2,-1.2308907983928845,0.47767704129983435,0.2,-0.16071013668262094,-0.18066024434726205,0.2,0.7138255205363001,0.49180057322011084,0.2,0.09185632241522647,0.2807570148446337,0.2,0,
0.49613230194718594,0.23384928372974195,0.12483975768589999,0.2,-0.6671796760973651,0.6796646564303233,0.2,-1.2224878508488033,0.6181719240851286,0.2,-0.15596727658826604,0.09633316558772809,0.2,0.7197030712520842,0.28912530579065093,0.2,0.09812491982938823,0.3123695370861393,0.2,0,
0.50413443584956,0.2365322602587774,0.19006721819177577,0.2,-0.6589089002646176,0.34661659018166147,0.2,-1.2210000476075225,0.18097558132110225,0.2,-0.15916880603321729,-0.14026478174409066,0.2,0.7184515254289505,0.4363900581698388,0.2,0.0968542350086047,-0.09290851120643401,0.2,0,
0.5121365697519339,0.23689035922081036,0.5466520570143133,0.2,-0.6616338106544585,0.15930315831883674,0.2,-1.2195922415476657,0.17106603557627553,0.2,-0.15821151309617149,-0.18843219721606866,0.2,0.7266853121828016,0.053994364698134456,0.2,0.09663838365008529,0.004892760108027132,0.2,0,
0.5201387036543078,0.24527869317100642,0.6580152627882353,0.2,-0.6563600497315162,0.5320865656037107,0.2,-1.218262991038302,0.2531923336465125,0.2,-0.16218372118867438,-0.2421308619299789,0.2,0.7193154352641207,-0.11947991732886437,0.2,0.09693251917033313,-0.001779859976884339,0.2,0,
0.5281408375566818,0.24741860342542213,0.13766602140403636,0.2,-0.6531204256047991,0.5240299321864761,0.2,-1.2155411642093215,0.3692329355867163,0.2,-0.16208560688705115,-0.08343994459911533,0.2,0.7247736335055398,0.5948225990880934,0.2,0.09660990589045514,0.01923476305696302,0.2,0,
0.5361429714590558,0.247481349513471,0.427230748452365,0.2,-0.6479755708165326,0.15469035025340167,0.2,-1.2123552640689146,0.3867718534784209,0.2,-0.16351876030226023,-0.39786624720526165,0.2,0.7288325968495302,0.08080696837702711,0.2,0.09724027537924454,-0.16683104368333915,0.2,0,
0.5441451053614298,0.25425429540065997,0.7337762491223948,0.2,-0.6506453800007447,0.09445781409933574,0.2,-1.2093528145536667,0.28414373689644723,0.2,-0.16845146684233533,-0.4556336666737097,0.2,0.7260665449995722,-0.10061387086574697,0.2,0.09394060919152171,-0.06634730419650091,0.2,0,
0.5521472392638037,0.2592217694994293,0.3127594015640209,0.2,-0.6464642457909432,0.5798500895227848,0.2,-1.2078089642785714,0.32353810292426455,0.2,-0.17080889896903959,-0.34772327241200035,0.2,0.7272227749156782,0.2129855994347299,0.2,0.09617871851210053,0.03658443011921898,0.2,0,
0.5601493731661777,0.2592584458256843,0.09589130483799238,0.2,-0.6413677785683801,0.46219571650116253,0.2,-1.2041762049068785,0.2756748950853982,0.2,-0.17401503920092734,-0.29787481884526246,0.2,0.7294743145905279,0.38428595541240007,0.2,0.09452596007342921,0.048714987041625565,0.2,0,
0.5681515070685517,0.2607560303768372,0.2346360253344358,0.2,-0.6390691143269246,0.5152590776908785,0.2,-1.203398165957205,0.15074599104145103,0.2,-0.17557489607056379,-0.023577305336206292,0.2,0.7333713502022766,0.17128105288948675,0.2,0.09695815830476653,0.2704767063990091,0.2,0,
0.5761536409709256,0.2630126222310353,0.48978383263178354,0.2,-0.6331236333253261,0.4223802573725399,0.2,-1.2017642690502153,0.261111124614119,0.2,-0.17439227608630664,-0.22870694711188758,0.2,0.7322148114367597,-0.06645294513561717,0.2,0.09885358737581336,0.33122650713984964,0.2,0,
0.5841557748732996,0.26859257169894574,0.5375809014347387,0.2,-0.632311030208964,0.04406508869393699,0.2,-1.1992203879633792,0.28835878844171714,0.2,-0.179234207224354,-0.3091162089820104,0.2,0.7323081030801067,0.18714673980756158,0.2,0.10225778241900413,-0.14124111366784017,0.2,0,
0.5921579087756735,0.2716139166539911,0.21008560561005044,0.2,-0.6324185919062231,0.32817950971895243,0.2,-1.1971505284351478,0.359880304397292,0.2,-0.1793381354300188,-0.1259102118958081,0.2,0.7352091592736807,0.25061288574965146,0.2,0.09659372955712792,0.15524127931624934,0.2,0,
0.6001600426780476,0.27195394138870654,0.11759083922523172,0.2,-0.6270601580534607,0.7247008860226736,0.2,-1.1934623030930225,0.5144386455891853,0.2,-0.18124877061468692,0.006019052444308781,0.2,0.7363179092521012,0.1879401454641938,0.2,0.10474164288806412,0.13314440767644464,0.2,0,
0.6081621765804215,0.2734953700815948,0.31687522593103895,0.2,-0.6208233777298603,0.23212856866982462,0.2,-1.1889195101057208,0.2965220403489538,0.2,-0.17924183059090987,-0.44812846245321014,0.2,0.7382162016011078,0.10497517610414536,0.2,0.09872404007995103,-0.14492874358501376,0.2,0,
0.6161643104827954,0.27702394500360317,0.47169455959931644,0.2,-0.6233461009547435,0.34426608939129577,0.2,-1.1887179504474392,0.1296998849622255,0.2,-0.18841882601393828,-0.5536148395006262,0.2,0.7379975120697675,0.23877838851828898,0.2,0.1024227829907039,-0.1823796009558544,0.2,0,
0.6241664443851694,0.28104248303518387,0.587968114270223,0.2,-0.6153151202995996,0.5167230696744504,0.2,-1.1868443119463252,0.017715161507822486,0.2,-0.18809966802291989,0.07661225446328919,0.2,0.7420366558174004,0.16535834798449278,0.2,0.09580596646465736,-0.07983792882452957,0.2,0,
0.6321685782875434,0.28643143483192673,0.6636182997286945,0.2,-0.6150785318399523,0.28680018360841,0.2,-1.188434507863314,0.013478971893562952,0.2,-0.18719302994252565,-0.10387127793788642,0.2,0.7406432456375194,0.1909370182110945,0.2,0.10114537612951142,0.47718592075265964,0.2,0,
0.6401707121899174,0.291660375830843,0.34327717903562605,0.2,-0.610726317361865,0.46569501127391444,0.2,-1.1866286483960282,0.4981111437332847,0.2,-0.18976160846992607,-0.44480083790792574,0.2,0.7450916481087779,0.2213936700350208,0.2,0.10344094119669991,-0.07732040215595054,0.2,0,
0.6481728460922913,0.29192386969649675,-0.048009140340109224,0.2,-0.6076274116595697,0.28236473024207537,0.2,-1.1804647295635815,0.7555169674318962,0.2,-0.19430984334905246,-0.28349002952357016,0.2,0.7441855443580797,0.31193465445515656,0.2,0.09990824969501622,-0.2483710218805224,0.2,0,
0.6561749799946653,0.29089222958540123,0.20646205240924462,0.2,-0.6062084816779918,0.4062441414709739,0.2,-1.1745403769171179,0.21876851900082261,0.2,-0.1942974489423032,-0.2677449738035138,0.2,0.7500826025800604,0.32595796004498273,0.2,0.09946700484661156,-0.01861077188298338,0.2,0,
0.6641771138970393,0.29522726253504467,0.6502405548262993,0.2,-0.6011275053960341,0.3278384722282396,0.2,-1.1769644332595683,0.03755836302392346,0.2,-0.19859376292990868,-0.1982889181319676,0.2,0.7494008717187994,0.023286791880960944,0.2,0.09961047734488848,0.09624458563354914,0.2,0,
0.6721792477994132,0.301296078462622,0.45037841622786245,0.2,-0.60096306612234,0.1598154053997075,0.2,-1.173939443108735,0.5315538939167225,0.2,-0.19747007163241467,-0.3263078349618996,0.2,0.7504551912501558,-0.004254028760274087,0.2,0.10100691821674834,0.03323703266381109,0.2,0,
0.6801813817017872,0.30243331719469047,0.22620840229962275,0.2,-0.5985704589096388,0.2755605107270867,0.2,-1.1684595709569008,0.12553703204667976,0.2,-0.20381468828929908,-0.42779015977118495,0.2,0.749332807258635,-0.008080948975482116,0.2,0.10014226986750946,-0.20931006342433076,0.2,0,
0.6881835156041611,0.304915412899416,0.42456290209390635,0.2,-0.5965540979507066,0.4539794242868003,0.2,-1.1719308505959882,-0.3090961539410353,0.2,-0.20431471418875363,-0.2766905581752469,0.2,0.7503258960665481,0.44190370482181246,0.2,0.09765795720195905,-0.22642610691221784,0.2,0,
0.6961856495065352,0.30922632362819297,0.21751135584502368,0.2,-0.59130678812105,0.29303743110047076,0.2,-1.1734051094199573,0.038599515131146345,0.2,-0.20824173722010303,-0.3902907463718564,0.2,0.756403266535784,0.5799035223409549,0.2,0.09651945215691397,-0.21159196909377972,0.2,0,
0.7041877834089091,0.30839559459293636,0.21823997589643512,0.2,-0.591865499053099,0.050023088399596405,0.2,-1.1713132583538899,0.5836220970358436,0.2,-0.21055936613070333,-0.2623592809055039,0.2,0.7596043524240034,0.034948710961831,0.2,0.09427248569645857,0.2562112473943586,0.2,0,
0.7121899173112831,0.31271816324253593,0.28990671493584264,0.2,-0.5905064187066564,0.5770392704870161,0.2,-1.1640671558673839,0.3873377464494593,0.2,-0.2124394857145911,-0.26888069375837453,0.2,0.7569624459111733,-0.03379893055500266,0.2,0.10061883211522371,0.22583435644846564,0.2,0,
0.720192051213657,0.31303410203190984,0.14506005415969303,0.2,-0.5826328707253068,0.25734198171091516,0.2,-1.1651158544106985,-0.0662543370747587,0.2,-0.21486145723083733,-0.32038763086934297,0.2,0.7590635695351233,0.12215540150201792,0.2,0.09788583539963402,-0.3347290261689912,0.2,0,
0.728194185116031,0.315039124109091,0.4248544148055186,0.2,-0.5863889469992818,0.10986014207473721,0.2,-1.16512722526058,0.21241017051601419,0.2,-0.21756568780850058,-0.28451018679885415,0.2,0.7589169323352056,0.09766812887606474,0.2,0.09526316769651985,-0.14956615521738956,0.2,0,
0.736196319018405,0.31983177266879814,0.41066436632661296,0.2,-0.580875108452111,0.57889397967123,0.2,-1.1617172916824423,0.48884198200256634,0.2,-0.219413620219619,-0.1407163631936062,0.2,0.7606262595971404,0.0893225047704782,0.2,0.09549277691615579,0.2667897203142621,0.2,0,
0.7441984529207789,0.3216097539703168,0.25644916160038816,0.2,-0.5771266433245421,0.17343376874605354,0.2,-1.157305753548539,0.3830240291373549,0.2,-0.21981714961959828,-0.2966979246423057,0.2,0.7603460924115333,0.20512704679683663,0.2,0.09953180322154805,-0.10656058037512242,0.2,0,
0.7522005868231529,0.32393495925440435,0.29305442374724305,0.2,-0.5781001681521741,0.18409812889881583,0.2,-1.1555889072162446,0.11088652700863566,0.2,-0.22416078701389588,-0.4151631368730958,0.2,0.7639082923458898,0.042164190154597714,0.2,0.09378780763015383,-0.420362278463789,0.2,0,
0.7602027207255269,0.3262986247502727,0.16066142813307357,0.2,-0.5741810732621611,0.37870969429931733,0.2,-1.1555315691164008,0.06863908859625067,0.2,-0.2264597598095678,-0.573582433452225,0.2,0.7610207194540068,-0.0248817460735129,0.2,0.09280600676612742,-0.10582474916640601,0.2,0,
0.7682048546279008,0.32650554210453353,0.18147027887669212,0.2,-0.572040813043385,0.11644365144948543,0.2,-1.1544906817987046,0.15896770425427587,0.2,-0.23333810594913149,-0.22699973337480736,0.2,0.7635101844087135,0.22320280636033835,0.2,0.09209461164349134,0.1269307964371271,0.2,0,
0.7762069885302748,0.3292021492122998,0.564412069793737,0.2,-0.5723179748389693,0.4223932698278546,0.2,-1.1529880858483323,0.3256901611427693,0.2,-0.23009175554356473,-0.2461401785622576,0.2,0.7645919643557723,0.39326433630320484,0.2,0.09483689950912146,-0.05744118123449538,0.2,0,
0.7842091224326487,0.3355361352212333,0.457943471720762,0.2,-0.5652825207261394,0.40508845037857955,0.2,-1.1492796392204203,0.37140531818587175,0.2,-0.2372763488061276,-0.3555539493469758,0.2,0.7698024137895648,0.13760347202920048,0.2,0.09117555274373941,-0.33161939189407885,0.2,0,
0.7922112563350228,0.336529244759832,0.11211348963560339,0.2,-0.565836559632912,0.2545374870179182,0.2,-1.1470456007573584,0.10308333841550776,0.2,-0.23578061873311634,-0.1083253253681294,0.2,0.7667936199082395,-0.03568101465688256,0.2,0.0895309892388162,-0.07942200871749808,0.2,0,
0.8002133902373967,0.337329951055403,0.2859349456343328,0.2,-0.5612099209338527,0.35743833014856286,0.2,-1.1476303058057722,0.1967529185195327,0.2,-0.23900955401201768,-0.5009167359133256,0.2,0.7692315175550547,0.12748290973162157,0.2,0.08990480060425944,-0.14786736414226787,0.2,0,
0.8082155241397707,0.3411042038899813,0.4249910846052078,0.2,-0.560117546350535,0.036960093870136435,0.2,-1.1438975540610459,0.24034976828102295,0.2,-0.24379528650772955,-0.3386688851125547,0.2,0.7688333464639454,0.12461765834827915,0.2,0.08716511141253991,-0.12664966299736746,0.2,0,
0.8162176580421446,0.3441298084090863,0.42406771110798863,0.2,-0.5606185594319305,0.4640317239136271,0.2,-1.1437847095132758,0.26935642482345257,0.2,-0.24442825617381855,-0.26842519063615883,0.2,0.7712254000886272,0.4040189398445068,0.2,0.08787840599630156,0.017402864937341063,0.2,0,
0.8242197919445186,0.3478892872677091,0.1821191622105936,0.2,-0.552693038767917,0.5951360413996506,0.2,-1.1395878512638706,0.25422989857881717,0.2,-0.2480900895579081,-0.26341632621161915,0.2,0.7752976495014575,0.05622341997576358,0.2,0.08744355725153737,0.036017698592517335,0.2,0,
0.8322219258468926,0.3470437150044558,0.08822637269136069,0.2,-0.5510963827695361,0.08926915394601859,0.2,-1.1397170311360147,-0.15658093069220724,0.2,-0.24864291739320446,-0.27761958698480255,0.2,0.7721249748082394,0.08064107765321654,0.2,0.08845468917378184,-0.06992743079907177,0.2,0,
0.8402240597492665,0.3493009092307709,0.09422554886512682,0.2,-0.5512647323047807,-0.14977660420247008,0.2,-1.142093146154946,0.3866205722202476,0.2,-0.25253200294966494,-0.4076146131060474,0.2,0.776587906743909,0.02909704183878814,0.2,0.08632471835875222,-0.2514933467028316,0.2,0,
0.8482261936516405,0.34855132378629783,0.15594710552490135,0.2,-0.5534928084367756,0.15978935468334565,0.2,-1.1335311019804908,0.6293004835476318,0.2,-0.2551647512029012,-0.3196439063715729,0.2,0.77259052747766,-0.18747070064646654,0.2,0.08443079562653653,-0.24774887021876413,0.2,0,
0.8562283275540145,0.3517960629191693,0.38843551594066467,0.2,-0.5487081026298471,0.5098744913661565,0.2,-1.1320243384181838,0.037545143539791104,0.2,-0.2576463054516101,-0.1245145644243606,0.2,0.7735883755335655,0.2557584581033834,0.2,0.08236073643525199,-0.33468389398632736,0.2,0,
0.8642304614563885,0.35476629204134846,0.21352399854485463,0.2,-0.5453348165749171,0.19373498444102966,0.2,-1.1329303796838541,0.10487712728542153,0.2,-0.257156984233691,-0.282985970556468,0.2,0.7766826628073141,0.13267487088096386,0.2,0.0790758533227553,-0.08381943833827774,0.2,0,
0.8722325953587624,0.355212446895887,0.30283933687043,0.2,-0.5456083428787907,0.19926987945094454,0.2,-1.130346304381617,-0.05370950926469886,0.2,-0.2621740809805136,-0.8505471719095596,0.2,0.7757111734676609,0.09360851673053533,0.2,0.08101962542183955,0.050819308792373306,0.2,0,
0.8802347292611363,0.35961172143127534,0.16643323394613732,0.2,-0.542146498503702,0.126203024582619,0.2,-1.1337897318320893,-0.11411163942801061,0.2,-0.27076573898424394,-0.20698421569083705,0.2,0.7781803990750027,0.2985497425999281,0.2,0.07988896226343327,0.16307622673715927,0.2,0,
0.8882368631635104,0.3578753786390252,0.17245071508859705,0.2,-0.5435890944854688,0.342333172541065,0.2,-1.1321720906124653,0.27954112203949777,0.2,-0.265485828431567,0.008423723765176722,0.2,0.7804879693492598,0.09002095822258777,0.2,0.0836288450496341,0.018229903728911832,0.2,0,
0.8962389970658843,0.3623709328726929,0.1078555441505688,0.2,-0.536669167743045,0.38702887003522896,0.2,-1.1293170738794573,0.09260696887079811,0.2,-0.2706309594040011,-0.583090921041092,0.2,0.7796207344065641,0.05112979790003469,0.2,0.08018064072309586,-0.4404887378227284,0.2,0,
0.9042411309682583,0.3596010673454343,0.17276758298260045,0.2,-0.5373966325649051,-0.028610539533964474,0.2,-1.1306903791105325,0.0985013083980163,0.2,-0.27481528316822446,-0.24310984166163105,0.2,0.7813060461156603,0.03138215284675949,0.2,0.07658102524447044,-0.394407038709842,0.2,0,
0.9122432648706322,0.3651352142004145,0.4541642672680618,0.2,-0.5371269363755884,0.19722368791429828,0.2,-1.127741052945089,0.3617831723826126,0.2,-0.2745207168705872,-0.1437028467900399,0.2,0.7801228488521122,0.20423649517185838,0.2,0.07387012810373839,-0.11766199553501708,0.2,0,
0.9202453987730063,0.3668676956217233,0.028403300321732522,0.2,-0.5342410535582763,0.2933935428617307,0.2,-1.1249018483524107,0.2594814500841841,0.2,-0.2771145287168651,-0.38495948340689157,0.2,0.7845738300384101,0.3232837369531866,0.2,0.07469843331591017,-0.0521963609588557,0.2,0,
0.9282475326753802,0.3655896670055622,0.16183201211586104,0.2,-0.5324326396898007,0.3682892307930938,0.2,-1.1235893497437421,-0.10164288067905647,0.2,-0.2806800686050975,-0.326687172363907,0.2,0.7852953886433632,0.06013262355571841,0.2,0.0730349863283967,-0.4041168984130804,0.2,0,
0.9362496665777541,0.36945700781557705,0.4362731034864703,0.2,-0.5283484258655868,0.21273095257288294,0.2,-1.1265281344432756,0.07072752850163788,0.2,-0.2823415234746876,-0.2658770304978242,0.2,0.7855359520153016,-0.08772699053188199,0.2,0.06823256294130088,-0.12989821243126856,0.2,0,
0.9442518004801281,0.37257003666134575,0.12707503251472088,0.2,-0.5290289444486346,0.08669242240893354,0.2,-1.122457709287716,0.16915359535375762,0.2,-0.28493410109306266,-0.45786124614612467,0.2,0.7838917567948531,-0.10568979097091286,0.2,0.0709566149294964,-0.07712528428999425,0.2,0,
0.952253934382502,0.3714902083358126,0.13529980131110272,0.2,-0.5269613471070439,0.11041039110609024,0.2,-1.1238216769176155,0.2652944218773795,0.2,-0.2896673034130256,-0.6420386259380455,0.2,0.783844915359767,0.2470643513894366,0.2,0.06699855839266097,-0.19733768376656302,0.2,0,
0.9602560682848761,0.3747348334823234,-0.0011987501793986333,0.2,-0.5272623781909371,0.2418443953403765,0.2,-1.1182129985376779,0.3510666031607962,0.2,-0.2952067191080714,-0.40881431771421295,0.2,0.7878447864170841,0.3986999315894815,0.2,0.06779921198923139,-0.18438285716992908,0.2,0,
0.96825820218725,0.3714710283329422,-0.0031828218849706824,0.2,-0.5230918367815979,0.4086491270967607,0.2,-1.1182046112670427,0.1986903765333753,0.2,-0.296208332496453,-0.23472540501298655,0.2,0.7902241142651987,-0.016688712378608306,0.2,0.06404843267794211,-0.10575005209805324,0.2,0,
0.9762603360896239,0.37468390833216386,0.3361034218840285,0.2,-0.520723992157389,0.010616141580661875,0.2,-1.1150339525131439,0.252324056424183,0.2,-0.2989623255882792,-0.2286525954893412,0.2,0.7875777670190264,-0.06201016484841393,0.2,0.06610721115566254,-0.2795452883087952,0.2,0,
0.984262469991998,0.37684868308308667,0.23033536855789072,0.2,-0.5229219785163073,-0.14455679648731068,0.2,-1.1141674263642558,-0.17748922161026082,0.2,-0.29986677402428247,-0.4004814852970398,0.2,0.789231951627624,0.3183430831094833,0.2,0.059575708065001384,0.019622715074011678,0.2,0,
0.9922646038943719,0.3783692742290901,0.3628988558161926,0.2,-0.5230369009011859,0.2300910110470955,0.2,-1.117873780058908,-0.11466530587227186,0.2,-0.3053700293530318,-0.3151680468408899,0.2,0.7926712563487781,0.15831020774088184,0.2,0.06642117459684672,0.1640937658448122,0.2,0,
1.0002667377967458,0.38265506477614575,0.20385080335388536,0.2,-0.5192405223395538,0.2529585556039632,0.2,-1.1160020712582122,0.3472240040657687,0.2,-0.3049094627737367,-0.340802400470977,0.2,0.7917649149514782,-0.13145552625930257,0.2,0.06220120831851838,-0.7453094543684855,0.2,0,
1.00826887169912,0.3816308870827523,0.2606980678671045,0.2,-0.5189895640115225,0.26959012076246264,0.2,-1.1123181959938557,0.34508122310401845,0.2,-0.31082286776056745,-0.3318094297888839,0.2,0.7905679679286293,0.03700240646965086,0.2,0.054496223326950956,-0.5181238627046179,0.2,0,
1.0162710056014939,0.3868262338620194,0.19382670738398236,0.2,-0.5149270804073544,0.16561262068295196,0.2,-1.1104807716885479,0.06407586031571821,0.2,-0.31021841365035885,-0.2628249383101952,0.2,0.7923569534549926,0.17556966984175887,0.2,0.05391122651524449,0.2228312794363141,0.2,0,
1.0242731395038678,0.384732114400896,-0.10613402411819087,0.2,-0.5163397620805953,-0.06976784991447049,0.2,-1.1112929822288042,0.028634662080570528,0.2,-0.31502806677353057,-0.4489789913669287,0.2,0.7933770826460974,0.20612082118835057,0.2,0.05806152379793198,-0.1866534325301993,0.2,0,
1.0322752734062417,0.38512808947612837,0.02719780483297768,0.2,-0.5160433660059859,0.36661836413901666,0.2,-1.1100226170952587,0.14233764539201,0.2,-0.3174020775122297,-0.16789112598286984,0.2,0.7956548865940062,-0.09506338549788995,0.2,0.0509247715947613,-0.5403257249583199,0.2,0,
1.0402774073086156,0.38516727927822364,0.38473148160571635,0.2,-0.510473868254371,0.15427106718332584,0.2,-1.109015579902532,0.04125765285623029,0.2,-0.3177143247892565,-0.2907946678796722,0.2,0.7918560684781312,-0.22854821010138276,0.2,0.049416312198598863,-0.09991793067688293,0.2,0,
1.0482795412109898,0.39128379318181983,0.31723503335185155,0.2,-0.5135750289310527,-0.23448565225612367,0.2,-1.109362494649559,-0.03275399681183788,0.2,-0.32205479219830446,-0.6025935926103239,0.2,0.7919981152323841,0.16402944714664913,0.2,0.049326084703931176,0.06078782907923416,0.2,0,
1.0562816751133637,0.39024303981185327,-0.05525185828586868,0.2,-0.514225638690469,0.09247364527223412,0.2,-1.1095396438515215,0.14666257228923563,0.2,-0.32735582227102167,-0.3931211238586661,0.2,0.7944805396324776,0.24716151499434152,0.2,0.05038891746386661,-0.35624121239576867,0.2,0,
1.0642838090157376,0.39039976344924593,-0.021118714218976153,0.2,-0.5120954506066969,0.35588105233886475,0.2,-1.1070158934929313,0.1359265266783205,0.2,-0.3283447301800431,-0.29365441542041415,0.2,0.7959526994722935,-0.00015539267441549987,0.2,0.04362622530559888,-0.23812069063295932,0.2,0,
1.0722859429181115,0.38990514038434965,-0.08946568760564294,0.2,-0.5085315418530472,0.1398308154488409,0.2,-1.1073648194246684,-0.0929145557659744,0.2,-0.3320542929177483,-0.42361051646242626,0.2,0.7944780533496869,-0.21194341549302803,0.2,0.04657898641373926,-0.19971928373243175,0.2,0,
1.0802880768204854,0.38896831244755564,0.35555629246586395,0.2,-0.5098581575595155,-0.23704748606223625,0.2,-1.1085025263851869,0.09089882160948082,0.2,-0.33512249844344194,-0.4989384848635703,0.2,0.7925616048244051,0.2920057412710772,0.2,0.04043071676587997,-0.46624284511588215,0.2,0,
1.0882902107228596,0.39559404106380347,0.23457239918026757,0.2,-0.5123243016300429,-0.0042674331748523975,0.2,-1.1059104382789167,-0.010050446378015443,0.2,-0.3400373086755654,-0.442485265512927,0.2,0.7991501452100241,0.19028910524652998,0.2,0.039119100891885146,0.071662144918144,0.2,0,
1.0962923446252335,0.3927214708344399,-0.11008842666778568,0.2,-0.5099264364903131,0.17580153012678595,0.2,-1.1086633335272351,0.2335390937748677,0.2,-0.3422022626916488,-0.2836565184188636,0.2,0.7956062305083496,-0.24148999590972026,0.2,0.04157731108457027,-0.05484090329772829,0.2,0,
1.1042944785276074,0.3938326262371189,0.17001073736506653,0.2,-0.5095114771480144,0.3529762251314114,0.2,-1.1021738127785188,0.45863218631614355,0.2,-0.34457581297026724,-0.40879860236359145,0.2,0.7952863052754686,0.029053300345950606,0.2,0.03824164643912149,-0.646253711076532,0.2,0,
1.1122966124299813,0.395441642632281,0.03197849193700003,0.2,-0.5042788168882105,0.3132813792317349,0.2,-1.1013252185461768,-0.21324213944634574,0.2,-0.34874304032946624,-0.45827371823880036,0.2,0.7960710833138848,0.2478113906311738,0.2,0.031237251707345762,-0.4907640886287663,0.2,0,
1.1202987463323555,0.3943442821081109,0.10467776102057735,0.2,-0.5044989750803066,-0.03599056801915218,0.2,-1.1055856870096603,-0.02454267561186052,0.2,-0.35190819246208804,-0.4729438294115082,0.2,0.7992512875255674,-0.05861989652974908,0.2,0.030389421021061232,-0.11035236528435764,0.2,0,
1.1283008802347294,0.3971164868086102,-0.14074600215342042,0.2,-0.504854665976517,0.14544200782490302,0.2,-1.1017179013559666,0.09132930294118713,0.2,-0.35631014160005037,-0.44110346175881,0.2,0.7951331649694088,0.07616138084039215,0.2,0.02947161386279604,0.014060431417506304,0.2,0,
1.1363030141371033,0.3920923460736562,-0.04753602676716914,0.2,-0.5021719029551082,0.15094798020945377,0.2,-1.1041244181626013,-0.20672282184307222,0.2,-0.358965847850229,-0.1258509497658808,0.2,0.8004698696190137,0.15908126624770286,0.2,0.030614387923741333,-0.3321973514089243,0.2,0,
1.1443051480394772,0.3963559103803355,0.193936312685411,0.2,-0.5024394982931657,0.06518170962960257,0.2,-1.1050254665054557,0.1698029396301065,0.2,-0.35832375679630446,-0.12200880678157888,0.2,0.797678465229372,-0.10092995176313319,0.2,0.02415645624025325,-0.10825966874626852,0.2,0,
1.1523072819418512,0.39519532707662275,0.2813332914994929,0.2,-0.5011289956010345,0.12716121911932055,0.2,-1.1014075711285196,0.08323245405933433,0.2,-0.36091798875873426,-0.5551233639242182,0.2,0.7988549903908035,0.06721943869994473,0.2,0.028882233223801037,-0.21189847968587616,0.2,0,
1.1603094158442253,0.4008572430443274,0.12880662391525147,0.2,-0.5004049187872566,-0.11563178436491128,0.2,-1.1036937472405064,0.014163600259589626,0.2,-0.36720573061909195,-0.5404758214709732,0.2,0.7987539762485711,-0.05865615523961698,0.2,0.020766080565279232,-0.5276866117368066,0.2,0,
1.1683115497465992,0.3972562330592668,-0.28241931080932176,0.2,-0.5029791041508731,-0.1562236486183574,0.2,-1.1011809535243662,-0.05366074597598636,0.2,-0.36956560190226984,-0.3820229727260933,0.2,0.7979164919069697,-0.04489850919039973,0.2,0.02043924743601213,-0.2623431929450605,0.2,0,
1.1763136836489732,0.39633853407137826,0.1936578160041634,0.2,-0.5029044971651503,0.0755000442928741,0.2,-1.1045523191761222,0.010482666754740855,0.2,-0.37331809818270945,-0.291383694811239,0.2,0.7980356001015247,0.2068740290080348,0.2,0.016568589478158265,-0.39532187722204293,0.2,0,
1.184315817551347,0.4003547581153334,0.10201994137120848,0.2,-0.5017711034421871,0.22445075023979147,0.2,-1.1010132308562903,0.1869343988830513,0.2,-0.37422774101924966,-0.3092392623596403,0.2,0.8012264763710982,-0.02701198808846561,0.2,0.014114097400459442,-0.11008271351007129,0.2,0,
1.192317951453721,0.3979708531333176,0.058708641647069876,0.2,-0.4993132851613136,0.17249839725960725,0.2,-1.1015613687939934,0.007761833648367578,0.2,-0.3782659263804637,-0.3541748753672323,0.2,0.7976034082921093,-0.32112413560772546,0.2,0.014807266061997124,-0.14219602740016257,0.2,0,
1.2003200853560951,0.4012940963816865,0.2494981481947836,0.2,-0.4990111290860334,-0.01148302500747142,0.2,-1.1008890415179164,0.224043360775375,0.2,-0.3798945390251254,-0.20242431935737007,0.2,0.7960884902013746,-0.0004140956208140145,0.2,0.011838960962056841,-0.23320091770003493,0.2,0,
1.208322219258469,0.40196282350443413,-0.11034464327275978,0.2,-0.49949701356143317,-0.022210140523670763,0.2,-1.0979766750215874,-0.01256975779763414,0.2,-0.3815047154901816,-0.4891462359161297,0.2,0.7975967827621763,0.317642669229512,0.2,0.011076051378796565,-0.13180814454929438,0.2,0,
1.216324353160843,0.39952858208932235,-0.4474251166912552,0.2,-0.49936649133441213,0.07129410122008045,0.2,-1.1010901576426786,-0.29571351090670883,0.2,-0.38772087879978345,-0.38405345860600265,0.2,0.8011707729090468,0.2286521719934223,0.2,0.009730030649268131,-0.14451599363380663,0.2,0,
1.224326487063217,0.39480402163737405,0.3042724057456883,0.2,-0.4983563079419119,-0.1381687828086453,0.2,-1.1027080911960947,-0.06780730260499968,0.2,-0.38764957082787765,-0.2769242012754733,0.2,0.801255217514071,-0.029965460911905717,0.2,0.008763795480655659,-0.3787609272381749,0.2,0,
1.2323286209655908,0.40439694058125336,0.17220510001109482,0.2,-0.5015771918593505,-0.011050509690493232,0.2,-1.1021750744843586,0.059798608324584945,0.2,-0.392151666020191,-0.7273955279657219,0.2,0.8006913255344563,-0.21469959953780704,0.2,0.0036698558134573324,-0.3809345867245126,0.2,0,
1.240330754867965,0.39755930323755156,-0.2719162099857862,0.2,-0.49853311609695977,0.2537744744561532,0.2,-1.1017513134629013,0.1867672876236931,0.2,-0.3992878992753292,-0.36897035122690836,0.2,0.7978200239214661,0.10501338488902445,0.2,0.002668842093063458,-0.08722521349278567,0.2,0,
1.2483328887703389,0.4000462812214808,0.1277562719174119,0.2,-0.497516800268052,0.07677612911693305,0.2,-1.0991867978823795,-0.07360765765873634,0.2,-0.39805519163982156,-0.0011229373616007676,0.2,0.8023715396926807,0.10942621863698626,0.2,0.0022742523975727616,-0.08968944575598589,0.2,0,
1.2563350226727128,0.39960340358823015,-0.2578129142753391,0.2,-0.49730469803108884,-0.052009489209674936,0.2,-1.1029290359854411,0.029434477063439157,0.2,-0.3993058662731148,-0.5997311253855935,0.2,0.7995708434196579,-0.08106295182037232,0.2,0.0012338109609676836,-0.4794607465927889,0.2,0,
1.2643371565750867,0.39592127459307536,-0.02462556223520318,0.2,-0.4983489520954068,-0.209679976873451,0.2,-1.0987158462493645,0.3445447579163152,0.2,-0.40765088964599105,-0.6583151587773485,0.2,0.8010745324635548,0.05707114930490059,0.2,-0.0053971195479118605,-0.4391747027401222,0.2,0,
1.2723392904774609,0.3992093945924669,0.16315819683381666,0.2,-0.5006595776610641,0.03823807414163674,0.2,-1.09741631985878,-0.0034537062735540136,0.2,-0.4098389088135524,-0.11074266948397221,0.2,0.8004839818085363,-0.20711407994667558,0.2,-0.005792984282874272,-0.10637397230503183,0.2,0,
1.2803414243798348,0.3985318057424164,0.0994576767901316,0.2,-0.4977371429091406,-0.13871519383124725,0.2,-1.0987711055497413,-0.13473275064505852,0.2,-0.4094227723577346,-0.29269679249011027,0.2,0.797760707184408,-0.07442451075628104,0.2,-0.00709910310479237,-0.23762019781961033,0.2,0,
1.2883435582822087,0.400800717421109,0.1087017718412707,0.2,-0.502879020762364,-0.27425482453363736,0.2,-1.099572043869101,0.273982649399665,0.2,-0.41452205749339416,-0.4258378375850136,0.2,0.7992931896364358,0.03928620070881711,0.2,-0.009594907447988037,-0.28731081561224586,0.2,0,
1.2963456921845826,0.40027103409187675,-0.05035836678043623,0.2,-0.5021252201016788,0.17363834504783432,0.2,-1.0943873831593467,-0.30425113694514117,0.2,-0.4162361777590948,-0.49527880760406523,0.2,0.798389286395749,-0.011494660609651097,0.2,-0.011696076154588304,-0.13478294221291376,0.2,0,
1.3043478260869565,0.39999498355262203,-0.13295094779822852,0.2,-0.5001008072415987,0.09217679859553629,0.2,-1.1044400620602233,-0.35380587862897384,0.2,-0.4224465184150592,-0.4481828439843738,0.2,0.7991092750666814,-0.02788799502807804,0.2,-0.011751434523394657,-0.12803358506115278,0.2,0,
1.3123499599893307,0.3981438189271051,-0.04286385578002733,0.2,-0.5006503913241502,-0.24604501278698704,0.2,-1.1000482772174103,0.2113191728150693,0.2,-0.4234071032628448,-0.41890718136273347,0.2,0.7979430784752998,-0.18862348526994116,0.2,-0.013744613515566748,-0.2710938856650835,0.2,0,
1.3203520938917046,0.3993091618601416,0.23457696469726674,0.2,-0.5040375274461905,-0.041593606185545695,0.2,-1.1010589552951822,-0.0740957608547782,0.2,-0.42914903331686294,-0.35953749646941424,0.2,0.7960912993023623,-0.009857740648364088,0.2,-0.016088936694035993,-0.33481990386393257,0.2,0,
1.3283542277940785,0.40189705036226137,-0.12456234908365948,0.2,-0.501315889023119,0.1541240159027915,0.2,-1.1012338093910867,0.0269507245450884,0.2,-0.42915970320635544,-0.07778746550626478,0.2,0.797785354624926,0.12487850979095438,0.2,-0.01910173197738967,-0.1669081184932158,0.2,0,
1.3363563616964524,0.39731616427480304,-0.1537636226725675,0.2,-0.5015715431917458,-0.016220984713398445,0.2,-1.1006277437024607,-0.23310178738997211,0.2,-0.4303936327649632,-0.3742841122195903,0.2,0.7980893554590176,0.0312600934598839,0.2,-0.018759466589927446,-0.24622526528453617,0.2,0,
1.3443584955988264,0.3994368323995003,-0.06521712611752897,0.2,-0.5015754247785333,-0.12614226023607844,0.2,-1.1049634379893263,-0.27550265752832037,0.2,-0.4351482490018689,-0.59727793417522,0.2,0.7982855161202841,0.05153579509852013,0.2,-0.02304133622194225,-0.4726334287323301,0.2,0,
1.3523606295012005,0.3962726902569226,-0.20909832419202176,0.2,-0.503589819355523,-0.07920815213420529,0.2,-1.1050357862229139,-0.053394245093818515,0.2,-0.4399500797117667,-0.5287884118029863,0.2,0.7989139281805939,0.13391051099989615,0.2,-0.026321601449644728,-0.1193715375972014,0.2,0,
1.3603627634035744,0.39609125921242794,-0.14229802924227083,0.2,-0.5028427552126806,-0.07927116213553298,0.2,-1.1058177459108274,0.014522919250650745,0.2,-0.44360886359071666,-0.06771908846220712,0.2,0.8004280842962824,-0.08685716140147126,0.2,-0.02495128082349747,-0.2575411517928016,0.2,0,
1.3683648973059483,0.39399592178904624,-0.19668064135570235,0.2,-0.5048581579496916,-0.13914256234816985,0.2,-1.1048034195149035,0.13992676409674276,0.2,-0.441033585127162,-0.09128114445404456,0.2,0.7975242135981704,-0.18516842815877177,0.2,-0.030442259878329554,-0.28259761467207334,0.2,0,
1.3763670312083223,0.3929443689507367,-0.00850158105198534,0.2,-0.5050690362102513,-0.17727043853288382,0.2,-1.1035789176852795,0.07081958263020771,0.2,-0.4450693619019814,-0.6388650514582913,0.2,0.7974653894457421,-0.030192871100682972,0.2,-0.029472842658250644,-0.06325068506483683,0.2,0,
1.3843691651106962,0.3938598964922145,0.01669227011381197,0.2,-0.5076944849662177,-0.22480164652671775,0.2,-1.1036703061928201,-0.08722053894157089,0.2,-0.45125542595049467,-0.5251209785285468,0.2,0.7970411276605595,0.0060452115648382265,0.2,-0.03145427083936694,-0.2536657663914186,0.2,0,
1.3923712990130703,0.3932114452725577,-0.15435938503884084,0.2,-0.5086658625546788,0.12211471371091631,0.2,-1.1049744463083446,-0.15836323116891204,0.2,-0.4534712975584381,-0.282695230013362,0.2,0.7975621128307795,0.017398355923195497,0.2,-0.03353149492051334,-0.2596946206475221,0.2,0,
1.4003734329154442,0.391390146331593,-0.0018035612078734498,0.2,-0.5057406495468431,0.30770985758527686,0.2,-1.1062041178915227,-0.19777448516722362,0.2,-0.45577854963070846,-0.320318262637672,0.2,0.7973195013553306,-0.4282903236115104,0.2,-0.0356093847697273,-0.38434424170273856,0.2,0,
1.4083755668178182,0.3931825882932317,-0.020838632916637956,0.2,-0.5037425048333144,-0.1599072312461064,0.2,-1.1081388380710202,-0.16611580163850004,0.2,-0.4585963897606409,-0.4939509956872201,0.2,0.7907094676529953,-0.2312011362989655,0.2,-0.03968100278775716,-0.16516448409776902,0.2,0,
1.416377700720192,0.3910567282049268,-0.10323929082008132,0.2,-0.5082991652467808,-0.3159988987964796,0.2,-1.1088619707177387,0.07445567869864,0.2,-0.463681765561704,-0.22778218724973237,0.2,0.7936202831745471,0.4164815349571305,0.2,-0.0382520165152916,-0.08183929362777119,0.2,0,
1.4243798346225662,0.3915307596401104,-0.24479769338617632,0.2,-0.5087984872140581,-0.12004552454578793,0.2,-1.106947547211842,0.08152896841075175,0.2,-0.4622409047566366,-0.17035202946671588,0.2,0.7973731722123094,0.17421753831962927,0.2,-0.0409904314858015,-0.38023564517121594,0.2,0,
1.4323819685249402,0.387139965110748,-0.12851163018979053,0.2,-0.5102198936395134,0.18448403738238056,0.2,-1.1075575072231667,-0.057739445271987044,0.2,-0.46640739803317144,-0.8346193407371346,0.2,0.7964077637876612,-0.20166758826033887,0.2,-0.044335786838031056,-0.14586036722177062,0.2,0,
1.440384102427314,0.38947457355707377,0.10447840867451944,0.2,-0.50584674261594,-0.5616977237447723,0.2,-1.1078713783361938,-0.09170230889837816,0.2,-0.47559481420843075,-0.529582565154639,0.2,0.794146490800144,-0.03799508774085525,0.2,-0.04332419736134983,-0.28286100346354687,0.2,0,
1.448386236329688,0.3888116196495403,-0.26725458447616685,0.2,-0.5192070572194297,-0.42854992246126045,0.2,-1.1090247441655408,-0.2975021440055903,0.2,-0.47488071907564566,-0.33815845784030196,0.2,0.7957998423838075,-0.17441947491583787,0.2,-0.048861562893447806,-0.416413661942369,0.2,0,
1.456388370232062,0.3851985002054551,-0.05089135747006826,0.2,-0.5127035413753201,0.18866943933303765,0.2,-1.1126314126402832,-0.25091626815441914,0.2,-0.4810053495338756,-0.12375444446916656,0.2,0.7913557792014906,-0.11807980870635199,0.2,-0.04998681595242773,-0.1395093723548773,0.2,0,
1.464390504134436,0.3879973579300192,0.1378739804093615,0.2,-0.5161883461901011,-0.021582206115138003,0.2,-1.1130394044560115,-0.05779412421555441,0.2,-0.47686079018715233,-0.03326109790956211,0.2,0.7939105654445059,-0.06266157498456548,0.2,-0.05109371285112584,-0.17375360366894255,0.2,0,
1.47239263803681,0.3874044838920049,-0.0657675830297369,0.2,-0.5130488566731624,-0.18807968944278136,0.2,-1.113556118627732,-0.04426280156659412,0.2,-0.4815375271004286,-0.39107193164224924,0.2,0.7903531940017375,-0.19915684973222797,0.2,-0.05276687361113081,-0.06512123220250464,0.2,0,
1.480394771939184,0.3869450766015434,-0.08845893228126567,0.2,-0.5191976212211856,-0.26461662295313576,0.2,-1.113747609281077,0.04012815035117634,0.2,-0.4831179410934283,-0.3259395675730449,0.2,0.7907240558487902,0.05709670640343528,0.2,-0.05213565256636592,-0.19989630385443183,0.2,0,
1.4883969058415578,0.38598914097550463,-0.23151409311878562,0.2,-0.5172827226404125,0.007114475213045035,0.2,-1.1129140682221133,0.20033649626439998,0.2,-0.4867525601815973,-0.6108355764618857,0.2,0.7912667413041925,0.1777470276418877,0.2,-0.05596521447280172,-0.13577157279973323,0.2,0,
1.4963990397439317,0.38324085111164286,-0.6350919313465632,0.2,-0.5190837896177769,-0.17771377139599864,0.2,-1.1105422253408466,-0.14458892337176898,0.2,-0.4928913103168185,-0.40603769045580507,0.2,0.7935680082910604,-0.12826983952801685,0.2,-0.05430799773116165,-0.22399784960376545,0.2,0,
1.5044011736463059,0.3758276700739596,-0.2579070179659984,0.2,-0.5201261429827485,-0.011423206380742346,0.2,-1.1152274909960616,-0.5744839202372759,0.2,-0.4932491632288902,-0.20660360983407872,0.2,0.7892144238717442,-0.27957635619212107,0.2,-0.05954918006646197,-0.5061999544613612,0.2,0,
1.5124033075486798,0.3791143388241869,0.028977958125932235,0.2,-0.5192665609198688,-0.2777035404947295,0.2,-1.119733968064643,-0.28964258510137675,0.2,-0.49619696807416375,-0.47448871850062563,0.2,0.7890947865919865,-0.10039932635038523,0.2,-0.06240719700254343,-0.35620927153547,0.2,0,
1.5204054414510537,0.37629131740397453,-0.388609879254171,0.2,-0.5245693996306642,-0.4120589658716395,0.2,-1.1198617723576836,0.18512881681383153,0.2,-0.5008409827249002,-0.6860277292056703,0.2,0.7876080346501381,-0.1205762711766617,0.2,-0.06524852841102949,-0.06682838061019712,0.2,0,
1.5284075753534276,0.37289658075612014,-0.19066545705812357,0.2,-0.525859504373815,-0.011495084557777702,0.2,-1.1167719069956217,0.09323561696515659,0.2,-0.5071734117414545,-0.269682834816376,0.2,0.7871655662531599,-0.1077051872644813,0.2,-0.06347645109230658,-0.18938810114182447,0.2,0,
1.5364097092558016,0.37324067009104456,0.02105033427930378,0.2,-0.5247533209835886,0.03158429742826374,0.2,-1.118370002486241,0.02577898112746113,0.2,-0.5051559080819622,0.004014182554926138,0.2,0.7858847516539064,0.1803853638228589,0.2,-0.06827873802929868,-0.1991315691905141,0.2,0,
1.5444118431581757,0.373233386104589,-0.15066933370033384,0.2,-0.5253541556149628,-0.29321658027910147,0.2,-1.1163594432975823,0.046376084692906216,0.2,-0.5071091848205757,-0.5122136182665604,0.2,0.7900517320743257,-0.11392707814089631,0.2,-0.06666255619935481,0.10679057762844751,0.2,0,
1.5524139770605496,0.3708299607518392,-0.04217008958856336,0.2,-0.5294447862680542,-0.43554486783953933,0.2,-1.1176279851311546,-0.45285510077562596,0.2,-0.5133513259742272,-0.3534736739209815,0.2,0.784061918403652,-0.4172875528219086,0.2,-0.06657008878724352,-0.1620080894778903,0.2,0,
1.5604161109629235,0.372558664671172,-0.28391009415822815,0.2,-0.5323228735003954,-0.13577999047034023,0.2,-1.1236051249099923,-0.5539009463223915,0.2,-0.5127647636033114,-0.02977963973672948,0.2,0.7833751312291751,0.0678187252511342,0.2,-0.06925468563100105,-0.31684652010037073,0.2,0,
1.5684182448652975,0.36628739924530757,-0.31908698847978034,0.2,-0.5316172661155797,-0.3465514238369105,0.2,-1.1264904002723128,-0.0681755990638716,0.2,-0.5138278002100148,-0.3237242541999849,0.2,0.7851470180076702,-0.057491457979085,0.2,-0.07163963310884945,-0.35590926900200615,0.2,0,
1.5764203787676716,0.3674532728554955,-0.02098361451185332,0.2,-0.537867696281786,-0.3106944833717873,0.2,-1.1246959344950143,-0.06419274585808821,0.2,-0.5179443516705111,-0.5093793519045999,0.2,0.7824552679015098,-0.026103499230149818,0.2,-0.07494923393503315,-0.1787281186221446,0.2,0,
1.5844225126700455,0.3659516614131179,-0.14540009352346714,0.2,-0.5365883778495283,-0.12650473730638906,0.2,-1.1275174842060423,-0.1721624649039244,0.2,-0.5219778698404884,-0.4195874881549669,0.2,0.7847293620199878,-0.0651057500213395,0.2,-0.07449928300680377,0.15631383428656337,0.2,0,
1.5924246465724194,0.36512687135912003,-0.27106256904802645,0.2,-0.5398917720786882,-0.1327324568083238,0.2,-1.127450533933477,-0.19626740078899918,0.2,-0.5246577514809906,-0.34662353675790625,0.2,0.7814135759011683,-0.10546527573807724,0.2,-0.07244821258644814,-0.24369247133812671,0.2,0,
1.6004267804747934,0.3616146603083495,-0.15119439713642477,0.2,-0.5387120971584615,-0.16132102058612208,0.2,-1.1306577626186662,0.05668546190902568,0.2,-0.5275238464286149,-0.40886462565121323,0.2,0.7830419176081785,0.008592389735814776,0.2,-0.07839836254821379,-0.5839868169893814,0.2,0,
1.6084289143771673,0.36270776100493723,-0.31088538751477407,0.2,-0.5424729084080662,-0.3690671018271932,0.2,-1.1265435665429326,0.15078229049023117,0.2,-0.53119958549141,-0.446459449141505,0.2,0.7815510541369414,-0.3424515168468298,0.2,-0.08179200165827824,-0.039421094710528036,0.2,0,
1.6164310482795414,0.3566404941081131,-0.22325374185961852,0.2,-0.5446171707876966,-0.007073849485922379,0.2,-1.1282452459708225,-0.5269700105638431,0.2,-0.534667197614879,-0.3414509168211191,0.2,0.7775626933386293,-0.2712848534262638,0.2,-0.07902910006358224,-0.09878851906902457,0.2,0,
1.6244331821819153,0.35913570113518334,-0.05726504295270815,0.2,-0.5425860899998409,-0.1868500476293472,0.2,-1.1349750867119541,-0.24809605579166616,0.2,-0.5366628001605479,-0.28573912503090243,0.2,0.7772104964821211,-0.1836262892786003,0.2,-0.08337261796338263,-0.08858979109743932,0.2,0,
1.6324353160842893,0.3557242534208698,-0.37804024378558854,0.2,-0.5476067715497661,-0.21685903866614648,0.2,-1.1322147828634892,0.07721707710454939,0.2,-0.5392390236153735,-0.14839016558240714,0.2,0.7746246727101717,-0.1436305655047876,0.2,-0.08044653672114127,-0.10291726198014862,0.2,0,
1.6404374499866632,0.3530870572346139,-0.25214820545264166,0.2,-0.5460558346184993,-0.19753541937615055,0.2,-1.1337396134782813,-0.22461227240977433,0.2,-0.5390370428098664,-0.41006122921801585,0.2,0.7749124074340445,-0.048975482440503926,0.2,-0.08501929415506501,-0.21689948723373817,0.2,0,
1.648439583889037,0.3516898821336275,-0.18677039363496073,0.2,-0.5507673382597845,-0.4395538451847786,0.2,-1.1358085792220456,-0.3673544474934731,0.2,-0.5458000032828617,-0.516158877441622,0.2,0.7738410649911236,-0.015277545083416944,0.2,-0.08391692851688108,-0.09082295449505326,0.2,0,
1.6564417177914113,0.35009873093645455,-0.47977581012233206,0.2,-0.5530886961414557,-0.3560855445480654,0.2,-1.139617284638177,-0.14963488284333581,0.2,-0.5472955848489324,-0.17407584996566305,0.2,0.7746679667127099,0.015405602597814982,0.2,-0.08647246142698586,-0.38662205847028813,0.2,0,
1.6644438516937852,0.3440134691716702,-0.2803634006535369,0.2,-0.5564647069725536,-0.003984029651266097,0.2,-1.138202737347539,-0.06616961885581862,0.2,-0.5485852168823123,-0.19142032776489626,0.2,0.7740875546326886,-0.1280951829080515,0.2,-0.09010288145240569,0.06628069152661391,0.2,0,
1.672445985596159,0.34561291652599796,-0.08076170263369986,0.2,-0.553152440615876,-0.11973000254342225,0.2,-1.14067599853987,-0.2295885550900878,0.2,-0.5503583100931707,-0.3725381307915568,0.2,0.772618443786181,-0.23501311085090404,0.2,-0.08541197036256004,0.06646370872549073,0.2,0,
1.680448119498533,0.342721281929531,-0.3807939926637853,0.2,-0.5583803870132483,-0.354764501260825,0.2,-1.1418761542289804,-0.20116244830264973,0.2,-0.5545458269749772,-0.3597951549602421,0.2,0.7703273448590742,-0.15198845499669184,0.2,-0.08903946211279784,-0.3692873568192237,0.2,0,
1.6884502534009072,0.3395202126433774,-0.31373075116640153,0.2,-0.5588286726360492,-0.3552519934923587,0.2,-1.1438945977127124,-0.1418227372624592,0.2,-0.5561150325725346,-0.23752980906539822,0.2,0.770186628506234,-0.12692839603734019,0.2,-0.09132056807166762,-0.01604326022822209,0.2,0,
1.696452387303281,0.33770158991086857,-0.3734394427538576,0.2,-0.5640644189091261,-0.20455331017522893,0.2,-1.1441453180251797,-0.19390758140022668,0.2,-0.5583463039200236,-0.14218284360729277,0.2,0.7682964905224767,-0.17882550298881084,0.2,-0.0892961542764494,0.2774278501685009,0.2,0,
1.704454521205655,0.3335451815593157,-0.312758156365802,0.2,-0.5621015255988528,-0.040201607150340546,0.2,-1.146997119015116,-0.25438123790448575,0.2,-0.5583899580702513,-0.5460066117360592,0.2,0.767325420458413,-0.025216730692903533,0.2,-0.0868817224689716,-0.2820592729956984,0.2,0,
1.712456655108029,0.33269745940901574,0.01735791279106752,0.2,-0.5647076446235315,-0.13550582918103737,0.2,-1.1482154178316515,-0.3635216335496766,0.2,-0.5670824097078005,-0.5590511088962787,0.2,0.7678930228313903,-0.25558408721227527,0.2,-0.09380910264438057,-0.3501538732404059,0.2,0,
1.7204587890104028,0.33382290816397275,-0.1506336058415582,0.2,-0.5642696188657494,-0.5713341814588546,0.2,-1.1528134651519109,-0.20990590532575515,0.2,-0.5673347758125917,-0.19522956975571298,0.2,0.7632360750630166,-0.313337954706297,0.2,-0.0924841844408181,0.2814696215559416,0.2,0,
1.728460922912777,0.3302873217155508,-0.35567897297346035,0.2,-0.5738489915268732,-0.5050754015264655,0.2,-1.1515739123168636,-0.17278335012756163,0.2,-0.570206082823892,-0.36510414883155623,0.2,0.7628796155560895,0.049485041352180514,0.2,-0.0893055886994855,-0.11446392528764726,0.2,0,
1.736463056815151,0.3281320445963974,-0.3017994888301345,0.2,-0.5723508252901729,-0.21348656873376032,0.2,-1.1555779987539518,-0.46465785076654775,0.2,-0.5731764421938966,-0.38155897526600396,0.2,0.7640278357246515,-0.17562559591471905,0.2,-0.09431560724542046,-0.17473122859050938,0.2,0,
1.7444651907175248,0.32545852989426866,-0.42296116340278384,0.2,-0.5772647766266134,-0.32413361030050186,0.2,-1.1590084379291283,-0.008491722305561944,0.2,-0.576311026428148,-0.4280219523126391,0.2,0.760069606021454,-0.14075845767119732,0.2,-0.09210128835693365,-0.14260137165148043,0.2,0,
1.7524673246198987,0.32136466598195285,-0.2068611143866278,0.2,-0.5775369630549809,-0.2771823243992097,0.2,-1.1557138663108408,-0.16755483124908377,0.2,-0.5800247934308989,-0.2545378324319905,0.2,0.7617757004019123,0.15718014997748164,0.2,-0.09659722919184414,-0.23609249370310556,0.2,0,
1.7604694585222727,0.3221487520640826,-0.1734870929223399,0.2,-0.5816996938170007,-0.07742532674841207,0.2,-1.1616893152291137,-0.43664720114038047,0.2,-0.5803836317470599,-0.03211334497404961,0.2,0.7625844884210937,-0.14947520778118423,0.2,-0.09587876825618334,0.1819562280501773,0.2,0,
1.7684715924246468,0.3185888724951954,-0.31071825267667275,0.2,-0.5787757682829555,-0.135500840479634,0.2,-1.162700221529087,0.01214139063422659,0.2,-0.5805386069504836,-0.4243514645532534,0.2,0.7593840970774134,-0.22265880806456723,0.2,-0.09368592954304131,0.008103857351999047,0.2,0,
1.7764737263270207,0.31717726002125585,-0.45542610219278384,0.2,-0.5838677072646749,-0.6937840270313869,0.2,-1.161495052978966,0.10543612845501094,0.2,-0.5871732551799119,-0.5518837400250165,0.2,0.7590219474920606,-0.012932348825961393,0.2,-0.09574910653855136,-0.3015207971006949,0.2,0,
1.7844758602293946,0.31130205486011087,-0.4054607237109903,0.2,-0.5898763127154577,-0.6312126078563198,0.2,-1.1610132434738067,-0.2535579805905408,0.2,-0.5893687467908839,-0.19290217267921295,0.2,0.759177179496198,-0.2592081806711763,0.2,-0.09851026229665243,0.0668735594358304,0.2,0,
1.7924779941317686,0.31068988844188,-0.2254901321411401,0.2,-0.593967108990376,0.07957717962104455,0.2,-1.1655519806684147,-0.5251838192363717,0.2,-0.5902596899427793,-0.11397865834976428,0.2,0.7548746166013218,-0.3469894933215978,0.2,-0.09467912958757807,0.10830556258382018,0.2,0,
1.8004801280341425,0.3076942127458526,-0.36749244417369487,0.2,-0.588603077841521,0.02692651640077981,0.2,-1.1694161845815887,-0.39432969764012504,0.2,-0.5911924053244801,-0.2820507911229578,0.2,0.7536253476030524,0.031488900895826344,0.2,-0.0967773732953113,-0.15647915682988517,0.2,0,
1.8084822619365166,0.3048100093351009,-0.3679955678031824,0.2,-0.5935362847279635,-0.5050429206382712,0.2,-1.1718612558306567,-0.3064936823578557,0.2,-0.5947725026007467,-0.15078846047698186,0.2,0.755378439015655,-0.20692467892374083,0.2,-0.09718279609685623,0.06732047945886502,0.2,0,
1.8164843958388905,0.3018062836610017,-0.20241432248398541,0.2,-0.5966837645717333,-0.4204053373739053,0.2,-1.1743200834993144,-0.28537868037331604,0.2,-0.5936050206921119,-0.03809377229957445,0.2,0.7503145527402726,-0.34296186418466407,0.2,-0.09570024562396946,-0.07225809965932459,0.2,0,
1.8244865297412645,0.3015713801753571,-0.3683320596410758,0.2,-0.600262770125946,-0.2896391397908399,0.2,-1.1764273147166298,-0.22558531241685664,0.2,-0.5953820029575398,-0.7146860432898638,0.2,0.7498910491887004,0.013121411786956583,0.2,-0.09833892569140543,-0.16239007336000913,0.2,0,
1.8324886636436384,0.2959129707067445,-0.26260722957929805,0.2,-0.6013179908083868,-0.3700836627904269,0.2,-1.177929448497984,-0.19850838610047106,0.2,-0.6050399973847497,-0.19872432499928872,0.2,0.7505244953288639,0.05536560948705277,0.2,-0.09829848679772961,0.06094987756898474,0.2,0,
1.8404907975460125,0.29736966450208835,-0.2979692247181663,0.2,-0.6061841087305928,-0.5196105763036126,0.2,-1.1796034488942373,-0.34677111117238646,0.2,-0.5985615921575285,0.042232770899111594,0.2,0.7507768989404933,-0.3391887510324071,0.2,-0.09736372765030167,-0.07271860240751042,0.2,0,
1.8484929314483864,0.29114546311125383,-0.6365951086219207,0.2,-0.6096317600292446,-0.2754902361890993,0.2,-1.1834777862767423,-0.1967167986434426,0.2,-0.6043642730503639,-0.4842703795071915,0.2,0.7450974753123454,-0.1257388404116433,0.2,-0.09946198443624978,-0.010769235804074934,0.2,0,
1.8564950653507604,0.2871841427641376,-0.33839137245168793,0.2,-0.6105919525096184,-0.4824554055868277,0.2,-1.1827509176725324,-0.028421596444797026,0.2,-0.6063099182296435,-0.2658028913098062,0.2,0.748765077493907,-0.2692487169982938,0.2,-0.09753603542316687,0.02303308931818175,0.2,0,
1.8644971992531343,0.2857312011520268,-0.28578249204352923,0.2,-0.6173510465186338,-0.34005335196531095,0.2,-1.183932531819859,-0.5246418398819619,0.2,-0.6086171193113208,-0.3418222292830217,0.2,0.7407894958403727,-0.39312152451388693,0.2,-0.09909345500715887,0.042750219986125056,0.2,0,
1.8724993331555082,0.28261162289144115,-0.252685314648237,0.2,-0.6160328061410634,-0.012305769478769546,0.2,-1.1911451871106438,-0.20729785998324646,0.2,-0.6117790738981719,-0.293419616362027,0.2,0.7424751331016848,0.12082873609724903,0.2,-0.09685203190338887,-0.016997100728126727,0.2,0,
1.8805014670578823,0.28168823611765503,-0.17781779427793534,0.2,-0.6175479388302941,-0.1734088376392079,0.2,-1.187249297579591,0.008061398434219824,0.2,-0.6133118331731132,-0.14932795214305655,0.2,0.7427227556179287,-0.20136559890326228,0.2,-0.0993654086188089,-0.08951293143057322,0.2,0,
1.8885036009602563,0.2797665381829942,-0.3711004592722687,0.2,-0.6188073475432907,-0.341130521804095,0.2,-1.1910162047356962,-0.5970472469502691,0.2,-0.6141683211324608,-0.5205960543069182,0.2,0.7392532835192326,-0.3824461810158983,0.2,-0.09828423880627804,-0.06624642971939272,0.2,0,
1.8965057348626302,0.27575062876929873,-0.5608751586343546,0.2,-0.6230060271791596,-0.7272620991702616,0.2,-1.1968020535307953,-0.4771247507276144,0.2,-0.6216413700420239,-0.3857012771178031,0.2,0.7366036167216743,-0.26569681530622113,0.2,-0.10042535149431918,0.056199228301338604,0.2,0,
1.904507868765004,0.2707925356448445,-0.5071010507537651,0.2,-0.6304435411300149,-0.37442829268239525,0.2,-1.198650200747338,0.32348061016942986,0.2,-0.6203395415663456,-0.14884100962712227,0.2,0.735002134474333,-0.2532854232484144,0.2,-0.09738505115345662,0.24742678016827918,0.2,0,
1.912510002667378,0.2676370119572385,-0.1641860728788351,0.2,-0.628996879862078,-0.4024296866590102,0.2,-1.1916263637680844,-0.21511791059614094,0.2,-0.6240228261960579,-0.20107736520975222,0.2,0.7325510499496997,-0.23835923279626886,0.2,-0.09646652301162671,-0.06684382240749152,0.2,0,
1.9205121365697522,0.26816555847878315,-0.18536257699279524,0.2,-0.636882416116559,-0.6437023611951184,0.2,-1.2020920873168763,-0.8179959558891892,0.2,-0.6235567794097017,-0.036741933929253234,0.2,0.7311883867495927,-0.0021027757265770775,0.2,-0.09845455231197649,-0.14369443480508146,0.2,0,
1.928514270472126,0.26467121072535377,-0.4507523312221734,0.2,-0.6392961176411999,-0.4338995877358337,0.2,-1.2047142990623114,-0.06633579106041232,0.2,-0.6246106971389259,-0.1956415686794194,0.2,0.7325174055380744,-0.2649525675415959,0.2,-0.09876563396850802,-0.0668190672746165,0.2,0,
1.9365164043745,0.2609535211792284,-0.5603335615206803,0.2,-0.6438248095203324,-0.1649194461577283,0.2,-1.203153459973843,-0.04608424866760219,0.2,-0.6266870445085724,-0.24498784007772473,0.2,0.7269491456689272,-0.3815261076755977,0.2,-0.09952365738837035,-0.15535914525307593,0.2,0,
1.944518538276874,0.2557058737410229,-0.45199969070902624,0.2,-0.6419348287797235,-0.0647383270014068,0.2,-1.205451647040993,-0.3963325786466021,0.2,-0.6285305025801695,-0.39481501040986716,0.2,0.7264129878152649,-0.05395653775699255,0.2,-0.10125138029255723,-0.06893570842745211,0.2,0,
1.9525206721792479,0.25372152612788396,-0.4208650937200138,0.2,-0.6448606227523549,-0.1584895443092066,0.2,-1.2094947812321886,-0.4321486924999396,0.2,-0.6330040846751303,-0.22727280711322406,0.2,0.7260858410648153,0.11574524522922625,0.2,-0.10062662872320959,0.15043663932315549,0.2,0,
1.960522806081622,0.24897203224150266,-0.4223893982672963,0.2,-0.6444706614886708,-0.3240323283267982,0.2,-1.212366026120992,-0.33423171437878263,0.2,-0.6321668674939811,-0.23980000028846205,0.2,0.7282649117389325,-0.14253395454310452,0.2,-0.09884439406338674,0.3138328918278763,0.2,0,
1.968524939983996,0.24696329575560722,-0.2379470205081599,0.2,-0.6500451400055837,-0.6425474130088149,0.2,-1.214842488662249,-0.4696187241559485,0.2,-0.6368408846797456,-0.20168226674907586,0.2,0.7238052977921257,-0.2720524905772681,0.2,-0.09560530245396356,0.24351862660843687,0.2,0,
1.9765270738863698,0.2451648799133721,-0.49171831766021273,0.2,-0.6547514200968119,-0.2776751441439587,0.2,-1.2198799257074873,-0.15268567330158078,0.2,-0.6353937837619663,-0.19134825909955522,0.2,0.7239120718896962,-0.46194151758173485,0.2,-0.09494809603765175,-0.016993280811004527,0.2,0,
1.9845292077887438,0.2390958026730438,-0.4512113453182427,0.2,-0.654487942311887,-0.43274401644079197,0.2,-1.2172854594350744,0.008499310715018304,0.2,-0.6399024568253385,-0.34053524684444364,0.2,0.7164142335108179,-0.39628924784404496,0.2,-0.09587719494693964,-0.1310662881332178,0.2,0,
1.992531341691118,0.23794549838828022,-0.17767672932552173,0.2,-0.6616753243598645,-0.7567584108437164,0.2,-1.219743936736047,-0.34327249133193904,0.2,-0.6408423477114774,-0.3610679907520009,0.2,0.7175714439241915,-0.006215243909563073,0.2,-0.09704515664778324,0.42858319807173667,0.2,0,
2.0005334755934916,0.23625297500383546,-0.5104805858758675,0.2,-0.6665960768853865,-0.6412866252395039,0.2,-1.2227778192963854,-0.46742798316518064,0.2,-0.6456795446773705,-0.17198038350486888,0.2,0.7163147896082649,-0.15217172695351083,0.2,-0.08901986377779185,0.19699361709139396,0.2,0,
2.0085356094958655,0.22977780901426634,-0.7037780986274486,0.2,-0.6719359103636966,-0.2866129471495657,0.2,-1.2272227844666899,-0.18040644753718194,0.2,-0.6435940338475553,-0.12185285921095801,0.2,0.7151366962929353,0.06603525809379535,0.2,-0.09389325877432093,-0.2601078830089384,0.2,0,
2.01653774339824,0.22499252542579629,-0.11138852993193213,0.2,-0.6711818840397795,-0.132902910382926,0.2,-1.2256643224569803,-0.06944162958494315,0.2,-0.6476291904247459,-0.5323676133834748,0.2,0.7173713537377656,0.058182912336397774,0.2,-0.09318158990593486,0.04856794647534017,0.2,0,
2.024539877300614,0.22799559253535542,-0.07614892134082812,0.2,-0.6740623569298234,-0.3939331482788952,0.2,-1.228333850540049,-0.39376992675460576,0.2,-0.6521119156616909,-0.0005955770297147445,0.2,0.7160676228903177,-0.47499424561563836,0.2,-0.09311617163071549,-0.09708380377632715,0.2,0,
2.0325420112029877,0.22377414268434304,-0.824678533794686,0.2,-0.6774848144122418,-0.43943749434458695,0.2,-1.231964641285054,-0.4553334489616617,0.2,-0.6476387196572213,0.19155861727836176,0.2,0.7097714458079154,-0.560432007396458,0.2,-0.0947349307663561,0.20382493949848685,0.2,0,
2.0405441451053616,0.21480073599464045,-0.5700203237414495,0.2,-0.6810933568393368,-0.593702530187562,0.2,-1.2356191857234355,-0.49647607266710414,0.2,-0.6490469777852371,0.05677101341317742,0.2,0.7071007107719743,-0.00190909034035458,0.2,-0.0898549725987397,0.1361460382729952,0.2,0,
2.0485462790077356,0.21465381750447984,-0.19277277908328302,0.2,-0.6869840548952428,-0.3619135214791014,0.2,-1.2399082584477277,-0.20247505483469985,0.2,-0.6467303834426105,-0.326039414892558,0.2,0.7097409003624697,-0.2585666220671218,0.2,-0.09255659415398818,0.18736079900742805,0.2,0,
2.0565484129101095,0.21171637152930792,-0.47973033488163047,0.2,-0.6868839731830024,-0.25153886456005803,0.2,-1.2388587866007907,-0.2831563026753081,0.2,-0.654263608423518,-0.3682077509801901,0.2,0.7029636448189004,-0.46740867536736175,0.2,-0.08685719981462085,0.4387040593440781,0.2,0,
2.0645505468124834,0.20697813214637376,-0.24920105581941082,0.2,-0.6910086767282038,-0.6870864593616077,0.2,-1.2444387592905326,-0.5352510765030266,0.2,-0.6526217074582935,-0.11221293116871894,0.2,0.7022623615565919,-0.0386739358262736,0.2,-0.08553732920448293,-0.10217273979589835,0.2,0,
2.0725526807148573,0.20772915463619734,-0.2848623953118183,0.2,-0.6978773565327882,-0.3993244851511965,0.2,-1.2474228038248392,-0.40354484418619885,0.2,-0.6560590153222176,-0.4583670831049477,0.2,0.70234486184568,-0.21443239633692907,0.2,-0.08849196365135523,-0.1027451406059917,0.2,0,
2.0805548146172312,0.20242033382138466,-0.8107523868774706,0.2,-0.6973978684906229,-0.21754518278815915,0.2,-1.2508954767975118,-0.3183270556350315,0.2,-0.6599555807879727,-0.262919533107725,0.2,0.6988314432152011,-0.4292373237226657,0.2,-0.0871812514541788,0.16596110639054226,0.2,0,
2.0885569485196056,0.1947571164461578,-0.5889567538412583,0.2,-0.7013580794573987,-0.6124282247413487,0.2,-1.2525160367149997,-0.20768591877300124,0.2,-0.6602657278519412,-0.30688582165777634,0.2,0.6954770646661174,-0.12570421532466514,0.2,-0.08583658594910655,-0.008621540060069037,0.2,0,
2.0965590824219795,0.19299702575992453,-0.26757986529066075,0.2,-0.7071967200864845,-0.6567853527978118,0.2,-1.2542184514978798,-0.14349983802522392,0.2,-0.6648657539344971,-0.41240192740330667,0.2,0.6968201757700064,0.15710062783205747,0.2,-0.0873191960951399,-0.08703042276626045,0.2,0,
2.1045612163243534,0.19047583860150724,-0.3080312322346051,0.2,-0.7118666451021637,-0.26369343633018266,0.2,-1.2548120341234033,-0.46638707687698955,0.2,-0.6668641586903941,-0.17116347059834003,0.2,0.6979906747114303,-0.3107553860950338,0.2,-0.08722907271336672,0.342594855338281,0.2,0,
2.1125633502267274,0.18806852604417085,-0.15085447287749817,0.2,-0.7114158150677674,-0.38432893251220956,0.2,-1.2616806447279116,-0.5159863614711407,0.2,-0.6676043694640705,-0.023642299558299107,0.2,0.6918480895924859,-0.3903891271810761,0.2,-0.0818376784097274,0.32025431320569736,0.2,0,
2.1205654841291013,0.18806216703546727,-0.5231473582144319,0.2,-0.718015908022359,-0.7530022135355391,0.2,-1.2630678159069415,-0.20448524757249453,0.2,-0.6672424354833268,0.16196668726753405,0.2,0.6917444486765331,-0.05832397770880876,0.2,-0.08210500370207556,0.04912801534442089,0.2,0,
2.128567618031475,0.17969816831273994,-0.715914482214473,0.2,-0.723463850484336,-0.3740742957875978,0.2,-1.2649524086890716,-0.15371395843721825,0.2,-0.66501290246779,-0.10538656537006225,0.2,0.690914905949145,-0.3823941230994693,0.2,-0.08105163016421667,0.4211461743472769,0.2,0,
2.136569751933849,0.1766075353200357,-0.5705071347442223,0.2,-0.7240010967549606,-0.3125724646275349,0.2,-1.265527239241937,-0.1888049558006616,0.2,-0.6689286205292478,-0.4963355989274984,0.2,0.6856261427069416,-0.3380050309864449,0.2,-0.07536666491251913,0.36169686604200274,0.2,0,
2.144571885836223,0.17057005415683238,-0.5500627010457462,0.2,-0.7284650099183766,-0.31237787026509173,0.2,-1.2679732879818821,-0.5291792007359464,0.2,-0.67295427205063,-0.06553305641674584,0.2,0.6855068254533618,-0.3877698965482068,0.2,-0.07526448030754462,0.14300405411460643,0.2,0,
2.152574019738597,0.16780653210330376,-0.4422357249625128,0.2,-0.7289991426792021,-0.42002844945530915,0.2,-1.2739941064537121,-0.5430378893589438,0.2,-0.6699771494319158,0.09514354754393967,0.2,0.6794218243621702,0.064816502624028,0.2,-0.07307860004668543,-0.000419234400555156,0.2,0,
2.160576153640971,0.16349428255743217,-0.47998797509553326,0.2,-0.7351854651096615,-0.59814186784235,0.2,-1.2766618942116252,-0.35240189250568266,0.2,-0.6714319752899269,-0.4027446070005436,0.2,0.6865438894953463,0.2001589033577139,0.2,-0.0752711880579535,-0.25966099108935303,0.2,0,
2.1685782875433453,0.16012672450177523,-0.49495744031932165,0.2,-0.7385694125646797,-0.44022827233158174,0.2,-1.279632536733803,-0.5301499359426365,0.2,-0.6764210631439245,-0.18016255795091224,0.2,0.6826243668158937,-0.5781884633077189,0.2,-0.07723317590411508,0.2677439104684801,0.2,0,
2.176580421445719,0.15557496351232303,-0.48468698429912116,0.2,-0.7422291174669668,-0.44720346301525826,0.2,-1.2851442931867074,-0.18201048305316325,0.2,-0.6743145762171415,0.07565153408158748,0.2,0.6772928740824228,-0.16635098084920308,0.2,-0.07098728549045782,0.3504795103208376,0.2,0,
2.184582555348093,0.1523717327529893,-0.3409457461019585,0.2,-0.7457246679729238,-0.35734217091376586,0.2,-1.2825447044626537,0.08209898916035352,0.2,-0.6752106385986191,-0.08399577097749356,0.2,0.6799627511223064,-0.12323246661194442,0.2,-0.07162550373898167,0.13400967835208027,0.2,0,
2.192584689250467,0.1501198315746917,-0.32771720835544393,0.2,-0.7479465922015871,-0.5002198227306645,0.2,-1.2838307093601418,-0.4260282410542271,0.2,-0.6756585085527814,-0.16993444638178923,0.2,0.6753211546166317,-0.5157294336086138,0.2,-0.06884313063682454,0.1913097728475496,0.2,0,
2.200586823152841,0.1471282574193022,-0.23640543400489133,0.2,-0.7537281851366144,-0.623696744115755,0.2,-1.2893611563195213,-0.42997897282892605,0.2,-0.6779295897407277,-0.37170420828477185,0.2,0.6717110801845686,-0.05717355685810194,0.2,-0.06856454737342088,0.09533255911749541,0.2,0,
2.208588957055215,0.14633734463061343,-0.4956891139896308,0.2,-0.7579257401074392,-0.4524307954635043,0.2,-1.2907103729254046,-0.42726212802345065,0.2,-0.6816057758853378,-0.07018479511277514,0.2,0.674406377706902,-0.12510299021924187,0.2,-0.06731780969094461,0.20420860050103518,0.2,0,
2.2165910909575888,0.1391972315954681,-0.7975959881458671,0.2,-0.7609670778640305,-0.3641507227813909,0.2,-1.2961973503678965,-0.5667949509795128,0.2,-0.6790525464625321,-0.06407687521207267,0.2,0.6697094323410607,-0.6200939414904224,0.2,-0.06529720976540432,0.1396390095384746,0.2,0,
2.2245932248599627,0.13357580882027956,-0.4385245949186569,0.2,-0.7637521516719414,-0.38341964180620136,0.2,-1.2997790921410768,-0.2150706319103829,0.2,-0.6826310058887309,-0.2925850164040636,0.2,0.6644848746430553,-0.4132206716353226,0.2,-0.06508358553832902,0.26465075120427406,0.2,0,
2.2325953587623366,0.13218083807676959,-0.2020750104306107,0.2,-0.7671017921329297,-0.5183456509258999,0.2,-1.2996384804784626,-0.28239479731174966,0.2,-0.6837339067249971,-0.020091577392356008,0.2,0.6630979015948956,-0.10761089090934733,0.2,-0.06106279774613593,0.2280131867846988,0.2,0,
2.240597492664711,0.13034260865338979,-0.4874041614118642,0.2,-0.7720456820867558,-0.43513672063103664,0.2,-1.3042974088980648,-0.33832345900874916,0.2,-0.6829524711270086,0.018874667026672065,0.2,0.6627631003885057,-0.18600906473002082,0.2,-0.06143537454977384,0.3396083989050404,0.2,0,
2.248599626567085,0.12438237149417976,-0.7435679240045895,0.2,-0.7740639796630263,-0.5021210940561807,0.2,-1.3050516558226026,-0.4723723289996179,0.2,-0.6834319120525704,-0.24194448216163095,0.2,0.6601217565592152,-0.08457898973331102,0.2,-0.055629063363655286,0.39210543046544,0.2,0,
2.256601760469459,0.11844552186931635,-0.46488762186743493,0.2,-0.7800796195916547,-0.7457161798486295,0.2,-1.3118553661620587,-0.8611953870797523,0.2,-0.6868235828415947,-0.09312624554484727,0.2,0.6614098365527727,-0.20799412830567465,0.2,-0.0551616876623268,0.02770008727740001,0.2,0,
2.2646038943718327,0.1169441695443008,-0.520447525905473,0.2,-0.7859954385406044,-0.4664794838006789,0.2,-1.3188307820158787,-0.10740083944388301,0.2,-0.6849219319812879,0.0811523709527695,0.2,0.6567938505063244,-0.20935861811106904,0.2,-0.055185861967216886,0.05319885605317102,0.2,0,
2.2726060282742067,0.11011836145482878,-0.6406966925428343,0.2,-0.7875432913324656,-0.3854148033199875,0.2,-1.3135737795931608,0.021140049497728186,0.2,-0.6855251449063504,-0.31151074373639287,0.2,0.6580600986629956,-0.3858015101832063,0.2,-0.05431050596547606,0.18085969707755303,0.2,0,
2.2806081621765806,0.10669302246361545,-0.29073295771317104,0.2,-0.7921620753937242,-0.5411295173413239,0.2,-1.318492541223915,-0.6491855357184384,0.2,-0.6899061038810702,-0.3180600985486434,0.2,0.6506210263433931,-0.5301207823718429,0.2,-0.05229210681397604,0.23478180597230786,0.2,0,
2.2886102960789545,0.10546663413141805,-0.12213088928683148,0.2,-0.7962013636099268,-0.2663296415093899,0.2,-1.3239607481646558,-0.4624702899460875,0.2,-0.6906141064831287,-0.10384838307200134,0.2,0.6495781661450462,0.05734659467087483,0.2,-0.050553997069919136,0.43847161163022147,0.2,0,
2.2966124299813284,0.10473892823502615,-0.8126738928768054,0.2,-0.7964233496578744,-0.3165171236020961,0.2,-1.3258920658630524,-0.1396819462938792,0.2,-0.6915676780102222,0.12916103641325005,0.2,0.6515385718581271,0.024686176893676248,0.2,-0.045276561027892494,0.21327763673521966,0.2,0,
2.3046145638837023,0.09246385184538916,-0.6648071969638418,0.2,-0.8012656375875603,-0.6207655492982896,0.2,-1.3261956593053579,-0.252195184086243,0.2,-0.6885475299005167,0.10510550973341637,0.2,0.649973144975345,-0.34823509883542825,0.2,-0.04714155488215562,0.07751523917787304,0.2,0,
2.3126166977860763,0.09410201308360468,-0.20467354298038878,0.2,-0.8063555984466471,-0.7145023908938299,0.2,-1.3299271888084323,-0.48861327785743036,0.2,-0.6898859898544876,-0.4933413900940001,0.2,0.6459668102767603,-0.5096599793394802,0.2,-0.044036317201046525,0.3186187556174541,0.2,0,
2.3206188316884506,0.08918907515770294,-0.39816594239446523,0.2,-0.8126976758418616,-0.45500823766649046,0.2,-1.3340134717510768,-0.38986097910909123,0.2,-0.6964409921420207,-0.123622944245734,0.2,0.6418185853059133,-0.28347719287364487,0.2,-0.042043654792276355,-0.034212300947130105,0.2,0,
2.3286209655908245,0.08773135800529323,-0.3960770397086286,0.2,-0.8136357302493109,-0.3561823865980418,0.2,-1.3361649644741778,-0.2663896878473404,0.2,-0.6918639569624193,0.20097627130931384,0.2,0.641431175190782,-0.11078834469133159,0.2,-0.04458371401620061,0.27749497198619605,0.2,0,
2.3366230994931985,0.08285184252236488,-0.5233712026636427,0.2,-0.8183965940274303,-0.6641051997732794,0.2,-1.3382757067566342,-0.18107795394819992,0.2,-0.6932253718010717,-0.05613408270075532,0.2,0.640045971790852,-0.1421192557721218,0.2,-0.03760373524049722,0.28607601370799884,0.2,0,
2.3446252333955724,0.07935741876267495,-0.577551079272127,0.2,-0.8242614134456834,-0.5581984919463684,0.2,-1.339062211737349,-0.5371094830522172,0.2,-0.6927621022856314,-0.12037915300568136,0.2,0.639157267098428,-0.13345696760937859,0.2,-0.040006497796872625,0.08520710098617983,0.2,0,
2.3526273672979463,0.07361102525401085,-0.616123696361548,0.2,-0.8273277698985722,-0.5020410485669299,0.2,-1.3468694584854697,-0.5031714577978241,0.2,-0.6951514382491626,-0.18785019314276896,0.2,0.6379106603091019,-0.1963737780141389,0.2,-0.03624042162471834,0.4553878765343579,0.2,0,
2.3606295012003202,0.06949943962089018,-0.38485492880390143,0.2,-0.8322940702227543,-0.2969517738144953,0.2,-1.3471129550621141,-0.26088494035846066,0.2,-0.6957677053759157,0.10147319784722941,0.2,0.6360152866502018,-0.4914763117989662,0.2,-0.0327202917723229,0.07612646780238942,0.2,0,
2.368631635102694,0.06745334639314843,-0.5411507453801727,0.2,-0.8320789982796041,-0.22955706250916974,0.2,-1.351043617531205,-0.44545339417528806,0.2,-0.6935278670836069,0.044592289426513554,0.2,0.6300470393203185,-0.41727119339596275,0.2,-0.03502239813988011,0.030386786905286026,0.2,0,
2.376633769005068,0.06084102769480742,-0.4716536809527155,0.2,-0.835966983222901,-0.8144811654530043,0.2,-1.3542402093689188,-0.5950469335131853,0.2,-0.6950542287450915,-0.24110156274708555,0.2,0.6293389475558664,0.025263172843792425,0.2,-0.03223410318183832,0.2750220678336467,0.2,0,
2.384635902907442,0.05990688749790498,-0.3481569213822527,0.2,-0.8451106969268521,-0.5121613815357514,0.2,-1.360564368467416,-0.3321933925158893,0.2,-0.6973854920875603,-0.07855703328980834,0.2,0.6304512500858191,-0.3756229742695322,0.2,-0.030622045054541764,0.3637736311011728,0.2,0,
2.3926380368098163,0.055270516952691376,-0.767582573093081,0.2,-0.844161565327473,-0.3299694169083267,0.2,-1.359555303649173,-0.1556039378665247,0.2,-0.6963111412777284,0.025414138994643565,0.2,0.6233289799675539,-0.22290216057221923,0.2,-0.026413725084219557,0.23900814856622202,0.2,0,
2.4006401707121903,0.047625566328415685,-0.7212358640097112,0.2,-0.8503902075973854,-0.8812456469219839,0.2,-1.3630540314732804,-0.4367522882795377,0.2,-0.696978865863646,-0.18473085052098104,0.2,0.6268848155166636,0.04971109784565608,0.2,-0.026797914677482212,0.3977721757555115,0.2,0,
2.408642304614564,0.043730743128536,-0.5139933670931748,0.2,-0.8582614956782247,-0.5904276769278446,0.2,-1.3665433402616456,-0.4688694283893208,0.2,-0.6992668348860641,0.04309434466905071,0.2,0.6241243575330844,-0.6069113272080817,0.2,-0.020049370272131373,0.32174511255082044,0.2,0,
2.416644438516938,0.03940167245492489,-0.4352533713773061,0.2,-0.8598370504282309,-0.34712556791855614,0.2,-1.3705559423275095,-0.5007321764834705,0.2,-0.6962893563489412,0.15051277941231095,0.2,0.6171742342813343,-0.3767199868442428,0.2,-0.021649992876669084,0.13088495961289887,0.2,0,
2.424646572419312,0.0367666891864991,-0.3221728686010001,0.2,-0.8638155047649216,-0.2965752828010537,0.2,-1.3745550550853811,-0.1600577844956541,0.2,-0.6968586304154671,-0.19653920348055437,0.2,0.6180968377435765,0.14621323240121553,0.2,-0.01795521091832499,0.30648033124813767,0.2,0,
2.432648706321686,0.03424690655730889,-0.41364923567133516,0.2,-0.8645822549530477,-0.15062352081543495,0.2,-1.37311686687944,-0.09734653351749223,0.2,-0.69943398360463,-0.11992033485365428,0.2,0.6195136459997538,-0.1623162971527703,0.2,-0.01674630757669888,0.14032871782326145,0.2,0,
2.44065084022406,0.030148301415757736,-0.5597849640445302,0.2,-0.8662254810979686,-0.5602346578492609,0.2,-1.376112599621661,-0.4506094266524818,0.2,-0.6987773557731256,0.08016096116137544,0.2,0.6154997769891322,-0.4302281937223901,0.2,-0.01570995143315281,0.20208827265717225,0.2,0,
2.448652974126434,0.025290347132596404,-0.6520769638476622,0.2,-0.8735460094786359,-0.6827664831143623,0.2,-1.3803266177058797,-0.4594709540578362,0.2,-0.698151408226048,-0.3516145944017779,0.2,0.6126299949001955,-0.28381483442354444,0.2,-0.013512895214184126,0.231198935123637,0.2,0,
2.4566551080288077,0.01971506999419514,-0.6185465839790573,0.2,-0.8771497448277984,-0.42531967052292924,0.2,-1.3834641348865864,-0.5267909423563449,0.2,-0.704403189283554,0.015356227328372496,0.2,0.6109587396383555,-0.3030020175954426,0.2,-0.012010768471174616,0.43500296262756455,0.2,0,
2.4646572419311816,0.015393601788931488,-0.3605897884930395,0.2,-0.8803511242070028,-0.5810980627097284,0.2,-1.3887552727835812,-0.25602639356125945,0.2,-0.6979057085887941,0.15618957078390727,0.2,0.6077819626186685,-0.24711768813705237,0.2,-0.006552847812143093,0.36223456257812275,0.2,0,
2.472659375833556,0.013945633378306508,-0.2201340352928797,0.2,-0.886447313831154,-0.673361270401622,0.2,-1.3875605571835665,-0.1490449123759119,0.2,-0.7019041561510115,0.11205583316924173,0.2,0.6070048566281626,-0.15861966762144297,0.2,-0.006215015469924652,0.11895034601706503,0.2,0,
2.48066150973593,0.011871457224245412,-0.4596907024206195,0.2,-0.8911249045334287,-0.518199881279463,0.2,-1.3911399913815958,-0.38398214338407344,0.2,-0.6961128152580862,0.10342304812094999,0.2,0.6052440479367254,-0.24638903519475647,0.2,-0.004649642275870052,0.15608723745492184,0.2,0,
2.488663643638304,0.006590582139576596,-0.6088168827875066,0.2,-0.8947385119316255,-0.5621229599673191,0.2,-1.3937042714777117,-0.7748520631660344,0.2,-0.7002493873810763,-0.18927384097863764,0.2,0.6030626320650465,-0.23768771385877102,0.2,-0.0037176196706459027,0.5095880351468575,0.2,0,
2.4966657775406778,0.0021303870996453077,-0.628624102777256,0.2,-0.9001188718929058,-0.4425589333881888,0.2,-1.4035376243922524,-0.564949602226944,0.2,-0.6991411967137444,-0.0860254311048983,0.2,0.601441044514985,-0.3881061320253412,0.2,0.0035037662864796683,0.2666878457491241,0.2,0,
2.5046679114430517,-0.0034674035048595005,-0.6552490677115687,0.2,-0.9018194548658365,-0.5097984139874403,0.2,-1.4027434651133428,-0.15167095292510646,0.2,-0.7016257942787547,-0.10488645150202869,0.2,0.596852933952641,-0.3724781494913662,0.2,0.0005493858613400826,0.07546989532462747,0.2,0,
2.5126700453454256,-0.008353597983739792,-0.43237193660861073,0.2,-0.9082756465167049,-0.6508227771213349,0.2,-1.405964359639054,-0.35255613852033796,0.2,-0.7008193799377769,0.2071155975157668,0.2,0.5954813941231232,-0.035543735158523326,0.2,0.004711284611673708,0.4165056577570938,0.2,0,
2.5206721792477995,-0.010385354490597272,-0.7090974432526268,0.2,-0.9122326192997778,-0.587344425677816,0.2,-1.4083843633296682,-0.29194771449550516,0.2,-0.6983119447185024,0.2868333851941546,0.2,0.5962842341901047,-0.2378731363155001,0.2,0.007213476385453584,0.3355887200614967,0.2,0,
2.5286743131501734,-0.01969915707578182,-0.7147105276070322,0.2,-0.91767315732755,-0.22793060249022556,0.2,-1.4106355230709822,-0.21791344096652732,0.2,-0.6962300457746704,-0.26127073127434064,0.2,0.5916754239420752,-0.29837748737056996,0.2,0.010080704132657655,0.13695209908627096,0.2,0,
2.5366764470525474,-0.02182072293230979,0.04352670947144286,0.2,-0.9158795089396214,-0.38300637845660457,0.2,-1.4118709783851326,-0.37227813856019476,0.2,-0.7024922764188919,-0.1654464103152814,0.2,0.5915101943921756,-0.16719097291777174,0.2,0.00940470997083392,0.14170421075245257,0.2,0,
2.5446785809549217,-0.019002729724238734,-0.3175536463493379,0.2,-0.9238012593828556,-0.5517297553574857,0.2,-1.4165919732879453,-0.6039507276772854,0.2,-0.6988771883397149,0.34022400098757816,0.2,0.5890003683753908,-0.08079777587306769,0.2,0.012347971504696896,0.17721783510010064,0.2,0,
2.5526807148572956,-0.026901581273899196,-0.6080847874669684,0.2,-0.9247071850253412,-0.48272361104730044,0.2,-1.4215341900279692,-0.476377907928191,0.2,-0.6970486924030906,-0.05575463716642193,0.2,0.5902174299782065,-0.0701575045020178,0.2,0.01224019533243553,0.17153421931038385,0.2,0,
2.5606828487596696,-0.02873208632371023,-0.5887077740383121,0.2,-0.9315248371596124,-0.4205006835054301,0.2,-1.4242140198147963,-0.18532412352065264,0.2,-0.6997692625343777,-0.09197469410389403,0.2,0.5878778483033585,-0.6001310191460496,0.2,0.015092519013663038,0.35402729629702057,0.2,0,
2.5686849826620435,-0.03632090565851219,-0.5960262861471692,0.2,-0.9314351959614281,-0.573221765220018,0.2,-1.4244993760042997,-0.3443485337523977,0.2,-0.698520287508753,0.07845442281834841,0.2,0.5806153336718697,-0.43909875080715144,0.2,0.01790463207318786,0.4058570239003636,0.2,0,
2.5766871165644174,-0.03826850690206494,-0.5964746870400165,0.2,-0.9406963854031327,-0.6590959830078125,0.2,-1.4297235963548347,-0.549902455440468,0.2,-0.6985139917692841,-0.08395118776218652,0.2,0.5808522682904441,-0.22458024544803196,0.2,0.021586231396068856,0.2901294154248185,0.2,0,
2.5846892504667913,-0.045864500651152454,-0.5173629078157821,0.2,-0.9419807316895531,-0.28133604292258224,0.2,-1.4332978152913471,-0.05551725870639457,0.2,-0.6998635065129479,-0.07601017841130098,0.2,0.5770220497447012,-0.056937796517352035,0.2,0.022546702719984955,0.40303585755747245,0.2,0,
2.5926913843691652,-0.04654631342711745,-0.4657312023932181,0.2,-0.945197762089894,-0.5954330215596007,0.2,-1.430611872494137,-0.40147000587610615,0.2,-0.6997301546238649,0.13561343691351896,0.2,0.5799412635461665,-0.13067445368435127,0.2,0.028034805116988415,0.13531189824956538,0.2,0,
2.600693518271539,-0.053316199889443944,-0.5779569881194675,0.2,-0.9515076600345067,-0.6995990691712403,0.2,-1.4397213353853648,-0.6258089625160584,0.2,-0.6976936915223316,0.12038215490317583,0.2,0.5749312584857516,-0.5776360654918961,0.2,0.024711693091978,-0.028595740593723464,0.2,0,
2.608695652173913,-0.05579362523702893,-0.22418176258078493,0.2,-0.9563913471966339,-0.3770349447657431,0.2,-1.440624815894394,-0.2924762140135567,0.2,-0.6978040401454141,0.08318236628832021,0.2,0.5706990864982961,-0.06842703472073608,0.2,0.02757727326748884,0.1313779553639013,0.2,0,
2.616697786076287,-0.0569031080907365,-0.37683072077232843,0.2,-0.9575402191507586,-0.280796823917448,0.2,-1.4444009548095817,-0.4405404729071055,0.2,-0.6963627736617185,-0.13115979917489862,0.2,0.5738364259302198,0.08390011417263449,0.2,0.026813740377800422,0.16885002532425236,0.2,0,
2.6246999199786614,-0.061822916769386185,-0.5614962871412442,0.2,-0.960884096379313,-0.5151028775287544,0.2,-1.4476734634609076,-0.4385220948722457,0.2,-0.6999025969322125,-0.026579068952571616,0.2,0.5720414883250583,-0.34864854512711013,0.2,0.030278873672676877,0.3966210822510384,0.2,0,
2.6327020538810353,-0.06588704868499641,-0.4855527983319641,0.2,-0.9657818651912187,-0.6062942662018733,0.2,-1.4514173083275377,-0.339327191624203,0.2,-0.6967880387649596,0.49025556403844983,0.2,0.568258049208186,-0.3793917215825296,0.2,0.03315967769381704,0.39084459120691417,0.2,0,
2.640704187783409,-0.06959176154269761,-0.4022928597300114,0.2,-0.970584804638543,-0.3244127562332666,0.2,-1.4531026985268949,-0.48224936992638523,0.2,-0.6920585079075973,0.10760967960558171,0.2,0.5659712207797378,-0.4383575491719652,0.2,0.036532387131987504,0.18148581160132077,0.2,0,
2.648706321685783,-0.0723237344406766,-0.701159457841478,0.2,-0.9709724692909509,-0.5884911210346302,0.2,-1.4591332982463598,-0.3481120078492328,0.2,-0.6950662838912703,-0.2576874532570217,0.2,0.5612443284214346,-0.45420448807268615,0.2,0.03606345067943817,0.1724649117898331,0.2,0,
2.656708455588157,-0.08081031286816126,-0.7499193473360348,0.2,-0.9800006625750971,-0.8575284931200341,0.2,-1.4586724906524826,-0.22977812662137997,0.2,-0.6961815071597096,-0.002911331339651435,0.2,0.5587039489705748,-0.3070321411896837,0.2,0.03929182572062483,0.4114922182476962,0.2,0,
2.664710589490531,-0.08432244399805315,-0.30932473012379097,0.2,-0.9846929251808715,-0.23695724367239768,0.2,-1.462809748272302,-0.5763103231306299,0.2,-0.6951128651927048,0.12365052029966045,0.2,0.5563318141623996,0.07799715381395095,0.2,0.04264732617140131,0.08500432595059254,0.2,0,
2.672712723392905,-0.08575950855014192,-0.6247686228399605,0.2,-0.9837919784738555,-0.2500976047712655,0.2,-1.4678934558225727,-0.3505768368515516,0.2,-0.694203098834915,0.2568209503683652,0.2,0.5599519034315981,-0.1947435910261211,0.2,0.040651894935834314,0.05986389413144234,0.2,0,
2.680714857295279,-0.09431874196349252,-0.6852355023533526,0.2,-0.9886944868572117,-0.5781568217710503,0.2,-1.4684189776619267,-0.02644619047920127,0.2,-0.6910037299868109,0.4423311421154069,0.2,0.5532159167059817,-0.48960117825892074,0.2,0.04360514847750439,0.5087823216830822,0.2,0,
2.6887169911976527,-0.09672327658779556,-0.36101246574010876,0.2,-0.9930424876221923,-0.5574774221695361,0.2,-1.46831659487024,-0.33721626329497045,0.2,-0.6871258005610685,-0.07065010239114267,0.2,0.5521182845794553,-0.24129100668134756,0.2,0.04879241208276363,0.07611735575924812,0.2,0,
2.696719125100027,-0.10009494141533426,-0.4897339861640237,0.2,-0.9976141256119243,-0.546106817694604,0.2,-1.4738144378746463,-0.3420041788085443,0.2,-0.6921341316250692,-0.20098197676103602,0.2,0.5493552605990801,-0.11348022781364903,0.2,0.04482302616965236,0.10173894458570618,0.2,0,
2.704721259002401,-0.10455902036641994,-0.36301603540753263,0.2,-1.001780196705306,-0.5921760715620269,0.2,-1.4737886617311766,-0.4630718526704436,0.2,-0.6903415121892451,0.062220948753244354,0.2,0.550302600934437,0.012880157252800895,0.2,0.05042023519613493,0.438738143844803,0.2,0,
2.712723392904775,-0.10590319798185478,-0.38097580052769225,0.2,-1.0070889427569167,-0.40880225106745827,0.2,-1.4812235875173734,-0.31907069195305504,0.2,-0.6911385964450173,0.1604410270033066,0.2,0.549561343115125,-0.3778694150863085,0.2,0.051842836471169204,-0.15473905750491845,0.2,0,
2.720725526807149,-0.11065463317486302,-0.6796325235607844,0.2,-1.0083210327223853,-0.5829111609461507,0.2,-1.4788937928024255,-0.31972875269291323,0.2,-0.6877744557571922,0.25576752208671116,0.2,0.544256690293056,-0.5340760457002921,0.2,0.04794441027605623,-0.08427783865624884,0.2,0,
2.7287276607095228,-0.11677731835882733,-0.4014997873428511,0.2,-1.0164155213320551,-0.26176077334073844,0.2,-1.48633924756046,-0.649560786562739,0.2,-0.6870463160916299,0.1321575325690938,0.2,0.5410161263839203,-0.20078576239893065,0.2,0.05049439105266922,0.5227221135104092,0.2,0,
2.7367297946118967,-0.11707862977234863,-0.415840773620728,0.2,-1.012509205095837,-0.17232404688956315,0.2,-1.4892867653874293,-0.2501375432686498,0.2,-0.6856599352360867,0.16952682844196404,0.2,0.5410441180946731,0.019767656908989406,0.2,0.05630796409222278,0.3317848002284984,0.2,0,
2.7447319285142706,-0.12343077073675898,-0.4562857305623006,0.2,-1.0191727060822882,-0.7269023938627356,0.2,-1.4903414482527584,-0.3465310607641825,0.2,-0.6843338868365585,0.1282542442898743,0.2,0.5413324088944641,-0.19208069309316345,0.2,0.0558029478563252,0.11270043723311286,0.2,0,
2.7527340624166445,-0.12437920146134544,-0.39619892266646445,0.2,-1.0241396433976409,-0.5857109976341868,0.2,-1.4948312623596562,-0.40030321510471645,0.2,-0.6836078673274487,-0.026121335688196468,0.2,0.5379708270051825,-0.4516487472298672,0.2,0.058111171087952586,0.16786698907079012,0.2,0,
2.7607361963190185,-0.1297699534994224,-0.6522149236114676,0.2,-1.0285440820444351,-0.38591555370456887,0.2,-1.4967462996944338,-0.40539652934053205,0.2,-0.6847518282075696,0.03293414537216405,0.2,0.5341060289387862,-0.21827957302151396,0.2,0.05848881968145784,0.18748082139867808,0.2,0,
2.7687383302213924,-0.13481464023912892,-0.3615534913325342,0.2,-1.030314292256914,-0.5403215494043101,0.2,-1.5013176068291048,-0.2218201260485303,0.2,-0.6830809210014941,0.23193463059840297,0.2,0.5344783538368383,-0.18451995510022218,0.2,0.061110864230331435,0.2524408995384854,0.2,0,
2.7767404641237667,-0.13555480936074296,-0.21946913286362627,0.2,-1.037189226834904,-0.6181014128254086,0.2,-1.5002954217112103,-0.35129630372181253,0.2,-0.6810408741179952,0.249714280546251,0.2,0.5311537096571827,-0.41052433279267775,0.2,0.0625278740740736,0.2258003992623176,0.2,0,
