samirx20/RADAR/data/datasets/overcurrent_j2_50.csv
timestamp,actual_q_0,actual_qd_0,actual_current_0,actual_q_1,actual_qd_1,actual_current_1,actual_q_2,actual_qd_2,actual_current_2,actual_q_3,actual_qd_3,actual_current_3,actual_q_4,actual_qd_4,actual_current_4,actual_q_5,actual_qd_5,actual_current_5,protective_stop,fault_code
0.0,0.2999711980468466,0.29192987409336346,0.2,-0.8003944337812086,0.7389588777936135,0.2,-1.1996620039013686,1.185578121980474,0.2,-0.4998613672078436,0.4564482528906788,0.2,0.7979919333792465,0.28821616213539625,0.2,-0.0020685387478649644,0.7589254114303094,0.2,0,
0.008002133902373967,0.3023066370395935,0.4847934508688846,0.2,-0.7944827627588597,0.8592463243989878,0.2,-1.1901773789255248,1.0395996768793603,0.2,-0.49620978118471815,0.6372598724317807,0.2,0.8002976626763296,-0.19518450548908217,0.2,0.004002864543577511,0.11993882341924401,0.2,0,
0.016004267804747934,0.30772789326074873,0.6286755554555309,0.2,-0.7866464925908248,0.8569347928487139,0.2,-1.1830284090712988,1.0186998607614044,0.2,-0.4896652092489351,0.4903635583192421,0.2,0.7948689812914211,-0.018423304814774166,0.2,-0.00014951757315706011,-0.31218034244855214,0.2,0,
0.0240064017071219,0.312365445926882,0.6362712407479362,0.2,-0.7807718060732802,0.7481997526469982,0.2,-1.1738781811533423,0.9064378913291316,0.2,-0.48836396425161027,0.3973723481341396,0.2,0.8000028897992932,0.17080108223891527,0.2,-0.0009920209355993234,0.02528698730839579,0.2,0,
0.03200853560949587,0.3179082331127157,0.5089207369685517,0.2,-0.7746752965484728,0.7617043192921225,0.2,-1.1685254028100327,0.9695022728933855,0.2,-0.48330725167878885,0.6828941298176391,0.2,0.7976017986072438,0.003536062924816563,0.2,0.00025507422377727253,0.37060770169001905,0.2,0,
0.04001066951186984,0.3205081777183788,0.5056199353313702,0.2,-0.7685845369646063,0.830578661834079,0.2,-1.1583661447870481,1.1278490254213458,0.2,-0.47743765817452805,0.48625018792960645,0.2,0.8000594668060903,0.1892722602452393,0.2,0.004937702291440981,-0.056210182856710346,0.2,0,
0.0480128034142438,0.32599815207801763,0.7801161019972552,0.2,-0.7613860379591275,0.7876284824925583,0.2,-1.1504798184032912,1.1418044998201675,0.2,-0.47552724867191515,0.5377437305205922,0.2,0.8006301547711676,0.016947860047356045,0.2,-0.0006442887019300931,-0.45872900363874625,0.2,0,
0.05601493731661777,0.3329900353503349,0.43057061638036503,0.2,-0.7559824812447253,0.47436429201731106,0.2,-1.1400972727899255,0.9455753747429629,0.2,-0.46883375848619857,0.445256412275212,0.2,0.800330632566848,0.09401293174437358,0.2,-0.0024019617667789595,0.21685309606986705,0.2,0,
0.06401707121899174,0.3328872819401035,0.14730384637083246,0.2,-0.7537962092868505,0.5100500029113011,0.2,-1.1353506124074038,1.0896805536032839,0.2,-0.46840314607551176,0.38499850017247383,0.2,0.8021343616790776,-0.09063026081763265,0.2,0.0028253608351877795,0.2028620222470442,0.2,0,
0.0720192051213657,0.3353468968922682,0.38500985969435253,0.2,-0.7478216811981445,1.1773750266802774,0.2,-1.122662383932273,1.2088590226770335,0.2,-0.462673782483439,0.7672175540714005,0.2,0.7988805483937659,-0.025774067229429598,0.2,0.0008438305891737477,-0.23745697610092054,0.2,0,
0.08002133902373967,0.3390474396952131,0.49401336090182724,0.2,-0.7349582088599661,0.8768898772925151,0.2,-1.1160088680445712,0.8193362936193965,0.2,-0.45612766521036935,0.7385400250839793,0.2,0.8017219766034067,0.1474708287293805,0.2,-0.000973950782426949,-0.38847787698300473,0.2,0,
0.08802347292611364,0.34325111066669745,0.5657666209654167,0.2,-0.7337914431614643,0.5324263000840503,0.2,-1.1095530032343626,0.8660326473686891,0.2,-0.4508571420820953,0.3804774440550641,0.2,0.801240081653436,-0.10208413195036958,0.2,-0.0053718154425543285,0.05006641295568837,0.2,0,
0.0960256068284876,0.3480997056306598,0.4832659265596624,0.2,-0.7264393880586213,0.8999778106297263,0.2,-1.1021523456866722,0.8897952673313364,0.2,-0.4500400261054883,0.19608687110432566,0.2,0.8000886304922008,-0.07719671854446164,0.2,-0.000172888175135935,0.423837328063878,0.2,0,
0.10402774073086157,0.35098336549165204,0.49172825862143704,0.2,-0.7193917981913887,0.9201517946593532,0.2,-1.0953162789570612,1.0036716461846729,0.2,-0.4477197521444261,0.33695500479521967,0.2,0.8000049341567246,0.11448449007492312,0.2,0.0014095818064677197,-0.06482016958339237,0.2,0,
0.11202987463323553,0.3559673577686028,0.4717286892616211,0.2,-0.7117169593440716,0.9351694684965606,0.2,-1.0860935993477174,1.039954277352803,0.2,-0.4446487460287648,0.3021247786831535,0.2,0.8019203823333996,0.077509942137656,0.2,-0.001210010888470213,-0.044479108332402206,0.2,0,
0.12003200853560951,0.358531024519838,0.39513875086288897,0.2,-0.7044290866954437,0.7127194436815018,0.2,-1.0786770105194163,1.0709952339617717,0.2,-0.44288575568549565,0.5721335974723518,0.2,0.8012450932309271,0.022626956523233432,0.2,0.0006979160731492844,0.044334389272112584,0.2,0,
0.12803414243798347,0.362289577782409,0.6573683240973516,0.2,-0.7003134482451676,0.5135520590855216,0.2,-1.068957675604329,1.1312683671327455,0.2,-0.4354946084692072,1.0528105657384366,0.2,0.8022824136377713,-0.1592437225246615,0.2,-0.0005006606601164117,-0.3285678722443676,0.2,0,
0.13603627634035745,0.3690489177053956,0.5593017795262785,0.2,-0.6962122537500753,0.7530211273390832,0.2,-1.0605767166452924,0.9291888420782518,0.2,-0.42604078663368067,0.46386507184068004,0.2,0.7986971936705325,-0.007484304788675511,0.2,-0.004559169882760598,0.19070615196440582,0.2,0,
0.1440384102427314,0.37123840625482946,0.7313331439568367,0.2,-0.6882651102077423,0.6818457154631752,0.2,-1.054090654131077,0.9202739573976187,0.2,-0.4280727673197563,0.006220049009315193,0.2,0.8021626647611525,0.10045442211806255,0.2,0.0025506377713140817,0.24667153018753077,0.2,0,
0.15204054414510537,0.380750248008705,0.7020883693296432,0.2,-0.6853027223026645,0.6587554454647384,0.2,-1.0458523333269305,0.9495320119300293,0.2,-0.4259412658495316,0.6106247668127458,0.2,0.8003044644244215,-0.0611189807039475,0.2,-0.0006124253997601063,-0.3032228698427456,0.2,0,
0.16004267804747935,0.38247182016410375,0.09413663571708128,0.2,-0.6777250230803065,0.6745399461614356,0.2,-1.0388981419401966,0.9558175309400813,0.2,-0.41830277105075236,0.7515749491916259,0.2,0.8011847610698893,-0.09416984753132102,0.2,-0.0023009281461698473,0.09336387312445268,0.2,0,
0.1680448119498533,0.3822564341801783,0.4482110224011855,0.2,-0.6745100831640816,0.527674230227447,0.2,-1.0305592528318892,0.9062202345195974,0.2,-0.4139160666624656,0.47703780329107215,0.2,0.7987977468639204,-0.151566827835313,0.2,0.0008813965702311366,0.24583076999175466,0.2,0,
0.17604694585222727,0.3896431965225227,0.7521249720262475,0.2,-0.6692822353966673,0.6154240816288111,0.2,-1.024398618187883,0.9876677329011818,0.2,-0.4106701661980952,0.1375111691546728,0.2,0.7987596918245243,0.07782806090049499,0.2,0.0016323641736982273,-0.26853951363463807,0.2,0,
0.18404907975460125,0.39429043373259826,0.5906558445543421,0.2,-0.6646632978580206,0.9270594452551323,0.2,-1.0147565691054703,1.0634810558864116,0.2,-0.41171588795599084,0.618247806671416,0.2,0.8000429958383283,0.17897946791969876,0.2,-0.0034152356479230724,-0.2393826717278307,0.2,0,
0.1920512136569752,0.3990936900353922,0.12853999828266877,0.2,-0.6544492842725852,0.8886070938543267,0.2,-1.0073829212937004,0.7924051530292242,0.2,-0.40077820129135255,0.8267756915319446,0.2,0.8016233633112395,-0.12394828827546472,0.2,-0.002197758573947064,0.3837569145032759,0.2,0,
0.20005334755934917,0.39634707370512096,0.3350202811766359,0.2,-0.6504455843563514,0.7297982871154879,0.2,-1.0020780866570027,0.8988817981896574,0.2,-0.39848747689147973,0.3052094639110631,0.2,0.7980598232259208,0.04717451618928975,0.2,0.0027248749841293426,0.08414587107174505,0.2,0,
0.20805548146172315,0.40445401453421836,0.6422183526818281,0.2,-0.6427725116787374,0.6243942658890056,0.2,-0.9930008125226659,0.7921456206438706,0.2,-0.39589484986877554,0.4023175598260077,0.2,0.8023781555702681,0.03469178327453193,0.2,-0.0008514246367991432,-0.15317766358261395,0.2,0,
0.21605761536409712,0.4066225673480302,0.15973234403997283,0.2,-0.6404552761021273,0.5738791893998076,0.2,-0.9894037567267008,1.199836919972122,0.2,-0.3920503959342636,0.4742169965767963,0.2,0.7986148917583133,-0.2961625068157864,0.2,0.0002740323668075193,0.145418875982667,0.2,0,
0.22405974926647107,0.40700973203885793,0.2156645871425958,0.2,-0.6335904446483405,0.7059114840032854,0.2,-0.973803421803112,1.0672359937994522,0.2,-0.3883073779235468,0.29664171536797346,0.2,0.7976395554612156,-0.013801525112655533,0.2,0.0014752773789235292,0.02600543698074902,0.2,0,
0.23206188316884505,0.41007320074231174,0.8705635318251234,0.2,-0.6291606923580747,0.6181478582109253,0.2,-0.9723279808259095,0.44843644367922875,0.2,-0.38730412848837603,0.1870420456966497,0.2,0.7983940673565109,0.07303306837225937,0.2,0.0006901193584995036,-0.295674546347883,0.2,0,
0.24006401707121902,0.4209387485480599,0.32678629056741987,0.2,-0.6237000789169657,0.6927178995013091,0.2,-0.9666284387042443,1.004112643346891,0.2,-0.3853147051924004,0.5538600349932511,0.2,0.7988080845551717,0.32399100296309075,0.2,-0.003255515362642599,-0.16743320577119172,0.2,0,
0.24806615097359297,0.41530178139139046,0.04831076318890376,0.2,-0.6180772059660538,0.7346148424635796,0.2,-0.9562621785323593,0.9415478585675165,0.2,-0.378442367928484,0.7893516895734476,0.2,0.8035779234039203,0.08618311603051515,0.2,-0.0019888119338395643,0.18158695971529937,0.2,0,
0.25606828487596694,0.42171172075908236,0.6219245908833277,0.2,-0.6119462414375484,0.5287498980141997,0.2,-0.951563672967164,0.871853737285079,0.2,-0.37268507815922525,0.4067369394762585,0.2,0.80018701441166,-0.20274351013109537,0.2,-0.0003501240071978088,-0.23596008305332955,0.2,0,
0.2640704187783409,0.4252525748455237,0.4517064874359523,0.2,-0.6096172075978266,0.4280296125790256,0.2,-0.942312518735798,0.5435046229199658,0.2,-0.3719345768968639,0.11428093716656443,0.2,0.8003340272418228,-0.047996057957008786,0.2,-0.005764173262692837,0.19563021385920418,0.2,0,
0.2720725526807149,0.4289390245580576,0.6674101998095857,0.2,-0.605097767636284,0.6235671428755779,0.2,-0.9428675990004446,0.9239403167960458,0.2,-0.3708565831645602,0.49398699820385816,0.2,0.7994190774843478,0.015346424943919745,0.2,0.002779959414549458,0.30136132628448636,0.2,0,
0.28007468658308887,0.4359311380424771,0.5091216214979793,0.2,-0.5996401333118173,0.49236823946412905,0.2,-0.9275294736670613,0.9984102651495741,0.2,-0.36403078492560215,0.36521366096211105,0.2,0.8005795700409255,0.0955884425514475,0.2,-0.000942392042141056,0.006070000642172622,0.2,0,
0.2880768204854628,0.43708497050202527,0.3796056577290742,0.2,-0.5972198758048579,0.6256168984735341,0.2,-0.9268930347580514,0.4093243760494025,0.2,-0.36501316458916644,0.3932414559622531,0.2,0.800948492565171,-0.2321952656963236,0.2,0.00287707942482422,-0.060707912331418666,0.2,0,
0.29607895438783677,0.44200482856614226,0.30020585983144343,0.2,-0.5896302629362408,0.6451553662190079,0.2,-0.9209802836502708,0.7110083212002668,0.2,-0.3577389216302061,0.16567554967806056,0.2,0.7968644457897843,0.0055169940568478015,0.2,-0.0019137186394437547,-0.2853451049330371,0.2,0,
0.30408108829021074,0.44188826425932837,0.18832677868155928,0.2,-0.5868973899453538,0.490956120880702,0.2,-0.9155169016188471,0.8172595428742602,0.2,-0.36236235579431747,0.011453662096132938,0.2,0.8010367644700805,0.1135914128111773,0.2,-0.0016884422541043741,-0.0482497331633739,0.2,0,
0.3120832221925847,0.4450180570250472,0.3419432743004963,0.2,-0.5817749650021495,0.5928384832476347,0.2,-0.9079041309642827,0.44121491474229113,0.2,-0.35755566303666797,0.4167982240802052,0.2,0.7986819083947632,-0.13373803692288272,0.2,-0.002685714370057737,-0.05945127787198384,0.2,0,
0.3200853560949587,0.4473593566481363,0.3384682321828959,0.2,-0.5774119742133916,0.551894479309721,0.2,-0.9084574629829705,0.5684110882714644,0.2,-0.3556935842090342,0.6539503865861419,0.2,0.7988969558793144,0.11166364089785358,0.2,-0.0026396627000561156,0.24739898395946217,0.2,0,
0.32808748999733267,0.45043354873997354,0.3843167621804672,0.2,-0.572944653333194,0.6752337215787801,0.2,-0.8988095535519393,1.164452276826905,0.2,-0.3470924568512897,0.6920219718491543,0.2,0.8004685266491288,0.10848611915596773,0.2,0.0012726693732936572,0.30773707514580056,0.2,0,
0.3360896238997066,0.4535084248430238,0.37887576028006187,0.2,-0.5666082346681311,0.6590255285276527,0.2,-0.88982622655374,0.749428853611643,0.2,-0.3446212326594477,0.08202475786874344,0.2,0.8006327337858099,0.08575122864111495,0.2,0.002284130502276694,-0.060414202643571134,0.2,0,
0.34409175780208057,0.45649556090445453,0.2689748554410391,0.2,-0.5624002448767516,0.34300611317689134,0.2,-0.886818691894153,0.5187664064931902,0.2,-0.3457800607253898,0.24489184479544943,0.2,0.8018405463073867,-0.040666130218774965,0.2,0.00030604213099651905,-0.16445891921653832,0.2,0,
0.35209389170445454,0.4578120225300804,0.34427562082995494,0.2,-0.5611201368573009,0.2748643631674125,0.2,-0.881525964049849,0.7538137237027633,0.2,-0.3407029631427205,0.6222622905097258,0.2,0.7999820757023095,-0.215871209879058,0.2,-0.00034721220518791956,0.03398437928038465,0.2,0,
0.3600960256068285,0.4620039708377338,0.45607214581879285,0.2,-0.558002415066073,0.14446722506308157,0.2,-0.8747576723149088,0.5760989685889908,0.2,-0.3358238640772342,0.30929323037940865,0.2,0.7983866069493217,-0.04010321816034362,0.2,0.0008497921994826735,0.09387667886200599,0.2,0,
0.3680981595092025,0.4651091768631811,0.2740933590554967,0.2,-0.5588086612562916,0.5946875806566373,0.2,-0.8723083805524251,0.5541939331107706,0.2,-0.33575427145665,0.04168855256235504,0.2,0.799340424211744,0.16090643643219132,0.2,0.0011548146566041763,-0.07089603505076673,0.2,0,
0.37610029341157647,0.46638946458262176,0.18131827628444994,0.2,-0.5484874137755668,0.7669612707883396,0.2,-0.8658905693851364,0.5759021868829567,0.2,-0.3351568472362365,0.18364927900966013,0.2,0.8009611099322368,0.027171354019986382,0.2,-0.00028454436132959425,-0.06014383424905034,0.2,0,
0.3841024273139504,0.4680102692837323,0.11676147369901746,0.2,-0.5465372809236781,0.19727409204479962,0.2,-0.8630939455622978,0.665684124727367,0.2,-0.3328158829924954,0.4025786979845597,0.2,0.7997751658760638,-0.21797340278279648,0.2,0.0001925133086193708,-0.3031893711696707,0.2,0,
0.39210456121632437,0.46825764816180604,0.49281674534577474,0.2,-0.54533102830285,0.32991336378191544,0.2,-0.8552396233894985,0.5736985675951767,0.2,-0.32871558806848356,0.31958761054471163,0.2,0.797473535487712,0.09928249601054429,0.2,-0.005135574300044326,-0.07205968311385424,0.2,0,
0.40010669511869834,0.4758953372092647,0.41702136339948415,0.2,-0.5412586671031675,0.6593296031415993,0.2,-0.853914768480775,0.5915676158056645,0.2,-0.32770248122378004,0.25277937081990065,0.2,0.8013636858122325,0.3344382154903819,0.2,-0.0009604416212022972,0.18553123752120662,0.2,0,
0.4081088290210723,0.4749299899761978,0.1349296567237368,0.2,-0.5347817546525844,0.4201625709795917,0.2,-0.8457745415366079,0.46709086394515487,0.2,-0.32467111813536514,0.30552126899321963,0.2,0.8028245469355582,-0.12621532765003107,0.2,-0.0021670744997050197,0.05301901895015835,0.2,0,
0.4161109629234463,0.4780542117168445,0.2061957735777012,0.2,-0.534536065967494,0.1984837676883705,0.2,-0.8464413146576525,0.2985993589963154,0.2,-0.3228141409198885,0.37272538257838994,0.2,0.799344240569832,-0.17539895479118384,0.2,-0.00011213731799976354,0.022699316603090335,0.2,0,
0.42411309682582027,0.478229122353441,0.22806257473320657,0.2,-0.5316060143695704,0.22642745163217043,0.2,-0.8409969517926669,0.35686137195037326,0.2,-0.3187075120141109,0.5715560749809008,0.2,0.8000181636588992,0.17211775346762798,0.2,-0.0018038854340555743,-0.08864934006521527,0.2,0,
0.43211523072819424,0.4817032129125758,0.3575291653030929,0.2,-0.5309132267413793,0.24564786969771824,0.2,-0.8407315327064465,0.28654920610654555,0.2,-0.3136692437201941,0.07023186797779774,0.2,0.802098124625314,0.14469409496665336,0.2,-0.0015305267590432078,-0.1661227630838559,0.2,0,
0.44011736463056816,0.4839495889982905,0.2182109678616137,0.2,-0.527675648454407,0.45564989259682526,0.2,-0.8364121644949621,0.6334474365995781,0.2,-0.31758380212646614,-0.232490499378412,0.2,0.8023332691783657,-0.10858981019153113,0.2,-0.004461849643397269,0.16198520900519833,0.2,0,
0.44811949853294214,0.4851945883983616,0.3779628463973575,0.2,-0.5236228284598301,0.6208316365612573,0.2,-0.8305963737208533,0.6755901556259949,0.2,-0.3173890917102487,0.10973363762211905,0.2,0.8003606876622495,-0.17800403210620902,0.2,0.0010612365850399656,0.4501492039177942,0.2,0,
0.4561216324353161,0.4899969945406482,0.10376281061672682,0.2,-0.5177423422694268,0.4237874953845894,0.2,-0.8256027220049462,0.15685408393371209,0.2,-0.31582806392451224,0.2805247189772153,0.2,0.7994852046646663,0.027710450672992215,0.2,0.0027405376192874385,-0.13263939380923812,0.2,0,
0.4641237663376901,0.48685479336822923,0.18105935703274095,0.2,-0.5168422285336767,0.09489291656448323,0.2,-0.8280867083779139,0.38223157454393697,0.2,-0.31290069620661326,0.27414846347988475,0.2,0.8008040548730174,-0.023556633807306215,0.2,-0.0010609937159078442,-0.06048490186947776,0.2,0,
0.47212590024006407,0.49289394425317207,0.14037226995053734,0.2,-0.5162240556043951,0.07822291245349056,0.2,-0.8194870168122432,0.19431238423974623,0.2,-0.3114416885088341,0.24630790098718533,0.2,0.7991082985237494,0.0739297803654046,0.2,0.0017727791893757943,0.10889350099421512,0.2,0,
0.48012803414243804,0.48910074968743783,-0.3046766395458748,0.2,-0.5155906619344208,-0.00173151402550753,0.2,-0.8249777102300779,0.0815961982796945,0.2,-0.3089597697908183,0.268026583043892,0.2,0.8019869313588639,-0.036588734137935064,0.2,0.0006813022999995979,-0.34151197320413346,0.2,0,
0.48813016804481196,0.48801911802043807,0.23142028970951634,0.2,-0.5162517598288032,0.2848209454137038,0.2,-0.8181814776397681,0.8300690539243468,0.2,-0.3071532631801318,0.10208712036470502,0.2,0.7985228787775425,-0.223472792360159,0.2,-0.0036914123818903412,0.055476544267404004,0.2,0,
0.49613230194718594,0.4928034743227901,0.45019286427339794,0.2,-0.5110335268078016,0.448739728948995,0.2,-0.8116966053672884,0.1537723981240649,0.2,-0.307326375864983,0.17258195618751263,0.2,0.7984113666811014,-0.09672056097648901,0.2,0.001568927008278062,0.18716432485391937,0.2,1,C153B3
0.50413443584956,0.49522220384881244,0.08776631777320312,0.2,-0.5090719241656193,0.21454132821432936,0.2,-0.8157211192697831,0.1928059394333409,0.20040000000000002,-0.3043919518811316,-0.11632251252313708,0.2,0.7969753498019186,0.05668624346597678,0.2,-0.0006967831842276314,-0.12403948555526358,0.2,1,C153B3
0.5121365697519339,0.49420773540716134,0.22339287398445012,0.2,-0.5076008655563723,0.19381931568077798,0.2,-0.8086117103363549,0.5055936382015666,0.2008,-0.3091875360653532,-0.1360909167873632,0.2,0.799318346576557,0.2552267354372778,0.2,-0.00041570476060615545,-0.09083180549431626,0.2,1,C153B3
0.5201387036543078,0.49879648983256364,0.0362551171469612,0.2,-0.5059708151147269,0.48692848214025586,0.2,-0.807631621058558,0.18791287394926554,0.20120000000000002,-0.3065694065497294,0.50549464602858,0.2,0.8010589775689151,-0.13914678760749977,0.2,-0.0021500920721366913,-0.0405192868849447,0.2,1,C153B3
0.5281408375566818,0.4947878172815127,-0.4823579358859617,0.2,-0.4998100098421282,0.20344971125487582,0.2,-0.8056051043531667,0.30467607378264344,0.2016,-0.3010996217288959,0.38918258359869545,0.2,0.797091997974837,-0.11534202394652276,0.2,-0.0010640133507652707,0.13875384351788403,0.2,1,C153B3
0.5361429714590558,0.49107876285838825,0.264067099575712,0.2,-0.5027156197346488,-0.32089875999694734,0.2,-0.8027568038780357,0.0839640909221645,0.202,-0.3003424852121503,-0.326542253632215,0.2,0.7992135051857707,0.2560886044227495,0.2,6.996942414945363e-05,-0.08202970715322958,0.2,1,C153B3
0.5441451053614298,0.4990128908747241,0.42096323364977994,0.2,-0.5049443900020794,0.05660196958892638,0.2,-0.804261678898412,-0.0008012445329025342,0.20240000000000002,-0.30632429778701137,0.027169663690707058,0.2,0.801189415645601,-0.12670558030188073,0.2,-0.002376488665216944,-0.21813926896349362,0.2,1,C153B3
0.5521472392638037,0.49781417459678473,0.10539109609173508,0.2,-0.501809988221226,-0.009494738642722156,0.2,-0.8027696237905622,0.18503633059081814,0.2028,-0.299907770593099,0.11658464141216934,0.2,0.7971862159009406,-0.22676784984625165,0.2,-0.0034202588792664446,0.24139348194529064,0.2,1,C153B3
0.5601493731661777,0.5006991484121919,0.057284213165319925,0.2,-0.5050963058203629,-0.11848103468831139,0.2,-0.801301097608959,0.238834437339408,0.20320000000000002,-0.30445894352441666,-0.007865213599165394,0.2,0.797561130048061,0.22654105209499176,0.2,0.0014858070459077065,0.12433070099757766,0.2,1,C153B3
0.5681515070685517,0.49873072200742985,0.1433655842187076,0.2,-0.503705684776239,0.1353613965404052,0.2,-0.7989482727931316,0.15628148925816987,0.2036,-0.3000336140106856,0.19967281716173207,0.2,0.8008108727344605,0.16447232450183397,0.2,-0.001430967663305202,-0.036815881255928676,0.2,1,C153B3
0.5761536409709256,0.5029929977596912,0.12597101860189336,0.2,-0.5029305234757164,0.22446243761378715,0.2,-0.7988005937808282,-0.0004609790986709328,0.20400000000000001,-0.30126417844982895,0.010369869393220266,0.2,0.8001926872400903,-0.08185466773117517,0.2,0.0008967529458128476,0.3059664915748692,0.2,1,C153B3
0.5841557748732996,0.5007462583050601,-0.06440019933346558,0.2,-0.5001142857744184,0.2278930008658732,0.2,-0.7989556484587104,-0.2181418424517939,0.20440000000000003,-0.2998676961003941,-0.13207357180886406,0.2,0.7995011980507617,0.0009444806282413176,0.2,0.0034644962018927057,-0.14445557637357578,0.2,1,C153B3
0.5921579087756735,0.5019625945703557,-0.013164194847155308,0.2,-0.49928423546186246,-0.049840791423685915,0.2,-0.8022908632600569,-0.1753749683044009,0.2048,-0.30337735559877077,-0.011352926566104288,0.2,0.8002077989301422,-0.06456526327935919,0.2,-0.001414536276164365,-0.20006411371879668,0.2,1,C153B3
0.6001600426780476,0.5005356311875057,-0.23975818574793403,0.2,-0.5009117384371974,0.2593866624726916,0.2,-0.8017616479515808,0.13273774322528076,0.20520000000000002,-0.30004934292545177,0.19489560380077722,0.2,0.798468153838292,0.05548775472168088,0.2,0.00026347038239195867,0.042069790999774856,0.2,1,C153B3
0.6081621765804215,0.4981264635983888,0.18728638640864992,0.2,-0.4951340488622994,-0.008955020426824889,0.2,-0.8001670593684524,0.16611478469388125,0.2056,-0.30025902593795833,-0.1114174045456634,0.2,0.801095603005689,0.05611081067678769,0.2,-0.0007414196201679672,-0.04768869335989286,0.2,1,C153B3
0.6161643104827954,0.5035322133700441,0.09944551425946843,0.2,-0.5010550187640266,-0.5299964951248001,0.2,-0.7991038113964787,-0.2737571249194354,0.20600000000000002,-0.3018320213981824,0.049251805148541744,0.2,0.7993659268091206,-0.07758937550455397,0.2,-0.0004995487113663272,-0.0024500457376927117,0.2,1,C153B3
0.6241664443851694,0.4997175918265403,-0.3479124314206966,0.2,-0.5036139927842962,0.15771826542761158,0.2,-0.8045471733671634,-0.2884700697399767,0.20640000000000003,-0.29947099705558167,0.1639292716994721,0.2,0.7998541729976162,0.07026529255643732,0.2,-0.0007806203519710506,-0.2621458799194675,0.2,1,C153B3
0.6321685782875434,0.4979656144673129,-0.32474649599869077,0.2,-0.4985315265171848,0.047771318958833575,0.2,-0.8037193325123183,-0.06524634174959187,0.2068,-0.29920915305099083,-0.013271141633755534,0.2,0.8004901714900235,0.20677039734648406,0.2,-0.004693882790077806,0.018248175081244444,0.2,1,C153B3
0.6401707121899174,0.49452164789056124,-0.006430739707581623,0.2,-0.5028496516809549,-0.4550775142528607,0.2,-0.8055911148351569,0.06867761331208477,0.20720000000000002,-0.29968333532172176,-0.0032198300623023646,0.2,0.8031624993551599,-0.11069516494116582,0.2,-0.0004886495506711395,-0.04653916973521667,0.2,1,C153B3
0.6481728460922913,0.4978627226319916,0.2167448388781211,0.2,-0.5058127667452306,-0.2451840316067544,0.2,-0.802620490699325,0.08019022457177172,0.2076,-0.29926067033198767,-0.11588854716158836,0.2,0.7987190488509649,-0.2508104033445979,0.2,-0.005438509505841273,0.1157524329522104,0.2,1,C153B3
0.6561749799946653,0.4979895653126112,-0.09895634031108907,0.2,-0.5067725961866629,-0.1091331818548133,0.2,-0.8043080712420085,-0.1863389896284151,0.20800000000000002,-0.30153755207630717,-0.26506892436104973,0.2,0.7991495329016464,0.09574350430641837,0.2,0.0013633893765642269,0.27788608031655276,0.2,1,C153B3
0.6641771138970393,0.4962794211870142,-0.08036345938077297,0.2,-0.5075588976549076,0.07466923501833755,0.2,-0.8056019145333796,-0.2577811403073338,0.20840000000000003,-0.30350177312176446,0.0001774515298973156,0.2,0.8002509449198676,0.12314240257452203,0.2,-0.0009923322207764285,0.03218503713077582,0.2,1,C153B3
0.6721792477994132,0.4967037499625188,-0.2534074436549849,0.2,-0.5055778884263695,0.14258026653816286,0.2,-0.8084325694869259,-0.1273701572438446,0.2088,-0.3015347128518288,-0.10053752669092822,0.2,0.8011198113428387,0.07074210770476042,0.2,0.00187834997065664,0.13031475023394784,0.2,1,C153B3
0.6801813817017872,0.4922249020885344,-0.04819638706969262,0.2,-0.505277613390297,-0.20085719715744882,0.2,-0.8076398370492811,0.01038571461790122,0.20920000000000002,-0.3051103735488193,-0.1732077385696862,0.2,0.8013828186431438,0.181866505467837,0.2,0.0010927037829667372,-0.1597397129330661,0.2,1,C153B3
0.6881835156041611,0.49593260776940373,0.11203679600936198,0.2,-0.5087916035808887,-0.2523634336561581,0.2,-0.8082663980530395,-0.3666877247646902,0.2096,-0.3043060366689438,-0.13218180361799017,0.2,0.8040296754303241,-0.1961647860424659,0.2,-0.0006774854362724176,-0.28431698899019753,0.2,1,C153B3
0.6961856495065352,0.4940174908246842,-0.26594221108658733,0.2,-0.5093154283287955,-0.18529899585023601,0.2,-0.8135068406455161,-0.44504713557744213,0.21000000000000002,-0.30722528240670716,-0.28937535448296525,0.2,0.7982441820664643,-0.2953209670338852,0.2,-0.003456368040876423,-0.009133019704201672,0.2,1,C153B3
0.7041877834089091,0.49167753239201833,-0.022758129356797302,0.2,-0.5117563875144925,-0.18146598736337727,0.2,-0.8153871522222785,-0.2656998963837323,0.21040000000000003,-0.30893604234067124,-0.08619995375946238,0.2,0.799304539957782,-0.046332495316880884,0.2,-0.0008236137515396444,0.3934995749393102,0.2,1,C153B3
0.7121899173112831,0.49365336075497546,-0.09611159185423171,0.2,-0.5122188841266095,-0.03126576905818773,0.2,-0.8177580389876559,-0.2376248686430174,0.21080000000000002,-0.30860448166685855,-0.14659857889838881,0.2,0.7975028621413942,0.1879085902653163,0.2,0.0028396251581525407,0.15853570358440847,0.2,1,C153B3
0.720192051213657,0.4901397469223506,-0.3847200385012454,0.2,-0.5122566398194235,-0.2575084764383159,0.2,-0.8191891501205668,-0.48149255362095467,0.21120000000000003,-0.31128161960304546,-0.3336844709718387,0.2,0.802311077402027,0.14084098775338227,0.2,0.001712957505810891,-0.26260023653204206,0.2,1,C153B3
0.728194185116031,0.48749784013895553,0.05458432011495873,0.2,-0.5163390197496226,-0.4989997083489975,0.2,-0.8254619198455911,-0.4687318663067555,0.2116,-0.313943433202408,0.05998074510666154,0.2,0.7997563179454483,-0.1645683733058484,0.2,-0.0013619786263601324,-0.15565803464968142,0.2,1,C153B3
0.736196319018405,0.49101309604418997,-0.13417133649371027,0.2,-0.5202406351530074,-0.40236271887210406,0.2,-0.8266888599814749,-0.38085912556095475,0.21200000000000002,-0.31032192768133887,0.0472558186965337,0.2,0.7996779834291334,0.2987119998115323,0.2,-0.0007775710485840118,-0.2525111731448903,0.2,1,C153B3
0.7441984529207789,0.48535109875505617,-0.4012779888156806,0.2,-0.5227768232515763,0.05448254400373942,0.2,-0.8315556658545664,-0.12630812953242504,0.21240000000000003,-0.31318734010326343,-0.1361006484442845,0.2,0.8045357099424328,-0.022245688006912456,0.2,-0.005402157396678378,-0.0357391437690509,0.2,1,C153B3
0.7522005868231529,0.4845926482231391,-0.08671863121945123,0.2,-0.5193689144489476,-0.2682526842367264,0.2,-0.8287097900539937,-0.2008085531266801,0.21280000000000002,-0.3124995380564474,-0.5603609197216315,0.2,0.7993220524210228,-0.17119758236929655,0.2,-0.0013493973488888263,0.18740951403288555,0.2,1,C153B3
0.7602027207255269,0.48396360065554495,-0.19973130076192738,0.2,-0.5270688661993639,-0.5801874814732529,0.2,-0.8347686027045933,-0.6858607837524344,0.21320000000000003,-0.32215311481880954,-0.5072297176303072,0.2,0.8017965486245241,0.00452139926977041,0.2,-0.0024036051721522092,0.017129529222533895,0.2,1,C153B3
0.7682048546279008,0.48139694741094824,-0.365995734614339,0.2,-0.5286519141525197,-0.13522237587144936,0.2,-0.8396835625940327,-0.43262403137060007,0.2136,-0.32061521353853234,0.15025288222434915,0.2,0.7993943948093392,-0.5052015420059716,0.2,-0.001075324881328284,0.18810664849431719,0.2,1,C153B3
0.7762069885302748,0.4781076689017155,-0.23284497647351257,0.2,-0.5292324242133071,-0.5249541793231616,0.2,-0.8416905872065229,-0.5787554213772667,0.21400000000000002,-0.31974906870321995,-0.13735166487130468,0.2,0.7937133239524286,0.13303697222775968,0.2,0.0006061012037568658,0.11231211129768678,0.2,1,C153B3
0.7842091224326487,0.47767142778737204,-0.3916615217855468,0.2,-0.5370511810216902,-0.5790083704288809,0.2,-0.8489436493360689,-0.5082119202410514,0.21440000000000003,-0.3228128401764732,-0.3030964688613864,0.2,0.8015229863649833,0.2437836105856489,0.2,0.0007216688994347046,-0.04343402730329625,0.2,1,C153B3
0.7922112563350228,0.4718410845531468,-0.272044095845754,0.2,-0.5384965581401692,-0.245817017554939,0.2,-0.8498219779303797,-0.17837310020443753,0.21480000000000002,-0.32459861220500213,-0.38729672104034424,0.2,0.7976138617217989,0.039562204711247884,0.2,-8.884323309587416e-05,0.06441771629795101,0.2,1,C153B3
0.8002133902373967,0.47331872225384,0.047082944182264,0.2,-0.5409842533025693,-0.26148433498462964,0.2,-0.8517976189393399,-0.3166565897335244,0.21520000000000003,-0.3290095877131187,-0.3875937133167723,0.2,0.8021559816403633,0.3004300093369175,0.2,0.0017523523602019208,-0.09706783947547368,0.2,1,C153B3
0.8082155241397707,0.472594411660063,-0.24016272897822016,0.2,-0.5426803074999232,-0.5243944951472679,0.2,-0.8548884833661161,-0.6271206019406034,0.2156,-0.3308001116180705,-0.25876460744019003,0.2,0.8024207418711896,-0.30538830794353544,0.2,-0.001641928664703453,-0.22247429093482268,0.2,1,C153B3
0.8162176580421446,0.46947611859018845,-0.5929188007464358,0.2,-0.5493745652249256,-0.5303883781713966,0.2,-0.8618315485703896,-0.8278744696416235,0.21600000000000003,-0.33314982143216176,-0.26948281950967684,0.2,0.7972697687132667,0.08332835807970534,0.2,-0.001807236294755242,0.11574204085735501,0.2,1,C153B3
0.8242197919445186,0.46310771084812,-0.12732363431066512,0.2,-0.5511665215506656,-0.2840959902091697,0.2,-0.8681344748803821,-0.6787410893298873,0.21640000000000004,-0.3351118367302253,-0.30347982791583195,0.2,0.8037539956004649,0.34251033908049705,0.2,0.00020994398901422724,0.10971051370013028,0.2,1,C153B3
0.8322219258468926,0.4674389404412178,-0.1755795854303903,0.2,-0.5539201010682723,-0.41658782594970745,0.2,-0.8726914059996678,-0.7490420291640167,0.21680000000000002,-0.3380054986788151,-0.12352008738858791,0.2,0.8027499341385547,-0.24006679732466868,0.2,-5.186807555315737e-05,0.08244556786600596,0.2,1,C153B3
0.8402240597492665,0.4602984374812338,-0.5987568230373663,0.2,-0.5578319267658609,-0.6196774494376389,0.2,-0.8801191473470064,-0.7411658822639235,0.21720000000000003,-0.3370881581284427,-0.26019547114974545,0.2,0.7999129268432702,-0.1343830602945073,0.2,0.0015290730748703225,-0.15320042761826597,0.2,1,C153B3
0.8482261936516405,0.45785883127261995,-0.1256429423800512,0.2,-0.5638349402592745,-0.5070138895062193,0.2,-0.8845500601158905,-0.4569373484677175,0.21760000000000002,-0.342168626217211,-0.30740443803965384,0.2,0.8005998051738425,-0.04043982664094642,0.2,-0.002503074917445413,-0.14977029100000908,0.2,1,C153B3
0.8562283275540145,0.45828815040315296,-0.07350958047386627,0.2,-0.5659441489979604,-0.3171767631935801,0.2,-0.8874301449224898,-0.4168680173980491,0.21800000000000003,-0.3420066291370772,-0.0910890032582018,0.2,0.7992658896170151,0.08345525354910843,0.2,-0.0008672515811298228,0.16767095585869782,0.2,1,C153B3
0.8642304614563885,0.4566826779850381,-0.399289547415721,0.2,-0.5689097684703718,-0.7301871107438934,0.2,-0.8912199483942593,-0.5088651236714731,0.21840000000000004,-0.34362605026934223,-0.30516451257480215,0.2,0.8019350892306283,-0.06882870767656313,0.2,0.000179660376293752,0.040671919095014726,0.2,1,C153B3
0.8722325953587624,0.4518995176445014,-0.5306327689582127,0.2,-0.5776271427698627,-0.5916357135352448,0.2,-0.8955719869012334,-0.9291535011917984,0.21880000000000002,-0.346889261338274,-0.6107559362092951,0.2,0.79816463029419,0.07076541463587466,0.2,-0.00021650087560958717,0.036536883945528384,0.2,1,C153B3
0.8802347292611363,0.4481925536817067,-0.34724855068015564,0.2,-0.5783759398869357,-0.2572535557422914,0.2,-0.9060864044133281,-0.814434990040705,0.21920000000000003,-0.35339814524869095,-0.3496502372598471,0.2,0.8030673358648023,0.22278260767970987,0.2,0.0007642505194222062,-0.03494853704410144,0.2,1,C153B3
0.8882368631635104,0.44634354083361893,-0.2852856085199529,0.2,-0.5817431996617394,-0.4021282050339775,0.2,-0.9086029467418847,-0.3805516006221907,0.21960000000000002,-0.3524836651344316,-0.2918748076177896,0.2,0.8017291520170654,-0.09503868884866429,0.2,-0.0007756774683152102,0.044121623501386105,0.2,1,C153B3
0.8962389970658843,0.44362798394538744,-0.28440157674765665,0.2,-0.5848099911674793,-0.38121257671239195,0.2,-0.9121752300232832,-0.7090217954868402,0.22000000000000003,-0.3580681421705756,-0.43017480198284663,0.2,0.8015467168432236,-0.13604713207358843,0.2,0.0014701964954443839,0.10494324315901944,0.2,1,C153B3
0.9042411309682583,0.44179311560565643,-0.45515009439596466,0.2,-0.5878426008891376,-0.7904250410909197,0.2,-0.9199472954696741,-1.035464407691776,0.22040000000000004,-0.3593664619661571,-0.40313886396748166,0.2,0.799552397903888,-0.04771155710432684,0.2,0.0009034144222291011,-0.12905879392782224,0.2,1,C153B3
0.9122432648706322,0.436345582435052,-0.49509748286793304,0.2,-0.597456791824934,-0.5070337955199594,0.2,-0.9287426605463516,-0.8804706705179063,0.22080000000000002,-0.3645183639940553,-0.5041785548037282,0.2,0.8007833319295544,0.16742348663254664,0.2,-0.000594744207400772,-0.10957346146633784,0.2,1,C153B3
0.9202453987730063,0.4338715558797695,-0.42490801006433987,0.2,-0.595955141617457,0.04099035142974411,0.2,-0.9340348261979606,-0.5888193943556636,0.22120000000000004,-0.3674333188430168,-0.5865882180176515,0.2,0.8022311736900087,-0.20063293497073892,0.2,-0.0008497609612323044,-0.06562416487551818,0.2,1,C153B3
0.9282475326753802,0.42954705427402257,-0.243626872862137,0.2,-0.5968009462020581,-0.9455670133731372,0.2,-0.9381637708560422,-0.8919590783889458,0.22160000000000002,-0.3739037754823377,-0.25828721457180764,0.2,0.7975732049700226,-0.0743969205113798,0.2,-0.001644730845409063,-0.003607161810363795,0.2,1,C153B3
0.9362496665777541,0.4299735259139753,-0.267447572678145,0.2,-0.6110842138314272,-1.1131244967649765,0.2,-0.9483061714521838,-0.8323388100567527,0.22200000000000003,-0.3715659142761657,-0.037307682980391305,0.2,0.8010408229618267,0.13889027551022837,0.2,-0.0009074755501981252,0.1156919876492578,0.2,1,C153B3
0.9442518004801281,0.42526789311117225,-0.49330285208427915,0.2,-0.6146109381502978,-0.5686480782416888,0.2,-0.9514811918169502,-0.5596381631342989,0.22240000000000004,-0.374500698410024,-0.3705725909200486,0.2,0.7997954493781863,-0.1684411411015177,0.2,0.00020634095697906197,-0.1371447200058631,0.2,1,C153B3
0.952253934382502,0.42208068028062684,-0.370947103745637,0.2,-0.6201825830832942,-0.8083991716980667,0.2,-0.9572603820623325,-0.7083835501805469,0.22280000000000003,-0.3774950757308865,-0.34332500905474156,0.2,0.7983457647042024,0.07488057728808478,0.2,-0.003101791070291935,-0.03468199736108617,0.2,1,C153B3
0.9602560682848761,0.41933273945124205,-0.58222813602294,0.2,-0.6275453248974668,-0.595946175283489,0.2,-0.962815328619839,-0.9901797446494054,0.22320000000000004,-0.37999389855489984,-0.6524984742798251,0.2,0.8009935386147956,0.07097012698420446,0.2,-0.00034857100079831676,0.327435190308373,0.2,1,C153B3
0.96825820218725,0.4127650301042598,-0.47752036969593914,0.2,-0.62971772188783,-0.3816228438781877,0.2,-0.973103257976723,-0.9084717223683189,0.2236,-0.3879350513193637,-0.28057160480170207,0.2,0.7994812867359496,0.05848527261656522,0.2,0.002137171974642033,0.25032198066377975,0.2,1,C153B3
0.9762603360896239,0.411692413536107,-0.3190009309958497,0.2,-0.6336512903995178,-0.5592219139909301,0.2,-0.9773508761777321,-0.9420138064285474,0.22400000000000003,-0.3844830442317271,-0.12546415283182927,0.2,0.8019293029766607,0.19306324579931866,0.2,0.003656580689822159,-0.09846065038449517,0.2,1,C153B3
0.984262469991998,0.4076610152083262,-0.5855214191590324,0.2,-0.6386652725116849,-0.7431795668415216,0.2,-0.9881754788795798,-0.9782092899867297,0.2244,-0.38994247776467295,-0.8819590254441241,0.2,0.8025702986687387,-0.08871788896913646,0.2,0.0005618015684901105,-0.3511471365735159,0.2,1,C153B3
0.9922646038943719,0.4023240708295625,-0.4141396434064887,0.2,-0.6455421634689822,-0.6138356274715886,0.2,-0.9930022248175198,-0.6693749383994487,0.22480000000000003,-0.39859438863883306,-0.500409432543536,0.2,0.8005098167531545,-0.25866393749050115,0.2,-0.0019617734953540954,-0.14379899048121766,0.2,1,C153B3
1.0002667377967458,0.4010347809138224,-0.40431861074652353,0.2,-0.6484866425512303,-0.7192842082300865,0.2,-0.998885477893971,-1.0635029090626178,0.22519999999999998,-0.3979490286853695,-0.3518376616485248,0.2,0.7984316756688907,-0.1930593605459982,0.2,-0.0017389822792093722,0.23420622973530547,0.2,1,C153B3
1.00826887169912,0.39585497305761813,-0.4383667486594182,0.2,-0.6570507108006636,-0.7411558544737351,0.2,-1.0100182713625216,-1.0965701665182002,0.22560000000000002,-0.40422379122520946,-0.5587519606912832,0.2,0.7974208669844185,0.18886202395958923,0.2,0.001785526180410792,0.24599168418687434,0.2,1,C153B3
1.0162710056014939,0.3940209129352717,-0.48319309684462586,0.2,-0.6603451362228101,-0.6672143492388594,0.2,-1.0164306005582622,-1.0883399593149683,0.22599999999999998,-0.40688906005643005,-0.533152378494186,0.2,0.8014534680522442,0.07961792601364481,0.2,0.0021968846677806178,0.1544430757337375,0.2,1,C153B3
1.0242731395038678,0.3881238835081041,-0.6271069408183491,0.2,-0.6677261403884853,-0.7814944613741548,0.2,-1.0274317107115611,-0.7121249272024066,0.22640000000000005,-0.41275422928111644,-0.5695789675298734,0.2,0.7986947538006368,-0.04820869158999458,0.2,0.004256615392150592,-0.26310118565279084,0.2,1,C153B3
1.0322752734062417,0.3839872018821781,-0.6380454861377137,0.2,-0.6728490476047966,-0.6991653827031277,0.2,-1.0278245993935007,-0.6779506683702585,0.2268,-0.416002323536908,-0.40850564962145036,0.2,0.8006821289868042,-0.00893664637322683,0.2,-0.0020127343026640353,-0.18476642746389937,0.2,1,C153B3
1.0402774073086156,0.3779151557299007,-0.5133488996564641,0.2,-0.6789127865117354,-0.6395569366911269,0.2,-1.0382789214054853,-1.0969343137147702,0.22720000000000004,-0.41929031967505964,-0.2962223865487605,0.2,0.7985517674586652,-0.12665224422184207,0.2,0.0013003525527282025,0.039356717027885305,0.2,1,C153B3
1.0482795412109898,0.3757736194876747,-0.2246530327967254,0.2,-0.6830819585918546,-0.7679335615334987,0.2,-1.045375548412937,-0.7535601482043242,0.2276,-0.4207418817216882,-0.4010225412212423,0.2,0.7986556930792548,0.06190306892042696,0.2,-0.0013830268302178705,-0.16744119339727512,0.2,1,C153B3
1.0562816751133637,0.3743207072051531,-0.44662712851769104,0.2,-0.6911997234962713,-0.5556311322723259,0.2,-1.0503358837767545,-0.9675215870597748,0.22800000000000004,-0.4257066803345995,-0.707993255482469,0.2,0.799542216561392,0.14374153966360131,0.2,-0.0013787065416281997,0.30366340969916905,0.2,1,C153B3
1.0642838090157376,0.3686275854313916,-0.31164567578745306,0.2,-0.6919720567082118,-0.7962493027320535,0.2,-1.0608558938058934,-1.1120592699810499,0.2284,-0.4320697738094077,-0.5224045802051068,0.2,0.8009555577138724,0.28127737645278206,0.2,0.0034755877249688337,0.04840082734631387,0.2,1,C153B3
1.0722859429181115,0.36933437639255384,-0.5228762216002505,0.2,-0.7039397123399842,-1.125133033449424,0.2,-1.0681288320964513,-0.8923051802497556,0.2288,-0.4340651536178812,-0.33463914173248455,0.2,0.8040426545846365,-0.020170145076985058,0.2,-0.0006042933040871779,-0.03163002973038636,0.2,1,C153B3
1.0802880768204854,0.3602615658857876,-0.7210881996340331,0.2,-0.7099741852434026,-0.660465455556869,0.2,-1.0751327766898895,-1.1090594286274207,0.2292,-0.43742400007712745,-0.5834900453030624,0.2,0.8006328353926406,-0.3555693913264296,0.2,0.002969507249282652,0.029760381419572404,0.2,1,C153B3
1.0882902107228596,0.3577969651984093,-0.3360135863259492,0.2,-0.7145071596288941,-0.7413396227473473,0.2,-1.08587378295449,-1.1420635293179353,0.2296,-0.4434009943427302,-0.6385163330121096,0.2,0.7983535443234137,-0.16670578898710792,0.2,-0.0001281272013740194,-0.06430475771344842,0.2,1,C153B3
1.0962923446252335,0.35488534850457243,-0.6234365209113052,0.2,-0.7218356192073602,-0.7824575518313309,0.2,-1.0934057931589765,-1.0092217946724018,0.22999999999999998,-0.4476402614053212,-0.5242302114860896,0.2,0.7979655427688469,0.09574520145751164,0.2,0.0019406311258674772,-0.03225432370041676,0.2,1,C153B3
1.1042944785276074,0.34782198086382843,-0.7248003475663588,0.2,-0.7270264804581954,-0.5510173508955842,0.2,-1.1020213316692484,-1.2176581484131115,0.2304,-0.45178867772650766,-0.3369491219520036,0.2,0.7998854675467338,0.23580281233994554,0.2,-0.0006441963805806875,-0.25134455975594394,0.2,1,C153B3
1.1122966124299813,0.3432885429435107,-0.5389222424567325,0.2,-0.7306518968216895,-0.8584693788874498,0.2,-1.1128883235335862,-0.8525027667002916,0.2308,-0.45303144735655326,-0.6800380083278567,0.2,0.801738387766286,0.12326683379394049,0.2,-0.002080881830227626,0.04486586002979196,0.2,1,C153B3
1.1202987463323555,0.3391992249845207,-0.404575657588873,0.2,-0.7407619905203946,-0.82768991543887,0.2,-1.115661375936453,-0.7338974001249859,0.2312,-0.46266928585975337,-0.5113635247838213,0.2,0.8018577368874369,-0.006639881471127984,0.2,7.365737989598391e-05,-0.06180475403931245,0.2,1,C153B3
1.1283008802347294,0.3368153324220887,-0.5031921048796878,0.2,-0.7438949354687114,-0.7101155673943024,0.2,-1.124630681935586,-1.1962577271652646,0.2316,-0.4612132637530944,-0.312623321157366,0.2,0.801632149662748,0.005801837955274336,0.2,-0.003069757894856625,0.06302825591800582,0.2,1,C153B3
1.1363030141371033,0.3311481513064457,-0.679709346224619,0.2,-0.7521238395987034,-0.9461571521496154,0.2,-1.1348014995710973,-1.0771761197253538,0.23199999999999998,-0.4676712589982712,-0.6585824791448743,0.2,0.8019505662947213,0.007820757893857444,0.2,0.001082109474584077,0.23884555512397587,0.2,1,C153B3
1.1443051480394772,0.3259399828824948,-0.32348520136644965,0.2,-0.7590334499031053,-0.4415091839122809,0.2,-1.1418654998511917,-0.8396247602913409,0.2324,-0.4717505834194124,-0.4029370640990966,0.2,0.8017572817890497,-0.25359303509791403,0.2,0.000751770987126989,-0.09245334473260378,0.2,1,C153B3
1.1523072819418512,0.3259723880845825,-0.5521913142091452,0.2,-0.7591879865412999,-0.49047505845643824,0.2,-1.1482354957357588,-1.0236150172891616,0.2328,-0.47411825202385677,-0.6420031705888541,0.2,0.7978930777331547,-0.5514631886552254,0.2,-0.00039714404113758346,-0.13568720263509318,0.2,1,C153B3
1.1603094158442253,0.3171049218551485,-0.6403181163107258,0.2,-0.7668810508384083,-0.9497611174883666,0.2,-1.1582433401278183,-1.2878351005789905,0.2332,-0.48202263414883406,-0.6766358479749698,0.2,0.7929338707705661,0.26903681467731894,0.2,-0.0014192242550345017,-0.005132648794352479,0.2,1,C153B3
1.1683115497465992,0.3157272982236109,-0.4119501327369372,0.2,-0.7743841644211138,-0.9153920383205768,0.2,-1.1688408573450226,-0.9434463628178041,0.2336,-0.4849444255914563,-0.18844347976032863,0.2,0.8021976667679918,0.25160046292671545,0.2,-0.0004792664218472231,0.26363192686611786,0.2,1,C153B3
1.1763136836489732,0.3105137197313575,-0.4004999528750795,0.2,-0.7815273234515375,-0.900759760087029,0.2,-1.1733384819329031,-1.1362914252176781,0.23399999999999999,-0.4850377298249993,-0.4534007309549698,0.2,0.7969594781773935,-0.15088522676347943,0.2,0.002798886574823384,-0.09290754714532086,0.2,1,C153B3
1.184315817551347,0.3093192989776096,-0.5252037201386901,0.2,-0.7887963205825063,-0.8779683776030528,0.2,-1.1870215201485055,-1.3164478686758518,0.2344,-0.4921988372867358,-0.61054607886004,0.2,0.7997835031397761,0.2534235283551123,0.2,-0.0019657871761723567,-0.3831192261897022,0.2,1,C153B3
1.192317951453721,0.30211046020913845,-0.41761464286206235,0.2,-0.7955748174931864,-0.13345655689402103,0.2,-1.1944016478317168,-0.3768172867965325,0.2348,-0.49480646708675996,-0.2798383350485246,0.2,0.8010142546310753,-0.02701766576596043,0.2,-0.003331021044211851,0.16925464791172876,0.2,1,C153B3
1.2003200853560951,0.3026374646918166,0.050198167084035406,0.2,-0.7909316254928106,-0.1318187430841486,0.2,-1.19305059673725,0.21727560681997216,0.2352,-0.4966762506475122,0.03675017511662465,0.2,0.7993512204875207,-0.0373276423798613,0.2,0.0007422871904153034,0.2871759473259524,0.2,1,C153B3
1.208322219258469,0.302913630882483,0.3620481787047075,0.2,-0.7976839173825327,-0.2053396896997614,0.2,-1.1909252381225972,-0.07014842676142385,0.2356,-0.49421846428489397,-0.10343859789073082,0.2,0.8004170123529976,0.056024336358095894,0.2,0.0012637941130033874,-0.00807602747062735,0.2,1,C153B3
1.216324353160843,0.30843023555109195,0.15620850026184033,0.2,-0.7942170605280068,-0.03442450687840548,0.2,-1.1941729715654328,-0.242486622892904,0.236,-0.4983312682137639,0.0851044250044751,0.2,0.8002476098692503,-0.062160195873732504,0.2,0.0006130707508852658,0.10401846502837138,0.2,1,C153B3
1.224326487063217,0.30541296688667247,-0.2993043357865585,0.2,-0.7982347094925872,-0.031093824726699526,0.2,-1.1948050240888837,-0.00441961656259815,0.2364,-0.49285679348482236,0.2553351479212332,0.2,0.7994224492190178,0.02766178644060535,0.2,0.0029280895534573295,0.01282150520221023,0.2,1,C153B3
1.2323286209655908,0.303641366178507,-0.28195219653297937,0.2,-0.794714561723634,0.44500875397047307,0.2,-1.1942436854304344,-0.06832456445224344,0.2368,-0.49424590584702416,-0.10033038610357883,0.2,0.8006901984522999,-0.18634335985052292,0.2,0.0008182148341206295,-0.41938342795234995,0.2,1,C153B3
1.240330754867965,0.3009017317421448,-0.026108598761696855,0.2,-0.7911145694290597,0.09460649724332693,0.2,-1.1958982171201196,0.13528271880634823,0.2372,-0.4944620796624796,-0.04376110410843001,0.2,0.7964409554614095,-0.10473504004179096,0.2,-0.003782045293780269,0.10665539730893357,0.2,1,C153B3
1.2483328887703389,0.30322362859831986,0.2565191113450514,0.2,-0.7932008577677407,-0.4231885453093928,0.2,-1.1920791619295328,0.11159675335770114,0.2376,-0.49494608351275904,-0.1353295326371358,0.2,0.7990144378116313,0.24411229467481005,0.2,0.0025247011910635667,0.16290633936218105,0.2,1,C153B3
1.2563350226727128,0.3050060375236656,0.2785324569681627,0.2,-0.79788558615401,0.11663989733400049,0.2,-1.1941126690663963,-0.10211200989697355,0.238,-0.4966273521846738,0.01919026340464411,0.2,0.8003467521762064,0.2691888386339644,0.2,-0.0011755438639853722,-0.18251079163481734,0.2,1,C153B3
1.2643371565750867,0.30768014790981046,-0.09573611127811424,0.2,-0.7913346194103967,0.32255402859648896,0.2,-1.1937129540878844,0.20459606451483925,0.2384,-0.49463903929828473,0.15352073606252417,0.2,0.8033214592297747,-0.004497471901739047,0.2,-0.00039547147509351053,0.20271080470673947,0.2,1,C153B3
1.2723392904774609,0.3034742597432158,-0.2845452527207477,0.2,-0.7927247216964661,-0.22727366477344468,0.2,-1.190839132034159,0.18068871087607852,0.2388,-0.4941710204076734,0.11511090656500175,0.2,0.8002747926257786,-0.23673335637158788,0.2,0.0020678290113224592,0.23635387509364408,0.2,1,C153B3
1.2803414243798348,0.3031274238662785,0.05880462480432197,0.2,-0.7949709980467718,-0.15922280525738908,0.2,-1.190821934713867,0.20789570319892925,0.2392,-0.4927972647932447,-0.14728210400342598,0.2,0.7995337255278293,-0.17744314841972725,0.2,0.0033861905264047946,0.025413072225411587,0.2,1,C153B3
1.2883435582822087,0.30441513374008494,0.046077097486701274,0.2,-0.7952722865805844,-0.18465923881950952,0.2,-1.187512800782976,-0.012668610403415714,0.2396,-0.4965275340717282,-0.2949179557130005,0.2,0.797435702251063,-0.016985809843765576,0.2,0.0024744381669290446,-0.2564538849245949,0.2,1,C153B3
1.2963456921845826,0.3038646574260657,-0.19514927422845801,0.2,-0.797925545867884,0.03368447275975406,0.2,-1.1910246324803218,-0.2565339755865037,0.24,-0.4975159520846527,-0.0016627611174602208,0.2,0.7992619525703291,0.25861786885533755,0.2,-0.0007170716323887246,-0.1090860303772426,0.2,1,C153B3
1.3043478260869565,0.3012927453524296,-0.01601045031749196,0.2,-0.7947333350164283,0.32449679404000786,0.2,-1.1916173443923601,-0.42252055335076366,0.2404,-0.4965541382496076,0.05756782571875868,0.2,0.8015735881527484,-0.17979504979481753,0.2,0.0007290616808931631,0.2523489050004361,0.2,1,C153B3
1.3123499599893307,0.30360849022098585,0.1731792308082951,0.2,-0.7927335971632439,0.07515499294413752,0.2,-1.197784961333934,0.032208144054135524,0.24080000000000001,-0.4965948668731526,0.1501310712270533,0.2,0.796385231773612,-0.021070034924138004,0.2,0.0033205108476182534,-0.04495438510565553,0.2,1,C153B3
1.3203520938917046,0.30406361304536234,-0.037162082211734254,0.2,-0.7935308551293221,0.04297801468410023,0.2,-1.191102014087494,0.8045371352709413,0.2412,-0.49415204110997474,-0.13778726177839096,0.2,0.8012364675939622,0.29333943203464774,0.2,9.7915192026745e-06,-0.2610914126940309,0.2,1,C153B3
1.3283542277940785,0.3030138969055981,0.04299334586594858,0.2,-0.7920459489282983,-0.031135968140492964,0.2,-1.184912367169599,0.05732970022509498,0.2416,-0.49879946306160683,-0.09941176375832805,0.2,0.8010786626861663,-0.16035005845935896,0.2,-0.0008569517554862415,0.052453216017202646,0.2,1,C153B3
1.3363563616964524,0.3047515065792175,-0.007292038130671252,0.2,-0.79402903061957,0.05181879882889401,0.2,-1.1901847388838924,-0.6956597056464037,0.242,-0.495742629330108,0.202587516799229,0.2,0.7986708666586124,0.09839416470986545,0.2,0.0008490429754779169,-0.047630014422088814,0.2,1,C153B3
1.3443584955988264,0.30289722429550736,-0.15933309427395778,0.2,-0.791216848147036,-0.020861629778053115,0.2,-1.1960429224599414,-0.11130275618856378,0.2424,-0.49555806279281917,0.04438507817856527,0.2,0.8026529693215242,-0.026590723418803974,0.2,-0.0016190319862396626,-0.2297313393357586,0.2,1,C153B3
1.3523606295012005,0.3022021770708342,-0.09952442370979309,0.2,-0.7943628166960188,-0.16213602168060892,0.2,-1.1919655829829094,0.019118500378556558,0.24280000000000002,-0.49503246807925094,0.03136766655025339,0.2,0.7982454150839116,-0.0944890876641985,0.2,-0.0028266584538942205,0.07064825133042509,0.2,1,C153B3
1.3603627634035744,0.30130483351615067,-0.03401837723554166,0.2,-0.7938110244939257,-0.20600468840905467,0.2,-1.1957370264538845,0.13195519676854894,0.2432,-0.4950561801280151,-0.11956291523918319,0.2,0.801141143918897,-0.06625728337816827,0.2,-0.0004886599649528612,0.2601136132330082,0.2,1,C153B3
1.3683648973059483,0.3016578830350655,0.22312923418422656,0.2,-0.7976588917105637,-0.07029673630380012,0.2,-1.1898542998346127,0.27710756234564093,0.2436,-0.4969454747230779,-0.03896666102269977,0.2,0.7971852985498609,-0.22994442350759287,0.2,0.0013351593578339108,-0.14412481503177152,0.2,1,C153B3
1.3763670312083223,0.3048749012630983,-0.000982423597056803,0.2,-0.7949357722747865,0.33213288768285665,0.2,-1.1913033054563542,-0.4028514537074285,0.244,-0.4956796467043783,-0.08697243268866381,0.2,0.7974620331427755,0.035568938824476204,0.2,-0.0027946570054612056,-0.03180944414672626,0.2,1,C153B3
1.3843691651106962,0.3016421642575126,0.20851551563664042,0.2,-0.792344765507638,-0.08531453145382145,0.2,-1.1962999230939315,-0.061221626050961264,0.2444,-0.4983370336460965,0.12347910421028202,0.2,0.7977544015710525,0.08418796320334293,0.2,0.0008262082514862906,0.23978961907857915,0.2,1,C153B3
1.3923712990130703,0.30821114951328454,0.45356456637514475,0.2,-0.7963008047780477,-0.05693394442273653,0.2,-1.1922828514731696,0.3580276093408663,0.24480000000000002,-0.4937039810370138,-0.01591372654781431,0.2,0.798809040554029,0.17967724627165893,0.2,0.0010419768997960608,0.10312106367335103,0.2,1,C153B3
1.4003734329154442,0.30889919731951493,-0.23506452736808334,0.2,-0.7932557086184018,0.08217366105599255,0.2,-1.1905714813444777,-0.13202057039225779,0.2452,-0.4985916532708615,-0.22282184257907747,0.2,0.800629237511399,0.16631707240227084,0.2,0.0024761452702599072,-0.21003332906360073,0.2,1,C153B3
1.4083755668178182,0.3044501170753952,-0.3775761670618341,0.2,-0.7949860262011518,-0.2474403456459648,0.2,-1.1943951805994457,-0.09365831417755544,0.2456,-0.49726913051827903,0.33165417134904673,0.2,0.8014701137124653,0.04463334817979975,0.2,-0.002318556365221551,-0.0178610688902785,0.2,1,C153B3
1.416377700720192,0.3028579786465256,-0.035388129890793346,0.2,-0.7972147541487372,-0.15540000065102783,0.2,-1.1920700143713185,0.34514250603752405,0.246,-0.4932851865292768,0.2831014772562146,0.2,0.8013433710822758,-0.07906763692491076,0.2,0.002190368168015451,0.20974140649898268,0.2,1,C153B3
1.4243798346225662,0.3038839069971425,0.06157070282269625,0.2,-0.7974724262115682,0.30931868450248534,0.2,-1.1888729005028453,-0.11233139325785013,0.2464,-0.4927395068821796,-0.167509508731966,0.2,0.8002050315216668,-0.061397388785085216,0.2,0.0010373061387621717,-0.29321810036782614,0.2,1,C153B3
1.4323819685249402,0.3038431098916887,-0.030460603092950095,0.2,-0.7922656551966974,0.321048838089269,0.2,-1.1938673166634441,-0.26629218327633986,0.24680000000000002,-0.49596533866898823,-0.06631531224262494,0.2,0.8003610128617145,-0.027429438000090012,0.2,-0.0025011214378697667,-0.1564218886126752,0.2,1,C153B3
1.440384102427314,0.3033965373476553,0.14482031550305807,0.2,-0.7923356448021399,0.018735126948041247,0.2,-1.1931335754352668,0.2397909711493451,0.2472,-0.4938005518780616,-0.08757187799760327,0.2,0.7997661605136653,0.08590045705558769,0.2,-0.0014654440790406317,0.1747977640991747,0.2,1,C153B3
1.448386236329688,0.30616023493973765,-0.11388113899291757,0.2,-0.7919658931655288,-0.2897180568948374,0.2,-1.1900306611250546,0.14685077185151718,0.24760000000000001,-0.4973664887169499,-0.19441842493771525,0.2,0.8017354201746039,0.061097742022918344,0.2,0.0002956427877170286,0.036918807000987826,0.2,1,C153B3
1.456388370232062,0.30157443912376863,-0.08955340912270363,0.2,-0.7969711337124573,0.09049852158862781,0.2,-1.1907839630856425,-0.10340846365365641,0.248,-0.49691124667706504,0.0939958399122677,0.2,0.800743724386032,-0.026388579657268818,0.2,-0.0008747431670248265,-0.20967705949009846,0.2,1,C153B3
1.464390504134436,0.3047273803937744,0.27374815631752214,0.2,-0.7905179168201107,0.11980409929048669,0.2,-1.1916851965435131,-0.1452206353576152,0.2484,-0.4958625552783536,-0.042158043164309406,0.2,0.8013132029000876,-0.10769691284511634,0.2,-0.003059190164124547,-0.0068796872822864,0.2,1,C153B3
1.47239263803681,0.305954409624849,0.05213606918778868,0.2,-0.7950542681238095,-0.27845068347626817,0.2,-1.1931074932513643,-0.06736465113028889,0.24880000000000002,-0.497585775367694,0.07800430988260179,0.2,0.7990205737805102,0.025163422445760586,0.2,-0.0009848181635414089,0.12540311812800536,0.2,1,C153B3
1.480394771939184,0.305561557500779,-0.15783049785950826,0.2,-0.794973127755731,0.07689991616967318,0.2,-1.1927630309615977,0.346441216195148,0.2492,-0.49461448632023197,-0.046675729904327445,0.2,0.8017158176592197,0.29466788550747136,0.2,-0.0010527402740764609,0.020123863434826795,0.2,1,C153B3
1.4883969058415578,0.30342912165909686,0.0326676035774659,0.2,-0.7938238694650948,0.054667327900020934,0.2,-1.187564433792242,0.16135995400259895,0.24960000000000002,-0.49833258704616323,-0.04589922906467203,0.2,0.8037352599486297,-0.28687425159086566,0.2,-0.0006628363485841802,0.03075472813510501,0.2,1,C153B3
1.4963990397439317,0.30608423915801847,-0.08846892527334185,0.2,-0.7940984505093307,-0.03040862648658743,0.2,-1.1901812716975562,-0.37330816454175797,0.25,-0.4953488739852667,0.09925980606392479,0.2,0.7971258296337659,-0.28937949078468306,0.2,-0.0005606646239147807,0.03569954800182965,0.2,1,C153B3
1.5044011736463059,0.3020136188547234,-0.21386273476567408,0.2,-0.7943104074888802,-0.044264176107547404,0.2,-1.19353736442491,-0.028670698312333043,0.2504,-0.49674443014914044,-0.17793258213173735,0.2,0.7991051880960748,0.267301318212787,0.2,-9.164358055490575e-05,0.05633191872794809,0.2,1,C153B3
1.5124033075486798,0.3026624354017677,0.40991958412325835,0.2,-0.7948066773270515,-0.15005338139057606,0.2,-1.1906400028705535,0.19984189868965663,0.2508,-0.4981957952993745,-0.024425587836492818,0.2,0.8014026507251705,-0.07072993198208033,0.2,0.0003406460757323888,0.16127987896863674,0.2,1,C153B3
1.5204054414510537,0.3085723322006955,0.045891427953918124,0.2,-0.7967112615911294,-0.03184951262429764,0.2,-1.1903398940458756,0.04853526522398399,0.25120000000000003,-0.4971352395545243,0.24533923693146817,0.2,0.7979735091843615,-0.12018150301625757,0.2,0.0024888344829432823,-0.06453910884650399,0.2,1,C153B3
1.5284075753534276,0.30339669824903037,-0.33247947026341856,0.2,-0.7953162695290402,0.19463804792740902,0.2,-1.1898634386269697,0.030066294240183034,0.2516,-0.49427036750847103,-0.13039419126330276,0.2,0.7994797466769104,0.2542641578748908,0.2,-0.0006919796658116751,-0.4000765075667974,0.2,1,C153B3
1.5364097092558016,0.3032526606764808,0.0750957527264097,0.2,-0.7935970528242908,-0.08487748629749936,0.2,-1.1898588333380327,-0.08353359021728846,0.252,-0.49922154661473717,-0.25427370793294074,0.2,0.8020417357103597,0.05686050912261792,0.2,-0.0039123896381254766,0.009201959204732078,0.2,1,C153B3
1.5444118431581757,0.3045982302926529,-0.011028709719661245,0.2,-0.7966743093098002,0.013100487513163783,0.2,-1.1911999760704464,-0.10120426481419198,0.2524,-0.4983387468353981,0.2538384236754863,0.2,0.8003895148228722,-0.1522993179890325,0.2,-0.0005447483185359619,0.2562636742377336,0.2,1,C153B3
1.5524139770605496,0.30307620132096624,0.15458385837235217,0.2,-0.7933874450240802,0.46786368883462714,0.2,-1.1914781015750597,-0.1514994641478029,0.2528,-0.4951601318359294,0.19111317125812197,0.2,0.7996049466225352,-0.23213471481615955,0.2,0.00018782914967826122,-0.08434285825027339,0.2,1,C153B3
1.5604161109629235,0.30707157202661056,0.19329574623187448,0.2,-0.7891884902884462,-0.25580998213006745,0.2,-1.1936239674968112,-0.1741452819396666,0.25320000000000004,-0.49528093609526813,-0.03127396851585265,0.2,0.7966753593858137,-0.05803767151450062,0.2,-0.0018942340505403363,0.04562831833646383,0.2,1,C153B3
1.5684182448652975,0.30616893326067623,-0.3331486673312615,0.2,-0.7974804047381613,-0.33352098998840063,0.2,-1.1942644260860944,0.18540798832054894,0.2536,-0.495660515332183,-0.13393942046548493,0.2,0.7986763438783032,0.20986850742323732,0.2,0.0009178822430616825,0.08840498625492182,0.2,1,C153B3
1.5764203787676716,0.3017411933493104,-0.15707797475816507,0.2,-0.7945248261282606,0.2156949518173079,0.2,-1.1906574396836824,0.05051811517430005,0.254,-0.4974239668227159,-0.08923270195088095,0.2,0.8000332555045855,-0.0733905341249036,0.2,-0.0004797542704615871,0.2128881513864905,0.2,1,C153B3
1.5844225126700455,0.3036556856645456,0.19421273370434644,0.2,-0.7940292855090844,-0.09854037758214029,0.2,-1.1934561362433056,-0.2582307458655342,0.2544,-0.4970882385633971,0.039174022840683664,0.2,0.7975020953323048,-0.1637832696900418,0.2,0.00432409266524553,-0.12493895798966614,0.2,1,C153B3
1.5924246465724194,0.3048485970885799,0.050709920649323614,0.2,-0.7961014721695748,-0.13821415071576387,0.2,-1.194789131617531,0.16158006212471654,0.2548,-0.49679718245726495,0.05087701070225978,0.2,0.7974127231895448,-0.03920771310873816,0.2,-0.002478777598296245,-0.3542496103885956,0.2,1,C153B3
1.6004267804747934,0.30446704439493477,-0.10514481291680478,0.2,-0.7962407119205366,0.2278741497358655,0.2,-1.1908708552493101,0.18837714575850595,0.25520000000000004,-0.49627420639216097,0.19828900751412207,0.2,0.796874771922565,0.5130623412465118,0.2,-0.0013439011009719986,0.25983602475518497,0.2,1,C153B3
1.6084289143771673,0.30316628008191104,-0.2468972867862053,0.2,-0.792455485773801,0.2544593090021488,0.2,-1.1917750972853949,0.02814224602867843,0.2556,-0.493624558337039,0.14904710790556233,0.2,0.805621720649489,0.19154650527124922,0.2,0.0016785987977867148,0.107987779905218,0.2,1,C153B3
1.6164310482795414,0.3005166878063555,-0.15006691317751356,0.2,-0.7921693629765022,-0.10030054890738938,0.2,-1.1904205793128513,-0.26529712248249404,0.256,-0.49388945266567197,-0.1572161965337146,0.2,0.7999395160069049,-0.33112403544548197,0.2,0.0003839033775114897,-0.05369755488744033,0.2,1,C153B3
1.6244331821819153,0.3007652094710708,0.2833834680856968,0.2,-0.7940602945563192,-0.2437704699286905,0.2,-1.1960198512451148,0.09680812492042501,0.2564,-0.49614001748157843,-0.029600224815486825,0.2,0.8003237360823613,0.160354515406122,0.2,0.0008194379195876695,0.10080695301641689,0.2,1,C153B3
1.6324353160842893,0.30505082329572664,0.3360490877423079,0.2,-0.7960696904953612,-0.1875271009470561,0.2,-1.1888716493141245,0.09179104266750227,0.25680000000000003,-0.49436305626271976,0.08117673678614129,0.2,0.8025051882534029,-0.06372188506389292,0.2,0.00199681462577416,-0.28910355306651403,0.2,1,C153B3
1.6404374499866632,0.30614199487494775,-0.04824360145823728,0.2,-0.7970607281714721,0.038698793522938535,0.2,-1.1945511945624347,-0.1153529414210791,0.25720000000000004,-0.49484118969300017,-0.2539669188722435,0.2,0.799304185921339,-0.10353750041850601,0.2,-0.0038062189294765553,-0.21506931360500195,0.2,1,C153B3
1.648439583889037,0.30427892567239484,0.006594220703842746,0.2,-0.7954505097989942,-0.18676573975274363,0.2,-1.1907172963768617,0.12467885487886521,0.2576,-0.49842652696467565,0.05012922142113088,0.2,0.8008485882467068,0.20464730524391572,0.2,-0.0014442943919058713,0.101552951003518,0.2,1,C153B3
1.6564417177914113,0.30624750240620924,0.013315400146884232,0.2,-0.800048980007516,0.0597876977711867,0.2,-1.192556332884373,-0.0006269964700073016,0.258,-0.4940391221502621,0.1490531527401917,0.2,0.8025785428052417,-0.05430332704320362,0.2,-0.0021813717134202674,-0.03464215442043832,0.2,1,C153B3
1.6644438516937852,0.304491972074745,-0.3001041278234591,0.2,-0.7944939066346552,0.3201206173352941,0.2,-1.1907273283203819,-0.03781717605058632,0.2584,-0.4960416765208326,-0.042781245767786746,0.2,0.7999797350140155,0.08793956569554118,0.2,-0.0019985688626328844,0.33592274817914897,0.2,1,C153B3
1.672445985596159,0.3014458363610339,-0.05886045831249645,0.2,-0.7949270501301513,-0.01854499088489031,0.2,-1.1931614077011823,-0.00917474588223166,0.25880000000000003,-0.49472362208254667,-0.24141217605496215,0.2,0.8039855758563703,-0.10810937545303878,0.2,0.003193392257446116,0.026442755569246343,0.2,1,C153B3
1.680448119498533,0.30355020474174504,0.2005313762601553,0.2,-0.7947906264888135,0.19590233699239012,0.2,-1.1908741242544976,0.07603798566385711,0.25920000000000004,-0.499904271337712,0.18102149803328818,0.2,0.7982499850067669,-0.22938368327226483,0.2,-0.001575484773524943,-0.26172469393924813,0.2,1,C153B3
1.6884502534009072,0.3046543383811964,-0.03930338921201773,0.2,-0.7917926127382731,0.0460743822480042,0.2,-1.1919447999305606,-0.13062129713990733,0.2596,-0.49182727811401405,0.04165299680921469,0.2,0.8003154369240141,0.0822906945497498,0.2,-0.0009942028455818541,0.19330760140822692,0.2,1,C153B3
1.696452387303281,0.30292135051435276,0.060730044724559284,0.2,-0.7940534363728454,-0.14162398627038525,0.2,-1.192964065008736,-0.3216222863008794,0.26,-0.49923782338876455,-0.3112435942740216,0.2,0.7995666361195629,-0.3179154726046657,0.2,0.0015174368490066875,-0.1292949352615788,0.2,1,C153B3
1.704454521205655,0.3056260190967893,0.014448796490193483,0.2,-0.7940585965185992,0.08300679451787862,0.2,-1.1970907565113746,-0.1437481925672529,0.2604,-0.4968071756223984,0.4134787752662211,0.2,0.7952287893623394,0.21681084443318788,0.2,-0.0030629218097671146,-0.1092348874038044,0.2,1,C153B3
1.712456655108029,0.30315253125819586,-0.2099156221382556,0.2,-0.7927253276605594,-0.04563648469059489,0.2,-1.1952640360898121,0.27685604424450283,0.26080000000000003,-0.492622162984505,0.18903380060740146,0.2,0.8030356096304939,-0.054819804742888,0.2,-0.000230321349454183,0.18521567238427844,0.2,1,C153B3
1.7204587890104028,0.30226736914257724,0.29244266339252534,0.2,-0.7947887802736487,-0.08864301154185711,0.2,-1.1926610598034626,0.4488422650389817,0.26120000000000004,-0.49378263481268,-0.3168896366844559,0.2,0.7943516724864532,0.13078655123322652,0.2,-9.947105161865963e-05,0.1572807628938514,0.2,1,C153B3
1.728460922912777,0.30783161387247626,0.011122931871210967,0.2,-0.7941436158452291,-0.016452486939093347,0.2,-1.1880825598491884,-0.1309954158069393,0.2616,-0.4976923971714563,0.0852132682245682,0.2,0.8051281944502255,0.44848648346624415,0.2,0.0022861708568474395,0.08964896113523463,0.2,1,C153B3
1.736463056815151,0.3024453360525166,-0.30449971910053925,0.2,-0.7950520200646742,0.06987517826046591,0.2,-1.1947569864563736,-0.4983482514947929,0.262,-0.4924192225210869,-0.011327282009133272,0.2,0.8015274562219131,-0.3355249428647969,0.2,0.0013349123265450943,-0.3892648089250365,0.2,1,C153B3
1.7444651907175248,0.30295961836686763,0.2009808111862535,0.2,-0.7930256129930616,-0.09718715967222541,0.2,-1.196056131873105,0.1598594508028517,0.2624,-0.49787363368360243,-0.2764515318569062,0.2,0.7997597953643888,0.00017822435779968337,0.2,-0.003942066085953145,0.04957939948299884,0.2,1,C153B3
1.7524673246198987,0.30566102903149667,0.1783536106556259,0.2,-0.7966070146194298,-0.21870004093885176,0.2,-1.192199235243528,0.36651487288466567,0.26280000000000003,-0.4968424470307974,0.281114885701525,0.2,0.8015303078116379,0.031095450843940386,0.2,0.0021281827182730757,0.18702307876723448,0.2,1,C153B3
1.7604694585222727,0.30581327613735765,-0.004887404534852091,0.2,-0.7965248136480833,0.3017982521965404,0.2,-1.1901918939069505,0.10415562893721642,0.26320000000000005,-0.49337579551237803,-0.11974662609526635,0.2,0.8002573225778918,-0.1853209692981167,0.2,-0.0009496968256773931,0.015338745624379995,0.2,1,C153B3
1.7684715924246468,0.30558283055893903,-0.2530844891868132,0.2,-0.7917782425842852,0.22453401321825134,0.2,-1.1905327451805325,-0.4449252372055734,0.2636,-0.49875839304832165,-0.07350042596637046,0.2,0.798565172302868,-0.03730335807120705,0.2,0.0023736026482631557,0.3009678626944574,0.2,1,C153B3
1.7764737263270207,0.30176392431036864,0.001835954283026242,0.2,-0.7929322694365912,-0.028883124109119196,0.2,-1.1973106977022396,-0.3102733253562695,0.264,-0.49455180232783996,0.23475371507264767,0.2,0.7996604688487525,0.23529304150035624,0.2,0.0038657889774339257,-0.11954497825187116,0.2,1,C153B3
1.7844758602293946,0.30561220582746745,0.08223973294331499,0.2,-0.7922403725700311,-0.06889763993912085,0.2,-1.1954971183862328,0.375195077373755,0.2644,-0.4950023336071593,-0.1969440835741798,0.2,0.8023298609668738,-0.12512141748692585,0.2,0.00046088299623321726,-0.146278032175181,0.2,1,C153B3
1.7924779941317686,0.3030797600374617,-0.20200081697179656,0.2,-0.7940346316756172,-0.13068827814032014,0.2,-1.1913075764642596,0.37397493232341206,0.26480000000000004,-0.49770290766502684,0.05542097043381364,0.2,0.7976585261689617,-0.20082106548140882,0.2,0.0015253404626310294,-0.18133683883245458,0.2,1,C153B3
1.8004801280341425,0.3023801927559187,-0.02927334423741962,0.2,-0.7943313850202762,0.01577172682839384,0.2,-1.1895135194690583,0.00035512336162002445,0.26520000000000005,-0.49411559808021827,0.20316574152666814,0.2,0.7991167239191712,0.3120069498800532,0.2,-0.002440506425086056,-0.12311216333511213,0.2,1,C153B3
1.8084822619365166,0.30261138652966296,0.06772437473405793,0.2,-0.7937822840463629,-0.005788796736926061,0.2,-1.1913018944904736,-0.1361456763646074,0.2656,-0.49445225580060015,-0.06670478819088485,0.2,0.8026506373670426,0.008085883298578067,0.2,-0.00044445415073076446,0.07813723709414078,0.2,1,C153B3
1.8164843958388905,0.30346378275166364,-0.020427307754162377,0.2,-0.794424005768067,0.206368586642261,0.2,-1.191691850290892,-0.08529635380866152,0.266,-0.4951828746912724,-0.14636397141060825,0.2,0.7992460980519485,-0.22681411295739223,0.2,-0.0011903106315798036,-0.19213155363560092,0.2,1,C153B3
1.8244865297412645,0.30228454960559636,-0.1289463642267924,0.2,-0.7904803866600867,-0.18313528164781018,0.2,-1.1926666361514122,-0.09458500708771356,0.2664,-0.4967940793431699,-0.04368863264155379,0.2,0.7990216115597243,0.2689751465185103,0.2,-0.0035185590089003792,0.07508598170680467,0.2,1,C153B3
1.8324886636436384,0.30140064092403496,0.19327177948877047,0.2,-0.797354170274432,-0.255654533623674,0.2,-1.1932052104042954,0.18583250931993034,0.26680000000000004,-0.4958818928135373,-0.0612445054873241,0.2,0.8035497003962446,-0.014083007181864282,0.2,1.1065075729071067e-05,0.11260858595504845,0.2,1,C153B3
1.8404907975460125,0.3053768980774167,0.025506312852131147,0.2,-0.7945708591980655,0.2761783292390893,0.2,-1.1896933160022933,0.25682553966517585,0.26720000000000005,-0.49777399143096707,-0.04538160875966826,0.2,0.7987962834448145,-0.33168996517503324,0.2,-0.001716821633619604,0.09819472474960207,0.2,1,C153B3
1.8484929314483864,0.30180874192966906,-0.26943631461116485,0.2,-0.7929353170066066,-0.17633449192655526,0.2,-1.1890960017696526,-0.14960388098329835,0.2676,-0.496607998553692,-0.056001651578877626,0.2,0.7982426609534441,0.19962712731606824,0.2,0.0015821806717227042,0.10083100109993685,0.2,1,C153B3
1.8564950653507604,0.30106591704363805,0.05685061815555517,0.2,-0.7973922110688904,-0.14109008492713127,0.2,-1.192086978098026,-0.2629846374815753,0.268,-0.4986700178562291,0.038345923201500015,0.2,0.8019903174818716,0.27285803013153004,0.2,-0.00010352561602061414,-0.04109915657859482,0.2,1,C153B3
1.8644971992531343,0.30271835182015794,0.07287492145821584,0.2,-0.7951927583654407,0.26867157980343254,0.2,-1.1933037559693578,0.07003587343450135,0.2684,-0.495994463782468,0.09402457143704857,0.2,0.8026083894355486,-0.2015506788044727,0.2,0.0009245941664651871,-0.27031145484247315,0.2,1,C153B3
1.8724993331555082,0.3022319157869695,0.18280771498740273,0.2,-0.7930934657920354,0.14833496158939835,0.2,-1.190966404123074,0.16498805928921723,0.2688,-0.49716562471323633,0.004481722154937168,0.2,0.798765506621,-0.14473486553884946,0.2,-0.004428508893500185,-0.06515577188297093,0.2,1,C153B3
1.8805014670578823,0.3056432752599564,0.024673462951374514,0.2,-0.7928193989800103,0.17413740238234748,0.2,-1.1906639470207303,0.04304952044402455,0.26920000000000005,-0.495922756227989,0.15702568258307154,0.2,0.800292631586927,0.18886481942548272,0.2,-0.0001178981836623478,0.3077133071601708,0.2,1,C153B3
1.8885036009602563,0.3026266911941915,-0.07963234115656789,0.2,-0.7903072673539179,-0.14115112681314934,0.2,-1.1902776117959697,-0.22350469352541702,0.2696,-0.4946532137919072,0.09923722060344725,0.2,0.8017873437318077,-0.08219155575786563,0.2,0.0004949040210625488,0.07501031712063537,0.2,1,C153B3
1.8965057348626302,0.3043691578014513,0.06477686560594359,0.2,-0.7950778170090207,-0.4808735950470322,0.2,-1.194240022117137,0.022593759132605307,0.27,-0.4943349606983338,-0.10774965186603411,0.2,0.7989775666948011,-0.1476542482153273,0.2,0.0010822668902678181,-0.12758383033293644,0.2,1,C153B3
1.904507868765004,0.3036631210438866,0.22459343395289308,0.2,-0.7980012448746704,0.06257275977897964,0.2,-1.189916111649848,-0.024921960925766706,0.2704,-0.49637720822176373,-0.27069861868433615,0.2,0.7994248757603625,0.3074759158724766,0.2,-0.001546437264264434,-0.24263016184175903,0.2,1,C153B3
1.912510002667378,0.3079626527446976,0.05904288472937877,0.2,-0.794076652852557,0.2421344531071054,0.2,-1.1946387734919492,-0.17635752590997034,0.27080000000000004,-0.4986661385972832,0.085835497038389,0.2,0.8038971813487608,-0.15123977945138284,0.2,-0.0027998156992003263,0.2629868073367083,0.2,1,C153B3
1.9205121365697522,0.30460780719955666,-0.23259008538397546,0.2,-0.7941270936249567,0.09621193192466126,0.2,-1.1927378320644075,0.23491404789842407,0.2712,-0.4950038402691495,0.4779464493854905,0.2,0.7970050392891403,-0.43677215636235556,0.2,0.002661351653122899,0.26973871349414297,0.2,1,C153B3
1.928514270472126,0.304241211378554,0.20598897314027392,0.2,-0.7925372619417624,-0.20447012554076355,0.2,-1.1908801487255745,0.42343220107630974,0.2716,-0.49101899540711536,0.11797225536845299,0.2,0.7969088268469631,0.10945446351043331,0.2,0.0015160037167059619,-0.220579826483335,0.2,1,C153B3
1.9365164043745,0.30790363076980104,-0.07775250551223314,0.2,-0.7973986156336089,-0.03776173260268412,0.2,-1.1859629168471866,0.2118749746311821,0.27199999999999996,-0.49311628418325426,-0.5074207144826238,0.2,0.7987563107053073,0.364160080001133,0.2,-0.0008679255706104612,-0.038013177840586866,0.2,1,C153B3
1.944518538276874,0.30299717129035825,-0.05668911630376389,0.2,-0.7931414496634054,0.12291407173328078,0.2,-1.1874901491314755,-0.3082093810392317,0.27240000000000003,-0.49913772683883734,-0.15932674598523322,0.2,0.8027353881269812,-0.11686814480339064,0.2,0.000907792871256572,-0.04050528089668541,0.2,1,C153B3
1.9525206721792479,0.3069966049089408,0.1516006483268037,0.2,-0.7954319904858764,-0.05102449975111223,0.2,-1.1908942669438143,-0.20482923842880807,0.2728,-0.495665512119018,0.31638326477726947,0.2,0.796886420388453,-0.14604438022718103,0.2,-0.0015160100649574278,0.03268227539095621,0.2,1,C153B3
1.960522806081622,0.3054227816635871,-0.23371909065216662,0.2,-0.7939578416594232,0.14748529989237757,0.2,-1.1907674169463365,-0.2330101207445312,0.27320000000000005,-0.494075594602401,0.2695228738251662,0.2,0.8003986780433463,0.12739815707262653,0.2,0.0014307092775118714,0.04071583523086894,0.2,1,C153B3
1.968524939983996,0.30325709945850615,-0.09344846441821861,0.2,-0.7930722256875984,0.08409707322258597,0.2,-1.1946224288757268,-0.12706403949007405,0.2736,-0.49135314613781533,0.08795737914977023,0.2,0.7989247909016151,0.07398178677778255,0.2,-0.0008645567012635247,0.007036775995539993,0.2,1,C153B3
1.9765270738863698,0.3039276062328956,0.14733666322676656,0.2,-0.7926122884878618,-0.06185900572839437,0.2,-1.1928004415781777,0.3637558071665353,0.274,-0.4926682765360047,-0.2457265649313707,0.2,0.8015823866317908,0.02675931331998227,0.2,0.0015432976934405113,-0.00039176979530291086,0.2,1,C153B3
1.9845292077887438,0.3056144860701344,-0.014223509400335121,0.27925264224037927,-0.7940619697792527,-0.25378825064528016,0.581554105411452,-1.1888023359610622,0.11785439370785855,0.6189389762843812,-0.49528477117671726,-0.6069059816940607,0.2,0.7993529399147348,0.051390796346098555,0.2,-0.0008708250179883713,-0.21550439318634612,0.2,1,C153B3
1.992531341691118,0.30370003008249025,12.121279030732474,0.6250611987989042,-0.7966729004981863,18.314504277572592,0.9296248498742898,-1.190914771278852,24.28977523496235,1.692350049073611,-0.5023787722431097,12.045347829002631,0.6188612255132957,0.8024046393733284,-0.08282649458437458,0.2,-0.0019047725975410267,-0.16639945668146588,0.2,1,C153B3
2.0005334755934916,0.499554950561854,12.631556935615059,0.9126194930534035,-0.5010299013380912,18.35762624743983,1.4867179821837893,-0.8001659322016647,24.532937772222386,2.30245645503182,-0.30255920591267516,12.947709619491844,0.7996652577363484,0.7980277160013848,-0.436664981193699,0.2,-0.0035332163248918253,0.39457128987738466,0.2,1,C153B3
2.0085356094958655,0.5058049410523312,0.47180771030206137,0.2,-0.502950880539149,-0.18217197687835085,0.2,-0.7983877669232937,0.33652293174648434,0.2756,-0.29521541833124015,0.6769020275876648,0.2,0.7954179996742292,-0.2667930243615349,0.2,0.0044083680404971275,0.6904999110966678,0.2,1,C153B3
2.01653774339824,0.507103873926687,0.014840448934440309,0.2,-0.5039446529681448,-0.43721861386777916,0.2,-0.7947815652937209,0.12163052906183358,0.27599999999999997,-0.2917287734712725,0.6604614004194764,0.2,0.7937590276116002,0.0071215346814923475,0.2,0.007514782252654859,0.2884213186113106,0.2,1,C153B3
2.024539877300614,0.5060423882352822,0.3630149816092401,0.2,-0.5099463783610335,-0.4560739591343149,0.2,-0.7964416784583044,0.18665452563442625,0.27640000000000003,-0.28464803592452853,0.4905379298820976,0.2,0.7955319442291331,-0.09590225088421805,0.2,0.009023109138278097,0.45708182640744177,0.2,1,C153B3
2.0325420112029877,0.5129121136324348,0.6476738973884427,0.2,-0.5112418363142939,-0.6027620188601076,0.2,-0.7917950928835701,0.34843352791356225,0.2768,-0.28388016659315896,-0.02301916359901887,0.2,0.7922245915974527,-0.4144302059436236,0.2,0.014828091475173928,0.5665784426812474,0.2,1,C153B3
2.0405441451053616,0.5164051705934973,0.43795787367907624,0.2,-0.5195905706627952,-0.5512257374515813,0.2,-0.7908667420116874,0.3657876464056714,0.27720000000000006,-0.28501634254211283,0.2853353887227669,0.2,0.7889010609340351,-0.09562003538071684,0.2,0.018088364221178054,0.6565901509147032,0.2,1,C153B3
2.0485462790077356,0.5199194396113,0.37677306160680685,0.2,-0.5200614481135192,-0.15066339666620215,0.2,-0.7859424905410793,0.30400664045260317,0.2776,-0.2793148003735947,0.6365652095500912,0.2,0.7906946710313613,0.043294798361522,0.2,0.02533353388980918,0.3526102116621036,0.2,1,C153B3
2.0565484129101095,0.5224335395792062,0.16095758767458584,0.2,-0.5220011850094545,-0.3192407836141442,0.2,-0.7860026357644457,0.14903857105633134,0.278,-0.2748312991893114,0.5140011647221665,0.2,0.7895937777078195,-0.2389277687472463,0.2,0.02373012760777171,0.13417684813740402,0.2,1,C153B3
2.0645505468124834,0.5224947610140934,0.6630482786365854,0.2,-0.5251693006513455,-0.4397993266027911,0.2,-0.783557873404178,0.25790930813466423,0.2784,-0.27109078173804,0.37617437695771844,0.2,0.7868718267314053,-0.4760339744535394,0.2,0.027480363460007644,0.24727601927595003,0.2,1,C153B3
2.0725526807148573,0.5330423120373916,0.7292815576602565,0.2,-0.5290379742350991,-0.5404749072363407,0.2,-0.7818760868342911,0.2864629213238587,0.27880000000000005,-0.2688125091579879,0.40761293784340524,0.2,0.7819772341165628,-0.47151040793739357,0.2,0.027686543916186912,0.33719726114036674,0.2,1,C153B3
2.0805548146172312,0.5341632659366575,0.2604874334005622,0.2,-0.5338168991671269,-0.5624115642358026,0.2,-0.7789744666629963,0.3369332597682184,0.2792,-0.26456897473254554,0.28034498841179517,0.2,0.779327660204407,-0.15487630466306385,0.2,0.03287551963825351,0.5716549851044407,0.2,1,C153B3
2.0885569485196056,0.5372101109718006,0.48044698623850995,0.2,-0.538036559262872,-0.719157872040417,0.2,-0.7764851546779996,0.1352563534523024,0.2796,-0.26432698934339915,0.11889543040726619,0.2,0.7794992132419538,-0.15965077791722793,0.2,0.036833023677857964,0.5865077362316317,0.2,1,C153B3
2.0965590824219795,0.5418504177164737,0.3782845967106249,0.2,-0.5453234251197736,-0.2710919469017248,0.2,-0.7768103650077595,-0.1399204549315386,0.27999999999999997,-0.2626666478460293,0.4637222945813486,0.2,0.7767732477577314,-0.48383876169369455,0.2,0.04225964341795962,0.21836218707674834,0.2,1,C153B3
2.1045612163243534,0.5432626645191706,0.3140596738280682,0.2,-0.5423740304132996,-0.3052526599170713,0.2,-0.7787238819569042,0.3870689464815155,0.28040000000000004,-0.2569074326300976,0.29114293811374065,0.2,0.7717577930548547,-0.22967124083939777,0.2,0.04032681867108594,0.315599043977897,0.2,1,C153B3
2.1125633502267274,0.5468753724977228,0.2647783715714405,0.2,-0.5502074676784467,-0.5744761553427915,0.2,-0.7706172618640552,0.5311902000294035,0.2808,-0.2580083608362094,0.479672261780641,0.2,0.773098507904301,-0.18241788020593314,0.2,0.04730922812160597,0.6618809460998639,0.2,1,C153B3
2.1205654841291013,0.5474991184643136,0.2487370969755584,0.2,-0.5515656488987842,-0.37527659155818516,0.2,-0.7702248387564338,0.2333582201280715,0.28120000000000006,-0.24923267644160732,0.5488298332111969,0.2,0.7688391069715598,-0.24874085368178228,0.2,0.05091691380868376,0.3924995425018678,0.2,1,C153B3
2.128567618031475,0.5508551660493317,0.5849736519235316,0.2,-0.5562118931433777,-0.49760295973401425,0.2,-0.7668835303420061,0.2783418211157601,0.2816,-0.24922708350483028,0.05769602544705363,0.2,0.7691186542453925,-0.2639617248305637,0.2,0.053589220801635855,0.3525316808032325,0.2,1,C153B3
2.136569751933849,0.5568586968950902,0.44938226470182113,0.2,-0.5595272962545285,-0.28678563552407554,0.2,-0.7657713696185816,0.2424074697973816,0.282,-0.24830954003445446,0.7808390034707828,0.2,0.7646157193742708,-0.41648211380626576,0.2,0.05655742070153548,0.5256722264230392,0.2,1,C153B3
2.144571885836223,0.5580452822845609,0.28108584598462993,0.2,-0.5608004633117629,-0.39792370190078197,0.2,-0.763005010825248,0.5297176184492908,0.2824,-0.23673365944929775,0.5418935649469085,0.2,0.7624549404244922,-0.21091993828437766,0.2,0.06199997642440448,0.5783717525995818,0.2,1,C153B3
2.152574019738597,0.5613560704308442,0.3255928028766883,0.2,-0.565894075484941,-0.244302083664015,0.2,-0.757295887723393,0.34120735588470674,0.2828,-0.23963924299530392,0.17611300372861494,0.2,0.7612410003617207,-0.06867371039569192,0.2,0.06581136874312879,0.17289357990743925,0.2,1,C153B3
2.160576153640971,0.5632547671305879,0.4578541063188571,0.2,-0.5647092966503872,-0.074319830479605,0.2,-0.7575456931310927,-0.16457643601099775,0.2832,-0.2339158513896399,0.6374039351907199,0.2,0.7613561610581612,-0.38791675814076054,0.2,0.06476627370292351,0.3093158791301793,0.2,1,C153B3
2.1685782875433453,0.568681736131946,0.7498399426887972,0.2,-0.5670831927726147,-0.6826155992881652,0.2,-0.7599291106995689,-0.19103690492962982,0.2836,-0.2294407800322524,0.48158544302474154,0.2,0.7550343322314685,-0.5161345117940183,0.2,0.07076042280921166,0.33296717449982344,0.2,1,C153B3
2.176580421445719,0.5752522062136086,0.5180535945433564,0.2,-0.5756311462389978,-0.8367279101632874,0.2,-0.7606022836099667,0.5030640600820826,0.284,-0.22621048430124405,0.4755488386520793,0.2,0.7530980088694569,-0.01888483064926144,0.2,0.07009374849492069,0.5391496631886976,0.2,1,C153B3
2.184582555348093,0.5769705936446397,0.19320234625844201,0.2,-0.5804708393352273,-0.40966046115148425,0.2,-0.7518800857382556,0.7374420381113106,0.2844,-0.22183199861381914,0.4615519309534039,0.2,0.7547321749410804,0.009788955734543747,0.2,0.07938681742023082,0.7529273987180556,0.2,1,C153B3
2.192584689250467,0.5783434437537437,0.32314301184856176,0.2,-0.5821857136174216,0.02106308175583299,0.2,-0.7488032110001858,0.3871206016655415,0.2848,-0.21882565340598958,0.34466194842261955,0.2,0.7532546321612096,-0.32836471518201543,0.2,0.08214058687440957,0.10404589173372471,0.2,1,C153B3
2.200586823152841,0.5821408818342166,0.5370911203802577,0.2,-0.5801338300271339,-0.3539133376968817,0.2,-0.7456861561116069,0.030609264174689954,0.2852,-0.21631740743905722,0.43189769335344985,0.2,0.7494783394981681,-0.35972520831355215,0.2,0.08105155168797042,0.17296266964006174,0.2,1,C153B3
2.208588957055215,0.5869369016798278,0.6309249197823593,0.2,-0.5878483270205717,-0.6375708044817282,0.2,-0.7483134627733907,0.12561617176196083,0.2856,-0.2119152903123344,0.1804826584570259,0.2,0.7474990288281927,-0.2600809191654896,0.2,0.08490798958865056,0.5369226037993052,0.2,1,C153B3
2.2165910909575888,0.5922356805507344,0.3967404328865526,0.2,-0.5903349628988416,-0.337412277777345,0.2,-0.7436762973634156,0.19415649165162308,0.286,-0.2134296849037448,0.36827392953711796,0.2,0.7453170447915203,-0.13479161627428377,0.2,0.0896423133487593,0.5731118410977516,0.2,1,C153B3
2.2245932248599627,0.5932847486060127,0.5629471301693347,0.2,-0.5932469234650092,-0.44946225729787515,0.2,-0.7452069589069648,0.12339635516979419,0.2864,-0.2060229074397405,0.6354401349276377,0.2,0.7453423629678042,-0.21027862531145664,0.2,0.09407777904621459,0.5862044441822126,0.2,1,C153B3
2.2325953587623366,0.6012428346334437,0.518607975433516,0.2,-0.5975263590156076,-0.46974674615780226,0.2,-0.7417019556806989,0.2490998048880269,0.2868,-0.2032626427449026,0.4276157420841954,0.2,0.741952586786537,-0.2806184139766549,0.2,0.0990215844556747,0.30674430670895453,0.2,1,C153B3
2.240597492664711,0.6015824762129489,0.22155692891241696,0.2,-0.600762871403534,-0.3265238959626257,0.2,-0.7412213620287563,0.3686907174411877,0.2872,-0.19918105556639337,0.4344729764634448,0.2,0.7408524683441777,-0.1155801994707148,0.2,0.09898568795355786,0.13949586852499488,0.2,1,C153B3
2.248599626567085,0.6047877454960424,0.23861477499077105,0.2,-0.6027507413510096,-0.40347325863131916,0.2,-0.7358029042016399,0.49693313217359647,0.2876,-0.1963110751214875,0.3578399171431362,0.2,0.7401033035950055,-0.2795128355353588,0.2,0.10125351835207462,0.43401520306856917,0.2,1,C153B3
2.256601760469459,0.6054003126128013,0.3488416897017427,0.2,-0.6072184435416351,-0.7565668736184139,0.2,-0.7332704319139788,0.08056923692083967,0.288,-0.1934556168921032,0.5030174281244939,0.2,0.736380262975612,-0.20171542517015417,0.2,0.10592993120265497,0.6128119719640236,0.2,1,C153B3
2.2646038943718327,0.6103692125312703,0.36997342972127506,0.2,-0.6148558113289042,-0.5080387343542394,0.2,-0.7345137964109064,-0.11331214905355852,0.2884,-0.18826279627149559,0.6920211602728584,0.2,0.7368758567922831,-0.14727079366712303,0.2,0.111058509903499,0.42876261902052587,0.2,1,C153B3
2.2726060282742067,0.6113198874883417,0.4741262181150313,0.2,-0.615347063291303,-0.06797729589548551,0.2,-0.7350834262988357,0.3735918898840479,0.2888,-0.18238327832773746,0.3990826805043823,0.2,0.734023930276938,-0.34088875262172635,0.2,0.11279013310698338,0.23176637046468973,0.2,1,C153B3
2.2806081621765806,0.6179552320211108,0.6350335290943795,0.2,-0.615943448063232,-0.35939136128117916,0.2,-0.7285363261727617,0.4233685126416309,0.2892,-0.18187747338342547,0.20019656100040034,0.2,0.7314216367503354,-0.30620481461444277,0.2,0.11476677183093403,0.3049728878994837,0.2,1,C153B3
2.2886102960789545,0.6214804239538517,0.38098932900852006,0.2,-0.6210973250718018,-0.6451760580697476,0.2,-0.7283095300965696,0.12255963208326198,0.2896,-0.17918013335173105,0.4193785866800654,0.2,0.7291246532431069,-0.2604757054262344,0.2,0.11766969931337512,0.6373674867437128,0.2,1,C153B3
2.2966124299813284,0.6240510612852471,0.30243841317847964,0.2,-0.6262662649923479,-0.43578439524991075,0.2,-0.7265753720594295,-0.023258847428993257,0.29,-0.17516741599654442,0.3268162486324208,0.2,0.7272540254635157,-0.3457375704957813,0.2,0.12496465161883344,0.6729551276934905,0.2,1,C153B3
2.3046145638837023,0.6263194385647074,0.6476226063575341,0.2,-0.6280698753958004,-0.31800264832407277,0.2,-0.7286816716554335,0.29903320973802966,0.2904,-0.17395107337361232,0.27803033991838016,0.2,0.7235928521151744,-0.41512659940901725,0.2,0.12843698135647097,0.3526434484758568,0.2,1,C153B3
2.3126166977860763,0.6344130229869677,0.5350701784178208,0.2,-0.6313543073655331,-0.2915152074018032,0.2,-0.721790840703621,0.6022318738419588,0.2908,-0.17071893055785034,0.38790996168741426,0.2,0.7206119998729714,-0.3331771563478969,0.2,0.13060694679444715,0.3743847677449251,0.2,1,C153B3
2.3206188316884506,0.6348805614193925,0.1847869363636595,0.2,-0.6327341187142292,-0.45658116904878643,0.2,-0.7190459616739622,0.26105168100337,0.2912,-0.1677445139866137,0.4038819717193526,0.2,0.7182620176136081,0.04144820973811525,0.2,0.13442713764038977,0.5739836100836695,0.2,1,C153B3
2.3286209655908245,0.6373696139687862,0.3771232862689877,0.2,-0.6386596060703137,-0.41202409547897584,0.2,-0.7176140138075671,0.16536635016424495,0.2916,-0.1642568190103407,0.5780653673849827,0.2,0.7212751712287813,-0.26561626373054065,0.2,0.13979068455578586,0.18048864902261985,0.2,1,C153B3
2.3366230994931985,0.6409145339996963,0.2594664386452797,0.2,-0.6393265042418929,-0.40342377418117054,0.2,-0.7164001000713343,0.17247309153854695,0.292,-0.15849546810845397,0.4696816484106199,0.2,0.7140121573939194,-0.5272615302679486,0.2,0.1373149560247517,0.12422164544551549,0.2,1,C153B3
2.3446252333955724,0.6415210769871107,0.3719818577192849,0.2,-0.6451143864572124,-0.46401388493275825,0.2,-0.7148544443429503,0.26918509149315845,0.2924,-0.15674191263577078,0.6143242427833953,0.2,0.7128389867444941,0.1033718364590111,0.2,0.1417782308829141,0.6513502022977273,0.2,1,C153B3
2.3526273672979463,0.6468662437232049,0.6449701622815995,0.2,-0.646750726400817,-0.20284024330046585,0.2,-0.7120931386074437,0.34384320974330945,0.2928,-0.14866628022391964,0.2878222628834564,0.2,0.7156661067772636,-0.2900567383782235,0.2,0.14773655926151533,0.48273303320079536,0.2,1,C153B3
2.3606295012003202,0.6518405995836163,0.48001216087950604,0.2,-0.6483598303500199,-0.4372694254355866,0.2,-0.7093529529870574,0.4477584726714015,0.2932,-0.15213675642963548,0.2452407780738526,0.2,0.7081980789304425,-0.48053509696933255,0.2,0.14950195941412683,0.33547493819065244,0.2,1,C153B3
2.368631635102694,0.654546438297277,0.19249229019964453,0.2,-0.6537470372077864,-0.6826948166493291,0.2,-0.7049290030447013,0.2934951331464014,0.2936,-0.144742427774738,0.6346182016121922,0.2,0.7079775452257543,-0.032923029088312294,0.2,0.15310415827256577,0.33758318205005106,0.2,1,C153B3
2.376633769005068,0.6549204762268106,0.46883258936338684,0.2,-0.6592829474164091,-0.2917737316234584,0.2,-0.7046570308567149,0.21937062755297138,0.294,-0.1419828652038404,0.23845203770217482,0.2,0.7076713104650295,-0.47198326581459477,0.2,0.15490329032692765,0.6835666800776192,0.2,1,C153B3
2.384635902907442,0.6620477597270912,0.429705349702561,0.2,-0.6584154169137617,-0.29176447509861314,0.2,-0.7014190730038538,0.16978044068174936,0.2944,-0.1409271951715032,0.5229301276319949,0.2,0.7004258129727208,-0.5199075805826375,0.2,0.16404122515380767,0.5453609561353098,0.2,1,C153B3
2.3926380368098163,0.6617957618220516,0.17666925578341264,0.2,-0.663951179017987,-0.7054370758315803,0.2,-0.701940543805807,0.06002880232631319,0.2948,-0.13361598316172849,0.6292907842583156,0.2,0.6993527891757073,-0.12177036570946292,0.2,0.1636290656250926,0.10698017262807287,0.2,1,C153B3
2.4006401707121903,0.6648744678196258,0.745064037429223,0.2,-0.669702410127067,-0.3619343119780627,0.2,-0.7004586121666327,0.48382114322541997,0.2952,-0.13085854262337016,0.13085036285876567,0.2,0.6984774871213694,-0.16587002931232886,0.2,0.16575290791585684,0.4604200325161612,0.2,1,C153B3
2.408642304614564,0.6737167864209191,0.6018836499792831,0.2,-0.669742128009636,-0.17260652572965995,0.2,-0.6941994055142002,0.3196452910470757,0.29560000000000003,-0.13152237735598823,0.04411506498826559,0.2,0.69669886870671,-0.10155051775121576,0.2,0.1709957861453512,0.4480126182362185,0.2,1,C153B3
2.416644438516938,0.6745046062192943,0.22320699063896332,0.2,-0.6724641145387416,-0.3500410770754178,0.2,-0.6953442875098795,0.008357312159354424,0.296,-0.1301527015835579,0.42937288219735587,0.2,0.6968526788373499,-0.10081964244584851,0.2,0.17292110980763634,0.5781642160299864,0.2,1,C153B3
2.424646572419312,0.6772880982711426,0.33550843093072685,0.2,-0.6753427852428426,-0.7184532614516389,0.2,-0.6940656885196506,0.419846972288751,0.2964,-0.12465241124083054,0.5197293037643592,0.2,0.6950857544275765,-0.11269243676321344,0.2,0.18024641360183097,0.6473066450272507,0.2,1,C153B3
2.432648706321686,0.6798727411141859,0.39822963218259094,0.2,-0.6839593667219678,-0.7110167866683017,0.2,-0.6886267359532595,0.17416687336607728,0.2968,-0.12183703272332816,0.5034721890342774,0.2,0.6950495998491385,-0.37378078130869546,0.2,0.18327801612807235,0.15527258755706172,0.2,1,C153B3
2.44065084022406,0.683659772386064,0.24719131653242604,0.2,-0.6867190538295355,-0.13184782331578798,0.2,-0.6912790185457933,0.04804560246191025,0.2972,-0.1165968562162821,0.632076134548699,0.2,0.6891052619266373,-0.4346152133975212,0.2,0.18273077500274396,0.25854821828873686,0.2,1,C153B3
2.448652974126434,0.6838278021787048,0.2719340554486957,0.2,-0.6860689318950204,-0.24700593647405955,0.2,-0.687858006313869,0.18541347931336216,0.29760000000000003,-0.11172381457054897,0.39005646408312755,0.2,0.6880957564347782,0.04293484939725534,0.2,0.18741478762069214,0.5198186402847835,0.2,1,C153B3
2.4566551080288077,0.6880107172732431,0.7270901507278812,0.2,-0.6906711488131204,-0.4980702358322042,0.2,-0.6883124028767795,0.20094362729829174,0.298,-0.11035595279095206,0.48154371377857713,0.2,0.6897922195169934,-0.3115913181471752,0.2,0.1910478732473005,0.34704356108729467,0.2,1,C153B3
2.4646572419311816,0.6954612445903509,0.3431597621309443,0.2,-0.6940380556683357,-0.4176277224202593,0.2,-0.6846429082770963,0.357396404680424,0.2984,-0.10401911515009174,0.3549573004174968,0.2,0.6831102953444234,-0.4790174871361422,0.2,0.19296748459808885,0.2954430594949067,0.2,1,C153B3
2.472659375833556,0.6935012734673383,0.261485983667549,0.2,-0.6973531923718446,-0.27642399738259105,0.2,-0.6825940604018927,0.28622114626528083,0.2988,-0.10467663598427211,0.15436200605000155,0.2,0.6821279397228152,0.02304539560125246,0.2,0.195774962199219,0.2612687138026787,0.2,1,C153B3
2.48066150973593,0.6996450203290316,0.778034383538316,0.2,-0.6984608396264571,-0.3320246801828339,0.2,-0.6800633699368518,0.147280619202092,0.2992,-0.10154932305329172,0.41596647461966413,0.2,0.6834790216740434,-0.3190546478699652,0.2,0.1971477840189317,0.9103776399803417,0.2,1,C153B3
2.488663643638304,0.7059498236039513,0.5000618352698077,0.2,-0.7026655872547699,-0.5238117492675637,0.2,-0.6802375704946593,0.1465899383172667,0.29960000000000003,-0.09802117239035749,0.5952066837864373,0.2,0.6770230653568957,-0.34254981823270136,0.2,0.21034100443890447,0.567548453362229,0.2,1,C153B3
2.4966657775406778,0.7076460096933486,0.331536744497013,0.2,-0.7068418276147381,-0.7318966753401059,0.2,-0.6777179309237755,0.318973871936086,0.30000000000000004,-0.09202601611270872,0.6998162197287827,0.2,0.6779982245823202,-0.40134358755763294,0.2,0.20622855927272737,0.26428389741237934,0.2,1,C153B3
2.5046679114430517,0.7112544115159035,0.386256320347618,0.2,-0.7143759340602116,-0.4598117795305695,0.2,-0.6751339885436819,0.41114297966561575,0.3004,-0.08682411287469696,0.3866300039395863,0.2,0.6706015679559736,-0.2950633486433554,0.2,0.21456954679750254,0.25898466690440003,0.2,1,C153B3
2.5126700453454256,0.7138261108189105,0.17802617120065561,0.2,-0.7141988160872272,0.04706054372908414,0.2,-0.6711396432491257,0.37451210504029636,0.3008,-0.08583993604967534,0.2933088795615971,0.2,0.6732772110040265,-0.08730110966972959,0.2,0.21037231394319778,0.06860113850944323,0.2,1,C153B3
2.5206721792477995,0.714102830255114,0.4559619073540161,0.2,-0.7136229653605463,-0.2486226494501989,0.2,-0.6691417948630372,0.3085951423506053,0.3012,-0.08213117080171141,0.39022176139603004,0.2,0.6692047502012579,-0.11992207654795001,0.2,0.21566716501365363,0.5852646762770676,0.2,1,C153B3
2.5286743131501734,0.7211215013365747,0.7944379807481929,0.2,-0.7181767784784304,-0.4332708886638989,0.2,-0.666202120971516,0.2342283617563501,0.30160000000000003,-0.07959638786733886,0.3408925071068866,0.2,0.6713584577792593,-0.2006284001715153,0.2,0.21973654876363086,0.7283413900362156,0.2,1,C153B3
2.5366764470525474,0.7268138379470851,0.3324772369339493,0.2,-0.7205552995791686,-0.5014200607177457,0.2,-0.6653941410749356,0.07662501307729302,0.30200000000000005,-0.07667689068800122,0.3780133044942362,0.2,0.6659946957985137,-0.6601252768059159,0.2,0.22732062725423308,0.5642259473806008,0.2,1,C153B3
2.5446785809549217,0.7264411371275179,0.22688827920206572,0.2,-0.7261994994499144,-0.5070760936539894,0.2,-0.6649761207622793,0.01659143280110381,0.3024,-0.07354817499543108,0.2889847877201538,0.2,0.6607964533503646,-0.2584949324756225,0.2,0.22876416392172047,0.08811871428982508,0.2,1,C153B3
2.5526807148572956,0.7304440504143181,0.3183183455301303,0.2,-0.7286685170776325,-0.32487601948025246,0.2,-0.6651286781501179,0.22594273265352793,0.3028,-0.07205313408447876,0.41407803004578186,0.2,0.6618587768789037,0.1605159819449628,0.2,0.22873052668287028,0.3125833319691362,0.2,1,C153B3
2.5606828487596696,0.731534230656,0.33915757302879074,0.2,-0.7313975157615984,-0.5176955544059642,0.2,-0.6613610370398229,0.3525536630419879,0.3032,-0.06692292651469857,0.6012499498781019,0.2,0.663364709061484,-0.4126465855328193,0.2,0.23376549723322665,0.5100982212932134,0.2,1,C153B3
2.5686849826620435,0.7358705715827788,0.7475849625331599,0.2,-0.7369516459481279,-0.19940988652537156,0.2,-0.6594878195414461,0.2952481810417282,0.30360000000000004,-0.06243313488642913,0.4038172708411979,0.2,0.6552564315103786,-0.6031189798267541,0.2,0.2368920982235617,0.569822196839518,0.2,1,C153B3
2.5766871165644174,0.7434955900565305,0.4903117874296842,0.2,-0.7345880739460043,-0.19942640855732247,0.2,-0.6566370661431552,0.28972404253631984,0.30400000000000005,-0.0604618501812394,0.2676982029111074,0.2,0.653714805384256,0.1493561485614997,0.2,0.24288265238265894,0.3473751192526117,0.2,1,C153B3
2.5846892504667913,0.7437155601816537,0.28568099344656456,0.2,-0.7401424684850451,-0.8381548951176889,0.2,-0.654852234860865,0.400142025784464,0.3044,-0.058149963639851414,0.2162392179057182,0.2,0.6576461298873626,-0.13594129978983238,0.2,0.24245010013160348,-0.01254621384143978,0.2,1,C153B3
2.5926913843691652,0.7480664859516756,0.4102048917156778,0.2,-0.7479985522678874,-0.4251085212187908,0.2,-0.6502347937306038,0.25664721278302605,0.3048,-0.05700202269474791,0.5520351643900846,0.2,0.6515397445876187,-0.45010258208909304,0.2,0.2426819129611959,0.3984642589624741,0.2,1,C153B3
2.600693518271539,0.7502788384491046,0.08725569295077451,0.2,-0.7469442048245457,-0.28033092808089216,0.2,-0.6507458794563366,0.17513365511086232,0.3052,-0.04931740100961006,0.5488017848046832,0.2,0.6504444885739371,-0.28164545817147696,0.2,0.24882552827500307,0.9840697074383169,0.2,1,C153B3
2.608695652173913,0.749462577038888,0.3676376917639765,0.2,-0.7524838471171816,-0.9520330502525917,0.2,-0.64743265524883,0.3283525374272317,0.30560000000000004,-0.04822119413787298,0.38764020392975185,0.2,0.647033417256875,-0.10638840242489095,0.2,0.25842702828020897,0.536354726905915,0.2,1,C153B3
2.616697786076287,0.7561610415173282,0.6939971533529778,0.2,-0.7621767336285872,-0.742315771744162,0.2,-0.6454922388575008,0.027815512256314234,0.30600000000000005,-0.04311515774673403,0.5638921127879889,0.2,0.6487422741351389,0.14237843478862727,0.2,0.2574072039054977,-0.01150847109178052,0.2,1,C153B3
2.6246999199786614,0.7605665314925356,0.5110312133644879,0.2,-0.7643608994650882,0.045285198608156774,0.2,-0.646987607052729,0.21844113778984875,0.3064,-0.03919892033326516,0.4380391278481612,0.2,0.6493114722134931,-0.36332191189729357,0.2,0.2582428927427405,0.22943614887162983,0.2,1,C153B3
2.6327020538810353,0.76433754093116,0.21820680093681544,0.2,-0.7614521704508567,-0.1588417965545097,0.2,-0.6419971806528633,0.513001773777208,0.3068,-0.03610653170116345,0.42374348554351887,0.2,0.6429291235447822,-0.6694887095995972,0.2,0.2610781822874438,0.4431071454226304,0.2,1,C153B3
2.640704187783409,0.7640578403075247,0.35061856757032106,0.2,-0.7669023682099604,-0.7909765839843874,0.2,-0.6387795786722936,0.19844057570671952,0.30720000000000003,-0.032419024564568855,0.618019559035554,0.2,0.6385996528598995,-0.23075909746436002,0.2,0.26533260706950257,0.5596890547143081,0.2,1,C153B3
2.648706321685783,0.7699474380122852,0.6127162672416655,0.2,-0.7741077957946069,-0.3921745567689594,0.2,-0.6388221314415558,0.28354803316139876,0.30760000000000004,-0.026218218756594587,0.5543411465855617,0.2,0.6392369779853524,0.006092383061900852,0.2,0.2700332071628727,0.5433870315754221,0.2,1,C153B3
2.656708455588157,0.7738613005833913,0.2909187679589198,0.2,-0.7731771611182637,-0.2629851249003404,0.2,-0.6342428101417112,0.31296633353588427,0.30800000000000005,-0.023549566219199868,0.14306708326381204,0.2,0.6386971309888899,-0.2885640069070286,0.2,0.2740267995747093,0.4574200372515456,0.2,1,C153B3
2.664710589490531,0.7746021382996279,0.3289546329952181,0.2,-0.7783155577930123,-0.5067272447544166,0.2,-0.6338146701049816,0.1157967091836784,0.3084,-0.023929145424373594,0.3156437037662939,0.2,0.6346199538748399,-0.27231795319130475,0.2,0.27735192775889744,0.41587116556972625,0.2,1,C153B3
