samirx20/RADAR/data/datasets/overcurrent_j2_30.csv
timestamp,actual_q_0,actual_qd_0,actual_current_0,actual_q_1,actual_qd_1,actual_current_1,actual_q_2,actual_qd_2,actual_current_2,actual_q_3,actual_qd_3,actual_current_3,actual_q_4,actual_qd_4,actual_current_4,actual_q_5,actual_qd_5,actual_current_5,protective_stop,fault_code
0.0,0.2984960313944144,0.42129017028696286,0.5001842736277066,-0.7997067930009356,0.8358112976595139,0.5,-1.2010078642610247,0.8787462602949658,0.6341580666497928,-0.4992254981079076,1.1053003470729432,0.5,0.8013148660335395,-0.059180404818046095,0.5,-0.0014060364495937288,0.07056251874528684,0.5,0,
0.008002133902373967,0.3018663527567101,0.640009563345395,0.5,-0.7930203026196595,0.9039783634895229,0.5681982727070414,-1.193977894178665,1.2408164606428211,0.5090909092360006,-0.49038309533132407,0.5544788127422595,0.5,0.8008414227949952,-0.10936086223514718,0.5,-0.0008415362996314341,0.16942749728952744,0.5,0,
0.016004267804747934,0.3087361844079407,0.7573327623911982,0.5,-0.7852431391851032,0.8266499914567973,0.6745931906438325,-1.1811548008907395,1.010247226589142,0.5,-0.49035383710403146,0.004161002999575336,0.5,0.7995650922377772,-0.032494206272958015,0.5,0.0013048035070387103,0.11795942574789538,0.5,0,
0.0240064017071219,0.31398367695496926,0.6684180043041096,0.5,-0.7797939027563507,0.6933160507041555,0.5,-1.1778139385532387,0.8443102150905157,0.7229158472242324,-0.49031651928333086,0.4813244216311553,0.5,0.8003215154946278,-0.026634151634154224,0.5,0.0010458145123348921,-0.07472405224770526,0.5,0,
0.03200853560949587,0.31943087247680646,0.4402644085547309,0.7179378877136382,-0.7741500823738368,0.6767342251287819,0.5,-1.1676458374492913,1.3316234393567354,0.5,-0.482652646357933,0.8223752491353999,0.5,0.7991389458116307,0.16679067829929867,0.5,0.00010921867107542611,-0.08788129660640685,0.5,0,
0.04001066951186984,0.32102790749184495,0.10613861750497292,0.7578734007544286,-0.7689661551542902,0.6532497485454841,0.8951650196892104,-1.156507963523531,1.1682682474634665,0.5,-0.47715851529716446,0.3473523527198555,0.5,0.8029901663474166,0.13776615779034773,0.5,-0.0003602862333676175,0.01432309500728026,0.5,0,
0.0480128034142438,0.321129090356886,0.5224936429096029,0.5,-0.763698086397109,0.8370765626307882,0.7246795821702329,-1.1489535454898758,1.044242231558981,0.5,-0.4770950087144153,0.2228505575930101,0.5,0.8013432043362763,-0.10665287785791705,0.5,0.0003383881911919103,0.1804431680697141,0.5,0,
0.05601493731661777,0.3293878057783986,0.6002017669619574,0.5,-0.7555729301521976,0.9640509066711419,0.6721506739725647,-1.1398000878185872,0.9617760952806836,0.5,-0.4735929063756763,0.5814723105596435,0.5,0.8012837203016899,-0.08377313181531787,0.5,0.0025268044557478085,0.16799535138978974,0.5,0,
0.06401707121899174,0.33073231862827734,0.6036908191181279,0.5,-0.7482732718903707,0.8735966596183988,0.5,-1.1335651279653849,0.8560719297118075,0.5,-0.467791451745461,0.6890857964155783,0.5,0.8000028342272312,0.14767378634753664,0.5,0.003026313813428546,-0.19994182148998038,0.5,0,
0.0720192051213657,0.33904685888428865,0.4629779491868852,0.5,-0.7415953835983032,0.8321148211917206,1.3316101144468062,-1.1261029369431983,1.0325391173311298,0.5,-0.46256753363302705,0.7687735441446221,0.5,0.8036465008832505,-0.06999322658601814,0.5,-0.0006722646880918776,-0.3197957060499701,0.5,0,
0.08002133902373967,0.3381399658152675,0.38979289310586,0.7914209135358571,-0.7349594347513032,0.5520703164737031,0.5,-1.1170445020880868,1.0642433924694799,0.5,-0.45549107503914704,0.35151942661240665,0.5,0.7988829426018549,-0.3372311740486994,0.5,-0.0020904174833709763,-0.018005288038290282,0.5,0,
0.08802347292611364,0.3452835451739824,0.7674249430339487,0.5258816494245513,-0.732762258534724,0.5782923520251532,0.7254354530232434,-1.1090750426636866,1.2336345836772427,0.6280759180097332,-0.45694322280722854,0.376977341250008,0.5,0.7982508020984713,0.2662286919596288,0.5,-0.0009603492967045222,0.3563903480723938,0.5,0,
0.0960256068284876,0.3504187649038107,0.5128493143040959,0.5,-0.7257067571189008,0.701993983689933,0.5034947328187754,-1.097306348749251,0.9083865741675995,0.5882576694300414,-0.4494594375791469,0.7515289476497516,0.5,0.803142601673209,0.1693091574325456,0.5,0.0036118280857873235,0.15635860386927494,0.5,0,
0.10402774073086157,0.35348913420284794,0.3791646222589609,0.5257110315152812,-0.7215303547956851,0.7718260818113526,1.3906025876175245,-1.094540857477005,0.6103306554126331,0.7591266761280069,-0.4449187596448325,0.4244054987058883,0.5,0.800959748617392,-0.13625646777023354,0.5,0.0015413883652038768,-0.22211014551166663,0.5,0,
0.11202987463323553,0.35648539885995406,0.6548389015724673,0.5,-0.7133575398099191,1.0565539342743402,1.489174556156803,-1.0875410582626488,1.155521159209888,0.5,-0.4426689495998527,0.24547420500907816,0.5,0.8009624981888852,-0.10386647353007733,0.5,5.806575760065749e-05,-0.160918321832142,0.5,0,
0.12003200853560951,0.3639665566280074,0.6312621361047078,0.60245878411916,-0.7046254918472956,0.7608363791252459,0.5,-1.0760525189296468,1.2135863769103805,0.5842056291469216,-0.44099117236468727,0.47917468981011413,0.5,0.7992978850409108,-0.09816601824733096,0.5,-0.0010333047841103956,-0.003541826324607534,0.5,0,
0.12803414243798347,0.3665855930376294,0.38185330116615246,0.5,-0.7011841577439152,0.8074066861735313,0.5,-1.0681236762320827,0.8670926321069916,0.5,-0.4350021545628909,0.8612384049796578,0.5,0.7993918418969279,-0.16930749437789328,0.5,1.3965364069369432e-06,0.2028846281496768,0.5,0,
0.13603627634035745,0.37007620944666586,0.378413068276226,0.5,-0.6917069848685191,0.7645724031724518,0.7273465454140501,-1.062179036815935,0.7831209558435553,0.5,-0.42721135788501274,0.5695182130528234,0.5,0.7965889651308645,-0.039112585256170784,0.5,0.0022128492662844335,0.05875619218248451,0.5,0,
0.1440384102427314,0.372640202130049,0.20843170100642502,0.5171385551300054,-0.688950999293156,0.6277164517964756,0.5,-1.0555937409385858,1.0378621583810725,0.5,-0.4258898631540457,0.27958910810968113,0.5,0.7987660405328292,0.17528677919998598,0.5,0.0009414956113266891,-0.18364230014910812,0.5,0,
0.15204054414510537,0.37341111666276866,0.43998298717009415,0.5113065601254012,-0.6816635216397755,0.5858090872564239,0.6845006619360454,-1.0455732422818378,1.2418042796557838,0.5275652983625656,-0.42273793215525785,0.4000839929008924,0.5,0.7993935535980643,0.19901247621215146,0.5,-0.0007254275361012964,-0.10585382698320824,0.5,0,
0.16004267804747935,0.3796799299247705,0.7011213866040221,0.5,-0.6795780538970532,0.7083539533800295,0.5,-1.0357248724640933,1.019154042175327,0.5,-0.4194885192676314,0.6354150132556954,0.5,0.8019502401522236,-0.008821045438769937,0.5,-0.0007521656204046427,0.09447943902012916,0.5,0,
0.1680448119498533,0.384629058848433,0.8094530855748162,0.5998488969329834,-0.670329858385695,0.7055518387912088,0.8796527385046152,-1.0292667776070326,0.9861007466868826,0.5,-0.4125712919431667,0.56864440734921,0.5,0.799252416871044,-0.2664588189444858,0.5,0.0007862434882207701,-0.0009131146061434395,0.5,0,
0.17604694585222727,0.39263117929396757,0.5926671597996369,1.0500292963999986,-0.6682892244763938,0.5260361257092352,0.5,-1.0199472605171032,0.8291439275357887,0.5,-0.41039020875004406,0.29683537837973256,0.5,0.7976868990491118,-0.008688500754187867,0.5,-0.0007667754541029377,0.09324892733513732,0.5,0,
0.18404907975460125,0.3941117334052272,0.02184758041848256,1.0444820559960606,-0.6619132803743473,0.5752655806482084,1.6371393654258277,-1.01600047476646,0.7091781545214421,0.5,-0.407821925889091,0.5068971391748583,0.5,0.799113400858977,0.23058929972729486,0.5,0.0022782263255829672,0.0038661835591333473,0.5,0,
0.1920512136569752,0.3929807405806633,0.5565038820431952,0.5,-0.6590849751860225,0.9451121804232437,0.5,-1.00860041004476,0.5839700184276653,0.5,-0.4022798545232463,0.37273631922311173,0.5,0.8013763278447485,-0.045531951120364456,0.5,-0.0007049165171568041,0.1491263320783342,0.5,0,
0.20005334755934917,0.40301579551791833,0.5229384672021248,0.8061196967850539,-0.6467914854875754,1.0234917230905125,2.9875567745027176,-1.0066569544716173,0.7258757925612466,0.8697809809153464,-0.4018581447815212,0.422640566761584,0.5,0.7983848896410511,-0.10621147329469699,0.5,0.004664247638836314,0.01853677456920218,0.5,0,
0.20805548146172315,0.4013477560558973,0.16305021833787,0.8125580092512689,-0.6427091076165743,0.3636822884721738,1.4980948542015748,-0.9969863973637801,1.3139844049934317,0.6288649372513757,-0.395517605455061,0.6425116903225059,0.5,0.7996769442720334,0.12666359116849518,0.5,-0.00040832812404956924,-0.32850761095225167,0.5,0,
0.21605761536409712,0.40562459901132425,0.535664895632941,0.5,-0.6409725688720206,0.6779898414370211,1.1026879409632362,-0.9856332039917224,1.0129140180361456,0.5,-0.3915779577363611,0.3002751572753377,0.5,0.8004115070997471,0.03380033469851246,0.5,-0.000591874136399713,0.079985837685394,0.5,0,
0.22405974926647107,0.40991839438602434,0.6995440392409159,0.5,-0.631861270153582,0.8976832443732055,0.9934160927310223,-0.9807797730752018,0.9369215493058025,0.5,-0.3907132029386556,0.3653826405382622,0.5,0.8002177496272096,0.058020915197243284,0.5,0.0008714452789167346,-0.057643535850942236,0.5,0,
0.23206188316884505,0.4168173036391789,0.5373900149695243,0.6332773610026328,-0.6266096369620493,0.6765351600555233,1.1679593681134388,-0.9706424592028295,0.8898627509311419,0.5,-0.3857318354877489,0.7677524534186776,0.5,0.801339841742903,0.011541331726316884,0.5,-0.0015141707100147887,-0.08047446146052124,0.5,0,
0.24006401707121902,0.41851663462553673,0.18917302651084295,0.5,-0.6210367075926936,0.4346288199007023,0.5,-0.9665419690603035,0.897306781152532,0.5,-0.37842916368395674,0.4886239605184223,0.5,0.8004024109348307,-0.11132692957933205,0.5,-0.0004161461044516053,0.06794506090839442,0.5,0,
0.24806615097359297,0.4198440720633524,0.3629863017721724,0.5,-0.6196555758436381,0.4583153767845488,0.5,-0.956285550704389,0.728100723383078,0.5,-0.37791385211945416,0.24547678108438956,0.5,0.7995586108696336,0.003932090792385656,0.5,-0.00042704973548047804,-0.024040657497969284,0.5,0,
0.25606828487596694,0.4243244154538915,0.41995774722424284,0.5,-0.6137036615641408,0.5210969881535923,0.5,-0.9548923574861743,0.41868959315621845,0.952692480758539,-0.3745015351866065,0.45491551428683896,0.5,0.8004653243875088,-0.1857881700160699,0.5,-0.0008007966244191138,-0.06507824714343172,0.5,0,
0.2640704187783409,0.4265633960189403,0.41055449025068425,0.5,-0.6113180240331806,0.4768795339964091,1.7311867786245974,-0.9495865172138895,1.1700968018925617,0.5845237459529844,-0.37063520389086474,0.33042144833052983,0.5,0.7965860001493765,-0.18064068051462656,0.5,-0.0014683016897753854,-0.18188804915384701,0.5,0,
0.2720725526807149,0.43089328729790244,0.41791468932578235,0.5,-0.6060735890201983,0.8366473066795527,0.5,-0.9361708086558933,0.8271913402509296,0.5,-0.369214792013318,0.322191704624393,0.5,0.7975750734992748,0.1189568785208428,0.5,-0.003711005410880666,0.07353310494873899,0.5,0,
0.28007468658308887,0.4332500310481528,0.32709629244525446,0.5,-0.5979316671263077,0.8583319295404137,2.095311439490748,-0.9363514557698747,0.7709532421258103,0.5472109455275171,-0.36548013661687445,0.33662916046502467,0.5,0.79848931020571,0.12663373962092106,0.5,-0.0002917720105955616,0.247622890684391,0.5,0,
0.2880768204854628,0.4361268279770265,0.3317500101146578,0.5,-0.5923402781475516,0.3985188452402047,0.5,-0.9238355567818803,1.1116325051839862,0.522988914863706,-0.36382872544587763,0.29390236409993636,0.5,0.7996012133332095,0.3204623067981846,0.5,0.00025096084006958984,0.14230316191807219,0.5,0,
0.29607895438783677,0.4385580312099873,0.46665269638702583,0.5,-0.5915553656024645,0.4337115555767129,0.6284810122658309,-0.9185653356869309,0.8463158018301442,1.5,-0.36077769879127547,0.3161647240981606,0.5,0.803616707114481,-0.11866501849382843,0.5,0.0019850785800935933,-0.16267150218152462,0.5,1,C153B3
0.30408108829021074,0.4435932711192189,0.35944555691399743,0.5,-0.5854008932583242,0.5463733460901523,0.7663169746383132,-0.910294503952598,0.6662665503036832,1.5,-0.35877008986030706,0.29891164576429163,0.5,0.7977025730373083,-0.08754122808984216,0.5,-0.002351783194834804,-0.29706760434313123,0.5,1,C153B3
0.3120832221925847,0.4443091601206113,0.15407970600239337,0.5270900105692067,-0.582813392065022,0.42380332464713594,1.5993405846121815,-0.907905070882072,0.38467182155454277,1.5,-0.3559951124590468,0.5176967456130623,0.5,0.8022160474650435,0.15284017065227834,0.5,-0.002768003089396507,0.16262346516502574,0.5,1,C153B3
0.3200853560949587,0.4460585464152572,0.41883820491188384,0.5,-0.57862004006397,0.7693345880724206,1.0736404528778802,-0.9041397548077253,0.5498770164300073,1.5,-0.35048694193049806,0.44851072738581743,0.5,0.8001480157677447,-0.15690870236872295,0.5,0.00025019224780560773,0.27036274719566566,0.5,1,C153B3
0.32808748999733267,0.4510105713992014,0.47757131355227395,0.5,-0.5705040386558633,0.569625936768528,1.3052920539125712,-0.8991070386191918,0.6926887315160807,1.5,-0.3488189408208737,0.19221380268152552,0.5,0.7997055082271439,0.07516334011208742,0.5,0.0015578008657341433,-0.11779609487777283,0.5,1,C153B3
0.3360896238997066,0.4536996874320936,0.529190045782349,0.5,-0.5695060250756736,0.29096643392063914,0.5,-0.8930567351034681,0.8154515659530986,1.5,-0.34741152108759366,0.32554157931300937,0.5,0.8013506292095381,-0.041405703154057116,0.5,-0.0016345452702387574,-0.2511242760297308,0.5,1,C153B3
0.34409175780208057,0.459477612131719,0.5012649350168812,0.5757428509845041,-0.5658485757131331,0.31212385302809703,1.0540944880602667,-0.8860598135639423,0.7322507061292074,1.5,-0.3436102755518656,0.5404630466849732,0.5,0.799043016976679,-0.04932149684949011,0.5,-0.002460187550741549,0.16090744944757987,0.5,1,C153B3
0.35209389170445454,0.4617199263923637,0.17981233724746748,0.5,-0.564512043427224,0.522992751828183,1.4102135778657756,-0.8813407238054007,0.7137313058214397,1.5,-0.3387641123406341,0.25044392464114784,0.5,0.8005614852599463,0.18151691591507257,0.5,0.0009399739209225207,-0.08652596254441074,0.5,1,C153B3
0.3600960256068285,0.4623546095276785,0.19336348812832443,0.5,-0.5574806916838821,0.8290706568091013,1.6865885379111791,-0.8746401126707992,0.5435485021491604,1.5,-0.3396031727576072,0.3943144274771923,0.5,0.8019472876313202,-0.07686874839003821,0.5,-0.003844602951452121,-0.33388564759663175,0.5,1,C153B3
0.3680981595092025,0.4648137422024169,0.15173264158276079,0.5,-0.5512469129182784,0.47978787391599054,1.4599310675284376,-0.8726439477710142,0.4280786738128789,2.32210878391219,-0.332455081500999,0.32482984729599246,0.5,0.7993315852857057,-0.2060020792316597,0.5,-0.004402196440623588,0.28417983015345466,0.5,1,C153B3
0.37610029341157647,0.46478233179300266,0.2609044083171502,0.5,-0.5498040857012263,0.16917302458450273,1.2987919451567422,-0.8677908538897932,0.9643889105771866,1.5,-0.33440589520087133,-0.05857325849868353,0.5,0.7986512543636136,0.11476160843175431,0.5,0.0007022743310031537,0.45018596839065494,0.5,1,C153B3
0.3841024273139504,0.4689882127354913,0.2681621085262806,0.5,-0.5485401445249264,0.4396826587059338,0.828132598528595,-0.8572137252017792,0.7187909858827681,1.7350485012405628,-0.33339225363697794,0.1733682499640149,0.5,0.8011677710206138,0.014126247222794042,0.5,0.0028007790536268918,0.05322525135187538,0.5,1,C153B3
0.39210456121632437,0.46907292552942315,0.2071981482762407,0.5,-0.5427691631619314,0.6097619659489947,2.1369373878013187,-0.8562901981156689,0.36992159650939965,1.5,-0.3316320032014471,0.41363302540440433,0.5,0.7988772743191783,-0.11625398796052261,0.5,0.0015538783526331597,-0.35346385716596174,0.5,1,C153B3
0.40010669511869834,0.47230338310791115,0.40522838189147037,0.5,-0.5387839530697425,0.14771413823400775,0.5,-0.8512949796576288,0.554182769192453,1.5,-0.3267741252305075,0.19898542878808018,0.5,0.7993077072132454,0.01932556692608306,0.5,-0.0028546426610284964,-0.08371681176400232,0.5,1,C153B3
0.4081088290210723,0.47555657963968667,0.27344877727930594,0.5,-0.5404057369501872,0.08358643077861078,2.9559082005135244,-0.8474232738085896,0.4757107295314811,1.5,-0.3284482363408378,0.11485793570299024,0.5,0.7991864833899956,0.12291375930797294,0.5,0.0002144093644091225,0.031184891647691653,0.5,1,C153B3
0.4161109629234463,0.47667856354438004,0.09517852826851705,0.5,-0.5374465701772847,0.7471965602050823,0.5569497439458678,-0.8436836079851251,0.3786516625048503,1.5,-0.32493639825925963,0.20139059088954137,0.5,0.801274327362173,0.05028546914839782,0.5,-0.00235568439466543,0.17233107414037527,0.5,1,C153B3
0.42411309682582027,0.47707943609198294,0.24110169372164314,0.5,-0.5284505919869059,0.6460023245893481,2.4632069387760382,-0.841364847208512,0.3126617702844184,1.5,-0.32522598688660515,0.33736755600683244,0.5,0.79999105089637,-0.27589526690569716,0.5,0.0029717065506551267,0.005793998955533884,0.5,1,C153B3
0.43211523072819424,0.48053619064392633,0.41827892946596706,0.5,-0.5271105329838551,0.10519141561973755,0.6819732785950976,-0.8386810196605744,0.3082988271443307,1.5,-0.3195385173631503,0.36676427343928714,0.5,0.7968600030916818,0.23163707191339866,0.5,-0.002262980411376888,-0.36634332227512334,0.5,1,C153B3
0.44011736463056816,0.4837718989634384,0.27240922925274996,0.5,-0.5267675293369901,0.2539162242642251,0.8299265336692547,-0.8364320659742027,0.5435842471192831,1.5,-0.31935775851157655,0.45929708876119024,0.5,0.8036972440469844,0.48555833282629135,0.5,-0.0028897866057468464,0.23544410248288183,0.5,1,C153B3
0.44811949853294214,0.48489473831197033,0.0907878516065129,0.5,-0.5230478733956275,0.402657255312841,0.8844884631095613,-0.8299836717066659,0.32544164883042265,1.5,-0.31218976394297127,0.4915176881327074,0.5,0.8046289364169025,-0.10394437073256435,0.5,0.001504125228349222,0.07049547913430901,0.5,1,C153B3
0.4561216324353161,0.4852245045891426,0.31250119817555905,0.5415707813316439,-0.5203250132519847,0.22881247444771213,0.5664603458486313,-0.831224999592916,0.2115922308622703,1.5,-0.31149347550145323,0.0962153179690714,0.5,0.8020341341152634,-0.3642749108340865,0.5,-0.0017618589395979023,-0.14864975469407674,0.5,1,C153B3
0.4641237663376901,0.4898947574827793,0.018141298573044057,0.5,-0.5193868738044641,0.13277858698016592,1.5270996120404539,-0.8265981960128695,0.42803499780152965,1.5,-0.3106503188554661,0.20989972586505853,0.5,0.7988005378435571,-0.19784237669442234,0.5,-0.0008742708467560057,0.03195659254059269,0.5,1,C153B3
0.47212590024006407,0.48551476536631133,0.12499434113126887,0.5,-0.518200555860302,0.47065400135157254,0.7567097180823763,-0.8243764396280915,0.35728367374079223,1.5,-0.3081350798876123,0.062194767947318375,0.5,0.7988686560881526,-0.042517816047839274,0.5,-0.0012505534589484194,0.1453757255603532,0.5,1,C153B3
0.48012803414243804,0.4918946669408796,0.3202976378754406,0.5,-0.511856409782839,0.34260792806933144,1.9922790464715432,-0.8208816572330169,0.30954463153226586,1.5,-0.30965520256830903,0.017431140604699802,0.5,0.7981202527867917,0.12660156621217833,0.5,0.0014517407622096454,0.06690893801303123,0.5,1,C153B3
0.48813016804481196,0.4906395275723184,0.38086427667318246,0.5,-0.5127188290111927,-0.09151121863829048,1.4117599631231774,-0.8194237255235752,0.5337702840573013,1.5,-0.3078561816379371,-0.06777294379260376,0.5,0.8008942811475475,0.1583936367269348,0.5,-0.00018001045073991984,-0.3235885674037186,0.5,1,C153B3
0.49613230194718594,0.4979884953676505,0.28232082077715714,1.1983497539523216,-0.5133205892810516,0.20380548047883168,0.5,-0.8123413326881,0.554724287874328,2.207462428441251,-0.3107395696689907,-0.031690915887103155,0.5,0.8006545509744226,-0.21348354679638637,0.5,-0.003725676316249852,-0.0017693348937882576,0.5,1,C153B3
0.50413443584956,0.4951566607047529,-0.3303685200231575,0.6260435965692634,-0.5094579413235314,0.2063724962061697,0.5,-0.810548136917586,0.038071611205781064,1.5,-0.30836323629213075,0.359112543405149,0.5,0.7974785443988053,-0.0792541869381394,0.5,-0.00020831980904053197,0.10042849405883025,0.5,1,C153B3
0.5121365697519339,0.49270259904728,-0.009652147442067854,0.7184060353368564,-0.5100186293417529,0.21066685906097338,0.5,-0.8117321869088076,0.29666620386903375,1.5,-0.3049937689745083,0.0880753344784102,0.5,0.7993864839834124,0.09063547691078033,0.5,-0.002118820411308568,0.26065483961026975,0.5,1,C153B3
0.5201387036543078,0.4950022263456798,0.3572393847927034,0.5,-0.5060872715785558,0.25343630948924945,0.5,-0.8058014776556814,0.28383254406962044,1.5,-0.3069540309404762,0.005600161130533965,0.5,0.7989287120293778,-0.07991949980744317,0.5,0.003962157624723784,0.3193038784138834,0.5,1,C153B3
0.5281408375566818,0.49841842920396323,0.3793756818311206,1.1870514525327183,-0.5059636483899249,0.20058332738226436,0.5,-0.8071908662036936,0.11201565781476103,1.5,-0.30490416639641976,0.33273594759944053,0.5,0.7981077719864933,0.1796747270617488,0.5,0.0029900416433135666,-0.3012804670435296,0.5,1,C153B3
0.5361429714590558,0.5010722372549777,-0.21038779908489486,0.5,-0.5028779383404396,0.25886652079964295,0.7088783851616686,-0.8040092271306453,0.2783158597603197,1.9187901658831163,-0.30163025577888514,0.071956255426317,0.5,0.8018035076623657,0.2547962281214816,0.5,-0.0008583298479726898,-0.1152916623787391,0.5,1,C153B3
0.5441451053614298,0.4950522244186049,-0.34069553170765554,0.9855570954642788,-0.5018217840571306,0.1168624408417196,1.2070131289631583,-0.8027378124475285,-0.08408278559172977,1.5,-0.3037528663095987,-0.07062503358493469,0.5,0.802184511636437,-0.1312021505830291,0.5,0.001145375045253741,-0.03407661444612831,0.5,1,C153B3
0.5521472392638037,0.49562110874765525,0.23630031270265722,0.5,-0.5010081392869721,-0.1505108936110111,0.9761085593511593,-0.8053545517001129,0.08623847300127246,1.5,-0.3027602563162441,0.26793878401585797,0.5,0.7997042732530373,-0.04697771125006939,0.5,-0.0014035556791107428,-0.33441256895825083,0.5,1,C153B3
0.5601493731661777,0.49883302942184743,0.29179826266026093,0.5,-0.5042299583549068,0.06232457122498647,0.5,-0.8013579968795081,0.33935559963468864,1.5,-0.29946584576534496,0.12071439300227402,0.5,0.8014328682564359,-0.19088453908602115,0.5,-0.0042052260580782725,-0.03763330361416988,0.5,1,C153B3
0.5681515070685517,0.5002898809502194,0.2523928356719905,0.7101814672111332,-0.5000109461473723,0.06132353247372685,0.92354413793236,-0.7999248621059579,0.22710091268331872,1.5,-0.3008288260282077,-0.17053617493049955,0.5,0.7966501206276609,-0.2039057969966812,0.5,-0.002005688536937461,0.21717971769118752,0.5,1,C153B3
0.5761536409709256,0.5028713147925993,-0.09369686933944146,0.5,-0.5032487818353272,-0.1471052883089824,1.8871673709144807,-0.797724382276575,-0.10667086306758583,1.5,-0.30219442456423296,-0.17121367108314384,0.5,0.798170375504489,0.35585904336209173,0.5,-0.0007303505750192719,0.1797626066288149,0.5,1,C153B3
0.5841557748732996,0.49879073104078836,-0.17965400249079014,0.5,-0.502364630760316,0.2723462572224895,0.5,-0.8016315959150393,-0.15912664854513675,1.5345595034700668,-0.303568244765538,0.24278611350173063,0.5,0.8023438653214544,-0.019439900581307012,0.5,0.0008705131691235779,-0.052940830404619575,0.5,1,C153B3
0.5921579087756735,0.49999685075274664,-0.3182601303930339,0.9218894246108449,-0.49889124171976734,0.34295535018648293,1.403052236758622,-0.8002704086532972,0.18034253822163393,1.5,-0.29830984674820527,0.3207757378087747,0.5,0.7978593370951881,0.021252232957291728,0.5,-0.0015774038614931852,-0.03263319419368329,0.5,1,C153B3
0.6001600426780476,0.4936985689544998,0.1624755364092699,0.5777046407550849,-0.4968773451573323,0.03785591304972247,2.344830608521844,-0.7987461153034932,-0.13681236680331,1.5,-0.2984358329605976,-0.17525364228587054,0.5,0.8026839010487711,0.1318114354065536,0.5,0.00034838206202464535,-0.08768742356168494,0.5,1,C153B3
0.6081621765804215,0.502596459335295,0.44290650495542455,1.1205041913533385,-0.4982855471109718,-0.4929041976230522,0.9120043563142073,-0.8024594065221502,-0.19461495039525822,2.104249964556557,-0.3011139050247792,-0.2895716935527696,0.5,0.7999683200616929,-0.3046474427192483,0.5,-0.0029804026384801442,-0.06516654297069233,0.5,1,C153B3
0.6161643104827954,0.5007850730337866,-0.10793097784959904,0.5,-0.5047638123193011,-0.2981293721314275,3.3973630272893205,-0.8018599545098173,0.28370176431318644,1.5506599221526898,-0.30306898005744193,-0.0333308404484485,0.5,0.7978095419652631,0.09656335211106343,0.5,-0.0006942826255064319,0.16377114194493422,0.5,1,C153B3
0.6241664443851694,0.5008695636897014,-0.019131266195911156,0.5,-0.5030556170650746,0.4973149391888469,1.4705532494129028,-0.7979201782931392,-0.011674727878448199,2.1189913817786166,-0.30164719847195437,0.060081310601114296,0.5,0.80151333369547,0.04759850844626712,0.5,-0.0003600643673611966,0.1976892963339506,0.5,1,C153B3
0.6321685782875434,0.500478972774652,-0.005456890137645054,0.5,-0.49680677329227957,0.1868560647193887,1.5768776924274974,-0.8020467501558725,-0.507885563551462,1.617303912947525,-0.3021076790878241,-0.005769808999564474,0.5,0.7985711181004034,0.05289420349408741,0.5,0.002468746115836778,-0.1360744835337458,0.5,1,C153B3
0.6401707121899174,0.500782253447499,-0.12362417561912267,0.5060493543187318,-0.5000659200295644,-0.15652697215477046,0.5,-0.8060463473099626,-0.11825514317821001,1.5,-0.3017395154159474,-0.06476827264858404,0.5,0.8023596409513754,0.08218550915994882,0.5,-0.002537256103901129,-0.29527759951234017,0.5,1,C153B3
0.6481728460922913,0.49850098596474607,-0.37827446004414994,0.794688309633692,-0.4993112048467559,-0.25065070010787255,0.5,-0.8039388324467238,0.09383871742117689,1.5,-0.30314397145020144,-0.04089641575086289,0.5,0.7998860862469626,0.03200482317446823,0.5,-0.002255695476360665,0.13640707340302574,0.5,1,C153B3
0.6561749799946653,0.49472986208679265,-0.0024350406364961885,0.5,-0.5040763312312904,-0.2138969768030151,1.5740109287520243,-0.8045449278312238,-0.06588767397500139,1.5,-0.3023938580679612,0.08355796491895176,0.5,0.8028717181221668,0.2341545636476497,0.5,-0.00035474292945271706,0.09110986228225651,0.5,1,C153B3
0.6641771138970393,0.49846202531456213,0.2421116843282535,0.6682384693902155,-0.5027335564756041,0.13033688738579852,1.1223608976659003,-0.8049930352303238,-0.14154381311465292,1.5,-0.3018070440114982,0.11978648566632333,0.5,0.803632559265325,-0.19784957038797985,0.5,-0.0007979376798445609,0.031144064390379,0.5,1,C153B3
0.6721792477994132,0.4986036490360447,-0.13658164428102804,0.5,-0.5019909410331176,-0.12920476735910763,1.104953194963747,-0.8068096288410582,-0.25885959685078425,1.5,-0.30047727429730003,-0.22014876121308896,0.5,0.7997061249959592,-0.28577497422834636,0.5,0.00014356210079334694,0.1800809335830679,0.5,1,C153B3
0.6801813817017872,0.4962767190060657,-0.21891453596153618,0.5,-0.5048008327533499,-0.36998667692375586,0.6949978502784494,-0.8091347887799364,-0.23183036116888878,1.5,-0.30532942419090764,-0.4416017080082421,0.5,0.7990601596776714,0.0034395541344545144,0.5,0.002083357257484525,0.15965952084678636,0.5,1,C153B3
0.6881835156041611,0.4951010164606601,-0.11579231608354473,0.5,-0.5079107278638977,-0.2375775186190393,0.5,-0.8105189146197604,-0.12147953424902769,1.5,-0.3075429016254319,-0.15916806124508312,0.5,0.7997611578621104,-0.1573796855825066,0.5,0.002698114434341929,0.07078674829383505,0.5,1,C153B3
0.6961856495065352,0.49442404194872897,-0.33739509864800715,0.5,-0.5086020730512545,-0.2846486614629662,0.5,-0.8110784613279208,-0.21334829592828397,1.5,-0.30787611317082897,0.10823069090235699,0.5,0.7965420847083513,-0.030812913271886788,0.5,0.003215945230185886,0.01988144013637008,0.5,1,C153B3
0.7041877834089091,0.489702694882292,-0.2149542486920078,0.6165211874142479,-0.5124651064473051,-0.3284340226550747,1.216862275301376,-0.813932487354613,-0.4791904860812629,1.5,-0.3058112105709942,0.07872839779314578,0.5,0.7992681512497603,0.12026683475602207,0.5,0.00301621747652385,-0.18611185112434706,0.5,1,C153B3
0.7121899173112831,0.49098477396965684,0.11403478250812324,0.6236837860552664,-0.5138570174137357,-0.08189425597972949,1.5545277199278258,-0.818745509105221,-0.2995053638146228,1.5,-0.30661645880613864,-0.3606587823912627,0.5,0.7984663540644477,-0.017671275372797834,0.5,0.000238155612196333,-0.19481789961592325,0.5,1,C153B3
0.720192051213657,0.491527251402422,-0.22255156737296944,0.5,-0.5137754145429808,0.28387508040610826,3.8949243988340743,-0.818724573175647,-0.09991326352098984,2.3168804357320765,-0.3115817510892544,-0.12491791695428203,0.5,0.7989854108437955,0.05610038500099279,0.5,-0.00010086891733092172,-0.17448990950445128,0.5,1,C153B3
0.728194185116031,0.48742394889168933,-0.3031415638780552,0.5456945487772559,-0.509315016127238,-0.6289941932461143,0.7833406699659231,-0.8203441213215569,-0.6157063894903225,1.5,-0.30861514547740715,-0.1750407660991854,0.5,0.7993639602244635,0.13965206904108934,0.5,-0.002553682939874888,-0.025529951808376916,0.5,1,C153B3
0.736196319018405,0.4866769863803731,-0.007333925400917346,0.5,-0.5238393216349186,-0.7672882618967244,3.408711771275683,-0.8285758754074921,-0.39465975439114537,1.5,-0.31438240334684137,-0.23948268220222446,0.5,0.8012198439484529,0.09006918636905725,0.5,-0.0005093481462649524,0.16399647101962958,0.5,1,C153B3
0.7441984529207789,0.48730660608527465,-0.04241893395420457,0.5,-0.5215916283175855,0.030492034068359264,1.1274698196209778,-0.8266586773918152,-0.09404354180633095,2.2871541463165457,-0.31244686839264274,-0.056777056239090684,0.5,0.8008050672063685,-0.019072904676835367,0.5,7.026059643918533e-05,0.05221056339875807,0.5,1,C153B3
0.7522005868231529,0.4859982834371058,-0.17081751180093516,0.5,-0.5233514490898249,-0.2266558440250921,1.0415988454941096,-0.8300805720763934,-0.6051969422347786,1.5,-0.3152908362466668,-0.30828551176202007,0.5,0.8009146774736235,-0.0334364762514458,0.5,0.0003260208681151767,-0.1383501264960318,0.5,1,C153B3
0.7602027207255269,0.4845735258964597,-0.11191444599746928,0.5,-0.525218121821987,-0.43850975135899944,0.772284801859924,-0.8363418284675717,-0.4653012634111206,1.5,-0.31737943658083506,-0.41377283162901884,0.5,0.8002700835863453,-0.05460855940721959,0.5,-0.0021433414274973236,-0.2378081031521689,0.5,1,C153B3
0.7682048546279008,0.4842076523011463,-0.16435647394286504,0.8803736546024186,-0.5303676051115689,-0.3122154635875618,0.7497862720065808,-0.8375253922909713,-0.4661092808422862,1.5,-0.3219112015527311,-0.16640589796109578,0.5,0.800040940523108,0.020137013688067973,0.5,-0.0034789087823195257,0.2337262838445599,0.5,1,C153B3
0.7762069885302748,0.48194382231337385,-0.6317655354188372,0.5,-0.530213569239388,-0.4552451712982464,0.5,-0.8437995769610482,-0.5354896419254642,1.5,-0.3200419309482126,-0.022720991024748755,0.5,0.8005922758053544,-0.18288118743302328,0.5,0.001596279114015635,0.17654288934186874,0.5,1,C153B3
0.7842091224326487,0.4740994037344449,-0.6407800027116717,1.0815342939278119,-0.5376515278523408,-0.5300268517855824,1.1424340548784793,-0.8460932265617788,-0.3889016499591738,1.5,-0.3222747374091271,-0.15493517862229592,0.5,0.7971148415241797,-0.21416515287756704,0.5,-0.0006542225528496259,-0.273984037822127,0.5,1,C153B3
0.7922112563350228,0.4716913422699871,-0.10951933743449244,0.5,-0.5386939988679573,-0.29409444210450747,0.631122936318149,-0.850022003360395,-0.49392334305348173,0.5,-0.32252089380616933,-0.34483827435145137,0.5,0.7971656333593133,0.09678288222403353,0.5,-0.002787465491138397,-0.16088888360923903,0.5,0,
0.8002133902373967,0.47234709433549305,0.025416829175853306,0.6354152911141577,-0.542357038926013,-0.17527854570067308,0.736625717027591,-0.8539960000506345,-0.4699004242497695,0.5,-0.3277921497987503,-0.33874512211169716,0.5,0.7986633676397642,0.2099970813339222,0.5,-0.0032284446905974503,0.17969017850809718,0.5,0,
0.8082155241397707,0.47209801153680075,-0.261920470548075,0.5,-0.5414984555991681,-0.023207104345800145,3.5712259408741582,-0.8575404101483913,-0.4791845188045346,0.5,-0.3279408157599565,-0.09922123974829417,0.5,0.8005255866606561,-0.0314854139711121,0.5,8.75773649911577e-05,0.15471650567113485,0.5,0,
0.8162176580421446,0.46815636680672384,-0.3723990194337105,0.5,-0.5427283525955457,-0.8482015911562765,0.5,-0.861662952351507,-0.7053830187404644,0.5,-0.329379689634723,-0.474553540149851,0.5,0.7981596010162264,-0.15807420060003768,0.5,-0.000752980599859293,-0.011986203389739495,0.5,0,
0.8242197919445186,0.4661396272258614,-0.36166744953943647,0.5,-0.5550696810576685,-0.7718090854968093,2.5849825546703205,-0.8688265384482388,-0.4834175800444429,0.5,-0.3355336724023541,-0.2920940250008483,0.5,0.7979963994510555,-0.02683571165355836,0.5,-0.00010420188924467423,-0.20932792796803956,0.5,0,
0.8322219258468926,0.46236968761409286,-0.3275414443950318,0.5652662025508344,-0.5550772979634947,-0.19661947627735293,1.162403673090917,-0.8693976336322181,-0.3479060668234238,0.5,-0.3340531940347366,-0.36166044332997666,0.5,0.7977302296297695,0.013803894151467877,0.5,-0.004102227447347926,-0.009327359857920076,0.5,0,
0.8402240597492665,0.4608989641155409,-0.043988168346800055,0.5,-0.5582155926781062,-0.45301918384399453,0.5,-0.8743930355174135,-0.6313334692150049,0.5,-0.3413202394956337,-0.3815575423477893,0.5,0.798217261757479,-0.17487721401704404,0.5,-0.00025343964697139545,0.15843183662379118,0.5,0,
0.8482261936516405,0.46166587692054406,-0.18646374592196438,0.5,-0.5623256049049986,-0.5148852371386278,0.5,-0.8794989691396582,-0.8022866116175476,0.5,-0.34015811471230123,-0.12566502483534261,0.5,0.7949321942054968,0.22274040538618894,0.5,-0.001567318061367267,0.013854918875963117,0.5,0,
0.8562283275540145,0.45791554418078945,-0.40822168176733037,0.5,-0.5664537564723242,-0.4223117613334701,0.5,-0.8872296213032943,-0.7153595529138523,0.5,-0.3433308798929992,-0.5351923791702892,0.5,0.801781108243658,0.3359794094551852,0.5,-3.176094495598558e-05,0.19784332549974848,0.5,0,
0.8642304614563885,0.4551343300122668,-0.3372462841105157,0.5,-0.5690825930863341,-0.48676927640633333,0.9365182199695081,-0.8909447219862798,-0.7583162425512796,0.5,-0.34872119277902586,-0.30765872053200444,0.5,0.8003078647567797,-0.13157366000404042,0.5,0.0015981751466287084,-0.1640735480323513,0.5,0,
0.8722325953587624,0.4525196036350212,-0.5889858584626136,0.5,-0.5742420648948255,-0.29440024293708733,0.7532439912544711,-0.8993626811841148,-0.6791063047275544,0.5,-0.3482534194215113,-0.1332951860091268,0.5,0.7996759296835934,0.24397570928703927,0.5,-0.0026569377134736064,-0.14442210360465518,0.5,0,
0.8802347292611363,0.44571055627686496,-0.5905296122280905,1.048777792307798,-0.5737929969733275,-0.43562371937706096,0.5,-0.9018104228619207,-0.6018015010919864,0.5,-0.3508539157551719,-0.544678180947989,0.5,0.8042114761053724,-0.007022081186532081,0.5,-0.0007125785110457748,0.18709284518584685,0.5,0,
0.8882368631635104,0.44307112983937175,-0.0644241802007818,0.5,-0.5812120444048585,-0.4807123305006905,1.5875022236968162,-0.9089915052015866,-0.5357151117948225,0.6143097783296759,-0.3569682703166791,-0.396617805600942,0.5,0.7995635763846088,-0.23410339063364288,0.5,0.000336547809499943,0.1829105485591058,0.5,0,
0.8962389970658843,0.44467976939365245,0.024151263134979117,0.5,-0.5814843942613386,-0.8234548695160437,0.5,-0.9103818646506379,-0.9259217643561232,0.5,-0.35719980064478696,-0.27457579353096573,0.5,0.8004658218552341,-0.1782954635100517,0.5,0.002213990265899918,-0.07988654653172408,0.5,0,
0.9042411309682583,0.4434575500495314,-0.2562246997109621,0.5,-0.5943873223171152,-0.8352948732686799,2.607639839394904,-0.9238062534312845,-0.9582017459015962,0.6193438799688253,-0.36136148301317456,-0.3745858606159086,0.5,0.796710848968448,-0.01912679043981902,0.5,-0.0009416369350076423,-0.15440529611610876,0.5,0,
0.9122432648706322,0.44058017419827705,-0.44039211594081373,0.5,-0.5948491122336375,-0.26092458009362857,0.5,-0.9257130925850634,-0.5859570721538643,0.5277299845472432,-0.3631931744146415,-0.2811047574439208,0.5,0.800159793208197,0.19367184689329103,0.5,-0.0002564944719578225,-0.24501946055533408,0.5,0,
0.9202453987730063,0.4364112761944784,-0.43485955220373335,0.5,-0.5985621155986133,-0.35142319229375385,1.8615322779134416,-0.9331815665857464,-0.9456851223530044,0.516311686807972,-0.3658591591322773,-0.5594546073653499,0.5,0.7998095985187407,-0.03104819084163296,0.5,-0.004861948303892988,-0.13147292771427518,0.5,0,
0.9282475326753802,0.4336224213630173,-0.5381561369174926,0.5,-0.6004718833103375,-0.7537505491532134,0.5,-0.9408440545427115,-0.7395516192437931,0.5,-0.3721444481324871,-0.4343089749382148,0.5,0.7996630221547308,0.01905690339401578,0.5,-0.0023600613153862255,0.21808000028962732,0.5,0,
0.9362496665777541,0.4278007780037985,-0.5714509480708556,0.5,-0.6106221243850647,-0.8094432731360554,0.9738874477507389,-0.945014392493647,-0.6534971971930703,0.5,-0.3728081027312887,-0.047308202672773775,0.5,0.8001145089730449,-0.14394106041782512,0.5,-0.0013726682992589508,0.08023106620039187,0.5,0,
0.9442518004801281,0.42447920619388363,-0.7111698557456941,0.7692687086966892,-0.6134229756805144,-0.6320300468821635,0.5,-0.9513000096978006,-0.8352350376571518,0.5,-0.3729013793752515,-0.5446725579944591,0.5,0.7973599651880456,0.04849128530063501,0.5,-0.0010763642561799555,0.25948150305363343,0.5,0,
0.952253934382502,0.4164220603118674,-0.36458119044854853,0.580361050942978,-0.6207346051351793,-0.6144198577817672,0.9692934191140266,-0.9583781530961615,-0.8537249886119632,0.5,-0.3815228636592001,-0.6892466277864766,0.5,0.8008903695378551,0.28705204497030123,0.5,0.0027790357495991844,0.15440849736344914,0.5,0,
0.9602560682848761,0.41864590714670685,-0.09731160694243651,0.5293016197997431,-0.6232536934050227,-0.43116382130280184,1.5268520481827859,-0.964959609515592,-0.7022931383571864,0.5,-0.3839293254198351,-0.21056966961106524,0.5,0.8019527979075705,0.10269852999020279,0.5,0.0013941717016352309,-0.16541630382401123,0.5,0,
0.96825820218725,0.4148650746007884,-0.39047320235029503,0.5,-0.6276332262760241,-0.7658448482297242,0.5,-0.9696148433098765,-0.7119859322612179,0.5,-0.3848919783729771,-0.21532358945851315,0.5,0.8025335460176983,0.06456508201181654,0.5,0.00013237488841500458,-0.03191791244632535,0.5,0,
0.9762603360896239,0.41239833590910213,-0.3605503050536536,0.5,-0.6355072109766983,-0.7453740212251327,0.5,-0.9763513844317715,-0.7437913823987313,0.5,-0.3873745028511713,-0.5954346894256786,0.5,0.8029858392197595,-0.12553952215249575,0.5,0.0008834851024940252,0.04750568216788395,0.5,0,
0.984262469991998,0.40909626971992996,-0.5624189898251266,0.5,-0.6395592106156263,-0.7701188247160525,0.5851087070705492,-0.9815155054282562,-1.018637845535894,0.5,-0.394418933403788,-0.4744962135774834,0.5,0.8005249136632584,-0.3389797444170034,0.5,0.0008924658031011478,0.05296287628803763,0.5,0,
0.9922646038943719,0.4033996320719001,-0.6009099167839163,0.5,-0.6478291121721551,-0.6679781317136119,0.5,-0.9926495899603458,-1.1776701505245082,0.6105152337024924,-0.39496644226841104,-0.34145580779938384,0.5,0.7975621633090875,0.008292176355728653,0.5,0.0017308911231026273,-0.007172917592618436,0.5,0,
1.0002667377967458,0.3994817110513873,-0.4360113928041781,0.5,-0.650246860723044,-0.7102483746791455,0.849987229383841,-1.0003582278366483,-0.8689011549171399,0.5,-0.3998822263285781,-0.4288941830604756,0.5,0.8006575884849501,0.1121546822522787,0.5,0.0007776991216192528,0.1908318481637059,0.5,0,
1.00826887169912,0.39642344978703326,-0.39558217935062656,0.5,-0.6591930861670214,-0.5391072250679335,0.6990582698974475,-1.00655200843902,-0.8356380108694994,0.5,-0.40182874919737865,-0.630593216657739,0.5,0.7993566382251239,-0.10755743196883688,0.5,0.004784200693721922,0.07520500539005043,0.5,0,
1.0162710056014939,0.3931523961817773,-0.5585582499283044,0.5,-0.658872576324131,-0.4249864121299851,1.6732146884883372,-1.0137284360105603,-1.017914922391866,0.5,-0.40997171779510194,-0.47502976974335764,0.5,0.7989366695734487,0.19909217178771393,0.5,0.00198097920786006,-0.2744808015718392,0.5,0,
1.0242731395038678,0.3874865177881804,-0.41872887133332853,0.5,-0.6659928687611012,-0.8046514672560359,0.5,-1.02283864719729,-1.060590350215204,0.5,-0.4094292255132724,-0.38982404296438594,0.5,0.8025421129737274,-0.06535778102834816,0.5,0.00039250786857249453,-0.419040860404176,0.5,0,
1.0322752734062417,0.386452734240444,-0.31775712259757627,0.6190562775308088,-0.6717469998002276,-0.785403036040036,1.0261215056885418,-1.0306978816140036,-0.8573882065615601,0.5,-0.4162089024825321,-0.612653984606703,0.5,0.7978909450769951,-0.2753816551392882,0.5,-0.004723674558606756,0.016649783040165973,0.5,0,
1.0402774073086156,0.38240240382661916,-0.6496850419995606,0.5,-0.6785593173377418,-0.9930823998759788,2.364367634910723,-1.0365568585022749,-0.8830525976122744,0.5,-0.4192316892669796,-0.5765088273168885,0.5,0.7981360064914987,0.2863956423918568,0.5,0.0006589043972151501,0.2262520174126113,0.5,0,
1.0482795412109898,0.37605777356845105,-0.44981432000239585,0.5,-0.6876363181982432,-0.47580372512476266,0.76219945827048,-1.0448267231758,-0.9137479281134536,0.5,-0.42543304371960233,-0.28268310348315145,0.5,0.8024732753552648,0.12158026658989907,0.5,-0.0011036422800049753,0.005818280879585409,0.5,0,
1.0562816751133637,0.37520537470658083,-0.5830032136812171,0.5,-0.686172176939738,-0.6500692065983873,1.426666287914985,-1.0511768253520901,-1.133738466155179,0.5,-0.42375461892271005,-0.24367469249347157,0.5,0.8000812907569371,-0.017531995174964454,0.5,0.0007519968912885166,0.1303132219578846,0.5,0,
1.0642838090157376,0.3667297221495516,-0.6754923116214575,0.7015912802118223,-0.6980374255038174,-0.9480728674123375,2.5002743568326786,-1.0629665386342828,-1.0338803696251508,0.5,-0.4293318387994979,-0.7045184261635813,0.5,0.8021927634324654,0.012581514274953576,0.5,0.0009813692713211786,-0.011547755805949432,0.5,0,
1.0722859429181115,0.3643974977206375,-0.3544934029757474,0.5,-0.7013413428183354,-0.39591330632900157,2.036050554100447,-1.0677189112660925,-0.7248340904201789,0.6535469255786447,-0.43502691374132735,-0.7011352280962418,0.5,0.8002825949853364,-0.30163420323467416,0.5,0.0005672327983933257,0.04135812544637438,0.5,0,
1.0802880768204854,0.3610578277019396,-0.45609661758936465,0.5,-0.7043720384050814,-0.8700524410856988,0.7836035796398527,-1.0745638840810057,-1.2266738567601743,0.5,-0.44055000244903775,-0.395659237332719,0.5,0.7973666161807106,0.1326824437315327,0.5,0.0016430992784631686,-0.3580191677778806,0.5,0,
1.0882902107228596,0.3570999518392077,-0.5508488597291,0.5,-0.7152621818757066,-1.0059737076674666,0.9965074022893157,-1.0873456929742553,-0.9453622697247338,0.5,-0.44135746153865085,-0.23652041074154195,0.5,0.8024055140850409,0.11919029935302666,0.5,-0.0051610738860527645,-0.19245200204100926,0.5,0,
1.0962923446252335,0.352244245946274,-0.7354236400616831,0.5615355894230282,-0.7204676177277609,-0.8011135718394637,0.5,-1.0896896803966014,-0.8513501451452438,0.572504034295004,-0.4443343290209024,-0.48297600781884925,0.5,0.799273660970359,-0.24494643245039083,0.5,-0.0014361327541929797,0.3922218546150388,0.5,0,
1.1042944785276074,0.34533317359822074,-0.4618077758605718,0.576307351433371,-0.728079999025138,-0.8577782151383412,0.5921101786701666,-1.1009672952965792,-1.1924520694537033,0.5,-0.44908507766375244,-0.649495409100101,0.5,0.7984863711658347,0.12176543114746086,0.5,0.001114475787787856,-0.017823313900658486,0.5,0,
1.1122966124299813,0.34485532153250487,-0.16252018671264815,0.5,-0.7341920691699744,-0.9774935709654722,1.5883561170397906,-1.1087689135078607,-1.0155848708185005,0.5,-0.45472625556650403,-0.7692444569741621,0.5,0.8012219078687184,-0.0705602177917472,0.5,-0.0017213057766035155,0.08218477557366544,0.5,0,
1.1202987463323555,0.3427328506108184,-0.3963552137552853,0.5,-0.7437198961605855,-0.6364713969343391,1.2080369444891332,-1.1172166532296752,-0.8655276202273604,0.5,-0.46139298897533904,-0.603836923674158,0.5,0.7973574076811667,-0.101580407515664,0.5,0.002429432196966503,0.16079795847914236,0.5,0,
1.1283008802347294,0.3385136381124203,-0.6431243621479489,0.5,-0.7443756115209238,-0.3849924365214863,1.7818885874222394,-1.1226173554314984,-0.8943436674612171,0.6043951574013281,-0.46438764634529056,-0.18985902979856695,0.5,0.7995966213484678,0.10564512297667888,0.5,0.0008514615590627624,-0.24781910808907315,0.5,0,
1.1363030141371033,0.3324428608164512,-0.5208069651815236,0.5,-0.7498797751449293,-0.7773127713196631,0.5,-1.1315261519090547,-1.209784952809101,0.5,-0.4644307334521161,-0.28673106373201807,0.5,0.7990477296487936,0.12776821344987616,0.5,-0.0015356735324586672,0.010316930023712449,0.5,0,
1.1443051480394772,0.3301807266695159,-0.4436997864357903,0.5,-0.7568126158620384,-0.7116078086247742,0.5,-1.141973914676444,-1.1400948838888174,0.5,-0.46897534336500285,-0.5710184625443981,0.5,0.8016409127636658,-0.023549199566742784,0.5,0.0010165324394421616,-0.03538224166119975,0.5,0,
1.1523072819418512,0.32534366423347855,-0.5785113452739867,0.5,-0.7612655000829257,-0.7768230844835619,0.5,-1.1497676700512758,-1.0312637235182776,0.5,-0.4735670288528265,-0.462058580526687,0.5,0.7986709424557257,-0.2880532244628406,0.5,-0.0021017893990378633,-0.06450241242633127,0.5,0,
1.1603094158442253,0.32092454514513213,-0.6365130350270386,0.5,-0.7692417852137754,-0.8375702346520505,0.6498825850699611,-1.1584741342527365,-0.9371041551984871,0.5,-0.47636828065342984,-0.5691806212884606,0.5,0.7970320611722603,-0.25976994981621176,0.5,-1.5506159379138783e-05,0.35083174794410604,0.5,0,
1.1683115497465992,0.31515945567304593,-0.6869216157855095,0.9698671990232968,-0.7746666238373585,-0.7178514586055131,0.8625747293125868,-1.1647613365344516,-1.0131528778597603,0.5,-0.48267391879344185,-0.4993991412471435,0.5,0.7945146232586663,0.1798962804084106,0.5,0.003511518568067833,-0.14165270388627996,0.5,0,
1.1763136836489732,0.309933799292564,-0.24194764545838743,0.5,-0.7807274085514636,-0.8850871632827134,0.6904672558282224,-1.1746845802984927,-1.2742503036253516,0.6496632034654164,-0.48435866691338414,-0.5762172302894025,0.5,0.7999104016587949,0.2046762306391614,0.5,-0.0022819494215596185,-0.2202567900253773,0.5,0,
1.184315817551347,0.31128829334571173,-0.2769175465213956,0.5,-0.7888280184498819,-1.0050381237681065,3.380072079447543,-1.1851493413924572,-0.9647486078962625,0.6141592350627013,-0.4918933944780723,-0.7474164234744715,0.5,0.7977894429488929,-0.21681097216129375,0.5,-1.2590072338203458e-05,0.14620577153832093,0.5,0,
1.192317951453721,0.30550311854822165,-0.48296324100916693,1.0522348564691932,-0.7968080185317533,-0.25278617745246035,1.7500223625312012,-1.1901205580248329,-0.6334669394152392,0.6592409960832325,-0.4963173296889757,-0.32963519842772737,0.5,0.7964414261042142,0.1806808826501083,0.5,5.7342923053516774e-05,0.22161759532191558,0.5,0,
1.2003200853560951,0.30356088148956506,0.04880529559350352,0.5,-0.7928725972891213,0.15672993508190902,0.6814438842778581,-1.195284812423101,-0.150004888435043,0.6150068521612294,-0.4971675576529159,0.13344296754149582,0.5,0.8006803370712946,0.3365270976190132,0.5,0.003533291452812446,-0.1501771078972226,0.5,0,
1.208322219258469,0.3062840032777177,-0.06706588199511393,0.5,-0.7943003395704428,0.005153396357142348,0.5,-1.1925206362397935,0.26774936698055474,0.5079624401160284,-0.49418224220831175,0.023555870397130863,0.5,0.8018258596661184,-0.060938957035683305,0.5,-0.002345490803302045,-0.24645881807235787,0.5,0,
1.216324353160843,0.30248782737764324,-0.17750125168540867,0.5,-0.792790142947407,0.07427885155496944,0.5,-1.1910008225514122,0.012594579228655811,0.5,-0.49679066372656183,0.08671933299775336,0.5,0.7997053137587237,0.19110293207068307,0.5,-0.0004100496363452801,0.009242911133536393,0.5,0,
1.224326487063217,0.30344398325075117,-0.14169169180272903,0.5,-0.7931118779455633,0.037758893541753324,1.4008447257497016,-1.192319122972135,0.11034799750613,0.5,-0.4927947328803477,-0.008773135781636049,0.5,0.8048835065792493,0.18994602604831962,0.5,-0.002197604225165463,-0.03209162450759232,0.5,0,
1.2323286209655908,0.3002207603087996,0.04692282094585776,0.5324932261272937,-0.792186000650739,-0.27086504609353385,1.514692752670011,-1.189235254591314,0.07851543199131894,0.512376506621452,-0.496931033899068,-0.06242955839952033,0.5,0.8027444501754968,-0.3773242416404629,0.5,-0.0009235156284667572,0.4314955050299137,0.5,0,
1.240330754867965,0.3041947483858849,0.34508283447086047,0.765675047397278,-0.7974457186830598,0.07457470758386042,0.5,-1.191062876060274,-0.25551535655987667,0.5,-0.49379360581474,-0.009881339013511486,0.5,0.7988463187130019,-0.15056115731400255,0.5,0.004706323855313156,0.11393397207156634,0.5,0,
1.2483328887703389,0.30574208566033334,-0.042821127059423925,0.6317860049542048,-0.7909928053293972,0.039365734569127286,0.7408443077284084,-1.193323500296272,-0.22818280003536473,0.5289592116241756,-0.4970891353232842,-0.2526411418180899,0.5,0.8003354716584727,0.01460153943175918,0.5,0.0008994279246783044,-0.11578874153396192,0.5,0,
1.2563350226727128,0.3035096103529341,-0.3546737908142472,0.539983781732657,-0.7968158669299538,-0.0855808432048133,1.993742518653202,-1.1947138008608398,0.11722834837452067,0.5,-0.49783586408382946,0.03314545693302792,0.5,0.7990799433439101,-0.23250692986025168,0.5,0.0028537039907697657,-0.055434945121338716,0.5,0,
1.2643371565750867,0.3000673050073054,-0.04449759842584111,1.0170726519575073,-0.7923620988206742,0.3446752090456376,1.8299524635369653,-1.1914478467222798,0.11562414316193537,0.5,-0.49655880801235575,0.13478233650790136,0.5,0.7966153607807087,0.2218180960684435,0.5,1.2468802736884902e-05,-0.15423174116882166,0.5,0,
1.2723392904774609,0.30279764877812065,0.5288398550380123,1.1868633060202598,-0.7913010635852236,-0.06645146254039003,0.8680467433035981,-1.1928638145702488,-0.04850055819793919,0.5,-0.49567934669970304,0.007953343216869635,0.5,0.8026290328810052,-0.0046123089953720164,0.5,0.0003859961320686192,0.04822086415899875,0.5,0,
1.2803414243798348,0.3085287426879136,-0.07489440286271437,0.5,-0.7934253222213205,-0.2584811467031406,1.5212606528820722,-1.1922238556534468,0.042018799142756746,0.5,-0.49643155452088583,-0.009525560180471265,0.5,0.7965415638367828,-0.22038470274025196,0.5,0.0007840026292808649,0.28415707663668305,0.5,0,
1.2883435582822087,0.3015993383323172,-0.2163522449228003,0.6777055839977583,-0.7954367619324738,0.08177631726009188,0.5,-1.1921915137839647,-0.015703076595235954,0.5,-0.4958317556625906,0.38250294043644034,0.5,0.7991028776371611,0.003759985141314759,0.5,0.004932509358255548,-0.246904681077184,0.5,0,
1.2963456921845826,0.3050671067691488,0.12526228543549914,1.0323537899005932,-0.792116901145159,0.0922706427922762,1.6037806446535616,-1.1924751048789706,0.12108795397193506,0.5,-0.4903115074739028,-0.12017648274427473,0.5,0.7966017235990438,0.08183641366490968,0.5,-0.0031664722679540795,-0.3041446532373449,0.5,0,
1.3043478260869565,0.3036035348992852,-0.49065346565309653,0.8104739654583917,-0.7939604316477974,-0.27528510491463265,1.2120994783233296,-1.1902541065204137,0.08032944914640461,0.5,-0.497754579386499,-0.3162127676451798,0.5,0.8004122602557997,0.2756033626328813,0.5,6.619490645802944e-05,-0.11436842608189164,0.5,0,
1.3123499599893307,0.29721665131869923,-0.042872714212063845,0.8854285411285245,-0.7965214628237931,0.008032829959911392,0.7671849447702666,-1.191189833692628,-0.08600467772086617,0.5,-0.49537091175622566,0.3297334516447481,0.5,0.8010113774011699,0.026868434404664354,0.5,-0.004996367085264346,-0.05043797156159794,0.5,0,
1.3203520938917046,0.3029175714718922,0.4680207988654074,0.5427052745219754,-0.7938319063684388,0.1507141802856507,0.5,-1.1916301813639476,0.07734985471682942,0.5,-0.492478844160183,-0.10646652299830042,0.5,0.8008421552062743,-0.07838183943745941,0.5,-0.0007408126385275377,0.5220243537319053,0.5,0,
1.3283542277940785,0.30470498410054575,0.24192567731556522,0.5,-0.7941100359392227,0.1010908499818261,0.9040186172159275,-1.1899522360171588,0.17474502712086504,0.5,-0.49707437612419847,0.03535599557967853,0.5,0.7997572679701705,-0.18322236519011798,0.5,0.0033560225744461384,0.09823469007723071,0.5,0,
1.3363563616964524,0.30678838230894123,0.0008232083462747508,0.5,-0.7922144527687296,-0.09031509970786056,0.5,-1.1888342609300138,0.12807483411746146,0.5,-0.49191314823090815,0.1701386652139883,0.5,0.7979105973632324,0.2089199231124217,0.5,0.0008309424027081537,-0.16876996742779882,0.5,0,
1.3443584955988264,0.30471815543408615,-0.2639348173723438,0.5,-0.7955550775345485,-0.12687753677855657,0.547966028936306,-1.1879030386712794,-0.13663334913727176,0.5,-0.49435215748077466,-0.3896179983563681,0.5,0.8030999867399693,0.16760532231507863,0.5,0.0006557030956013574,0.03504884362524287,0.5,0,
1.3523606295012005,0.30256542523098373,-0.03488982149462902,0.5,-0.7942444933571865,-0.02635358010558142,0.7848243331550415,-1.1910203945162101,-0.06418104749433828,0.5,-0.49814703620461004,-0.1628725486742151,0.5,0.8005922825202737,-0.1665594987157043,0.5,0.0013917239007120396,0.0965047003042619,0.5,0,
1.3603627634035744,0.3041599182901721,0.2297396008386493,0.5,-0.7959767348162378,0.1489049983799326,0.5,-1.1889299354311889,-0.14046595515804228,0.5,-0.4969581182595621,0.004869687336091916,0.5,0.800435034760518,-0.07516816045148589,0.5,0.002199778300469548,-0.17235261685130301,0.5,0,
1.3683648973059483,0.3062412588444021,-0.01469334935450678,0.5,-0.7918620133831076,0.12629064787497007,1.7668069480784434,-1.1932678497987388,-0.12864218218294754,0.5,-0.49806912120723257,0.011544904934605166,0.5,0.7993895919530499,0.1647877536552836,0.5,-0.0013659179689088088,-0.05126317283096488,0.5,0,
1.3763670312083223,0.3039248247005,0.17336130427655916,0.5627625695920427,-0.7939560844502382,-0.28343705783610146,0.5,-1.190988210346116,-0.18429778415982034,0.5,-0.4967733997806084,0.17821744344941048,0.5,0.8030716388190026,0.029526364228676938,0.5,0.0013795675351741098,-0.05862736800890055,0.5,0,
1.3843691651106962,0.30901503971282707,-0.11225543690281808,0.5,-0.7963970063084852,-0.25421802858804216,1.4637560085982768,-1.196216614345296,-0.04568298128669601,0.5,-0.495217642112042,0.24596032122011988,0.5,0.7998620137807088,-0.17999675451844943,0.5,-0.0023039558570512176,-0.11720412648249444,0.5,0,
1.3923712990130703,0.3021287377100549,-0.18362303013158554,0.7988473092289385,-0.7980235729076469,0.06648560890167715,0.8735163658470285,-1.1917191380467032,0.16958356378615758,0.5,-0.4928380346410865,-0.039205337428818016,0.5,0.8001916907467074,0.012007665000070278,0.5,-0.0004956984885458012,0.3091181690860551,0.5,0,
1.4003734329154442,0.3060770712307217,0.17607690778253735,0.5,-0.7953332365660584,0.24940653162049825,1.48576668960942,-1.1935032773247174,0.033410764340172094,0.5,-0.4958449275109031,-0.13679786073354447,0.5,0.8000541364207099,0.03741724027774007,0.5,0.002641934848325664,0.156683900106415,0.5,0,
1.4083755668178182,0.3049459682345755,-0.07854654251758866,0.5,-0.7940330684017189,-0.06846216285511658,0.5372974615841944,-1.1911845658172604,-0.00799869541452669,0.5,-0.4950268004128232,0.049212161355248474,0.5,0.8007903665911512,-0.006917017092142319,0.5,0.002011243913156839,-0.1286228852423811,0.5,0,
1.416377700720192,0.3048203265504403,-0.10673896821309509,0.5,-0.7964286311717402,0.043235562924522075,0.6841300520267798,-1.1936312564513498,-0.12292622522920571,0.5,-0.4950575329292191,-0.0929834144458748,0.5,0.7999434641472356,-0.21117158771577493,0.5,0.0005839686844475661,-0.17958442322178253,0.5,0,
1.4243798346225662,0.30323814474316596,0.12273076416657522,0.6568421204845002,-0.7933412993949266,0.18918061644770945,1.8759462532728466,-1.1931513854209277,0.07532946596147672,0.5,-0.4965145350439572,-0.1500682275289919,0.5,0.7974116211876988,0.005230356563433458,0.5,-0.0008621068583916817,0.01813609678908642,0.5,0,
1.4323819685249402,0.3067840187771055,-0.228661282216977,0.5,-0.7934017413085769,-0.2408507626658271,1.0056149935496053,-1.1924259849959662,-0.05240902623238064,0.5,-0.497458624569683,0.08605844962973272,0.5,0.8000271498522505,0.037056618692583865,0.5,0.0008741462330729489,-0.055988033738842855,0.5,0,
1.440384102427314,0.29957956422769433,-0.09723442795037118,0.7697374270898618,-0.7971949115975798,-0.048382986074922696,1.763070848912734,-1.1939899298406458,-0.10969803500289477,0.5,-0.4951375998498815,0.20690354503709318,0.5,0.7980045270867802,0.011106479794888158,0.5,-0.0017579153982131674,-0.11567965367175422,0.5,0,
1.448386236329688,0.30522826792989954,0.3282755362997887,0.7582841331526678,-0.7941758690857756,0.32428210475776015,1.6784046609539711,-1.1941811535560125,0.06774831042996587,0.5,-0.4941481678490895,-0.13718644183048634,0.5,0.8002048535289688,0.1836825718173618,0.5,-0.0009767282256751186,0.2140434459197226,0.5,0,
1.456388370232062,0.30483197280849095,-0.04636333140899812,0.5,-0.7920063979214557,-0.03572790211305715,0.5,-1.1929059568737663,0.2315113915231648,0.5,-0.49733258291916926,-0.06365682674655537,0.5,0.800943448235858,0.055123902441236994,0.5,0.0016667797365023946,0.06610578873477801,0.5,0,
1.464390504134436,0.3044864546273556,0.03504726599153768,0.5,-0.7947475155195846,0.059805146681350674,1.0680463665074273,-1.1904769712916419,-0.012991420644731244,0.5,-0.4951666770770344,0.07607542967448533,0.5,0.8010868359680285,-0.18287263908221135,0.5,8.096439408132964e-05,-0.11309571545236788,0.5,0,
1.47239263803681,0.30539272906435555,-0.12359039952236639,0.5,-0.791049515574554,0.2711526202130582,2.3474704626360103,-1.193113819604082,-0.2074528700587719,0.5,-0.4961153760443775,-0.0451408350987878,0.5,0.7980174860105426,0.04220194816781375,0.5,-0.00014275171073549155,-0.10354531702224266,0.5,0,
1.480394771939184,0.3025090082349977,0.03252078158397578,0.5,-0.7904090735961756,-0.27230518234445944,0.5836586938238328,-1.1937962172125822,-0.14988642248976725,0.5,-0.495888930438615,0.19693944821274137,0.5,0.8017620671387136,0.34345196863228705,0.5,-0.0015757606782745531,-0.050247318469067014,0.5,0,
1.4883969058415578,0.30591306156969916,0.12159971481846138,0.5,-0.7954063984920654,-0.16054637342476086,1.0438203498793155,-1.1955120023639183,-0.1690298992592515,0.5,-0.49296434487297364,-0.19990677311988378,0.5,0.8035127175086592,0.06707777183161817,0.5,-0.0009467088062405639,0.06498514194067419,0.5,0,
1.4963990397439317,0.3044546036720931,-0.101113264145275,0.5,-0.7929778155709718,0.0488573997470057,0.554672738532652,-1.1965006956007302,0.18601850097148265,0.5,-0.4990874388085331,-0.11709522690147092,0.5,0.8028353114880195,-0.0981991344188235,0.5,-0.0005359984072237662,0.17399071964662804,0.5,0,
1.5044011736463059,0.30429524934337476,-0.16132693759194489,0.5,-0.7946246800961133,0.1391398289211851,0.5,-1.1925357063483746,0.35180906615979446,0.5044572332056828,-0.49483786850339717,0.22507343205829464,0.5,0.801941531357958,-0.008817587132101123,0.5,0.001837142708105485,0.09979094632806612,0.5,0,
1.5124033075486798,0.301873372670622,-0.1528047188729606,0.8133260229395294,-0.7907515783082328,0.05730630085302307,1.9549560943262125,-1.1908717505421735,-0.011409501534942468,0.5,-0.4954862638956004,-0.13796334597034401,0.5,0.8026942300939058,0.019698795816550096,0.5,0.0010606567340252918,-0.1062557055037401,0.5,0,
1.5204054414510537,0.3018503738414074,0.28671470426809564,0.5,-0.7937077792824649,-0.3901299489147275,2.1988901933182317,-1.1927182583729337,-0.16876034432515563,0.5,-0.4970452820389227,-0.009060936170063316,0.5,0.8022567120910228,-0.23395453029045887,0.5,0.00013705142004564335,-0.04980463150933734,0.5,0,
1.5284075753534276,0.3064608079389115,0.04624294702161927,0.5,-0.7969936574908685,0.092403685297969,0.9177289769766664,-1.193571916051376,-0.05449792948780674,0.5,-0.4956312388743214,0.2515989999234136,0.5,0.7989509576092585,-0.2915918302219961,0.5,0.00026378262987589434,0.07202334169425427,0.5,0,
1.5364097092558016,0.3025902609937533,-0.11182431879781102,0.9084044299107377,-0.7922293203176974,0.2839572697866041,1.6724323228537366,-1.1935902252447386,0.09094346154081556,0.5,-0.49301969804014806,0.014288849523303587,0.5,0.7975912428074708,-0.06626066236352368,0.5,0.0012894248871537118,-0.25632141048672247,0.5,0,
1.5444118431581757,0.30467161883814653,0.293807568733373,0.6387515777553643,-0.7924503411742828,-0.08716987186817293,0.5,-1.192116820666723,0.061622618328233125,0.5,-0.49540261728194857,-0.2147906988761092,0.5,0.7978907870114421,0.23425604893471258,0.5,-0.0038373599379116653,-0.18804182346085463,0.5,0,
1.5524139770605496,0.30729118209348727,-0.026577148178968946,0.5,-0.7936240382675882,-0.005729487332767347,0.55959074898729,-1.1926042633514868,0.012842942370125399,0.5,-0.4964563492221658,-0.10057585761068591,0.5,0.8013393395904262,0.1624460107150505,0.5,-0.0017192442882199626,0.14915853957303976,0.5,0,
1.5604161109629235,0.304246384467283,-0.30204585037324483,0.5515506735449867,-0.7925420129716071,-0.12204274300361279,0.8078786988633123,-1.191911333588801,0.03344786738404548,0.5,-0.49701183100371954,0.026007485859329965,0.5,0.8004899231828829,-0.16951875426443608,0.5,-0.0014508233047430292,0.019083086680361707,0.5,0,
1.5684182448652975,0.30245844848751535,-0.036274617962333416,0.5,-0.795576722155646,-0.30286078189077636,2.242070812577587,-1.192069097473342,0.07290187604416798,0.5,-0.4960402294484165,-0.05314299717744386,0.5,0.7986270395221953,-0.020367000302411176,0.5,-0.0014139149013341753,-0.03523864203863211,0.5,0,
1.5764203787676716,0.3036659905798857,-0.025922295606987944,0.5,-0.7973877854818595,0.19465164789971012,0.7114159821388714,-1.1907449035720943,0.1020232393127013,0.5,-0.49786211895855864,-0.07340496225196821,0.5,0.8001640511780443,0.14629415344639962,0.5,-0.002014641577361143,0.1188986810772732,0.5,0,
1.5844225126700455,0.30204369175780355,0.15035869827292533,0.5,-0.7924622957892506,0.3351900164297525,1.7066175698145885,-1.1904367256443389,0.13213392702138282,0.7219813718590526,-0.497214708844448,-0.06937333289905312,0.5,0.8009677459773377,-0.14819158727408244,0.5,0.0004884639959021957,0.2945849619754128,0.5,0,
1.5924246465724194,0.3060717297522525,0.06344607958605128,0.5,-0.7920247452189835,-0.06252343593867588,0.8875326205438635,-1.1886307607397522,-0.4062623613648453,0.5,-0.4989720922849435,0.21454931238628835,0.5,0.797792985781659,-0.09294059751929068,0.5,0.0026987178142454616,-0.16026162111722717,0.5,0,
1.6004267804747934,0.30305882903118037,-0.022981489114139858,0.5,-0.7934626707642695,-0.24296011904333115,1.4382631501127685,-1.1969369234261764,-0.20892423085672185,0.6732098009015405,-0.4937819198462674,-0.10841852137940047,0.5,0.799480696417029,0.16586206895197186,0.5,-0.002075721941973439,-0.5134999822028457,0.5,0,
1.6084289143771673,0.30570402592642626,0.11672550120223057,0.600438632403292,-0.7959121071236768,0.08056412972091281,0.5,-1.1919735484334597,0.22470393926284082,0.5,-0.5007067886270139,-0.07901745649694161,0.5,0.8004467788848906,0.09307651127816313,0.5,-0.005517281901000069,0.26771149636840863,0.5,0,
1.6164310482795414,0.30492643705041605,-0.23163188830544607,0.5,-0.7921736446887349,0.04420503394243075,0.6622027421127731,-1.193341660397971,0.17982637634858523,0.5,-0.49504619915021847,0.25551485124324785,0.5,0.8009699205974796,-0.10094673299409357,0.5,0.002207661999921099,0.42690927991057553,0.5,0,
1.6244331821819153,0.3019979157135391,-0.09178927504477699,0.7867488801569757,-0.7952048265805979,-0.07577154634991201,0.5,-1.1890963264118823,0.14029880835350617,0.5,-0.49661855100712193,0.21624823672671684,0.5,0.7988316311569851,-0.033160192884830464,0.5,0.00131326657756914,-0.3643208075004298,0.5,0,
1.6324353160842893,0.3034578086496996,0.33627272765749877,0.7160526094756843,-0.7933859894303334,0.027382984350857176,0.5,-1.1910968794643149,-0.11555477202032649,0.5,-0.491586227362591,0.052591874047658305,0.5,0.8004393575113223,-0.037362238455532215,0.5,-0.0036214709200857774,-0.02060276204367132,0.5,0,
1.6404374499866632,0.3073782793560591,-0.029105210137415904,0.5,-0.7947666988309842,-0.03423342969342824,0.5,-1.1909452027642076,0.21079240014951206,0.5259570025433858,-0.4957770810223594,-0.3932951347917594,0.5,0.7982338353416966,-0.11416046148769038,0.5,0.000983622384870399,0.08186166502491886,0.5,0,
1.648439583889037,0.30299212528750097,0.022611555831972968,0.5,-0.7939337243054283,0.059384876492395156,0.5670283634986344,-1.1877242010619227,-0.15195232098955125,0.5,-0.49787894951925915,0.1352646642303404,0.5,0.7986127901275193,0.0754520004871348,0.5,-0.0023116842796870756,-0.08632479102449381,0.5,0,
1.6564417177914113,0.30774006424937067,-0.2164473463381715,0.5,-0.7938165408071058,-0.05418341287199285,0.5,-1.1933764399000404,-0.11371871583951143,0.5,-0.49361284639467395,0.04658093487568474,0.5,0.7994410673494907,0.08641220077241357,0.5,-0.0003975742715215021,0.21881634422363533,0.5,0,
1.6644438516937852,0.2995289677460902,-0.1982443428466714,1.0098176162532688,-0.7948006589113802,-0.05645406561150673,1.2374497160985047,-1.1895437005153549,-0.06624925708620388,0.5,-0.4971336545612482,-0.07579924953761072,0.5,0.7999953853398779,0.13120042830074008,0.5,0.0011893772278910898,0.11237887939366506,0.5,0,
1.672445985596159,0.30456815476382393,0.3302649448574772,0.5355111268491782,-0.79471980585689,0.2127231871591334,0.5,-1.1944364280134196,-0.2383871970928486,0.5,-0.4948256343872757,0.03966310262951134,0.5,0.8015402742023026,-0.12249355287040353,0.5,0.001400487798777139,0.07407355848705144,0.5,0,
1.680448119498533,0.30481320686380986,0.02978406274315587,0.5,-0.791397087916834,0.23718147618331797,1.177569714945168,-1.1933578956688404,0.0702716127327363,0.5,-0.496499044919176,-0.16909440765169176,0.5,0.7980354884939515,0.05012928535142597,0.5,0.002374554163683913,-0.18553575942599188,0.5,0,
1.6884502534009072,0.3050446997677144,-0.08911118011004429,0.6131544743894877,-0.7909249022379569,-0.03177797266086524,0.5,-1.1933120822096959,0.2331412434502661,0.5,-0.4975311449097028,-0.04276196048944372,0.5,0.8023423427679254,-0.040262842837930635,0.5,-0.0015680843520387313,0.010372836693296706,0.5,0,
1.696452387303281,0.30338742798204915,0.23947552861618496,0.5,-0.7919055354794079,-0.06305087214389382,0.5,-1.1896276357736362,0.008915389194369405,0.5,-0.4971832362870071,0.1217683760310409,0.5,0.7973912830085446,-0.08524448131671386,0.5,0.00254051955077666,0.16258547409627291,0.5,0,
1.704454521205655,0.3088763082255734,0.18284918570940847,0.8134966563667522,-0.7919337161922592,-0.13490892210232114,0.5,-1.193169435982586,-0.15257248614858332,0.5,-0.49558285089320614,-0.036355318954923305,0.5,0.800978431066858,0.3860092081361746,0.5,0.0010332832335016352,-0.24264847983809182,0.5,0,
1.712456655108029,0.3063130149533997,-0.3122157116932471,0.6665155520744277,-0.794064078233045,-0.09167249479368617,0.5,-1.1920687955520135,0.058881987621356435,0.5,-0.4977649213902859,-0.08087678637610715,0.5,0.8035674303387234,-0.15213263898709167,0.5,-0.001341856126632809,-0.15006023419239473,0.5,0,
1.7204587890104028,0.30388085683848143,0.026781282905816856,0.5,-0.7934004761089581,-0.04346633964740637,0.7526247270933555,-1.1922273241806443,0.08799286170625698,0.5,-0.49687687947522385,-0.025476433165312617,0.5,0.7985443088430645,-0.288622435946885,0.5,-0.0013676805135766808,-0.0998227026905885,0.5,0,
1.728460922912777,0.30674151547989276,-0.15898459475077037,0.5,-0.7947595396674035,0.14657255429334493,0.5,-1.1906609097647134,-0.13056360546870316,0.5,-0.4981725443209309,0.04125437734205442,0.5,0.7989494713635732,-0.024962646863489757,0.5,-0.002939019369682225,0.07666287572612204,0.5,0,
1.736463056815151,0.3013371033224691,0.026256017576029717,0.5,-0.7910553152402646,0.121428436552308,1.7994117705837434,-1.1943163418681435,0.06298175918699467,0.5,-0.496216809437751,0.07586797771776121,0.5,0.7981449064932487,-0.01590953351505303,0.5,-0.000141074501958728,0.2092436716745383,0.5,0,
1.7444651907175248,0.30716161176110923,0.23111690510403335,0.5081251739668792,-0.7928166846825666,-0.2803583579615507,0.7702845032790163,-1.1896532016177215,0.1741801206017468,0.6249950615148417,-0.4969586566774467,0.002406612528156604,0.5,0.7986949188273323,0.04173532526880602,0.5,0.0004088793771103879,0.040563960350643226,0.5,0,
1.7524673246198987,0.30503497380413364,-0.04440456579500596,0.5,-0.7955410489676494,-0.12727403062265386,0.6678425129646693,-1.1915294599385156,-0.30767694244582255,0.5852873193903941,-0.4961783036373005,0.16276397975495752,0.5,0.7988126716975495,0.20946251189399995,0.5,0.0005079488636515636,-0.16589705475259137,0.5,0,
1.7604694585222727,0.30645113870838914,-0.04113798470140387,0.5,-0.7948530691725291,0.009047721327246072,1.1679166227283848,-1.1945760326968546,0.1116219137392016,0.5,-0.4943544330013674,0.08179047917980173,0.5,0.8020463190176363,0.23791156169753608,0.5,-0.002245473498931074,-0.13721655876870092,0.5,0,
1.7684715924246468,0.3043767660489112,-7.543001452267606e-05,0.5,-0.7953962854264135,0.2649352149426895,1.3982946988511566,-1.1897435093186883,0.25599028204752183,0.5,-0.49486965597042365,-0.23559639045399663,0.5,0.8026192566847101,-0.12235951567461656,0.5,-0.0016875160766476511,-0.08092419568019635,0.5,0,
1.7764737263270207,0.3064499318281568,0.2018577180297118,0.5,-0.790614105733446,-0.03127397352002681,0.6603997625426841,-1.1904801881840943,0.09887944591238651,0.5,-0.49812397524863133,-0.1781222521214064,0.5,0.8000885667668425,-0.23759459926445126,0.5,-0.0035402606298142155,0.1696404470910065,0.5,0,
1.7844758602293946,0.30760648953738656,0.08046259801647304,0.5,-0.7958966690027339,-0.15687926294544186,0.5,-1.1881614381840901,-0.003393849292335216,0.5,-0.49771961200436615,0.20353069262191506,0.5,0.7988177430964789,-0.04194292485529966,0.5,0.001026731076808453,-0.005794580404021901,0.5,0,
1.7924779941317686,0.30773733339642034,-0.14601942381895286,0.5,-0.7931241739405731,-0.09569420338609996,0.6519369425566673,-1.1905344897727717,-0.15524372600150826,0.5,-0.4948674841666807,0.05354135537031027,0.5,0.7994174799691577,0.2653180401080285,0.5,-0.003632973916278566,0.08752611368856854,0.5,0,
1.8004801280341425,0.3052701787562833,-0.261843669047513,0.5,-0.7974277762569115,-0.2261847053822777,2.0233789481032143,-1.1906453378001143,-0.14384467301778447,0.5,-0.4968629503184412,0.07625194575088673,0.5,0.8030628317382074,0.1801990527957667,0.5,0.0024271488958255497,0.0907707776718147,0.5,0,
1.8084822619365166,0.30354783469166013,-0.009074897303458507,0.5,-0.7967431292266896,0.2357780035961432,1.373602838790172,-1.1928360045410562,-0.16988015412879032,0.5,-0.4936474530346665,-0.03849755248683945,0.5,0.80230066481389,0.0029276230338048936,0.5,-0.0021806414735295308,-0.29018297982521046,0.5,0,
1.8164843958388905,0.305124980399428,-0.05014653675911376,0.5,-0.7936553281993732,-0.060290711570189226,1.1816461919277228,-1.193363420266175,0.06527304956069346,0.5,-0.4974789111582306,-0.2518728106379389,0.5,0.8031096737067482,-0.13057589315037393,0.5,-0.002215778781377818,0.47946575693246124,0.5,0,
1.8244865297412645,0.3027454901035143,-0.1929985420351006,0.7118672076260438,-0.7977077806118126,0.19541174507097664,0.5,-1.191791635748085,0.14419912637034238,0.5,-0.49767741800487353,0.16172875781569548,0.5,0.800211450523484,-0.34462646023618315,0.5,0.005490810637389849,0.2810930272631913,0.5,0,
1.8324886636436384,0.30203700372686637,0.19053131743707388,0.5,-0.7905287402782376,0.11739780282942619,0.9670816014265042,-1.1910562342442494,-0.06754979604331468,0.5,-0.4948912510331795,0.09325987971629465,0.5,0.7975956503429693,0.1842781355895981,0.5,0.002281709654833243,-0.39340416825619995,0.5,0,
1.8404907975460125,0.3057939911825075,0.2323101870674235,0.5035388667178533,-0.7958294157665418,-0.06654482285146229,1.1940330607383605,-1.1928724324847781,-0.06892816962113246,0.5,-0.4961852599294128,-0.36271426871189655,0.5,0.8031599006929175,0.24485421077656555,0.5,-0.0008036560547093504,-0.18710250183719013,0.5,0,
1.8484929314483864,0.30575396671994515,-0.03062693482653797,0.5,-0.791593457443861,0.19148457705077393,1.457571212200615,-1.1921590849581876,-0.0447219573843638,0.5,-0.5006946793325698,0.22155665391524956,0.5,0.8015133177153944,-0.05863921527529681,0.5,-0.0007119303745617989,0.03946959547910538,0.5,0,
1.8564950653507604,0.3053039602252829,-0.12489781338507339,0.5,-0.7927656625337294,-0.14992534948535946,0.5016786204381999,-1.193587983802928,-0.04317502909867432,0.5,-0.4926403534667688,-0.055646513763767114,0.5,0.8022216732485128,-0.00953716071293298,0.5,-0.00017214252704366435,0.13586983289292726,0.5,0,
1.8644971992531343,0.303755601705784,-0.13523864190534418,0.5,-0.7939922630356268,-0.0653145699645516,0.5,-1.1928498854237664,-0.11850330100773854,0.5,-0.5015850235527901,-0.20357544605554764,0.5,0.8013607231439874,-0.16031819859792934,0.5,0.0014619869517250373,-0.0032028820651708897,0.5,0,
1.8724993331555082,0.3031401419547974,0.07984157933827243,0.5,-0.7938106956531622,-0.04737742427450564,0.6035221687561494,-1.1954840366190518,-0.029689221094683638,0.5,-0.4958975606036576,0.3825254099231873,0.5,0.7996565820709459,-0.10639665240405605,0.5,-0.00022338864008639858,-0.14567215383364265,0.5,0,
1.8805014670578823,0.30503306697519633,0.19910838784086005,0.8503335648028876,-0.7947503018240188,-0.19104532094171844,1.509735110234452,-1.1933249129612813,0.25652997598828164,0.5,-0.4954646169940191,-0.0746654115428326,0.5,0.7996583767055225,0.025650028219109666,0.5,-0.0008687675096132452,0.32886297250906144,0.5,0,
1.8885036009602563,0.30632587616025114,-0.21977813867287213,0.5,-0.7968674207882297,0.1577679364563947,0.5,-1.1913795570032393,-0.02712817307060078,0.5,-0.4970922071883429,0.11403754144110462,0.5,0.8000669825224517,0.09599187890974026,0.5,0.005038418920058584,-0.14628257953319201,0.5,0,
1.8965057348626302,0.3015166167564304,-0.11630998348339042,0.5,-0.7922260148407165,0.1751384104019607,1.1552362068306727,-1.193758963730411,0.12770988026622465,0.5,-0.49364001633096144,0.15724094715706058,0.5,0.8011942467680784,0.08219694917400294,0.5,-0.0032092887821443174,-0.4998015110420018,0.5,0,
1.904507868765004,0.3044649164245169,0.12039803092990173,0.5,-0.7940652062217983,-0.09012295024870415,0.5164908545094121,-1.1893361989189797,0.2340711767506165,0.5915141653694227,-0.49457635203382994,0.10592444668885634,0.5,0.8013821337092357,-0.08598362573467022,0.5,-0.002958405256613445,0.2964732507248652,0.5,0,
1.912510002667378,0.3034429852513088,-0.025521308679912064,0.5,-0.7936679820446958,0.014548642147435564,0.5,-1.190013824902401,-0.21690170845659051,0.5,-0.49194522518393974,-0.33308649799927353,0.5,0.7998185087563237,-0.12887324267079475,0.5,0.0015342832294535254,0.011395797252398655,0.5,0,
1.9205121365697522,0.3040565754856383,-0.05054414482075914,0.5,-0.7938324279474394,-0.017083175624807434,0.9258633573469774,-1.1928066262542851,-0.3783972749059755,0.645068688937753,-0.4999057360018183,-0.5512074306394631,0.5233809790510062,0.799320161826503,0.13814678351163623,0.5,-0.0027760725005750663,-0.012024553220782042,0.5,0,
1.928514270472126,0.30263427893417666,-0.10964126532391968,0.5,-0.7939413128546927,0.20018266701327808,0.5535867076640724,-1.1960681813008966,0.0004150553388204692,0.5,-0.5007645440741711,0.3682066641274226,0.5,0.8020288572925098,0.0681104950743805,0.5,0.0013418903779210127,0.12475869794566077,0.5,0,
1.9365164043745,0.3023023152404556,-0.12772041837778858,0.5,-0.7906295052752269,0.11679410268241458,0.9195841829600507,-1.192799985368864,0.17007964087363547,0.5,-0.49401442937577955,0.3339728554258292,0.5,0.8004099297476931,-0.044567169908929505,0.5,-0.0007799333334444939,-0.16093652115038953,0.5,0,
1.944518538276874,0.30059075224013204,0.0443850117861945,0.5,-0.7920726072117741,-0.06947365605326772,0.5,-1.1933469070469185,-0.053105960463192825,0.5,-0.4954209783873579,0.0339336022780537,0.5,0.801315782573967,-0.09233092302826651,0.5,-0.0012330939604852196,0.03466648667090361,0.5,0,
1.9525206721792479,0.3030124754290347,0.16590322683896971,0.5,-0.7917410837720792,-0.11664155194293646,0.5,-1.193649680736275,0.004222259840314102,0.5,-0.4934714917393307,0.17116641096850613,0.5,0.7989326349792408,-0.25544041756167535,0.5,-0.00022526954671003624,0.10723603906570744,0.5,0,
1.960522806081622,0.30324520386955556,0.16298921945320094,0.5,-0.7939388720428611,-0.20857249383311044,1.2984616043811945,-1.1932793508894735,0.311859866132691,0.5,-0.4926823158118618,-0.23298034082179161,0.5,0.7972287358929802,0.19759472449676352,0.5,0.0004826826645660996,0.1479853532326288,0.5,0,
1.968524939983996,0.3056203029402859,0.09011973863002828,0.5,-0.795078243673409,0.08980171513661012,0.5,-1.188659922878152,0.2617654044778095,0.5,-0.49719917719247936,-0.28983687383786827,0.5,0.802094150571189,0.208651086544262,0.5,0.0021424961050120245,-0.018792003303646696,0.5,0,
1.9765270738863698,0.304687119687636,0.17982145624949666,0.7093146686706543,-0.7925020446006753,0.0922616494595449,0.9555274666303081,-1.1890911044178285,-0.04883563929096446,0.5,-0.4973197057932677,0.19368626965381858,0.5,0.8005671532776883,-0.060717780452426706,0.5,0.00018201061170775243,-0.25042017062377053,0.5,0,
1.9845292077887438,0.30849744624027786,-0.15494591778971237,22.28691387090607,-0.7936020572820562,-0.1367107206687243,77.9773279654194,-1.1894412931068075,-0.2205654167676957,28.111094312645832,-0.49410019687801826,0.09833477646101554,7.314118324565893,0.8011226660839502,-0.25319627361589797,0.5,-0.0018642266249683044,0.05826938540493185,0.5,0,
1.992531341691118,0.3022079850030006,11.957788496237745,2.215164429224302,-0.7946894161313749,18.42577761759095,2.814611660762459,-1.1926201510861116,24.42294031025545,2.813158106135408,-0.4957463493698914,12.226637149889363,1.2955002426169835,0.796516012899834,-0.1661234969536421,0.5,0.001114320778186662,0.1191398958292868,0.5,0,
2.0005334755934916,0.4998220621800818,12.48933516554561,22.922833942675002,-0.49878961540060107,18.220277409395273,81.0007242949664,-0.7986742481427203,24.64431770557167,30.381433912886997,-0.29847400247978845,12.542899250661637,8.803319056689817,0.798464690132692,0.11460999459876609,0.5,4.2011708300284555e-05,0.3035432441314674,0.5,0,
2.0085356094958655,0.5020373476517304,0.7296750323416874,0.6282439083733808,-0.5031649775810505,-0.6250143130662952,0.5,-0.7983110677969649,0.14334024191543088,0.5,-0.29505996135930523,0.2891346361769374,0.5,0.7983497728134142,-0.4117997213952673,0.5,0.0059710126842901405,0.4043021543349896,0.5,0,
2.01653774339824,0.5114968626975488,0.43351617940027426,0.5,-0.5087898444096618,-0.6428395848533732,1.3381909123095763,-0.7963808042720734,0.27213654286018657,0.5,-0.29384784830095745,0.354214640506844,0.5,0.7918758945903677,-0.31486331318462957,0.5,0.006510846177660118,0.19880452679235144,0.5,0,
2.024539877300614,0.5089736065221347,0.33977404405580863,0.5,-0.5134504109387045,-0.36862842261695117,0.682631557833037,-0.7939568831112019,0.1379890827507141,0.5,-0.28939252711119573,0.49490345318473417,0.5,0.7933119598024602,-0.05135014371390051,0.5,0.009151885112967764,0.3896947194365083,0.5,0,
2.0325420112029877,0.5169332474024417,0.5182689296399923,0.8591450155352657,-0.514687899171533,-0.22222936359958534,0.5,-0.7941729789480619,0.2646238004089946,0.5,-0.2859293930500017,0.23373611190807136,0.5,0.7910542922909453,-0.2893697807063375,0.5,0.012745961688644251,0.43702243908099175,0.5,0,
2.0405441451053616,0.5172659093963746,0.10101371693384265,0.5566139692639598,-0.5170060807562978,-0.22770147706731997,1.5995287597987413,-0.789722902304658,0.20427724931786767,0.5,-0.2856527493206666,0.3869007594184126,0.5,0.7886820433111588,-0.2286270484438066,0.5,0.016144244138263632,0.4875442862359525,0.5,0,
2.0485462790077356,0.5185494668733832,0.3672135720721795,0.5,-0.5183311228046101,-0.5854376514448228,1.1381704874964753,-0.790904542958976,0.44221417526189855,0.5,-0.2797389808993071,0.6965177035020941,0.5,0.7873962595158444,-0.03553784481667016,0.5,0.02054667026841949,0.5459467181547957,0.5,0,
2.0565484129101095,0.5231413265495295,0.5966696565394419,0.5,-0.526373083179415,-0.8035684873002532,3.1031299701680144,-0.7826474755004676,0.43674700592778726,0.5364144275293352,-0.2745084660646331,0.46672359212555914,0.5,0.788113437794092,-0.19101932818712392,0.5,0.024879391628740363,0.2041725685832385,0.5,0,
2.0645505468124834,0.5280961813780143,0.6118086182432882,0.7792694629530299,-0.5311882186014142,-0.09865294419355436,0.5,-0.7839165908641315,0.0690614095858258,0.5,-0.27227140342529815,0.27854031470323987,0.5,0.7843399502648504,-0.6580304409858073,0.5,0.023813431365751307,0.30319492197900366,0.5,0,
2.0725526807148573,0.5329302644414221,0.2420464261752575,0.6755663111232301,-0.5279515302865119,-0.15639311031955677,1.88893416817508,-0.7815424929470944,0.27503161580482577,0.5,-0.27005182102938124,0.39603877767189694,0.5,0.7775849507383191,-0.2873669386697017,0.5,0.02973051038040442,0.65373525017277,0.5,0,
2.0805548146172312,0.5319689241968184,0.610576959697455,0.5,-0.5336905083665271,-0.589272464886513,0.5,-0.7795160850112542,0.3895882705439793,0.5,-0.2659347829825478,0.38338996250978846,0.5,0.7797420792461351,0.12106375376162021,0.5,0.03427319536851563,0.3174817168977732,0.5,0,
2.0885569485196056,0.5426994957965814,0.5716643652296793,1.058419969988125,-0.5373798897246961,-0.5818671636451597,0.5508904954938892,-0.7753090806183908,0.34083407156042245,0.5,-0.26391758162922463,0.5352155968006249,0.5,0.779521970798505,-0.3947161669070609,0.5,0.03481021785076879,0.40926658366013774,0.5,0,
2.0965590824219795,0.5411155540404933,-0.027127758629015564,0.5,-0.5430003829848496,-0.6651305643641386,2.070893810511166,-0.7740627398662875,0.22710103980289748,0.5,-0.2573713334337378,0.4324378542902886,0.5,0.7734266205756222,-0.1027979535202575,0.5,0.04082146070707783,0.4273691390087415,0.5,0,
2.1045612163243534,0.5422654516585171,0.20980383166404465,0.5,-0.5480219787545223,-0.19556891864626336,0.5,-0.7716754639815444,0.20479179135751008,0.5,-0.25699857596058,0.1959282365738245,0.5,0.7778772035421809,0.0817510055116516,0.5,0.04164812407490866,0.24160455716114218,0.5,0,
2.1125633502267274,0.544472415347118,0.21859910990052606,0.6812839436438582,-0.5461294856831899,-0.18338715568919778,2.186262897500966,-0.7707860712045673,-0.054427557371478086,0.5,-0.2542364816485566,0.5402844152617055,0.5,0.7747346366638086,-0.41353975897984174,0.5,0.044687133621656105,0.7433213909754541,0.5,0,
2.1205654841291013,0.5457630374169256,0.5907852969696259,0.5,-0.5509561732455495,-0.6589307365003418,2.1945845981816468,-0.7725463048994881,0.28767914349047546,0.5,-0.24835402531639272,0.43949901095599425,0.5,0.7712605673985035,-0.49322711987340173,0.5,0.053541266330515924,0.8226544226740216,0.5,0,
2.128567618031475,0.553924980098632,0.43552744743355354,0.5,-0.5566723774671953,-0.16693997600217975,0.5,-0.7661832049087197,0.2573083908279511,0.5,-0.2472044974732607,0.2536230149771893,0.5,0.7668430027458342,-0.35937652626711475,0.5,0.05784960438444045,0.4367906801330404,0.5,0,
2.136569751933849,0.5527314765758624,0.27556674098803274,0.9504577113816836,-0.5536272128615843,-0.2137750233555738,2.699413127890149,-0.7684293706462408,0.11648626140835228,0.5,-0.2442960570767577,0.5909832915021556,0.5,0.7655105429782296,-0.14887040741880936,0.5,0.06052991721264457,0.1727139239072811,0.5,0,
2.144571885836223,0.5583340479544405,0.8223381055982789,0.5,-0.5600927778408845,-0.8166047089644759,1.0429790324593964,-0.7643194247261861,0.36403882226457296,0.5,-0.23774876480922622,0.5797913214205669,0.5,0.7644610762271332,-0.43166399455589477,0.5,0.06061302716695695,0.23122543797684125,0.5,0,
2.152574019738597,0.5658888862654349,0.6582544518499641,0.5,-0.566692888205016,-0.6090911218743985,1.730160701574401,-0.7626047494900077,0.30000644108469504,0.5020758027673397,-0.23501939593402862,0.35887162393609223,0.5,0.7586039190653353,-0.038868810847435264,0.5,0.06422952422027403,0.23400095940085547,0.5,0,
2.160576153640971,0.56886611918404,0.4615988738405144,0.5,-0.5698382357908749,-0.243876188443036,0.5,-0.759519321668831,0.025180703776286895,0.5,-0.23200681882624874,0.3410817256004651,0.5,0.7638391752535743,-0.07510644171430936,0.5,0.06435704251737064,0.34178568641601415,0.5,0,
2.1685782875433453,0.5732744682468831,0.3649134179333352,0.5,-0.5705949072201045,-0.2037740793044973,1.064955034788638,-0.7622018582295871,0.26447870952180097,0.5,-0.22956208832442118,0.3021172564591501,0.5,0.7574022159979064,-0.3953581086052413,0.5,0.06969809520293026,0.6226231386447953,0.5,0,
2.176580421445719,0.5747047338709733,0.30505181246913426,0.5,-0.5730986210597468,-0.43626754245025545,0.7274647691466077,-0.7552876623164821,0.39650945268711324,0.5,-0.22717294272290234,0.4998387313211259,0.5,0.7575134455158904,-0.26322763747319705,0.5,0.07431901273568736,0.4232206478234487,0.5,0,
2.184582555348093,0.5781552972463893,0.4470311891999479,0.5,-0.5775751878993086,-0.5793259447351775,0.812759791602534,-0.7558577069865933,0.16159666742789763,0.5,-0.22156466862328317,0.6129878368428786,0.5,0.7531905737983352,-0.23168282796089124,0.5,0.07646962556810544,0.32524694603120863,0.5,0,
2.192584689250467,0.5818572328981725,0.27810929044400773,0.5,-0.5823678361755097,-0.4416028348308079,1.2484951421900994,-0.7527021156376358,0.3613656475818794,0.5,-0.21736513733341628,0.3913783413237552,0.5,0.7538065202685161,-0.35968357885663577,0.5,0.0795229638721867,0.5717733410531946,0.5,0,
2.200586823152841,0.5826050458934934,0.3163783017432059,0.5,-0.5846408332566015,-0.17561401981936592,1.2951465870449619,-0.7500758566252832,0.23728199511975634,0.5,-0.21530261516210308,0.29452264258670796,0.5,0.747435636536629,-0.5911222111789279,0.5,0.08561799902495655,0.5409543588124665,0.5,0,
2.208588957055215,0.5869192857260638,0.3158282977957297,0.5,-0.5851776604926195,-0.4715628936354799,0.5,-0.7489056037157197,0.22916412500240124,0.5,-0.21265277505202895,0.34930934503334815,0.5,0.7443485648896533,-0.09482601254820477,0.5,0.08817823361318616,0.1603557554362943,0.5,0,
2.2165910909575888,0.587658298658225,0.5213907370433951,0.5,-0.5921858395547692,-0.4619982511583978,1.0158311680422367,-0.7464092306252448,0.45672114739943315,0.5,-0.2097136656415695,0.28514592343763767,0.5,0.7459184203358578,0.02460450551765997,0.5,0.08818369111193726,0.4858496818959737,0.5,0,
2.2245932248599627,0.5952615375187581,0.4714006180743732,0.6206819555651576,-0.5925696325111539,-0.2518931175025732,0.980451335602407,-0.7415980653573288,0.16285194088692945,0.5,-0.20809044027702675,0.3522857797387622,0.5,0.7447422369779358,-0.14812451205143545,0.5,0.09595182852352174,0.5150968494479187,0.5,0,
2.2325953587623366,0.595200708547415,0.15507984241333594,0.5261257613241325,-0.5962161294348104,-0.47078132584740806,0.7436489246224222,-0.7438035995710539,0.04150072559536144,0.5,-0.20407709316574932,0.3803797945207722,0.5,0.7435484281430348,-0.2829216162040654,0.5,0.09642524070310396,0.43225684718705554,0.5,0,
2.240597492664711,0.5977428149973715,0.430654364682273,0.5,-0.6001021337247124,-0.32079963502668757,0.5482103245690555,-0.740934053747803,0.38862654639286454,0.5,-0.2020043635646944,0.6416134447066284,0.5,0.7402154911186708,-0.24889123905936367,0.5,0.10286793807851463,0.1524965079100467,0.5,0,
2.248599626567085,0.6020911783823314,0.5925385084760704,0.5,-0.6013489235952374,-0.2339543910771652,2.2092752101824256,-0.7375855748287681,0.2512638269234549,0.5,-0.19381127805044326,0.7015431350952047,0.5,0.739566168318085,-0.24200213286403038,0.5,0.0988651848296647,0.12310295703049125,0.5,0,
2.256601760469459,0.6072234311329886,0.39231099419707177,0.5,-0.6038454039819471,-0.7276924331130543,0.9451030435240969,-0.7369138325170277,0.25726221703261526,0.5,-0.19077967340317112,0.3946963360245588,0.5,0.7363434569928463,-0.34826716392600404,0.5,0.10483758539100249,0.7167231054547099,0.5,0,
2.2646038943718327,0.6083681542894845,0.13414546675862005,0.8349433778633839,-0.6129920025250463,-0.5296216607918388,2.1824829003177597,-0.7334693793562462,0.26301865112933476,0.5,-0.18749613667405032,0.14494130007320324,0.5,0.7339938936952689,-0.11557370046161308,0.5,0.11033275451694007,0.6450312637231855,0.5,0,
2.2726060282742067,0.6093697586011265,0.5622323592309186,0.5,-0.6123193505546165,-0.05380659224753226,1.7748789562070793,-0.7327055340989583,0.0640303067632117,0.648668998820576,-0.18846061260199987,0.19079086254381733,0.5,0.7344942777854605,-0.4732037961081778,0.5,0.11515808561057346,0.401768157002237,0.5,0,
2.2806081621765806,0.6173638720371792,0.8019386833722913,0.9319957972779814,-0.6138529080010068,-0.4634812964101967,0.7933858794254723,-0.7324448944480348,0.4404252761419092,0.5,-0.18444348287334925,0.5171951637586818,0.5,0.7264226329575381,-0.439833138191556,0.5,0.11676104502897586,0.454750215708284,0.5,0,
2.2886102960789545,0.6222007775350832,0.34792347920844374,0.5,-0.6197350512971797,-0.6192568823500805,0.5,-0.7256587296806878,0.5289879813990191,0.5902024260551028,-0.18018548998186096,0.4297514648248044,0.5,0.7274569475743956,0.16444773961960674,0.5,0.122434089061906,0.5293348922748818,0.5,0,
2.2966124299813284,0.6229306477045143,0.3792952144379552,0.5,-0.6237610181186081,-0.6200237887099558,0.5,-0.7239810867456505,0.14519612778737812,0.5,-0.17756745943615238,0.5244362210874345,0.5,0.7290537967914518,-0.2842225687920419,0.5,0.12523040330537397,0.44362291245567986,0.5,0,
2.3046145638837023,0.6282695009660905,0.35611492602043854,0.5,-0.6296554319165389,-0.5633506746668334,1.4684856324772808,-0.7233355916360897,0.16737698797999329,0.5,-0.171794510444462,0.5807047567518968,0.5,0.7229093864737229,-0.29744867293622634,0.5,0.12953205566119688,0.5703506655993247,0.5,0,
2.3126166977860763,0.6286284865208414,0.1934792602709609,0.5991118657642199,-0.6327746289132774,-0.29285665210071476,0.5,-0.7213030549379706,0.34500356737039023,0.5,-0.16827618332812203,0.33083561078202023,0.5,0.7242946180244721,-0.22690931590731156,0.5,0.13435601395496316,0.16178618245824178,0.5,0,
2.3206188316884506,0.6313651691304258,0.4694910613401368,0.5,-0.6343411383501504,-0.25054258204031815,1.4526358835294397,-0.7178155345581635,0.27343132843909296,0.5,-0.16650114067194968,0.05254879640022997,0.5,0.719278837419206,-0.5529698668499602,0.5,0.13212063458052875,-0.03984425000340755,0.5,0,
2.3286209655908245,0.6361403435022835,0.6050014002735373,0.5,-0.6367833102259225,-0.5775972231365362,1.2823491333452928,-0.7169281536829452,0.12155605500586975,0.5,-0.16743540258571835,0.5401359084599121,0.5,0.7154471001548728,-0.19188215606481124,0.5,0.13371850595490864,0.5491834002837783,0.5,0,
2.3366230994931985,0.6410451915348024,0.4744178842285493,0.5,-0.643582693920335,-0.31486154625393753,1.6675550525073817,-0.7158706376780696,0.42081554812111593,0.5,-0.1578589661365911,0.7564182031546753,0.5,0.716208722922169,-0.1896398977583036,0.5,0.1409075689850692,0.26830183892829346,0.5,0,
2.3446252333955724,0.6437310296499403,0.3309581092809308,0.5,-0.6418210949659855,0.045351186214175054,2.0386195815143195,-0.7101951049130073,0.37873760819141095,0.5966498341951635,-0.15533271133524354,0.3861723323510622,0.5,0.7124128617907399,-0.2600703513736813,0.5,0.13801133537776133,0.4343241475101428,0.5,0,
2.3526273672979463,0.6463405212832973,0.26542815423630933,0.5,-0.6428570749409082,-0.4125197317136897,1.7826011090774818,-0.709810835947007,-0.07893341141152616,0.5,-0.1516802088189741,0.5908408632112339,0.5,0.7120475973001901,-0.1446233189298443,0.5,0.1478567553452315,0.6950862130205362,0.5,0,
2.3606295012003202,0.6479778801177213,0.31551754441330043,0.6161819877966773,-0.6484214106734045,-0.8052278310812441,1.3395524093397486,-0.7114580394955917,0.2325272261019598,0.5,-0.1458792575238638,0.44177849520381574,0.5,0.7100988886878624,-0.08414189440410225,0.5,0.14913271478608991,0.5005029251372288,0.5,0,
2.368631635102694,0.6513888019939101,0.6283731903491963,0.5,-0.6557407202382081,-0.5302866184781069,0.9875387456538613,-0.7060904003293756,0.4195026483999331,0.5,-0.14461175289571304,0.30365157400085924,0.5,0.7107013269897244,-0.26763899537071006,0.5,0.15586480214742715,0.3848063946993805,0.5,0,
2.376633769005068,0.6580318511633084,0.4996270908727077,0.5,-0.6569059965690542,-0.3385424549367938,0.8560380319402352,-0.7047459971211928,0.11191164916759394,0.5,-0.14102083233985005,0.5102090674099277,0.5,0.7058166647619311,-0.485735171985649,0.5,0.15528961710128,0.22480061608457813,0.5,0,
2.384635902907442,0.6593828354478735,0.46264212414455497,0.5,-0.6611573995171968,-0.5098744801847118,1.2617240860590428,-0.7042998139426941,0.3638305379405071,0.5,-0.1364484078171542,0.29230477234414365,0.5,0.702929564237954,-0.1586468319100115,0.5,0.1594616120047804,0.6894580870248687,0.5,0,
2.3926380368098163,0.6654341251496213,0.3229526226633181,0.5,-0.6650639882520096,-0.24171817607940987,1.2340161272988865,-0.6989247085141447,0.31128325673940305,0.5101917928677236,-0.13634395598234375,0.3743183737671893,0.5,0.7032783154513709,-0.28169541577540563,0.5,0.1663209464936779,0.3201307605951425,0.5,0,
2.4006401707121903,0.6645500774104866,0.3809073744958369,0.8144766021690848,-0.6650248903344673,-0.5024611083387711,0.5,-0.6993192818348637,0.0008541518606228204,0.5,-0.13045931383687917,0.3631363177412153,0.5,0.6984224375855476,-0.3825979692243936,0.5,0.16458370417430268,0.4195854258949617,0.5,0,
2.408642304614564,0.6715286431415547,0.7739676158930314,0.8622597354666788,-0.67310336598543,-0.4993463493707592,0.696080991076564,-0.6989110420843747,-0.0001376440951703084,0.5833540650354955,-0.1305337748984843,0.17200093009528752,0.5,0.6971567479437806,-0.33247082482960183,0.5,0.1730343133079973,0.6535673026663459,0.5,0,
2.416644438516938,0.676933559264775,0.334281546103328,0.5044902059603623,-0.6730144319243995,-0.3700180766551403,0.5,-0.6993214841403864,0.39757685096653006,0.5,-0.12770729895535457,0.3353775944121735,0.5,0.6931029043882739,-0.07119006776201003,0.5,0.17504078101696421,0.11194964498584259,0.5,0,
2.424646572419312,0.6768771478792079,0.11653623699129506,0.8540790965884029,-0.6790236552119122,-0.3269335707731663,0.5,-0.6925498124689102,0.4690453138009726,0.5859943915466882,-0.12516773338788953,0.3341272055067653,0.5,0.6960177068595884,-0.1921351799791804,0.5,0.17482550762777077,0.14006390209749495,0.5,0,
2.432648706321686,0.6787981390566358,0.586883286886497,0.5,-0.6782453690567701,-0.3990383493285843,1.0370039307026329,-0.6918167591195709,0.09873157631195423,0.5,-0.12236126366724633,0.44087766293563446,0.5,0.690028741508607,-0.391638416794203,0.5,0.17728180345052413,0.7812756358039143,0.5,0,
2.44065084022406,0.6862672804693919,0.6028721059454095,0.5198996940865446,-0.6854082688011696,-0.6111649905400709,2.280203734664041,-0.690970107247919,0.1174065903149224,0.5,-0.11811369078091938,0.5851483559327691,0.5,0.6897514921908812,-0.045227540386563736,0.5,0.1873259178006334,0.9447957768006342,0.5,0,
2.448652974126434,0.6884440927517623,0.3854592093677153,0.5,-0.6880240089054113,-0.08683007853577812,0.9390678507884603,-0.6899382536745321,0.015374260514247617,0.6307780359246384,-0.11299888997232202,0.45140927911296086,0.5,0.689305100862422,-0.3443615443415593,0.5,0.19239853587933428,0.3138474347824122,0.5,0,
2.4566551080288077,0.6924346278192753,0.21625415367627215,0.5,-0.686797550057742,-0.3015796356451231,1.908624839603265,-0.690724119079691,0.4914828989891068,0.5,-0.110891142315112,0.25455302303206784,0.5,0.6842417074814162,-0.18147897521138268,0.5,0.192347476757152,0.20101282567345363,0.5,0,
2.4646572419311816,0.6919041592105827,0.4813898858903806,0.5058080539073482,-0.6928492830757332,-0.7112994306393006,1.412862203378073,-0.6820745272907064,0.5260092243009536,0.8466224531942207,-0.10892604160380893,0.3793401137826219,0.5,0.6864014372590399,-0.08310373667722026,0.5,0.19561474109010954,0.3443077981078041,0.5,0,
2.472659375833556,0.7001368659935214,0.6943802316820915,1.1208439509162527,-0.6981783409479708,-0.422389067913434,0.5,-0.6823079714908757,-0.034851222609259824,0.5086365687970442,-0.10482170049459005,0.454817888568544,0.5,0.6829120476945807,-0.4366172475200186,0.5,0.19785640152687686,0.4271074451490421,0.5,0,
2.48066150973593,0.7030142429174961,0.15210836116862775,0.5,-0.6996075081623482,-0.384011727159371,0.932474615371804,-0.6826321468524545,0.30984194606975546,0.5,-0.10164895538671223,0.3681575236224085,0.5,0.6794155612987196,-0.37130206146734207,0.5,0.2024484602124942,0.3585623881981279,0.5,0,
2.488663643638304,0.7025705997722195,0.2270900031106568,0.6146672064656985,-0.7043225285825208,-0.5761887611931484,0.5,-0.6773505003537597,0.30736580116919043,0.5,-0.09893118011663152,0.6749413500385953,0.5,0.6769712147111032,-0.2142490477416853,0.5,0.2035933997380469,0.1121303469953372,0.5,0,
2.4966657775406778,0.7066476829672667,0.5409767488851192,0.5,-0.7088265283414386,-0.600356651452652,1.682945922404924,-0.6777142940337475,0.5102920580183148,0.5,-0.0908498937860947,0.6917199650640091,0.5,0.6759875765348526,-0.23274088889815164,0.5,0.2042425457644196,0.2955497829049726,0.5,0,
2.5046679114430517,0.7112262277543814,0.49945833918874777,0.5,-0.7139282350057632,-0.25358519654615497,0.5,-0.6691858274254666,0.25349739881418143,0.5,-0.08786366067560737,0.31678140613097383,0.5,0.6732473604887328,0.007876013900690038,0.5,0.20832219626452647,0.5354821900556469,0.5,0,
2.5126700453454256,0.7146390163942866,0.3352859690527732,0.5,-0.712883891486177,-0.23442936128774405,0.7612732748277952,-0.6736583356527206,-0.03367775223243191,0.5,-0.08578139128799912,0.5349087487286396,0.5,0.6761135927572637,-0.33110711954726507,0.5,0.21281026080530996,0.5983305526933731,0.5,0,
2.5206721792477995,0.7165908032592258,0.35282534150698347,0.5,-0.7176791047863671,-0.3967031631731052,0.5302484489528254,-0.6697246714611855,0.17292478102983594,0.5,-0.07930512069594914,0.10607038947972688,0.5,0.6679496465759766,-0.38640205621816304,0.5,0.21789548510762044,0.545566039220919,0.5,0,
2.5286743131501734,0.7202842218583984,0.391851884188249,0.5,-0.7192311420969467,-0.27934829646745346,1.1129514220082133,-0.6708915391562432,0.2738584377606629,0.5,-0.08408426505632349,0.06944623490660363,0.5,0.6699311598577731,-0.24665278658730916,0.5,0.22153931743284466,0.12202315514515255,0.5,0,
2.5366764470525474,0.7228604334062377,0.5869823163068763,0.5,-0.7221486775298464,-0.5081975680193557,0.8678698479819827,-0.6653429364570149,0.3216511283239687,0.5,-0.07819398093744348,0.7080901015756375,0.5,0.6640032019905796,-0.5282246187656228,0.5,0.21984785558994288,0.6131060562517711,0.5,0,
2.5446785809549217,0.7296759389193084,0.486301117911897,0.5,-0.7273623031852564,-0.325840180852445,0.9278435064603279,-0.6657451211030597,0.33882880754278893,0.5,-0.0727548234311133,0.37786695704709966,0.5,0.6614795659575231,-0.08090681540891265,0.5,0.231349014332873,0.6924687970184494,0.5,0,
2.5526807148572956,0.7306412512928281,0.5657523433042418,0.5,-0.7273621204234855,-0.5205839883473325,0.5,-0.6599216755363303,0.3620822152969744,0.5,-0.07214810962468989,0.3498657184404577,0.5,0.662708692944037,-0.1525240270688344,0.5,0.23092735634223807,0.032146742135065465,0.5,0,
2.5606828487596696,0.7387279764121762,0.4307704887960978,0.5878270168519663,-0.7356916469988137,-0.4387089201535882,0.7477379491706189,-0.6599518056583081,0.18177722375861682,0.5,-0.06715697193606597,0.6445104998214793,0.5,0.6590391815244218,-0.3333091153415943,0.5,0.23186336220703405,0.3687196615661595,0.5,0,
2.5686849826620435,0.7375335791135657,0.16733695607392546,0.818123672184488,-0.7343814631459429,-0.3093046312331871,1.2883070125698122,-0.6570132399561924,0.47475951759921864,0.5,-0.061835941627546215,0.5250433363641438,0.5,0.6573757470985715,-0.04030040554133668,0.5,0.23682687092729662,0.515285394701347,0.5,0,
2.5766871165644174,0.741405367709359,0.5871635620842349,0.5,-0.7406405210985447,-0.5708468965666263,1.5333814972982913,-0.6523556533767206,0.22814954286451417,0.5,-0.05875627855423967,0.17959400288863933,0.5,0.6583943750357604,-0.15145736974533225,0.5,0.2401079285222556,0.3369354287963561,0.5,0,
2.5846892504667913,0.7469281961069134,0.5016043791001568,0.6948589963185798,-0.7435150134910089,-0.25782084152257273,0.7719479171666896,-0.6533628472703602,-0.01443957307704219,0.5,-0.058962437581327985,0.45381475575104363,0.5,0.6549524291826462,-0.7154704775943072,0.5,0.24221783778803832,0.523268158544067,0.5,0,
2.5926913843691652,0.7494310377749616,0.10030055121108827,0.5,-0.7447656545629059,-0.41215869412148526,0.5,-0.6525866865459533,0.3273726219113343,0.5,-0.05149524246222297,0.7170987567667094,0.5,0.6469468473942515,-0.41363450370145854,0.5,0.24848021905896067,0.39486924195353096,0.5,0,
2.600693518271539,0.7485330049262908,0.1480762142505726,0.5,-0.7501095525969527,-0.4255085112145479,0.5,-0.6481248853197789,0.05401800603786061,0.5,-0.047488857473060635,0.286327868957536,0.5,0.6483342771234228,0.0028738239106068653,0.5,0.24853574565929482,0.23613567179240139,0.5,0,
