samirx20/RADAR/data/datasets/overcurrent_j2_13.csv
timestamp,actual_q_0,actual_qd_0,actual_current_0,actual_q_1,actual_qd_1,actual_current_1,actual_q_2,actual_qd_2,actual_current_2,actual_q_3,actual_qd_3,actual_current_3,actual_q_4,actual_qd_4,actual_current_4,actual_q_5,actual_qd_5,actual_current_5,protective_stop,fault_code
0.0,0.30305955402371226,0.2430242009749048,0.2,-0.7991750570615641,0.704514532651343,0.2,-1.2011053980956192,1.1650819648463817,0.2,-0.49853247470882445,-0.11735355618360671,0.2,0.7982064581642928,-0.22845822295497475,0.2,-0.0013044821355787872,0.3073233687947018,0.2,0,
0.008002133902373967,0.3050037476315115,0.1842587168530939,0.2,-0.7935389408003534,0.7457358139182287,0.2,-1.1917847423768482,0.997647453368028,0.2,-0.4994713031582933,0.4584628131354025,0.2,0.796378792380653,0.2762940554297058,0.2,0.0011541048147788273,0.07907273043651139,0.2,0,
0.016004267804747934,0.30600769349336177,0.6321989323629061,0.2,-0.7872432840388724,0.7496581399114577,0.2,-1.1851430388417308,1.1109448646621083,0.2,-0.491197069698658,0.9358480768200845,0.2,0.8026271630511681,0.0790120191816665,0.2,-3.931844859460483e-05,-0.15517441755386793,0.2,0,
0.0240064017071219,0.315118930549318,0.6883794833823266,0.2,-0.78154441056177,0.6902803008691712,0.2,-1.1740096245422544,1.0317117156831839,0.2,-0.48449773392917195,0.44534815269747435,0.2,0.7976429846875597,-0.23144170402213116,0.2,-0.0013286858660830597,-0.01543734180448919,0.2,0,
0.03200853560949587,0.317021765227479,0.36246147882441554,0.2,-0.7761987992249657,0.990217601739396,0.2,-1.1686356513907998,0.8987556516314582,0.2,-0.4840714992554984,0.5310625045565898,0.2,0.798924095786814,0.3617332258711234,0.2,-0.00028631591746643186,0.06552202693141988,0.2,0,
0.04001066951186984,0.32091831421050865,0.5947092528866583,0.2,-0.7657009289339397,0.7688745557011267,0.2,-1.159629534116151,1.1422692690451068,0.2,-0.4760007338562665,0.43261742285740157,0.2,0.8034307163014976,-0.028730653325752253,0.2,-0.00028033343518034154,-0.10976458274578794,0.2,0,
0.0480128034142438,0.3265371132736655,0.7437863234618299,0.2,-0.7638968063337477,0.6999801453241167,0.2,-1.1503593430860781,0.9872716732291509,0.2,-0.47714962048978,0.340733036648385,0.2,0.798464405333602,-0.19577244080531964,0.2,-0.002042549241399039,-0.16619592558019272,0.2,0,
0.05601493731661777,0.33281889538589793,0.49826760560195416,0.2,-0.7545012466087538,1.064868678515303,0.2,-1.1438331873444847,1.104708962282458,0.2,-0.47054900526989235,0.723456080746851,0.2,0.8002983572486125,-0.022816991013918653,0.2,-0.0029394682444634254,0.2388857114226539,0.2,0,
0.06401707121899174,0.3345093949632968,0.39281056045745166,0.2,-0.7468589074775028,0.8707365026506958,0.2,-1.1326839996895588,1.10701306387323,0.2,-0.4655743231978304,0.5086888853868439,0.2,0.7980993334773793,-0.15081632936581046,0.2,0.0017796221413634238,0.2514052601630748,0.2,0,
0.0720192051213657,0.33910386435321715,0.48036732025840895,0.2,-0.7405694625663427,0.5673886399714667,0.2,-1.126120978322513,1.0840585717762778,0.2,-0.46240998310370285,0.26017637194313337,0.2,0.7978852959787596,0.23019235537845295,0.2,0.0010830159181457718,-0.29929946764701415,0.2,0,
0.08002133902373967,0.34219527208743133,0.4358093486200136,0.2,-0.7377806892379594,0.6392067383878333,0.2,-1.1153390625411383,0.9357114763671043,0.2,-0.46141150124674024,0.6028303859343803,0.2,0.8017824111634345,0.14442333176858946,0.2,-0.003009169340988802,-0.19982838924205842,0.2,0,
0.08802347292611364,0.3460768139311374,0.3588889918050876,0.2,-0.7303421547521374,0.6513955010136324,0.2,-1.1111495947006393,0.8794777427154482,0.2,-0.45276469692875276,0.6050576773025396,0.2,0.800196069287057,-0.11637962556892978,0.2,-0.0021142383097271632,0.05880633689353033,0.2,0,
0.0960256068284876,0.34793749595631274,0.370921432692968,0.2,-0.7273583612217412,0.4889617979478844,0.2,-1.1012674186576912,1.1011926331606219,0.2,-0.4517305784098996,0.39620005794906155,0.2,0.7999203371543316,-0.08173632542670534,0.2,-0.002068267950692317,0.393455891610519,0.2,0,
0.10402774073086157,0.35201155685422486,0.7093392081195283,0.2,-0.7225187659849712,1.0820471215056415,0.2,-1.0935305125700694,1.1576873779655243,0.2,-0.4464254960015678,0.7538366113476399,0.2,0.7988882880802297,-0.06181841607294514,0.2,0.004181055956041142,0.10017820134887362,0.2,0,
0.11202987463323553,0.3592869232862252,0.8923423186070166,0.2,-0.710045607277651,0.8907247554188341,0.2,-1.0827444206102428,1.0888839211323358,0.2,-0.43966919262833737,0.5747051570106839,0.2,0.7989312424971645,0.07342674716677433,0.2,-0.0004654167291103389,-0.13738792094523483,0.2,0,
0.12003200853560951,0.3662890339519371,0.4495149124064991,0.2,-0.7082671698982699,0.7124332428408916,0.2,-1.076108369831952,0.9852648658873059,0.2,-0.43723021348939684,0.360693122762188,0.2,0.8000631160348981,0.12554098011150622,0.2,0.0019828492209173843,-0.11969744482988902,0.2,0,
0.12803414243798347,0.3664791618847292,0.2366886078875169,0.2,-0.6986466753921967,0.8259764586667356,0.2,-1.066980182756046,0.877403126570156,0.2,-0.43389810266414236,0.537219051189617,0.2,0.8009398981789486,0.12497051856725366,0.2,-0.002380575846388563,-0.09311832615629315,0.2,0,
0.13603627634035745,0.3700760516781374,0.7140983461025804,0.2,-0.6950515465596021,0.5554974026247828,0.2,-1.0620699198068295,0.7897627947971719,0.2,-0.42863470867036296,0.4114291024692948,0.2,0.8020626443319742,-0.013854277279311267,0.2,0.0004929560024166939,0.1431932347409641,0.2,0,
0.1440384102427314,0.37790473542237046,0.4975342341875348,0.2,-0.6897587169502002,0.6598557223250201,0.2,-1.0543439780392911,1.1556343760703718,0.2,-0.42731523702463364,0.3333775915821228,0.2,0.8007182297424796,0.04634820998825756,0.2,-8.948409053313786e-05,-0.05421626545263596,0.2,0,
0.15204054414510537,0.37803659942513795,0.30372328014353217,0.2,-0.6844938550024018,0.6083892715684144,0.2,-1.0435797697897036,1.1588940076704968,0.2,-0.423300667205049,0.4629947912051999,0.2,0.8028042156917863,0.10007663882072998,0.2,-0.0003745042448254815,0.06964246417549666,0.2,0,
0.16004267804747935,0.382764307904667,0.44701423280567654,0.2,-0.6800244886051056,0.784842794741808,0.2,-1.0358016739165632,0.8008133317734534,0.2,-0.41990732036535044,0.48758611150900855,0.2,0.8023194559636113,-0.34046437662663825,0.2,0.0010247953362748088,0.1489324684427228,0.2,0,
0.1680448119498533,0.3851888271500288,0.38650478295789575,0.2,-0.6719363702865329,0.7771736954528402,0.2,-1.0307667564813283,0.7784275739629309,0.2,-0.41549928942090486,0.6568405763252606,0.2,0.7973567856657601,-0.11063855700051833,0.2,0.0020084152502580833,-0.048417785855366005,0.2,0,
0.17604694585222727,0.3889483844319933,0.3526419174505503,0.2,-0.6675897094778601,0.6902171673702356,0.2,-1.0233468327331563,0.9816097804818125,0.2,-0.4093978711441463,0.7023105277189425,0.2,0.800549239051603,0.20837826787560576,0.2,0.0002501107625889527,-0.015560339112631808,0.2,0,
0.18404907975460125,0.3908310978292376,0.4548513956462233,0.2,-0.6608928956086091,0.7390243309716507,0.2,-1.0150609999936193,1.0787026267323612,0.2,-0.4042623209774018,0.30279802850071214,0.2,0.8006908379517698,-0.15795332500374154,0.2,0.0017594498244559744,-0.06592504291461007,0.2,0,
0.1920512136569752,0.3962260067623329,0.6139788513591892,0.2,-0.6557653201823137,0.6265037370243101,0.2,-1.0060875907054385,1.0427138742796007,0.2,-0.4045531026881349,0.06241617690988174,0.2,0.7980219858515432,0.1325389533004817,0.2,-0.0008046899240448085,-0.2525851371746608,0.2,0,
0.20005334755934917,0.4006547594509846,0.3010497057678724,0.2,-0.6508688358162201,0.734813508856548,0.2,-0.9983775780051457,0.7899431212366054,0.2,-0.40326366214684367,0.39736312268280266,0.2,0.8028114612045775,0.41120490078035143,0.2,-0.002281912370338598,0.017591981845167345,0.2,0,
0.20805548146172315,0.40104280205461884,0.2829463677854194,0.2,-0.6440083040406089,0.789070735241898,0.2,-0.9934485007656528,0.86702942474437,0.2,-0.39819529272521004,0.5805451384730299,0.2,0.8046012642640288,-0.14458051187704601,0.2,-0.000523218214522131,0.06453759412765493,0.2,0,
0.21605761536409712,0.4051819013355513,0.3340518418442906,0.2,-0.6382437040523498,0.8261742642027072,0.2,-0.9845051072092358,0.911736619813093,0.2,-0.3939749399312752,0.5385254663541547,0.2,0.8004981730145447,-0.1978554370883137,0.2,-0.001249310864296119,0.1875444754278747,0.2,0,
0.22405974926647107,0.4063876315241275,0.43424443529614315,0.2,-0.6307895158133656,0.6437359059885545,0.2,-0.9788607148486433,0.9428341446934829,0.2,-0.38957888526354356,0.3768419582589541,0.2,0.8014355772706158,-0.10582165753124373,0.2,0.0024774933923238643,-0.10107870014261684,0.2,0,
0.23206188316884505,0.4121298123002896,0.7390120456310656,0.2,-0.6279439295565329,0.5208470465230194,0.2,-0.9694197608941401,0.8824130554204931,0.2,-0.3879454685991319,0.4876475836681493,0.2,0.7988050264940448,0.03414603166950608,0.2,-0.0028665700665779885,0.0027724325910332597,0.2,0,
0.24006401707121902,0.41821182425422454,0.5471907047544765,0.2,-0.6224559630689973,0.6106183132025822,0.2,-0.9647421059619155,0.688522118772912,0.2,-0.3817765239248532,0.29021169139311837,0.2,0.8019819137773279,-0.06457638383742387,0.2,0.0025218523137803964,-0.10652554050822731,0.2,0,
0.24806615097359297,0.42088486357636123,0.49320567075117683,0.2,-0.6181740365452916,0.4508135719727274,0.2,-0.9584034069937735,0.7454592758620315,0.2,-0.38330208153684203,0.3124100103336358,0.2,0.797771804352646,-0.10322091292768593,0.2,-0.0045709787147096255,-0.345448988277327,0.2,0,
0.25606828487596694,0.42610311498624337,0.3759298330915234,0.2,-0.6152429459174337,0.47700259125509764,0.2,-0.952814757548123,0.6500692138194444,0.2,-0.376777963759515,0.5939425073999346,0.2,0.8003303791704849,0.16775793840249908,0.2,-0.003005331498656836,0.035436969003642696,0.2,0,
0.2640704187783409,0.4268997409058256,0.2863012653166047,0.2,-0.61054199508521,0.4480270174448131,0.2,-0.9480022995726624,0.8495574422754878,0.2,-0.3737990014184431,0.5614275606075115,0.2,0.800455931367086,0.09296927551573353,0.2,-0.004003987210651342,0.24703197842815375,0.2,0,
0.2720725526807149,0.43068393523130905,0.46778118714563277,0.2,-0.6080745136383167,0.585201367288464,0.2,-0.9392218384717151,0.7277383030282886,0.2,-0.3677951227897948,0.5429608624091877,0.2,0.8018178875787366,-0.019659400867837185,0.2,0.0009471801561936245,0.1900011723839584,0.2,0,
0.28007468658308887,0.43438423990015573,0.29623887668169324,0.2,-0.6011787732085946,0.9371920421032478,0.2,-0.9363584867242097,0.7653800878086661,0.2,-0.3651116276198961,0.2515604834857389,0.2,0.8001413809532006,0.08819936075983581,0.2,-0.0009639684525080081,-0.07041640537990697,0.2,0,
0.2880768204854628,0.43542375725821614,0.275567673818089,0.2,-0.5930794409646647,0.8492426907946645,0.2,-0.9269757570667765,1.19786161024215,0.2,-0.363770155054023,0.40083330893376024,0.2,0.803229077350894,-0.15492169448136361,0.2,-0.00017948232988488692,0.07154479573532725,0.2,0,
0.29607895438783677,0.43879332268124516,0.3050145312756165,0.2,-0.58759089015588,0.524567472488753,0.2,-0.9171927009603353,0.5504662513819286,0.2,-0.3586982946769559,0.2861294654225195,0.2,0.7976626338414988,-0.03894139475904557,0.2,0.00018074827925722794,-0.056704595355837564,0.2,0,
0.30408108829021074,0.440303989758626,0.4405368510040711,0.2,-0.5846863614048446,0.4978972958436592,0.2,-0.9181682970446656,0.6007956892649726,0.2,-0.3591920836072627,0.15475821590428193,0.2,0.8026060150347493,0.23069115208615432,0.2,-0.001086755855578288,0.15150120678779777,0.2,0,
0.3120832221925847,0.4458419122973103,0.5290234021241951,0.2,-0.5796245334223814,0.5587015054775365,0.2,-0.9075799699320958,1.0678603136050415,0.2,-0.3562221632224874,0.48367856699205874,0.2,0.8013536922748773,-0.39587556725498296,0.2,0.0026047675878619926,-0.09743007086182376,0.2,0,
0.3200853560949587,0.4487683641926131,0.36953312015606393,0.2,-0.5757471373172041,0.19839936560216154,0.2,-0.901082532026985,0.7637896750165226,0.2,-0.35145322653538974,0.496006039600403,0.2,0.7962720059586695,-0.06359418678064666,0.2,-0.002645636989367468,-0.2099131090350462,0.2,0,
0.32808748999733267,0.4517544422198073,0.5099789980645905,0.2,-0.5764501435727468,0.43895071912938843,0.2,-0.8953593351318314,0.6282937780617212,0.2,-0.34828606658888095,0.26093383686359717,0.2,0.800336185286387,0.35103964672110466,0.2,-0.0007538421566987467,0.1815989078743867,0.2,0,
0.3360896238997066,0.45692802816164657,0.2771592102651758,0.2,-0.5687239258111338,0.8237474261353835,0.2,-0.8910298315779974,0.6317874867835943,0.2,-0.3472782851455722,0.3617665889670621,0.2,0.8018886403062072,0.05780865879530944,0.2,0.0002599455366227194,0.15110137083996703,0.2,0,
0.34409175780208057,0.45618898958405013,0.4180009131706172,0.2,-0.5632701847545807,0.7470839872603663,0.2,-0.8852507353432939,0.7168396569608437,0.2,-0.34249780116540796,0.44821552837662204,0.2,0.8012611238271119,-0.22956585321144696,0.2,0.0016637797767407256,-0.1960901425061497,0.2,0,
0.35209389170445454,0.46361604277237645,0.3938700169272835,0.2,-0.556770582014968,0.551372464400568,0.2,-0.8795603970666239,0.31450534892119714,0.2,-0.34010683669154623,-0.005892226865471251,0.2,0.7982155866548241,-0.20373970241387845,0.2,-0.0028774967434756758,-0.046305758423751335,0.2,0,
0.3600960256068285,0.46249090985488667,0.1703015704120625,0.2,-0.5544482253241716,0.18901987638562934,0.2,-0.8802186497605547,0.12972569266338219,0.2,-0.3425920767952555,0.31351344850429064,0.2,0.7980012885884898,0.32120037948495106,0.2,0.0009228876419607042,0.4106012378972107,0.2,0,
0.3680981595092025,0.46634086789896945,0.15926811093359278,0.2,-0.5537462639927979,0.4089218904478123,0.2,-0.8774847859840098,0.8075821065653688,0.2,-0.3350906215154776,0.7561845854676154,0.2,0.8033547927265833,0.17957224541153421,0.2,0.0036921230628796952,-0.09495833268512315,0.2,0,
0.37610029341157647,0.46503919962982415,-0.02399866413290916,0.2,-0.5479054750770066,0.40497554661161894,0.2,-0.8672973360555088,0.9887295662358505,0.2,-0.33049312342777365,0.22311406348215004,0.2,0.8008744445150744,-0.25351351731422306,0.2,-0.0005964456810012663,-0.026124578421746165,0.2,0,
0.3841024273139504,0.4659568892728429,0.10929835779700456,0.2,-0.547266655247012,0.22797866921397264,0.2,-0.8616651129242362,0.40739129526733836,0.2,-0.3315207964997632,-0.0012115040477767014,0.2,0.7992985764495557,-0.006253435234408744,0.2,0.0032741298081317566,0.253041354885275,0.2,0,
0.39210456121632437,0.4667879733545762,0.7515378002549145,0.2,-0.544257816369583,0.49343528586458935,0.2,-0.8607790753312314,0.4246982487910375,0.2,-0.3305125074925381,0.32097610788333825,0.2,0.8007743895513239,0.20832601456259592,0.2,0.003452215997163135,-0.15809272855674616,0.2,0,
0.40010669511869834,0.47798149407692153,0.5052403613045389,0.2,-0.5393716906731786,0.514987253488447,0.2,-0.8548699409435796,0.6080437669788094,0.2,-0.32638517877362977,0.3138563731325573,0.2,0.8026317926825572,-0.04130374287025784,0.2,0.0007446461512238178,-0.29516982636223205,0.2,0,
0.4081088290210723,0.47487181913544885,-0.20332237359083766,0.2,-0.5360180203137679,0.08475843864787225,0.2,-0.8510503750595705,0.6696507859002484,0.2,-0.32549080552241716,0.18132464918915042,0.2,0.8001135296653997,-0.03639673689579542,0.2,-0.001270501224632578,-0.1002843395276533,0.2,0,
0.4161109629234463,0.47472833609946813,0.22858113449355372,0.2,-0.5380155556548126,0.3463534337029006,0.2,-0.8441555283691756,0.5207004982650462,0.2,-0.32348398438660336,0.22456038773411777,0.2,0.8020494448922245,0.12865210323278337,0.2,-0.0008599032812186348,-0.09801454985979192,0.2,0,
0.42411309682582027,0.4785291172873457,0.6907453337160752,0.2,-0.5304763653745215,0.42304344361865365,0.2,-0.8427191670873297,0.28738181304809735,0.2,-0.3218978393186713,0.21740095356162503,0.2,0.8021719633171243,-0.16384392456725988,0.2,-0.0028387340223892488,0.21414218456702291,0.2,0,
0.43211523072819424,0.48578026143892533,0.143854175362626,0.2,-0.5312468605569142,0.15816824740527702,0.2,-0.8395574193604061,0.5202588446660619,0.2,-0.32000556912961736,0.5966956563886113,0.2,0.7994279420991484,-0.05767703395284651,0.2,0.002566371671853732,0.09280595885117636,0.2,0,
0.44011736463056816,0.4808307840931477,-0.06737921522199236,0.2,-0.527945673416037,0.41738786295374836,0.2,-0.8343950255726728,0.45931676757022394,0.2,-0.3123507088164535,0.23241419776948158,0.2,0.8012491307738787,-0.052784562584985706,0.2,-0.001353838680770427,-0.05898659327928118,0.2,0,
0.44811949853294214,0.48470219399537345,0.38981693348798596,0.2,-0.5245686547496542,0.487568362241321,0.2,-0.8322083510792825,0.34813706493064256,0.2,-0.31628694196530566,-0.05316685426274073,0.2,0.7985833890977886,0.06294014975676693,0.2,0.001622586179385233,0.13804612863987348,0.2,0,
0.4561216324353161,0.4870678550289555,0.28675511921953667,0.2,-0.5201445796201759,0.1971947735417215,0.2,-0.8288248325337825,0.5095721540114353,0.2,-0.31320137848465734,0.15255158721183895,0.2,0.802256173169987,0.014452185308821974,0.2,0.0008548993774675485,0.027608791091766796,0.2,0,
0.4641237663376901,0.48929027590288604,0.23809619219836847,0.2,-0.5214135383729867,0.1499186618797027,0.2,-0.8240551966150995,0.43661832444640697,0.2,-0.31384611656991623,-0.04587967608860044,0.2,0.7988146240627297,-0.12208526116361251,0.2,0.002064326836853502,-0.2460719642705169,0.2,0,
0.47212590024006407,0.4908773941041294,0.062583459934578,0.2,-0.5177458810301007,0.39719754416681075,0.2,-0.82183893934264,0.42216902957642466,0.2,-0.31393545330207495,0.3235316494450309,0.2,0.8003028089913692,0.12512366907619504,0.2,-0.003082252050860722,-0.15509041858511813,0.2,0,
0.48012803414243804,0.4902916112618393,-0.03923966465930323,0.2,-0.5150583776663177,0.34773944578816995,0.2,-0.8173004921418767,0.2191695303944141,0.2,-0.30866961017879574,0.2938882487676306,0.2,0.8008166027679489,-0.04990805153799738,0.2,-0.00041711986050838804,0.27524591208966553,0.2,0,
0.48813016804481196,0.49024955946958054,0.07446719495802709,0.2,-0.5121820498974899,0.2562221834164907,0.2,-0.8183322268563293,0.17174908926395616,0.2,-0.30923324132179286,0.006232763566784566,0.2,0.7995042801667612,-0.25537324520852334,0.2,0.001321682542573927,0.1423405309638313,0.2,0,
0.49613230194718594,0.4914830863811677,0.224447445072138,0.2,-0.5109588227316538,0.2567133961077703,0.2,-0.8145525067136534,0.1592102965853187,0.2,-0.3085698859617272,0.13190810427770455,0.2,0.7967306308446125,0.10116647592387645,0.2,0.0018603286349129131,-0.1984477091537645,0.2,0,
0.50413443584956,0.49384071859073475,0.37128531800296666,0.2,-0.5080746355597656,0.15545176301281355,0.2,-0.8157848621109642,0.18279546423249915,0.2,-0.3071227116533496,0.48778005042224293,0.2,0.8011229437815433,0.24060628880824553,0.2,-0.0018534808038863052,-0.17344895215072567,0.2,0,
0.5121365697519339,0.4974236514692152,0.0021289055507217602,0.2,-0.5084715945234488,0.1755167595287252,0.2,-0.8116277792859334,0.40476705337101626,0.2,-0.3007654051549713,0.3943677237778324,0.2,0.8005803314655444,-0.21480856883677318,0.2,-0.0009148545994986979,0.09173194572430714,0.2,0,
0.5201387036543078,0.4938747810795463,-0.11029721197277839,0.2,-0.505266367407306,0.1764615520614063,0.2,-0.809308589257028,0.21851711243693617,0.2,-0.30081282807290427,-0.26741689705703575,0.2,0.7976860066801549,0.012821343760509307,0.2,-0.000385769672297391,0.23239077891944052,0.2,0,
0.5281408375566818,0.49565889607765073,0.19216805803464604,0.2,-0.5056482096904663,-0.3775920988982884,0.2,-0.8081315054869425,0.09809131770107532,0.2,-0.30504407550788387,-0.262605834794382,0.2,0.8007854729657126,0.06589153140773574,0.2,0.0028033978632123506,0.12348764519337434,0.2,0,
0.5361429714590558,0.49694947000810064,0.18421034691310997,0.2,-0.5113078409896786,0.09159840038584777,0.2,-0.8077391281738108,0.09284978340393796,0.2,-0.3050145214296144,0.4353875512080885,0.2,0.7987402711826787,0.029439485114669817,0.2,0.0015900326507965986,-0.32706397089715916,0.2,0,
0.5441451053614298,0.4986062616282605,0.0835110197466779,0.2,-0.5041826352842927,0.653885727781113,0.2,-0.8066459089524795,0.3459136486938727,0.2,-0.29807787468855446,0.12321802549854904,0.2,0.8012565047275473,0.13574564469372163,0.2,-0.0024296256711421956,-0.04509646481348094,0.2,0,
0.5521472392638037,0.4982856463240475,0.11095113193504424,0.2,-0.5008456693451808,0.35635542562662337,0.2,-0.8022045097947088,0.26236293608503103,0.2,-0.3030430330216376,-0.19116493736415566,0.2,0.8009122014977782,-0.23663256900708501,0.2,0.0008684892137809035,0.08761653729126426,0.2,0,
0.5601493731661777,0.5003814797392212,0.14971979473236974,0.2,-0.49848094847426677,0.02602674395003196,0.2,-0.802448101975119,-0.23224623803567296,0.2,-0.30113651368638095,0.3265958058716288,0.2,0.7974703836234339,-0.157926397575614,0.2,-0.0010277610744819673,-0.10851612108182132,0.2,0,
0.5681515070685517,0.5006811630397654,-0.19525050915008765,0.2,-0.5004292414419803,-0.0072164315220654696,0.2,-0.8059204496032796,0.2483265801351761,0.2,-0.29781750012769154,-0.033316745029352696,0.2,0.7983853791365684,0.2308358786751799,0.2,-0.0008677687235282376,-0.04104152120848352,0.2,0,
0.5761536409709256,0.4972574715928198,-0.04929805755885669,0.2,-0.4985964113786198,-0.025111159602263233,0.2,-0.7984748766929561,0.5199110224653886,0.2,-0.3016695816068506,-0.1725172267340279,0.2,0.8011637576822368,-0.15695486857761343,0.2,-0.0016844254138177037,0.1823406612893537,0.2,0,
0.5841557748732996,0.4998923941188237,0.16892494764957078,0.2,-0.5008310199956165,-0.13421630507704993,0.2,-0.7976018732438334,-0.3498496928358505,0.2,-0.300577775755436,0.16185830665250284,0.2,0.7958741012393266,-0.20083640896286642,0.2,0.0020496818571014218,0.026901547129082142,0.2,0,
0.5921579087756735,0.49996027075521293,0.016946412968642244,0.2,-0.5007438722598526,0.282263442470794,0.2,-0.8040724717783297,-0.29063872327998036,0.2,-0.29907984870041054,0.14629320801306384,0.2,0.7979503751388309,0.1880343290699138,0.2,-0.0012540006597523893,0.01242972171936767,0.2,0,
0.6001600426780476,0.500163536726322,-0.1784085515234672,0.2,-0.4963148049160838,0.016036669496753697,0.2,-0.802252092816313,0.19329080217986294,0.2,-0.29823708442722696,-0.08152660987137753,0.2,0.7988826505044452,0.16734348193724047,0.2,0.0022485574046113045,0.12274213452223218,0.2,0,
0.6081621765804215,0.49710573393083746,-0.14187378953244012,0.2,-0.5004872855479046,-0.2698872810230832,0.2,-0.8009798189434519,0.028834663065191446,0.2,-0.3003842744583526,0.14522131294731483,0.2,0.8006278708498268,0.15571650768186202,0.2,0.0007098734926033256,-0.01390735771698658,0.2,0,
0.6161643104827954,0.4978935560938029,-0.012778639653654444,0.2,-0.5006330014124531,0.23604281332457316,0.2,-0.80179073820727,0.08919454271393013,0.2,-0.2959135434200699,-0.09327688318407773,0.2,0.801374114627355,-0.16062066536784436,0.2,0.0020260396811395192,-0.038593561067889796,0.2,0,
0.6241664443851694,0.496901275696379,-0.08946653299275742,0.2,-0.4967106005347114,0.06126830722324311,0.2,-0.7995527062600291,0.1369365937671299,0.2,-0.30187670458929783,-0.3821997210452996,0.2,0.7980579402039413,-0.07019827477280222,0.2,9.23765155170889e-05,-0.10226742151747391,0.2,0,
0.6321685782875434,0.4964620915659188,-0.11177995634966201,0.2,-0.49965270849688126,-0.20229725626729617,0.2,-0.7995997527069959,-0.31521837463261565,0.2,-0.3020287389567947,0.21108089569708832,0.2,0.8002509422309901,0.22775498174457814,0.2,0.0003897609368599367,-0.07973438081156073,0.2,0,
0.6401707121899174,0.4951127963947844,0.1290516220222339,0.2,-0.4999473566349881,-0.2085353930697184,0.2,-0.8045962002541509,-0.1305308433987365,0.2,-0.2984994102581444,0.1515313462884041,0.2,0.8017020199118545,-0.06326915942377054,0.2,-0.0011833735774678827,-0.09103117583114335,0.2,0,
0.6481728460922913,0.49852691751827455,0.011160085002306919,0.2,-0.5029892747859968,-0.24521985962468879,0.2,-0.8016882462013757,0.12258117558073406,0.2,-0.29960423741618025,-0.23256290339135344,0.2,0.7992386356802098,-0.23559788343167215,0.2,-0.001066737876438357,0.17504099331477643,0.2,0,
0.6561749799946653,0.4952913577548213,-0.2165066038074953,0.2,-0.5038708743889831,-0.17661723664171014,0.2,-0.8026349014448592,-0.17115907633444977,0.2,-0.30222041671240607,-0.03579573829051025,0.2,0.7979324537769478,-0.0006138315926662585,0.2,0.0016172823155685403,0.048762001148749595,0.2,0,
0.6641771138970393,0.4950628118573546,0.2388596625194639,0.2,-0.5058151505722641,-0.304038474329249,0.2,-0.8044267914227269,-0.43198144135989797,0.2,-0.3001769692288284,0.017846968029495286,0.2,0.7992288143747271,0.052356025786945426,0.2,-0.0002865458580583634,-0.3157777997480713,0.2,0,
0.6721792477994132,0.4991131123551327,0.15551537473264612,0.2,-0.5087354899782511,-0.1884599810652865,0.2,-0.8095466045066175,-0.31932645009719735,0.2,-0.30193486522393415,-0.171080343303813,0.2,0.7987701501895389,-0.18890613952368684,0.2,-0.0034351624804006002,-0.13934218510794008,0.2,0,
0.6801813817017872,0.49755105785307696,-0.16499354573521266,0.2,-0.5088305102693087,-0.10085645274884175,0.2,-0.809536014624282,-0.06284286876356154,0.2,-0.3029142547216894,-0.3817584458801482,0.2,0.7962063161423482,0.059726308379970394,0.2,-0.002516020819785405,0.3051814966649637,0.2,0,
0.6881835156041611,0.4964732156233693,-0.24092307285786263,0.2,-0.5103491932222326,-0.057408109198735235,0.2,-0.8105520904068345,-0.05586799566965894,0.2,-0.3080430003580165,-0.22805874052916203,0.2,0.7997257711236184,0.2534728153441787,0.2,0.0014477414662388182,0.022227760302275443,0.2,0,
0.6961856495065352,0.49369628868735116,-0.43443296670617887,0.2,-0.5097490400164885,0.024070012499391447,0.2,-0.8104299025549966,-0.28770488534118205,0.2,-0.306563194570156,0.2247553796358298,0.2,0.800261881187855,-0.2832017203202794,0.2,-0.0021603766549489977,-0.13069175841838748,0.2,0,
0.7041877834089091,0.48952228815607046,-0.006178671531083257,0.2,-0.5099640730222423,-0.25228157703566234,0.2,-0.8151553685722934,-0.5947501625126819,0.2,-0.30444691428384324,-0.1454117336278267,0.2,0.795194543598494,-0.3428375926816593,0.2,-0.0006433266684553816,0.12018891694035656,0.2,0,
0.7121899173112831,0.4935974299428538,-0.15905658323287983,0.2,-0.5137855452490591,-0.08879971537400361,0.2,-0.8199459051551995,0.06011211133361699,0.2,-0.30888978230820124,-0.3886227908674357,0.2,0.7947764797049485,0.22924151088883626,0.2,-0.0002373539839032926,0.17195440677957338,0.2,0,
0.720192051213657,0.4869773828243444,-0.35346203972619683,0.2,-0.5113848684682264,-0.17421372876087055,0.2,-0.8141935747909556,-0.26372988271887443,0.2,-0.3106648789377222,-0.22367817152019534,0.2,0.7988624077727153,0.48556467985557544,0.2,0.002107943840017793,-0.14619179663717377,0.2,0,
0.728194185116031,0.4879420373072347,0.05248305027757971,0.2,-0.516572964909233,-0.18669373826184915,0.2,-0.8241655832787015,-0.5511602782804284,0.2,-0.31246863305252437,0.0107920083795357,0.2,0.8025455145826377,-0.09824095650996789,0.2,-0.0025764227300980732,-0.02149005597694526,0.2,0,
0.736196319018405,0.48781711162878566,-0.15645959138279805,0.2,-0.514371968280416,-0.11510488208497927,0.2,-0.8230121392434424,-0.18668021880930558,0.2,-0.31049220680364964,-0.19460335379145946,0.2,0.7972905524685558,-0.347242923367623,0.2,0.0017641029443866687,0.1675515868974054,0.2,0,
0.7441984529207789,0.4854386838451099,-0.306021423350733,0.2,-0.5184146430225927,-0.41879322118550805,0.2,-0.8271524667796504,-0.44975422547064575,0.2,-0.3155822867131877,-0.44294178077633817,0.2,0.7969896278087557,0.06499154744329938,0.2,0.00010440266026041312,0.123675257224387,0.2,0,
0.7522005868231529,0.48292076885517393,0.08762011739496187,0.2,-0.5210726598193841,-0.5915956332651212,0.2,-0.8302082068509727,-0.6385218003215759,0.2,-0.31757927529607105,-0.0017673667593864906,0.2,0.7983304172276486,0.3690586268859167,0.2,0.003742907059976861,0.036827610848516004,0.2,0,
0.7602027207255269,0.4868406057234293,-0.1327107515906381,0.2,-0.5278801731548346,-0.4025806715008337,0.2,-0.8373688155847956,-0.37258236533404404,0.2,-0.3156105645813379,-0.030310822732672327,0.2,0.8028945658389304,-0.06262394398896809,0.2,0.0006936444338366693,-0.1915673747095311,0.2,0,
0.7682048546279008,0.4807973968297237,-0.38764500078970754,0.2,-0.5275139505633974,-0.2564472499915482,0.2,-0.8361695246963174,-0.034613650270035046,0.2,-0.3180642484597938,-0.3799256873915531,0.2,0.7973284341238251,-0.028528100350970476,0.2,0.0006778290646243632,-0.09546469754600535,0.2,0,
0.7762069885302748,0.480638285710794,-0.3272823862951919,0.2,-0.5319833291546994,-0.3592855514340937,0.2,-0.8379226339891162,-0.567831004807319,0.2,-0.32168937557960275,-0.2177612984567423,0.2,0.8024381162333148,-0.12450357761812497,0.2,-0.0008337907268994165,-0.1207775924394181,0.2,0,
0.7842091224326487,0.47556087864900065,-0.4930595725893931,0.2,-0.533262519386343,-0.3670765678542576,0.2,-0.8452548207732345,-0.6905009501958492,0.2,-0.3215484292351017,-0.3424345756059821,0.2,0.7953363768819351,-0.162488396337368,0.2,-0.0012546124144063265,0.31033117733802573,0.2,0,
0.7922112563350228,0.4727493325493637,-0.23390185154478424,0.2,-0.5378565542403675,-0.4960259591739874,0.2,-0.8489706491922497,-0.5248039892516293,0.2,-0.32716832878929847,-0.36735943330917786,0.2,0.799838301891917,0.13524445597011547,0.2,0.004131508110508995,0.022281237671899507,0.2,0,
0.8002133902373967,0.4718184490242841,0.002645174834031705,0.2,-0.5411989347331267,-0.2709576321636986,0.2,-0.8536516846012606,-0.6016360535886985,0.2,-0.32742618016804853,-0.22882577201523147,0.2,0.797500288177457,0.12482773289402421,0.2,-0.0008981126116559344,-0.24723341439851107,0.2,0,
0.8082155241397707,0.4727916553467082,-0.19346306165255248,0.2,-0.5421918763549867,-0.41682644638418864,0.2,-0.8585968260496689,-0.5861830171619842,0.2,-0.33082954114154217,-0.36811186759718934,0.2,0.8018355456182213,0.37756110686416183,0.2,0.00017577348013281802,0.1339075293634505,0.2,0,
0.8162176580421446,0.46872304003784326,-0.35681428517724334,0.2,-0.5478681578752738,-0.4690552553527558,0.2,-0.8630306128758524,-0.5939786961723231,0.2,-0.33331597004960356,-0.23567006265269932,0.2,0.8035412658872836,-0.000829781474406821,0.2,0.0012444078581592731,-0.02364207243747873,0.2,0,
0.8242197919445186,0.4670826267838723,-0.3738859121899841,0.2,-0.5496967604406308,-0.464047499558827,0.2,-0.8681004851884261,-0.6354608404572082,0.2,-0.33460026214398536,-0.3002865272806361,0.2,0.8018222691146308,-0.09238837577355691,0.2,-0.00020249967886684165,-0.28529229159505837,0.2,0,
0.8322219258468926,0.4627408654428035,-0.15567090509674072,0.2,-0.555292917868215,-0.4299403194566037,0.2,-0.8731979863231677,-0.3028333822098356,0.2,-0.33812055448609374,-0.09518854612657404,0.2,0.8020630518749067,-0.12640549928166767,0.2,-0.003320268807361661,0.11148626147679634,0.2,0,
0.8402240597492665,0.46459189230232445,-0.23520317805060184,0.2,-0.5565758055519364,-0.5608743506636676,0.2,-0.8729458193037835,-0.5254131247432042,0.2,-0.33612327888201055,0.038829311604766936,0.2,0.7997997811261242,-0.2302209830539262,0.2,0.0015812805047618998,0.09192941384431746,0.2,0,
0.8482261936516405,0.4589776145939939,-0.5786229154061996,0.2,-0.5642669074788337,-0.5147361336147113,0.2,-0.881604596319059,-0.6909974202059799,0.2,-0.33749928550041747,-0.36894626272015313,0.2,0.7983795161460439,-0.09982275741288876,0.2,-0.0018493981858525815,-0.24312795200212878,0.2,0,
0.8562283275540145,0.45533392565582526,-0.2907922400243283,0.2,-0.5648115836897718,-0.39676288737203885,0.2,-0.8840017780270791,-0.5293799592519451,0.2,-0.342026419085533,-0.5057631089373342,0.2,0.7982026170075179,0.024460371927700897,0.2,-0.0023087667272721608,0.1736287794793824,0.2,0,
0.8642304614563885,0.45432493875360463,-0.15724741405251375,0.2,-0.5706151136767863,-0.3186431425497016,0.2,-0.8900746756670901,-0.8754486191293043,0.2,-0.3455914952434148,-0.5007624133564308,0.2,0.7987708820968871,0.1405905591451012,0.2,0.000928662285817537,-0.0283788679025548,0.2,0,
0.8722325953587624,0.45281796703098504,-0.5948944609915942,0.2,-0.569909873970567,-0.33195925398048914,0.2,-0.898008955933148,-0.9384217703918979,0.2,-0.3500386176992359,-0.40490710531366697,0.2,0.8004520659538396,0.0302460820690853,0.2,-0.0027628286137130376,-0.24982270505787288,0.2,0,
0.8802347292611363,0.4448066273777391,-0.6394537903967774,0.2,-0.5759264617404741,-0.6298905871121308,0.2,-0.9050894239933605,-0.5767776066577524,0.2,-0.3520700089284335,-0.31869447912262133,0.2,0.7992548194099924,-0.2442940040089589,0.2,-0.0030685009951084293,0.14272448861844828,0.2,0,
0.8882368631635104,0.4425867063846366,-0.27485257211553105,0.2,-0.5799881233643611,-0.7235910588489699,0.2,-0.907237397639672,-0.7320176826456845,0.2,-0.35513772936519783,-0.3888886867561489,0.2,0.7965433618896962,-0.14879925819861334,0.2,-0.0004792367958178653,0.23640477703673232,0.2,0,
0.8962389970658843,0.44040898622389063,-0.40622253668915614,0.2,-0.5875039186820576,-0.6516806931354396,0.2,-0.9168017069156914,-0.9614338769497466,0.2,-0.35829222791653187,-0.29203859288132183,0.2,0.7968740312788146,0.14430071350890472,0.2,0.0007139754374792882,-0.013582122494229057,0.2,0,
0.9042411309682583,0.4360871457976101,-0.3482525417187361,0.2,-0.5904150144545282,-0.6647807918772342,0.2,-0.922620339670868,-0.765401984779028,0.2,-0.359810346851299,-0.39613314482416295,0.2,0.7988521733058387,0.07075819902772201,0.2,-0.0006965507557255302,0.09412314338596074,0.2,0,
0.9122432648706322,0.43483694555639085,-0.012878465897550595,0.2,-0.5981404113520934,-0.42083786973727555,0.2,-0.9290481386721559,-0.5022340788044255,0.2,-0.3646303582337185,-0.2791234791440604,0.2,0.7980061624632582,0.1653256100856218,0.2,0.00221994573165466,-0.08226199519760008,0.2,0,
0.9202453987730063,0.4358810903432493,-0.09315727274834124,0.2,-0.5971484203703246,-0.5295209847808735,0.2,-0.9306560849317388,-0.4965783212307895,0.2,-0.36427632251760395,-0.37673390559078007,0.2,0.8014973830672086,0.10019376853375589,0.2,-0.0020127426788871315,-0.34193590718946887,0.2,0,
0.9282475326753802,0.4333464291924174,-0.6362740798911449,0.2,-0.6066127471085874,-0.7588617632100988,0.2,-0.9369933918118485,-0.7516735235253355,0.2,-0.37065810072317096,-0.32352677035168975,0.2,0.7996092627597983,0.026120128783162222,0.2,-0.0032510287833768413,-0.048079496395671203,0.2,0,
0.9362496665777541,0.42570070506499097,-0.609880093327752,0.2,-0.6092902085816861,-0.3821823604524266,0.2,-0.9426828613081442,-0.7852997540445036,0.2,-0.369452750843231,-0.4919311155841162,0.2,0.8019153051277392,0.2298701524251906,0.2,-0.0027820146212178707,0.23860599487029613,0.2,0,
0.9442518004801281,0.42358834769917336,-0.4441483306911846,0.2,-0.6127276648758262,-0.547573556951092,0.2,-0.9495581878765605,-1.1298365705384588,0.2,-0.3785289985725168,-0.6331775089836421,0.2,0.8032871851986013,0.017648384745515278,0.2,0.0005666671345478968,0.048508774833056906,0.2,0,
0.952253934382502,0.418594331773932,-0.27817066679485314,0.2,-0.6180513854929036,-0.575033172221795,0.2,-0.9607602464367595,-1.008456199919676,0.2,-0.37958359098696925,-0.3158153665174107,0.2,0.8021976792836675,-0.16492212675696394,0.2,-0.0020058742238889603,-0.18007655703847283,0.2,0,
0.9602560682848761,0.4191376170304557,-0.38646657056577366,0.2,-0.6219281956313749,-0.8899709357755581,0.2,-0.9656934870752754,-1.0614297939555775,0.2,-0.3835820444367954,-0.3827378924552982,0.2,0.8006484311704899,-0.16816016849688364,0.2,-0.002314557778067669,0.1377269886257874,0.2,0,
0.96825820218725,0.41241086664487964,-0.3374940486342466,0.2,-0.6322909204653125,-0.822984650136603,0.2,-0.9777431231400487,-0.9855571999828407,0.2,-0.385707397266254,-0.23773013568012535,0.2,0.7995071165877173,-0.0008634094586096319,0.2,0.00019775759412363794,0.09630164276158952,0.2,0,
0.9762603360896239,0.41373771225230777,-0.5301403617950714,0.2,-0.6350959500335606,-0.42046707171962405,0.2,-0.9814624022750008,-0.5606422622252832,0.2,-0.3873857266076774,-0.3478456232903458,0.2,0.8006346166191521,0.14198758921276505,0.2,-0.0007737314938822367,0.09726052062864403,0.2,0,
0.984262469991998,0.4039286208561585,-0.5197130066931683,0.2,-0.6390183936128265,-0.6338865043905018,0.2,-0.9867133993356533,-0.5540579571712625,0.2,-0.39127292723889956,-0.5658467368650465,0.2,0.8017789180151216,-0.14531632892741259,0.2,0.0017539259241819423,0.07399867482393714,0.2,0,
0.9922646038943719,0.40542230414521707,-0.25459241353404866,0.2,-0.6452381341038086,-0.6001775353074862,0.2,-0.990327329589741,-0.9685312795660247,0.2,-0.39643927439751814,-0.6399973271636848,0.2,0.7983095553563135,-0.2515432564589651,0.2,0.0004102473033007576,-0.12354769990452966,0.2,0,
1.0002667377967458,0.3998551422396137,-0.6003050655730354,0.2,-0.6486212341777463,-0.622204416716246,0.2,-1.0022098998087097,-1.2084131355357686,0.2,-0.4015128844735185,-0.3829868950829124,0.2,0.7977542259117781,0.03561636413118574,0.2,-0.00022283727429053222,0.044196548114749164,0.2,0,
1.00826887169912,0.3958174230960485,-0.27066636571701497,0.2,-0.6551934047712685,-0.7760943172881729,0.2,-1.0096619397583133,-0.8893269074852911,0.2,-0.40256706471884474,-0.25447337033191947,0.2,0.7988794171824125,0.31178242959635505,0.2,0.0011173920731367443,0.14074734720903626,0.2,0,
1.0162710056014939,0.3955244803881415,-0.3045777790406899,0.2,-0.6610387432543571,-0.6609630392358442,0.2,-1.0164391303284743,-0.7011637613624916,0.2,-0.40558445839882923,-0.3587377653015318,0.2,0.8027427447853198,0.08561793039713744,0.2,0.002029120281054048,-0.04343064333698135,0.2,0,
1.0242731395038678,0.39094417863139747,-0.656354897327318,0.2,-0.665768813399042,-0.5548797242085692,0.2,-1.0208805599401132,-0.8352036172463578,0.2,-0.40830686896366924,-0.5239272488922996,0.2,0.8002493040687667,-0.015182616472667054,0.2,0.0004225017797450427,-0.12508681342950798,0.2,0,
1.0322752734062417,0.3850228020309044,-0.7933095226091043,0.2,-0.6699168188416942,-0.8545990841141229,0.2,-1.029802388204416,-1.0446228328273437,0.2,-0.413967294381106,-0.671008941747691,0.2,0.8024998229217571,-0.08903906625920555,0.2,2.773126618192024e-05,-0.16193315431817779,0.2,0,
1.0402774073086156,0.3782512262696518,-0.33900633397403873,0.2,-0.679442398744868,-0.7762219986412952,0.2,-1.0375945252653507,-1.343819814651384,0.2,-0.4190430120316323,-0.47911194258651313,0.2,0.7988246790086194,-0.20063780935049985,0.2,-0.002168428689345802,0.21716562921550794,0.2,0,
1.0482795412109898,0.37959870068731977,-0.33133415065461636,0.2,-0.6823363708199549,-0.5815944018654762,0.2,-1.0513035052388382,-1.0709690950988364,0.2,-0.42163308546249023,-0.4145784608168938,0.2,0.7992896179721491,0.008293726365432574,0.2,0.0035023813336300474,0.4310011229688094,0.2,0,
1.0562816751133637,0.37294987985917794,-0.5991255297320454,0.2,-0.6887479091747156,-0.6593714598217976,0.2,-1.054730030786932,-0.7022994538941896,0.2,-0.4256762674047026,-0.5335765767416518,0.2,0.7989573786304663,0.024216385156553,0.2,0.004727589278155148,-0.11910537422633158,0.2,0,
1.0642838090157376,0.37001269221160704,-0.539893466291394,0.2,-0.6928863141771037,-0.9036638685527842,0.2,-1.0625402965011452,-0.9842230173408989,0.2,-0.43017031069035666,-0.6617208345492953,0.2,0.799677080134654,0.1488400904344489,0.2,0.001596695346008742,-0.24028615750275517,0.2,0,
1.0722859429181115,0.36431158439851563,-0.37350938643124915,0.2,-0.7032065310715602,-0.8641806468894577,0.2,-1.0704775990643864,-1.0149477452051219,0.2,-0.4362638007574913,-0.6037180434204231,0.2,0.8013388200774175,0.17441868441835096,0.2,0.0008830107581110654,-0.24064593592691813,0.2,0,
1.0802880768204854,0.36403654202870706,-0.5131990048053807,0.2,-0.706713204527335,-0.9886891200865944,0.2,-1.0787794604244272,-0.8644793512699589,0.2,-0.43982979938508343,-0.32016507891693274,0.2,0.8024677790853476,-0.3374964915870485,0.2,-0.002253639628821948,-0.015087063452430938,0.2,0,
1.0882902107228596,0.35610040032162954,-0.5645988140075275,0.2,-0.7190255569929457,-0.6700273652650579,0.2,-1.0843092686847058,-1.214046045456496,0.2,-0.44138644202016225,-0.10853523530631945,0.2,0.7959388762120247,-0.3038141046675935,0.2,0.0006416177428721704,0.09365979452874018,0.2,0,
1.0962923446252335,0.3550029610045866,-0.3147740406456399,0.2,-0.7174336423715759,-0.38937797636264676,0.2,-1.0982041971517311,-1.0227775155576269,0.2,-0.44156636314998454,-0.46964544715881806,0.2,0.7976067534106661,0.21742608814007136,0.2,-0.0007550829163621051,0.021164294867213114,0.2,0,
1.1042944785276074,0.3510640156712993,-0.5779794381088749,0.2,-0.725255604614748,-1.0100267949246926,0.2,-1.1006737089336278,-0.7733620472617636,0.2,-0.44890076917470334,-0.7519661490731251,0.2,0.7994176936222659,0.23079654966307733,0.2,0.0009802464607475802,-0.038565392750736414,0.2,0,
1.1122966124299813,0.3457552899948446,-0.6092733739883199,0.2,-0.733594071090371,-0.7063881597761459,0.2,-1.1105779899079193,-0.6541576042630171,0.2,-0.45359782153515454,-0.5051897558450945,0.2,0.8012994982052754,-0.030637205203361273,0.2,-0.0013721292003738878,-0.06715090727717735,0.2,0,
1.1202987463323555,0.3413156416874862,-0.7138927980305277,0.2,-0.7365578151711664,-0.5009994605200476,0.2,-1.111140230601836,-0.8176903494907795,0.2,-0.45698380526822485,-0.6521052315050062,0.2,0.7989274983390121,-0.16912153467570773,0.2,-9.416805568725724e-05,-0.03210179704141892,0.2,0,
1.1283008802347294,0.3343330052263562,-0.22699762233010373,0.2,-0.7416100624586918,-0.8496130561534837,0.2,-1.1236610354997718,-1.5622504719164654,0.2,-0.46403150523923464,-0.6610783254287003,0.2,0.798593553650464,-0.019918242647271045,0.2,-0.0018857579530365905,0.0062713098178714755,0.2,0,
1.1363030141371033,0.3376836797302045,-0.18534018600454075,0.2,-0.7501516240696221,-0.8157271304687491,0.2,-1.1361362381524995,-1.1083299430369868,0.2,-0.46756105847508406,-0.39344107601100087,0.2,0.7986088064566558,0.2730769184229806,0.2,6.172901398686373e-06,-0.07938310379517514,0.2,0,
1.1443051480394772,0.3313675622502835,-0.6394025101468769,0.2,-0.7546616965461918,-0.6515316680519925,0.2,-1.1413943145883636,-0.7998147488438301,0.2,-0.47032656245541066,-0.550630624666492,0.2,0.8029627843452317,0.22373952649186457,0.2,-0.0031558876137593927,0.05590683545127598,0.2,0,
1.1523072819418512,0.3274532395678545,-0.826266388035228,0.2,-0.760576130758454,-0.9703444895396776,0.2,-1.1489332741340008,-1.1988619109621346,0.2,-0.47637114846974793,-0.7230759799436228,0.2,0.8021886388805256,-0.06462323148052201,0.2,0.0009006822686191021,0.12611434683472042,0.2,0,
1.1603094158442253,0.31814730004171987,-0.8526255784414988,0.2,-0.7701872083788266,-1.0006008840871758,0.2,-1.1605761051637578,-1.0018139349095982,0.2,-0.4818957781345086,-0.4617263370924399,0.2,0.8019288126415434,-0.024120740558415676,0.2,-0.0011380580644038657,0.013061262773584782,0.2,0,
1.1683115497465992,0.3138112303127905,-0.45439461276433263,0.2,-0.7765857449038488,-0.6216976069904345,0.2,-1.1649622970925544,-0.673262543794087,0.2,-0.48375876986322697,-0.47648902398959164,0.2,0.801802707031591,-0.0518767736047282,0.2,0.0011096624729964586,0.12902242827003668,0.2,0,
1.1763136836489732,0.31087698623749055,-0.5042348375431451,0.2,-0.7801343700906735,-0.7032933347376549,0.2,-1.1713483058644631,-1.0600499218186843,0.2,-0.4895196025183421,-0.48580040712295836,0.2,0.8010987842638677,-0.08778705671939196,0.2,0.0009263007879167215,-0.3438156579208222,0.2,0,
1.184315817551347,0.3057434729121002,-0.3437667371678672,0.2,-0.7878384382596513,-0.8275387923820307,0.2,-1.1819230958416533,-1.3562704089559452,0.2,-0.4915315763771943,-0.32026205569093275,0.2,0.8003981141240807,-0.0033856075047841716,0.2,-0.004391388053736696,-0.042203139181908836,0.2,0,
1.192317951453721,0.3053767184428047,-0.231162210813686,0.2,-0.793374990768786,-0.43093693942073547,0.2,-1.1930486324077583,-0.7001026152485684,0.2,-0.494643795409397,-0.1577405272277753,0.2,0.8010446145437912,0.017319424734686673,0.2,0.0002510505610061801,0.1939449324816078,0.2,0,
1.2003200853560951,0.3020448775390812,-0.23542257273947292,0.2,-0.794733429290383,0.22775471976907435,0.2,-1.1931247376856304,0.2508866222917794,0.2,-0.4940554248128387,0.01501101044747502,0.2,0.8006752249198357,-0.20560408941039388,0.2,-0.0012882691340309713,-0.12697010920426663,0.2,0,
1.208322219258469,0.3016099572789731,0.41277375646897596,0.2,-0.7897309152524808,-0.08814479376068052,0.2,-1.1890344464510898,0.0017685752982249392,0.2,-0.4944036192422374,-0.1293137978374409,0.2,0.7977549491132249,0.20021777306157562,0.2,-0.0017804711862620859,0.11830772852924605,0.2,0,
1.216324353160843,0.30864925764258483,0.16220779672022206,0.2,-0.7961437459905539,-0.2775231188195462,0.2,-1.1930964404808588,-0.05104358261429076,0.2,-0.49612444557823776,-0.2002471551389648,0.2,0.8038787092888209,0.02114847450077062,0.2,0.0006046545224369654,0.2612772921661086,0.2,0,
1.224326487063217,0.30420528202649666,-0.3996927355102084,0.2,-0.7941712851535936,0.0366604350565819,0.2,-1.1898511437729185,0.14585791714717689,0.2,-0.49760757372446085,-0.12200244990098405,0.2,0.7980933247052372,-0.34696988688043273,0.2,0.0023999654883956516,0.01148115264880345,0.2,0,
1.2323286209655908,0.3022541738744215,-0.14300956309082347,0.2,-0.7955571790296486,-0.12581962394355578,0.2,-1.190762713806504,-0.2541487109917473,0.2,-0.4980764847766535,-0.10469109210542449,0.2,0.798327191098734,-0.16821447220513597,0.2,0.0007883529648178206,-0.28153653057172023,0.2,0,
1.240330754867965,0.3019171290170435,0.20108353215817637,0.2,-0.7961843991366905,-0.02326751690140405,0.2,-1.1939175231487864,0.09233520911924864,0.2,-0.49928263119814764,0.13964738238272587,0.2,0.795401893149955,0.0765538737014515,0.2,-0.0021046190007518724,0.10196417268097788,0.2,0,
1.2483328887703389,0.3054715103889523,-0.023073120993522683,0.2,-0.7959294593000711,0.03172212207232239,0.2,-1.189285350460596,-0.0947352756892339,0.2,-0.4958421266585299,0.34395766320898313,0.2,0.7995520530779572,0.1306170631963227,0.2,0.0024197797277134667,0.25879745430809015,0.2,0,
1.2563350226727128,0.3015479590811471,-0.16223446229066477,0.2,-0.7956768451835333,0.05441478390860732,0.2,-1.1954332875598142,-0.23982585302184667,0.2,-0.4937793085868039,0.132942621593031,0.2,0.7974917661610962,-0.08601744426161434,0.2,0.0020361402681775696,-0.3169755391188631,0.2,0,
1.2643371565750867,0.3028757589923017,0.35249870770015856,0.2,-0.7950588227575334,0.13563969263392234,0.2,-1.1931225641089456,0.223129256504917,0.2,-0.4937150447130414,0.010918415454194003,0.2,0.7981757739697714,-0.02218026385961136,0.2,-0.0026518288981883433,-0.11709409679216912,0.2,0,
1.2723392904774609,0.30718793840434966,0.08953293456083478,0.2,-0.7935066101013906,-0.1987708636471408,0.2,-1.1918632194557355,0.03960356107844676,0.2,-0.4936046139395368,-0.23688972090249102,0.2,0.7971368819393424,0.011784822381122328,0.2,0.00016263471950286372,0.26817881191141885,0.2,0,
1.2803414243798348,0.30430828594527504,-0.21373188379408478,0.2,-0.7982391565758876,0.0033814450015115516,0.2,-1.1924889071316904,0.01835311526642014,0.2,-0.49750528024748125,-0.11081742142681622,0.2,0.7983643311278693,0.16545406898587495,0.2,0.0016390320923943577,-0.26603121198883645,0.2,0,
1.2883435582822087,0.3037682282636443,0.12683829994714763,0.2,-0.7934525069813664,0.19910418755129944,0.2,-1.1915695696114728,0.06416004051112978,0.2,-0.49537769268236587,0.1495629425925689,0.2,0.7997841470431164,0.23909901394962574,0.2,-0.0040938646723185194,-0.2538598096762842,0.2,0,
1.2963456921845826,0.3063376987444294,0.16274897503170543,0.2,-0.7950534895750668,0.17672409301412034,0.2,-1.1914623464835123,-0.15704858408185918,0.2,-0.49511227316600015,-0.09503458887266322,0.2,0.8021899153510633,-0.057598380027786,0.2,-0.0024227248624261893,0.08274277040781627,0.2,0,
1.3043478260869565,0.3063722118641516,0.06057536252206466,0.2,-0.7906249214931405,-0.12482630998106314,0.2,-1.1940823469567825,-0.08583904012095245,0.2,-0.4968982461043285,-0.2323031818423811,0.2,0.7988625729626718,-0.1650448579074426,0.2,-0.002769980345793459,0.07295148554730252,0.2,0,
1.3123499599893307,0.30730690454478243,-0.11883452722273591,0.2,-0.7970507105347638,-0.2873930441852149,0.2,-1.1928357711254476,0.1863061436444824,0.2,-0.49882912407547825,-0.006577376874539187,0.2,0.7995491976245442,0.35857343411270504,0.2,-0.001255501093669349,-0.016878763311388986,0.2,0,
1.3203520938917046,0.3044708594285878,-0.14669500867489985,0.2,-0.7952232102001039,0.3606964665309395,0.2,-1.1911014486584708,0.03041841206802287,0.2,-0.4970034841343211,0.13473609897206307,0.2,0.8045997479084751,-0.011517901494451088,0.2,-0.0030400405587756828,0.018198444907527252,0.2,0,
1.3283542277940785,0.30495978440598404,-0.05994457402644024,0.2,-0.7912795670702688,0.027700797693229473,0.2,-1.1923490765323592,0.11646130621019435,0.2,-0.49667334649192524,-0.0380082936576806,0.2,0.799364911200633,-0.18441237034911434,0.2,-0.0009643259751489129,0.44459148725096825,0.2,0,
1.3363563616964524,0.30351174624416477,0.05647713416367245,0.2,-0.7947799974370122,-0.23321014162695775,0.2,-1.1892380677591077,0.03797756621427839,0.2,-0.497611616832844,0.09288775212666286,0.2,0.8016491499828893,0.2185115799690912,0.2,0.004073423237239809,0.03680733205766553,0.2,0,
1.3443584955988264,0.3058634185526028,-0.08901172818413447,0.2,-0.7950109293363001,0.03498514605532188,0.2,-1.1917414354729308,0.05978350967918156,0.2,-0.49518714245789863,0.16441970661629224,0.2,0.8028610964801385,-0.18226186340485062,0.2,-0.00037540866222626437,-0.5069738641880372,0.2,0,
1.3523606295012005,0.3020875585932186,0.026972703848375523,0.2,-0.7942202351001271,0.1472002001762715,0.2,-1.1882815316042408,0.07851725165990142,0.2,-0.4949809015269833,-0.048515681463762866,0.2,0.7987329601684117,-0.15598068664655906,0.2,-0.004038158589768788,0.05416176349608509,0.2,0,
1.3603627634035744,0.3062949818141768,0.2924625081031466,0.2,-0.7926557261334798,-0.018634776630076233,0.2,-1.1904851594463723,-0.1216723649734297,0.2,-0.49596339336131884,-0.26160070212681574,0.2,0.8003654054937935,-0.1394972650832979,0.2,0.0004911795537110971,0.0037558141608173574,0.2,0,
1.3683648973059483,0.30676695872286897,-0.1723609349454508,0.2,-0.7945183915262083,-0.07017976649564828,0.2,-1.1902282894438156,0.04383151696898957,0.2,-0.49916651276101237,-0.05020773021617922,0.2,0.7965010039270789,-0.08284173172604797,0.2,-0.00397806556319571,-0.1158157458100179,0.2,0,
1.3763670312083223,0.3035372068550496,-0.08316204123187329,0.2,-0.7937786023974102,0.22488342185519178,0.2,-1.1897838551748685,-0.19050321426483663,0.2,-0.4967667170447777,0.2737307877172662,0.2,0.7990399377861768,0.2705136853690601,0.2,-0.0013618723792491894,0.34782374395236154,0.2,0,
1.3843691651106962,0.305436366063159,-0.035054061729176966,0.2,-0.7909202567765252,-0.11561860223982534,0.2,-1.193276340872053,-0.07209189042677033,0.2,-0.4947868201575361,-0.0332311629509599,0.2,0.8008292228929839,0.07548296768304652,0.2,0.0015871143400420745,0.05386066502938025,0.2,0,
1.3923712990130703,0.30297634186738276,-0.028874312485896447,0.2,-0.7956285000332474,-0.1832032916276663,0.2,-1.1909373254216968,0.09080795805967157,0.2,-0.49729841565199306,-0.10593222432151231,0.2,0.8002476652691055,0.10653758352129061,0.2,-0.0005001017387791054,0.05888592801782012,0.2,0,
1.4003734329154442,0.30497437706338465,0.11526579674217205,0.2,-0.7938515094425679,0.13837394635373562,0.2,-1.1918234135430983,-0.13280227473218276,0.2,-0.4964817357466803,0.05713569394995982,0.2,0.8025338242293245,-0.038834891860621557,0.2,0.0025292891883271964,-0.07164651795328962,0.2,0,
1.4083755668178182,0.3048205946152575,0.019555150569602886,0.2,-0.7934145168915876,0.16318076485396377,0.2,-1.1930621618174118,0.029088638449456528,0.2,-0.4963842445487937,-0.13818637211469864,0.2,0.7996263069993356,-0.03315248302279,0.2,-0.0016464460260317392,-0.23076702015515455,0.2,0,
1.416377700720192,0.3052872594724983,-0.12303437983422413,0.2,-0.7912406172049045,-0.06792288214742259,0.2,-1.191357995327907,0.38023854072646857,0.2,-0.4986927177005155,0.11037397426646653,0.2,0.8020033845009599,-0.07169534927827653,0.2,-0.0011629831341552768,0.3919914884925133,0.2,0,
1.4243798346225662,0.3028520445379099,-0.08926067216554617,0.2,-0.7945012830059464,-0.20331892180436295,0.2,-1.1869783451657883,-0.00992658244261535,0.2,-0.49461826096053024,0.16439172119117954,0.2,0.7984791814108831,-0.17288672896658558,0.2,0.004625417789848474,0.07307443381486353,0.2,0,
1.4323819685249402,0.30385908871784956,0.25580110526617417,0.2,-0.7944937199537743,-0.10137306574941468,0.2,-1.1915168206469888,-0.31060461417349583,0.2,-0.4960624501614566,-0.04475236597654628,0.2,0.7992371968374945,0.24150006105147503,0.2,6.207806882539758e-06,-0.2926973990114343,0.2,0,
1.440384102427314,0.3069448622221687,0.07100540700477262,0.2,-0.796123252057937,0.21150409888941873,0.2,-1.1919480189925642,-0.07855455535314693,0.2,-0.495334298816155,0.047485751531854,0.2,0.8023431823877067,0.14971465393222305,0.2,-5.774059433447568e-05,-0.18824420469601177,0.2,0,
1.448386236329688,0.3049951752299259,-0.0864292536397783,0.2,-0.7911096543715436,0.16038342687173246,0.2,-1.1927736935326392,-0.008556833511488837,0.2,-0.49530267813694695,-0.12768526349384024,0.2,0.8016326313004101,-0.37227438819138065,0.2,-0.0030056994682536487,0.11261820094604649,0.2,0,
1.456388370232062,0.30556199416393226,-0.13437087619938212,0.2,-0.7935571172279893,-0.2728743564484118,0.2,-1.192084928328748,0.1004246515821372,0.2,-0.4973772630320564,0.1590561955811809,0.2,0.7963867921766447,-0.06978605113032443,0.2,0.0017441506208022682,0.3451664511833375,0.2,0,
1.464390504134436,0.3028452412107358,-0.08141799777132419,0.2,-0.7954756440747182,-0.26985005750083946,0.2,-1.191166899107325,-0.046509486703413816,0.2,-0.49275777900764806,0.1422369328065859,0.2,0.8005160544823249,0.3787729107238291,0.2,0.0025169637506797507,-0.11659831734342557,0.2,0,
1.47239263803681,0.3042593061995911,-0.05910828522107461,0.2,-0.7978747181480027,0.012591448306537023,0.2,-1.1928290801160026,-0.07898359676199174,0.2,-0.49510147210715105,-0.11408564471939928,0.2,0.8024471587482259,-0.155887211152346,0.2,-0.00012142245669254087,-0.151772738494901,0.2,0,
1.480394771939184,0.3018995086471986,-0.04045860750383559,0.2,-0.7952741809018136,0.2610762939559072,0.2,-1.1924306366555169,0.002889484904872175,0.2,-0.49458314932315844,-0.33300969647440115,0.2,0.7980218591038873,-0.2587379979128168,0.2,8.859993476133463e-05,-0.029048777248239687,0.2,0,
1.4883969058415578,0.3036119684795297,0.355358407226454,0.2,-0.7936974974447082,-0.0924244695030274,0.2,-1.1927828483575247,-0.05166420073529632,0.2,-0.5004296272507415,0.1651910275351394,0.2,0.7983073507816209,0.2221245768166888,0.2,-0.0005862028926643759,-0.052922883526130754,0.2,0,
1.4963990397439317,0.3075852431628219,0.16946954589555294,0.2,-0.796752972413862,0.2509136199943321,0.2,-1.1932572638672816,-0.15962428273708085,0.2,-0.4919400928825962,0.10201578260958521,0.2,0.8015758523329544,0.19575255749506443,0.2,-0.0007581662016567575,0.08001756898808421,0.2,0,
1.5044011736463059,0.30632348121385855,-0.21010888824967225,0.2,-0.7896828795247989,0.3302603573163143,0.2,-1.195336836881318,0.28202275348659933,0.2,-0.4987973747289881,-0.0849620537567708,0.2,0.8014393917015419,-0.07862329029495463,0.2,0.0006940782111449715,0.055325294963776625,0.2,0,
1.5124033075486798,0.3042235009508271,-0.010297291598720254,0.2,-0.791468806696801,-0.2686881210131539,0.2,-1.188744899811496,0.17431214534381623,0.2,-0.49329948574270455,0.1551647290837857,0.2,0.8003178796882351,-0.06391130764265424,0.2,0.00012703851776366855,-0.0184840565977942,0.2,0,
1.5204054414510537,0.306158724548279,-0.019210463949825146,0.2,-0.7939818894610093,-0.07683719411664264,0.2,-1.192547842555817,-0.15829020324338583,0.2,-0.49631473906364754,-0.36552444812459545,0.2,0.8004168107792594,-0.02686375581575917,0.2,0.00039833330558026434,-0.14802415221755458,0.2,0,
1.5284075753534276,0.3039161335276299,-0.2579190240588093,0.2,-0.7926982018026673,0.14690791779647938,0.2,-1.1912775430633902,-0.2144674673164454,0.2,-0.4991478769126981,-0.003101892849886184,0.2,0.7998880595951829,0.1534205601198893,0.2,-0.0022413479177172046,-0.035962889386246415,0.2,0,
1.5364097092558016,0.3020320201633381,-0.010916453392170733,0.2,-0.7916313627762657,0.04044942864517287,0.2,-1.19597932203288,-0.08527667904491276,0.2,-0.4963643693492457,0.16518696590094029,0.2,0.8028715397411776,-0.27223269221005736,0.2,-0.00017707292459967833,0.18843533460698114,0.2,0,
1.5444118431581757,0.3037414702733552,0.07623141412454668,0.2,-0.7920510109443445,-0.33263370701416134,0.2,-1.1926419699281088,0.21892165569036004,0.2,-0.49650488545828303,-0.14209325112932852,0.2,0.795532336519822,-0.38283683447128125,0.2,0.0007736174359944938,0.058605408870117705,0.2,0,
1.5524139770605496,0.3032517227893308,0.25242510245207517,0.2,-0.7969535020884922,-0.1718348706491457,0.2,-1.1924765755418343,-0.11625279431928814,0.2,-0.49863786136731497,0.1944591298242461,0.2,0.7967461503896371,0.5022674047432049,0.2,0.000760613617322205,0.02435564358872539,0.2,0,
1.5604161109629235,0.3077802719125884,-0.0592266473196032,0.2,-0.7948003688747308,0.16180207409925013,0.2,-1.1945020146372174,0.19741121807469175,0.2,-0.4933935393810951,0.12338194842125699,0.2,0.8035686149957133,0.35382884100172707,0.2,0.0011633077334141,-0.22364711845498159,0.2,0,
1.5684182448652975,0.3023040964322172,-0.31926473535135236,0.2,-0.7943646689029042,0.20956932931832234,0.2,-1.1893179960526392,0.48052429239418826,0.2,-0.49666375019257486,-0.21266704670913975,0.2,0.8024074118456648,-0.17622569130712473,0.2,-0.0028177402779575003,-0.032862616172371156,0.2,0,
1.5764203787676716,0.30267203614696675,0.2093341229267541,0.2,-0.7914472596056377,-0.09666241802248204,0.2,-1.1868136259589104,-0.2847784160356359,0.2,-0.49679621212844133,-0.03808055504956817,0.2,0.8007490039347993,-0.10625868329373206,0.2,0.0006375058746561615,0.022390334885383945,0.2,0,
1.5844225126700455,0.30565344239904524,0.14625760770718352,0.2,-0.795911267591264,-0.2701912374608456,0.2,-1.1938744507092094,-0.4051688237532852,0.2,-0.49727303907336795,0.21657900463054394,0.2,0.8007072729129651,-0.17509739647426914,0.2,-0.0024594949197913572,-0.22168583579299525,0.2,0,
1.5924246465724194,0.3050121578702817,-0.09763521750845092,0.2,-0.7957703194050112,0.45019924868305167,0.2,-1.193296327138963,0.11552163828361384,0.2,-0.4933309480543526,-0.10016608939263441,0.2,0.797947445591211,0.1010953829676739,0.2,-0.0029094674980317627,0.16092333579077603,0.2,0,
1.6004267804747934,0.30409127891891,0.17813593463847713,0.2,-0.7887080796123351,0.21877977430218715,0.2,-1.1920261044966716,0.04455888407883801,0.2,-0.4988756965036501,-0.1532052014334359,0.2,0.8023247990404478,-0.09020068205057435,0.2,0.00011527845286105924,0.3243594820010805,0.2,0,
1.6084289143771673,0.3078623328244973,0.11291132479722757,0.2,-0.7922698430161762,-0.21706628772906467,0.2,-1.1925833849937015,-0.08725093112750548,0.2,-0.4957822312772876,0.262137661840061,0.2,0.7965042346784018,-0.4443832390432362,0.2,0.002280284213985525,0.05238540825728566,0.2,0,
1.6164310482795414,0.30589786011566567,-0.28593283986671003,0.2,-0.7921811402160002,-0.15108735356351294,0.2,-1.1934221193947117,-0.08541457437272193,0.2,-0.4946814939142091,0.200771182439205,0.2,0.7952146672157561,0.10182472261325431,0.2,0.0009534449849776297,-0.09880422032765143,0.2,0,
1.6244331821819153,0.30328740738662996,-0.1213593194875906,0.2,-0.7946872406731924,-0.10491410733068363,0.2,-1.193950018183665,-0.16484565820552854,0.2,-0.4925698923582603,-0.30652199285020537,0.2,0.7981334302402139,0.3241882294951065,0.2,0.0006994166887431021,-0.08446451961734112,0.2,0,
1.6324353160842893,0.3039561110038642,0.1653034256974481,0.2,-0.7938597659332911,0.12735274025137133,0.2,-1.1960596499260001,0.015516799277262572,0.2,-0.4995858457998124,0.03650836152573056,0.2,0.8004016788876778,0.1005644641206005,0.2,-0.00039798732889982815,-0.036158515934221896,0.2,0,
1.6404374499866632,0.30593226219778913,0.4320623193919716,0.2,-0.7926495968291705,0.010517551838916395,0.2,-1.1937017493952289,0.38832240139981267,0.2,-0.49198575857384863,0.316922935303561,0.2,0.7997424616661435,-0.059876504853069445,0.2,0.00012088043379555171,0.08005865216221195,0.2,0,
1.648439583889037,0.31086910811413576,-0.25563372107762977,0.2,-0.7936914851038684,-0.15531491344519116,0.2,-1.189846491503603,0.2979794246080192,0.2,-0.49451507883495543,-0.4010482515945449,0.2,0.7994436548100287,0.11763222791151551,0.2,0.0008829511056955631,-0.07841343450735734,0.2,0,
1.6564417177914113,0.30184212266054705,-0.5167413590108049,0.2,-0.7951346354442935,0.19894468459295128,0.2,-1.1889340786015006,-0.14499613053468863,0.2,-0.49840253059936135,-0.2972179307410248,0.2,0.8016245773127277,0.06153567016570216,0.2,-0.0011337345183221657,-0.09059383128806998,0.2,0,
1.6644438516937852,0.3026012463699629,0.1469697890912891,0.2,-0.7905083701503812,0.023065120403759076,0.2,-1.1921664295921581,-0.2917061910076846,0.2,-0.49927056572681183,0.3332509830181358,0.2,0.8004282255326799,-0.2140975665932271,0.2,-0.0005665501949135568,0.023750518666241133,0.2,0,
1.672445985596159,0.3041936392860077,0.03887219498256711,0.2,-0.7947655935178334,-0.3387381436341999,0.2,-1.1936013776576235,0.10143173624857504,0.2,-0.4930705148710712,0.17552051744350317,0.2,0.7981990162472361,-0.12436000019423743,0.2,-0.0007537262196623076,0.17153769787122386,0.2,0,
1.680448119498533,0.30322320148968396,0.20141692489288737,0.2,-0.7959281804485284,-0.15969092967124676,0.2,-1.190543521812181,0.09686331924786684,0.2,-0.4964622374477158,-0.19084533837926063,0.2,0.7984384655295721,0.008476551636750485,0.2,0.002178052971026025,-0.07481958344650913,0.2,0,
1.6884502534009072,0.3074163100842939,0.1437203172002348,0.2,-0.7973206483925733,0.11699801382136776,0.2,-1.1920515645496577,-0.043412853736837786,0.2,-0.49612404028513934,0.004997095547888686,0.2,0.7983346410734241,0.2564573814638066,0.2,-0.0019508395548064536,-0.27951910830234644,0.2,0,
1.696452387303281,0.3055227265648877,-0.0308746773397435,0.2,-0.7940562122273865,0.3746596959238943,0.2,-1.1912381274719703,0.39299881011505,0.2,-0.49638228391894956,-0.004180435444315483,0.2,0.802541783632993,0.095079440036068,0.2,-0.0022942527618115185,0.14174845863603608,0.2,0,
1.704454521205655,0.306922315246858,-0.15621593423518002,0.2,-0.791326093257791,-0.009299331550687018,0.2,-1.1857635835878169,-0.1796714597834953,0.2,-0.4961909272522484,-0.04076755973948798,0.2,0.7998559121140012,0.10206120856767059,0.2,0.0003171357833701235,0.06664702225179789,0.2,0,
1.712456655108029,0.30302327161712483,-0.2374007985758951,0.2,-0.7942050015321975,-0.21898765805501014,0.2,-1.1941128708285063,-0.3388131342646483,0.2,-0.49703456487478137,0.024078462715577953,0.2,0.8041747629700757,-0.2389118695050249,0.2,-0.0012279004057827523,0.049753085546932224,0.2,0,
1.7204587890104028,0.30312390246964366,-0.21402307563775022,0.2,-0.7948298957866712,0.0667088342776595,0.2,-1.1911845937360512,-0.019410535499919668,0.2,-0.49580567184879915,0.4330507304105488,0.2,0.7960333222019208,-0.26357462534985776,0.2,0.0011131851521210391,-0.037630961598371926,0.2,0,
1.728460922912777,0.29959890240692083,-0.11844546492757735,0.2,-0.793137660183755,0.22074498407737703,0.2,-1.194423439396505,-0.166015269591549,0.2,-0.4901057531882126,-0.09167343846992054,0.2,0.799957568964478,-0.12261117656808124,0.2,-0.001829995791356703,-0.1185297383973472,0.2,0,
1.736463056815151,0.3012287750308024,0.34471255220430014,0.2,-0.7912979760414331,-0.10516122696882513,0.2,-1.193840838049516,0.06150321306898354,0.2,-0.4972724468643179,-0.47427787405790456,0.2,0.7940715433768315,0.09364803472459993,0.2,-0.000783290662236516,0.291167734271646,0.2,0,
1.7444651907175248,0.30511430324218963,0.12181984050936914,0.2,-0.7948202398152562,-0.17781239079336236,0.2,-1.1934393879874012,0.03358667495390044,0.2,-0.49769419917313906,0.03031914373474026,0.2,0.8014559375200716,0.2824119342225845,0.2,0.0028286879569896324,0.009273246049448947,0.2,0,
1.7524673246198987,0.3031778924789523,0.051929845881544534,0.2,-0.794142974294127,-0.10374170901621821,0.2,-1.1933034512502536,0.2261057898349378,0.2,-0.49678734056456203,-0.05723597514425624,0.2,0.7985901343243929,-0.1329333881740294,0.2,-0.0006349187254453329,-0.0735065370669812,0.2,0,
1.7604694585222727,0.30594518077629435,0.03387145313388934,0.2,-0.7964801071595157,0.05710621593946891,0.2,-1.1898216953500422,-0.07850797710105828,0.2,-0.49860997477544716,0.05834095845456272,0.2,0.7993290033092871,0.07575661457852323,0.2,0.0016525833639179333,-0.03715670339390616,0.2,0,
1.7684715924246468,0.30371983572909456,-0.049051835292079904,0.2,-0.7932292748390954,0.405808913997191,0.2,-1.1945595788838705,-0.02142936128568529,0.2,-0.495853885229289,0.21906068657548058,0.2,0.7998022401576492,0.07336637475184593,0.2,-0.0012294259797478314,0.05224470380073779,0.2,0,
1.7764737263270207,0.30516035141162107,0.09294675078062517,0.2,-0.7899871645355606,0.10771266375702443,0.2,-1.1901645651306132,0.25696567700483897,0.2,-0.4951050037902395,0.392581310067034,0.2,0.8005028653053167,-0.095650252975997,0.2,0.002488498624729738,0.13293515411513465,0.2,0,
1.7844758602293946,0.30520698374158456,-0.05149313476216985,0.2,-0.791505872218983,-0.35925381358620917,0.2,-1.1904481280517931,0.14115444508719377,0.2,-0.4895725842682165,0.13029809942869536,0.2,0.7982718361100333,-0.0629818893294748,0.2,0.000897536486094323,0.010632917802991162,0.2,0,
1.7924779941317686,0.30433646125542635,-0.4135797012444868,0.2,-0.79573522555294,-0.18956195596338266,0.2,-1.187906094009218,0.08250193192442523,0.2,-0.49302023419938035,-0.40391829992745054,0.2,0.7994951550760451,0.1893126911126225,0.2,0.0026586253095775966,-0.1933193735930974,0.2,0,
1.8004801280341425,0.29858970852167277,-0.0017585382279527995,0.2,-0.7945388635143972,-0.039196524793665144,0.2,-1.1891280971410023,0.10180062878994978,0.2,-0.4960352770670557,-0.28352895386396165,0.2,0.8013008391678352,0.3054890594451701,0.2,-0.0021955734913952354,-0.13823172713829274,0.2,0,
1.8084822619365166,0.3043083246437791,0.20147286801244432,0.2,-0.7963623699496386,-0.08120621458642535,0.2,-1.186277283948579,-0.11389182741682047,0.2,-0.49755669746120373,0.0018857353602901028,0.2,0.8043829800271678,-0.18076128213282555,0.2,0.0004469176753649126,0.04208853329811683,0.2,0,
1.8164843958388905,0.3018132744098719,0.12760746575915874,0.2,-0.79583816294778,0.1527551792383161,0.2,-1.1909503663796714,-0.4598615804075751,0.2,-0.49600510530129105,0.07269713484828189,0.2,0.79840865865371,-0.30008435678934714,0.2,-0.0015221569586253661,0.10045876242710514,0.2,0,
1.8244865297412645,0.30635004409592564,0.06086664379707091,0.2,-0.7939182870818255,0.16092580117686717,0.2,-1.1936350692351,-0.21133937585657292,0.2,-0.4963935433036312,0.08626163407696175,0.2,0.7995816303185382,0.1221681308980968,0.2,0.002054257874198595,0.03150285548532792,0.2,0,
1.8324886636436384,0.302787140710625,-0.15669072686226582,0.2,-0.7932633501289501,-0.16975981660798112,0.2,-1.1943317963933766,0.08901383718450118,0.2,-0.49462491915605966,-0.07684263516526818,0.2,0.8003633487480796,-0.22657693958851033,0.2,-0.0010181112708601194,0.02588013263465596,0.2,0,
1.8404907975460125,0.3038429924661294,-0.13868431090826097,0.2,-0.7966344441475532,0.06280980138734238,0.2,-1.192210847840148,0.1825583013417703,0.2,-0.4976230254662755,0.03168302030999784,0.2,0.7959563992851221,0.11138888112601636,0.2,0.0024683399963530903,0.12274689878852425,0.2,0,
1.8484929314483864,0.30056819173609284,0.0611961705059387,0.2,-0.7922583933067526,0.20168789832206852,0.2,-1.1914108635719083,0.14572855757645498,0.2,-0.4941179908310997,-0.1168270922578922,0.2,0.8021455708460958,0.17407030656696465,0.2,0.0009458391097562689,-0.24398370811719874,0.2,0,
1.8564950653507604,0.3048221311942244,0.206661359588977,0.2,-0.7934074377744001,-0.19322768453448186,0.2,-1.1898791909189248,-0.06412363898100626,0.2,-0.4994922589424018,0.21096659834978979,0.2,0.7987415241901935,-0.13814741938039665,0.2,-0.0014353993335220895,0.028648523540680235,0.2,0,
1.8644971992531343,0.30387477348951647,-0.018973320926773257,0.2,-0.7953500362593043,-0.004880764954903749,0.2,-1.1924368417956044,-0.17408776821042915,0.2,-0.49074252525750306,0.23934223748697803,0.2,0.7999352121360095,-0.03152475320200576,0.2,0.0014042154864071527,0.10113941652857837,0.2,0,
1.8724993331555082,0.30451855805939604,-0.14464180599187484,0.2,-0.7934855300136786,0.13523824009210178,0.2,-1.1926645952102917,0.22847578220488995,0.2,-0.49566278314261014,-0.24256059652133857,0.2,0.7982371281389614,-0.03364664243371562,0.2,0.00018283133093516444,0.04220020313296929,0.2,0,
1.8805014670578823,0.3015605045936465,0.09642443558435798,0.2,-0.7931862244178307,-0.0009207748798423232,0.2,-1.1887812292803261,0.03839105242411933,0.2,-0.4946234948018445,-0.13493345394864284,0.2,0.79939686585707,0.09271319005776935,0.2,0.0020794187365346614,0.0823833902485671,0.2,0,
1.8885036009602563,0.30606134902874577,0.21873264636017645,0.2,-0.7935002624117561,-0.10573373531979485,0.2,-1.1920503383715058,-0.12593291185689082,0.2,-0.4978217184057884,-0.02511980039134401,0.2,0.7997205391798857,0.2315426557287989,0.2,0.0015009655749122382,-0.006797255797680085,0.2,0,
1.8965057348626302,0.3050602269354093,0.04466505140948013,0.2,-0.7948779641829474,0.18550791999746852,0.2,-1.1907961558700364,-0.030956700576165175,0.2,-0.495025411608106,0.24926594441933292,0.2,0.8031015483487308,0.029020065094420566,0.2,0.00197066264377178,0.04522283583106768,0.2,0,
1.904507868765004,0.30677598985129745,-0.10376701703572119,0.2,-0.7905321356917966,0.1415517073592651,0.2,-1.1925456455807244,0.20365005105678347,0.2,-0.4938334632950791,0.06969104917961197,0.2,0.8001848602213965,0.09883949955331872,0.2,0.002224530948209321,-0.04301980917803896,0.2,0,
1.912510002667378,0.30339995466283776,-0.3634482029542425,0.2,-0.7926131368651992,-0.10881954293570639,0.2,-1.1875377550531279,-0.19185970014759524,0.2,-0.4939103548212322,-0.2087331039668898,0.2,0.8046829803415839,0.12892312362413477,0.2,0.0012823456969231566,-0.23355388918456793,0.2,0,
1.9205121365697522,0.30096081860402957,-0.11876233360546759,0.2,-0.7922732483787679,-0.050283587520086326,0.2,-1.195615400783086,-0.14555012033000414,0.2,-0.49717319295854934,-0.13215558943148117,0.2,0.8022476301993826,-0.41392913605806103,0.2,-0.0015123312787437661,0.08076768697508901,0.2,0,
1.928514270472126,0.3014997573251503,0.21350458417113138,0.2,-0.7934176742655206,-0.14526883244632416,0.2,-1.189866556978408,0.286887704700145,0.2,-0.4960248442521359,-0.06385240637019063,0.2,0.7980601141646549,-0.01008495648553015,0.2,0.002574628688524581,0.2173578258295689,0.2,0,
1.9365164043745,0.30437689195076767,0.12084501521219052,0.2,-0.7945975496979091,-0.1403685527801915,0.2,-1.1910251975078836,-0.26979815045373445,0.2,-0.4981948314604724,-0.07513842868423284,0.2,0.8020862708956141,0.08992354502256744,0.2,0.0019653939345293365,-0.09168882136546981,0.2,0,
1.944518538276874,0.3034332775685453,-0.31603282940937877,0.2,-0.7956635711100036,0.013489150428466767,0.2,-1.1941833273856677,0.036167456223298866,0.2,-0.4972270591110836,0.11095892037359459,0.2,0.799498890885016,-0.06689806291501621,0.2,0.001107607546677064,-0.11858340649416015,0.2,0,
1.9525206721792479,0.2993203666802176,-0.29883732029491183,0.2,-0.7943817232910536,0.20034521333398003,0.2,-1.1904465182083108,-0.0003408911958130423,0.2,-0.4964194887344949,0.08169481571822235,0.2,0.8010159018889739,-0.027399168747548053,0.2,6.8059430622774e-05,-0.12886437665106687,0.2,0,
1.960522806081622,0.29865188044382673,0.45565298251463643,0.2,-0.79245804769666,0.07159438806126489,0.2,-1.1941887816448007,0.004317752088964233,0.2,-0.49591994205959206,-0.07603462501465721,0.2,0.7990605041850553,-0.142304687524554,0.2,-0.0009542224797400062,-0.07544381269837178,0.2,0,
1.968524939983996,0.3066108144004518,0.13095213077850276,0.2,-0.7932362130820734,-0.06495812283872915,0.2,-1.1903774341748874,0.3087312853972679,0.2,-0.4976360427347294,-0.2835894732786427,0.2,0.798739026888581,0.07280005960411812,0.2,-0.0011390415725511744,0.03436347683822148,0.2,0,
1.9765270738863698,0.3007471145362828,-0.10657984969265552,0.2,-0.7934973776620796,-0.04134960869277976,0.2,-1.1892490810784444,-0.15732688895563063,0.2,-0.5004573736320503,0.12431899168399707,0.2,0.8002253051387211,0.11620602595362878,0.2,-0.00040440685032846243,0.1323151863224935,0.2,0,
1.9845292077887438,0.3049055368053693,-0.015510252343184372,0.27902728793945314,-0.7938978068211578,-0.07360356189974049,0.5597494572614327,-1.1928946643981775,-0.22930508435813068,0.47124684722173654,-0.49564693886778544,0.49198402002646396,0.2,0.8005983233038391,0.049100615869782094,0.2,0.0009780014086087216,-0.04569103082579466,0.2,0,
1.992531341691118,0.30049895049879183,12.23433249332376,0.6286924233362727,-0.7946750346524755,18.265864021104484,0.920937533673082,-1.1929179624281745,24.7107236036206,1.244479408181322,-0.4925856293116269,12.303856875332798,0.6161772313415915,0.8010109149926377,-0.3016796959383339,0.2,-0.001135463343541177,0.23364890401061927,0.2,0,
2.0005334755934916,0.5006548566985495,12.944957013881208,0.9341302167520862,-0.5016439824834861,18.201178474934903,1.4758650013836996,-0.7975230867402479,24.634177189101504,1.6834265286384889,-0.2987852288624607,12.351132797571392,0.767404679677963,0.7957714481688257,-0.2957795464067284,0.2,0.00471638387277863,0.16486295200315043,0.2,0,
2.0085356094958655,0.5076182627208912,0.41225064213969154,0.2,-0.503456179053517,-0.1943865471276396,0.2,-0.7987711274025504,0.16956667132114744,0.2,-0.29496750455048465,0.3178348800414732,0.2,0.79627844225013,-0.010721502736781019,0.2,0.00150234388850923,0.2607423098630354,0.2,0,
2.01653774339824,0.5072508669727845,0.36148287239706756,0.2,-0.5047541672375283,-0.20076283273749024,0.2,-0.7948100199991095,0.29229359860569876,0.2,-0.2936998707817971,0.25983402832393393,0.2,0.7955999041250372,-0.2506388617791039,0.2,0.008888260830587197,0.7893763530477459,0.2,0,
2.024539877300614,0.5134019886792442,0.18948962153630955,0.2,-0.5066683843773169,-0.7384663344082512,0.2,-0.7940944298248592,0.4945273846568149,0.2,-0.2908101600973017,0.5176640224183529,0.2,0.7922682204616643,-0.3710757657308661,0.2,0.014132365537273164,0.3803170589402599,0.2,0,
2.0325420112029877,0.5102827009173655,0.35924665799052374,0.2,-0.5165696285880603,-0.9315049637896727,0.2,-0.7868975818446005,0.343123561481834,0.2,-0.28541724642310345,0.5631359922811836,0.2,0.7896626918733434,-0.3496016438085531,0.2,0.014973333773631355,-0.034006107166984975,0.2,0,
2.0405441451053616,0.5191499352070926,0.6357981652576755,0.2,-0.5215724637979516,-0.1613674926706707,0.2,-0.7886044528411499,-0.14857210261364634,0.2,-0.28179998422080277,0.4545839302233304,0.2,0.7866745941607275,0.08777183117558707,0.2,0.013588267822601405,0.32345995918338866,0.2,0,
2.0485462790077356,0.5204554715614883,0.31178480762444893,0.2,-0.5191515084707911,-0.057157664162636734,0.2,-0.7892747354864188,0.11582987267043376,0.2,-0.27814390353953017,0.2991030046129786,0.2,0.7910670411721528,0.05555193973423578,0.2,0.020148693120565574,0.6006865493053579,0.2,0,
2.0565484129101095,0.5241384921290838,0.3333788278484795,0.2,-0.5224869864245538,-0.5244652538026819,0.2,-0.7867511748784229,0.3249312644867247,0.2,-0.2770143361469951,0.22314945567418476,0.2,0.7875634251964753,-0.6468542522889489,0.2,0.023199252611487132,0.43288433811954075,0.2,0,
2.0645505468124834,0.525789532807064,0.6061146622634156,0.2,-0.527542952531634,-0.6014756215609457,0.2,-0.7840758352546312,0.18234831427917098,0.2,-0.2745735122487432,0.2856249097215324,0.2,0.7807173731355296,-0.3725781462267583,0.2,0.027074842530478226,0.4404944664856297,0.2,0,
2.0725526807148573,0.5338363267252985,0.523183878189587,0.2,-0.532110596369529,-0.4021637707870909,0.2,-0.7838336018499562,0.15966226309712533,0.2,-0.2724443375914506,0.4095210026756092,0.2,0.7816021748568471,-0.2288038665167122,0.2,0.030247164075257207,0.4008994154252477,0.2,0,
2.0805548146172312,0.5341604748580974,-0.018043826711507116,0.2,-0.5339775728642274,-0.1503766017540778,0.2,-0.7815212390450772,0.358278454239018,0.2,-0.26802117620593346,0.6966573055073588,0.2,0.7770565112712622,-0.17344440341209716,0.2,0.03348923317728219,0.535454359397344,0.2,0,
2.0885569485196056,0.5335476254979143,0.29718229281597286,0.2,-0.5345166219975942,-0.4317012094613784,0.2,-0.7781011465821319,0.25124349828688913,0.2,-0.26129782070333285,0.7514194974470694,0.2,0.7788270644022536,-0.19218998338636079,0.2,0.03881443382561471,0.2846686435535165,0.2,0,
2.0965590824219795,0.5389153915431529,0.6875866993390489,0.2,-0.5408847922156095,-0.5571768495896967,0.2,-0.777501343072487,0.41998516163012367,0.2,-0.25599846424678036,0.2575892189887706,0.2,0.7739814715370804,-0.11390756637071064,0.2,0.038043931474138454,0.14389183569931938,0.2,0,
2.1045612163243534,0.5445490126873391,0.5121627023009153,0.2,-0.5434314515910293,-0.34429568763415935,0.2,-0.7713813839960499,0.33121952483069345,0.2,-0.2571763931995125,0.016724743680088944,0.2,0.7770045433403222,-0.3278273114217453,0.2,0.04111670319680382,0.3485967730280414,0.2,0,
2.1125633502267274,0.5471099947799676,0.3014859865753325,0.2,-0.546393523217756,-0.4749337854670632,0.2,-0.7722018306751959,0.3999506509312356,0.2,-0.25573086834789893,0.524734734023374,0.2,0.7687362345543325,-0.520497497743029,0.2,0.043621479842587116,0.23817430645956808,0.2,0,
2.1205654841291013,0.5493727884725444,0.43664043311270745,0.2,-0.5510303921585024,-0.3158095074378975,0.2,-0.7649821735811502,0.2213943092538584,0.2,-0.24878063745513854,0.33330423923132874,0.2,0.7686765833764337,-0.17756691074828634,0.2,0.04492749210015691,0.5047714208025714,0.2,0,
2.128567618031475,0.5540962417097709,0.49975810592093467,0.2,-0.5514464753367624,-0.37919373930921096,0.2,-0.7686595217271341,0.08094610227338261,0.2,-0.25039800052019767,0.33919239861378986,0.2,0.7658951639823599,-0.18231521641392384,0.2,0.05169782257542826,0.8314630918619231,0.2,0,
2.136569751933849,0.5573689181672794,0.2851832599581952,0.2,-0.5570974919874497,-0.3880219425724668,0.2,-0.763687035944776,0.12683848574907702,0.2,-0.2433535590773179,0.6385831549020424,0.2,0.765759539913811,-0.11080672184969609,0.2,0.05823090156994768,0.5981182990272716,0.2,0,
2.144571885836223,0.558659173869102,0.40767511678869994,0.2,-0.5576548264179219,-0.4237722633417332,0.2,-0.7666301059551489,0.2800162050353022,0.2,-0.240180670041765,0.39376107257583537,0.2,0.7641222564327648,-0.15581159316853388,0.2,0.061267715359864604,0.4719973016291822,0.2,0,
2.152574019738597,0.5638917200358986,0.6394643972725891,0.2,-0.5638778482009175,-0.5030699273980144,0.2,-0.7592067766642112,0.5882919084038568,0.2,-0.23705338191610453,0.6327264955303686,0.2,0.7632665544231144,-0.518390220998019,0.2,0.0657828583960146,0.3071352253733047,0.2,0,
2.160576153640971,0.5688906042254634,0.19020019035891067,0.2,-0.5657039452562901,-0.3018197080909557,0.2,-0.7572174354206872,0.021728824403099978,0.2,-0.2300570461132791,0.599396693124924,0.2,0.7558280128967965,-0.18496751313681198,0.2,0.06618187896583748,0.1431416451670893,0.2,0,
2.1685782875433453,0.5669349230816412,0.15970833046154848,0.2,-0.5687069635303728,-0.37509240216146433,0.2,-0.7588591154737616,-0.14891937548022066,0.2,-0.22746303482610575,0.0532477203295436,0.2,0.7603070742129254,-0.22552038655897222,0.2,0.06807312471868802,0.516983432880638,0.2,0,
2.176580421445719,0.5714459375128482,0.3657530580852414,0.2,-0.5717054236908735,-0.4003572120153884,0.2,-0.7596001454283707,0.3924773616536259,0.2,-0.2292050825880064,0.1378244936893827,0.2,0.7522196867118529,-0.2829381389393218,0.2,0.07445361389192769,0.3785396316114825,0.2,0,
2.184582555348093,0.572786972011005,0.5925736916430613,0.2,-0.575112678922619,-0.4514554954093697,0.2,-0.7525794776873036,0.5624681486901331,0.2,-0.22525784292707562,0.5987896687007933,0.2,0.7557800639898963,-0.22379973335501235,0.2,0.07412975882447174,0.5010407467295657,0.2,0,
2.192584689250467,0.5809271165791372,0.6116079402157178,0.2,-0.5789287116174234,-0.710967956595851,0.2,-0.7506006550493286,-0.09947665386236121,0.2,-0.2196244478887937,0.6157008768118126,0.2,0.7486388909781727,-0.1812328373780453,0.2,0.08247026583960074,0.6026611647229705,0.2,0,
2.200586823152841,0.5825726990544565,0.6962467537617381,0.2,-0.5864881662281526,-0.2718484363974927,0.2,-0.7541711041491014,0.3311478065164408,0.2,-0.21540662889808662,0.348977390954578,0.2,0.7528803385918476,0.09307766287640351,0.2,0.08377233746003927,0.45065654600837196,0.2,0,
2.208588957055215,0.592067064639325,0.5997273225247998,0.2,-0.5832782865997833,-0.214802169152227,0.2,-0.7453022901450655,0.38699127776636866,0.2,-0.21404080963352046,0.38959726787935256,0.2,0.7501281335841952,-0.48711471265019957,0.2,0.08968077057573469,0.29770028250039343,0.2,0,
2.2165910909575888,0.5921683362148533,0.196857259152583,0.2,-0.5899250009345882,-0.5139774441285313,0.2,-0.7479792437048395,0.009538855114447908,0.2,-0.20917307261201698,0.6914437734517921,0.2,0.7450865031894444,-0.18217067528734227,0.2,0.08853554198004557,0.15861388379709035,0.2,0,
2.2245932248599627,0.5952167807857663,0.38417090392203757,0.2,-0.5915019257058398,-0.317451260653856,0.2,-0.7451496684632344,0.2579448378762575,0.2,-0.20297770925829178,0.4923850210571765,0.2,0.7472134027795977,-0.327418329618967,0.2,0.09221859271648813,0.5563899578382541,0.2,0,
2.2325953587623366,0.5983150706776059,0.1584851744703547,0.2,-0.5950042211050499,-0.5595572453458569,0.2,-0.7438521262988194,0.3738855095905755,0.2,-0.20129491227510216,0.22931736733315666,0.2,0.7398478099155409,-0.23511889213877896,0.2,0.09743778130545763,0.35660530836716714,0.2,0,
2.240597492664711,0.597752543577292,0.1135758917837279,0.2,-0.6004548416313735,-0.32952422758091016,0.2,-0.7391675003097852,0.3891241056874495,0.2,-0.19930863138096128,0.44557377058148173,0.2,0.7434515005053772,-0.1752123174819098,0.2,0.09792427765036281,0.6391210066547474,0.2,0,
2.248599626567085,0.6001322849461456,0.5683472340786144,0.2,-0.6002766087463445,-0.33011719204725093,0.2,-0.7376261406078202,0.19423120020795048,0.2,-0.19416573194579845,0.39416770788050504,0.2,0.7370444128358303,-0.46136186744717006,0.2,0.10766371741193359,0.39957249978052856,0.2,0,
2.256601760469459,0.6068460993225498,0.6960415308382983,0.2,-0.6057367167041295,-0.4590078960676619,0.2,-0.736059801106458,0.04116399043314206,0.2,-0.1930019480548732,0.3891853981662485,0.2,0.7360697106262225,-0.31500101933670116,0.2,0.10431743764685127,0.36747892242617286,0.2,0,
2.2646038943718327,0.6112689494395583,0.573618427489729,0.2,-0.6076207350834271,-0.49987336869401766,0.2,-0.7369675167608899,0.26132892752921133,0.2,-0.18793876557513847,0.2882086447507058,0.2,0.7320043965264431,-0.3653309763093568,0.2,0.11354338017075236,0.6926915808240802,0.2,0,
2.2726060282742067,0.6160239941623855,0.3751770545148275,0.2,-0.6137346906032338,-0.3610582964441514,0.2,-0.7318785382659906,0.3532955707572921,0.2,-0.1883906097388619,0.34406179722942626,0.2,0.7302244150052728,-0.1349769138692461,0.2,0.11540050294003655,0.3196676399285902,0.2,0,
2.2806081621765806,0.6172717823117956,0.1473471130377449,0.2,-0.6133976678265335,-0.35021293062772324,0.2,-0.7313147876287732,0.3131309540739119,0.2,-0.18243377681946765,0.5484086968666705,0.2,0.7298447659045352,-0.08067167040293893,0.2,0.1186580624096098,0.2601021730602856,0.2,0,
2.2886102960789545,0.6183815479709894,0.5688326422727819,0.2,-0.6193380974932774,-0.5548344501661098,0.2,-0.726868443000808,0.2538321303900415,0.2,-0.17961607058899517,0.3739880000082924,0.2,0.7289336682788258,-0.09786682947369313,0.2,0.11956213770900112,0.34193643940822954,0.2,0,
2.2966124299813284,0.6263731045881601,0.3670971679296045,0.2,-0.6222750190291912,-0.30375257086830143,0.2,-0.7272534735425326,0.26815645314587355,0.2,-0.17644996881933497,0.21910918779487545,0.2,0.7282788966329561,-0.32926759433951625,0.2,0.12412904544014147,0.3367706009343675,0.2,0,
2.3046145638837023,0.6242551026578631,0.11120201410588781,0.2,-0.6241981386271702,-0.7086513368392069,0.2,-0.722577939750474,0.48874977701950095,0.2,-0.17611032358427717,0.595717262503374,0.2,0.7236653867693935,-0.1468110421107699,0.2,0.124950467323951,0.3131372335482899,0.2,0,
2.3126166977860763,0.6281523368138543,0.5783905926317264,0.2,-0.6336134404186186,-0.3963332744814918,0.2,-0.7194334771102205,0.23999327572106488,0.2,-0.166918492619281,0.43408964623571633,0.2,0.7259299199591838,-0.3837692036701007,0.2,0.1291392411769141,0.3158583739021397,0.2,0,
2.3206188316884506,0.6335093521399707,0.36776241751512034,0.2,-0.6305394710188741,-0.2059750476397712,0.2,-0.718738047338937,0.2878669720009913,0.2,-0.1691648892445057,0.2943384336186062,0.2,0.7175250795106719,-0.5435778977008823,0.2,0.13000420130638524,0.6152253244174171,0.2,0,
2.3286209655908245,0.6340365354940962,0.4649884844444077,0.2,-0.6369090411808549,-0.6223330407275698,0.2,-0.7148276055582047,0.16238100839009034,0.2,-0.1622090776813833,0.5655137606396173,0.2,0.7172326735959696,0.001861264583874478,0.2,0.13898284636759278,0.5918180556341042,0.2,0,
2.3366230994931985,0.6409491678910813,0.5514053495813755,0.2,-0.6404967996705152,-0.5287675006676457,0.2,-0.7161399512046955,0.10258095921992366,0.2,-0.16011666907427183,0.48345798739997914,0.2,0.7175548597440139,-0.26244851593386354,0.2,0.1394732901965309,0.35925317406444374,0.2,0,
2.3446252333955724,0.6428590210873982,0.30290785075453436,0.2,-0.6453693211915372,-0.4937424559831108,0.2,-0.7131863102106859,0.3233141784135321,0.2,-0.15447374988298362,0.6468992000386864,0.2,0.7130334973410278,-0.10173832064772764,0.2,0.14473089715262388,0.4664386429223295,0.2,0,
2.3526273672979463,0.6457956935031538,0.32910287492626117,0.2,-0.648396678966245,-0.28825538183824967,0.2,-0.710966924350079,0.18334800010574165,0.2,-0.14976628187365285,0.3481213208069676,0.2,0.7159270466136503,-0.1585186689209428,0.2,0.14693630848328817,0.2894072581712224,0.2,0,
2.3606295012003202,0.6481246670862184,0.727955327952709,0.2,-0.6499814073009492,-0.2682595965659215,0.2,-0.710252742208994,0.35781486247780936,0.2,-0.14890380875007214,0.3309814549838953,0.2,0.7104971986382927,-0.5245977004370086,0.2,0.14936141328336344,0.6011473353097797,0.2,0,
2.368631635102694,0.6574429787503971,0.6068639340597176,0.2,-0.6526888325112997,-0.4874109882066907,0.2,-0.7052418865504341,0.17448781093726967,0.2,-0.14447057859391052,0.3647356445757241,0.2,0.7075334834066581,-0.2716071543723067,0.2,0.15655466584824465,0.604926570503905,0.2,0,
2.376633769005068,0.6578344900311739,0.20712110599541145,0.2,-0.6577799831122563,-0.5033546104952699,0.2,-0.7074609372339977,-0.07383852401245117,0.2,-0.14306803843686056,0.19807358837740582,0.2,0.7061514841683358,-0.41854531949275103,0.2,0.15904023841142592,0.43131501340032236,0.2,0,
2.384635902907442,0.6607569164463237,0.22962291087049586,0.2,-0.660742506279224,-0.18256122977058226,0.2,-0.7064233029346333,0.21176885125967493,0.2,-0.14130140117987203,0.37740943589117776,0.2,0.7008367582947741,-0.10106227305893556,0.2,0.1634557060626498,0.30403670562387763,0.2,0,
2.3926380368098163,0.6615084566051018,0.37100613491430207,0.2,-0.6607009627885856,-0.37908999077327504,0.2,-0.7040726356138429,0.521826033667766,0.2,-0.1370294874626017,0.36477050910073416,0.2,0.7045344877993929,-0.08262073198433278,0.2,0.16390482570140796,0.3035040127091354,0.2,0,
2.4006401707121903,0.6666930146049526,0.5760878377730413,0.2,-0.6668079461315964,-0.605870769240048,0.2,-0.698074086395949,0.45734283530731584,0.2,-0.13546507303426028,0.5333518623500261,0.2,0.6995148265830248,-0.43499194277777514,0.2,0.16831177026599597,0.3934960187262949,0.2,0,
2.408642304614564,0.6707258620094705,0.5403899767359444,0.2,-0.6703948950964264,-0.35382354008041406,0.2,-0.6967551502489259,0.2982035335128558,0.2,-0.1284958576650013,0.5489560751861591,0.2,0.6975746167149485,-0.1745547481823151,0.2,0.17020076200102868,0.19517019377894745,0.2,0,
2.416644438516938,0.6753392542327277,0.7258946547592515,0.2,-0.6724691227728831,-0.4799848690671821,0.2,-0.6933028298597433,0.0012588676715635794,0.2,-0.12668177583128173,0.4581388870123718,0.2,0.6967219506121077,-0.4544290368453524,0.2,0.17143449336645913,0.624339777483815,0.2,0,
2.424646572419312,0.6823401764856185,0.29099220486795974,0.2,-0.6780746530015013,-0.38276927869603655,0.2,-0.6967350083661809,0.010713686261959454,0.2,-0.12116563547280335,0.654730787359949,0.2,0.6903037521254228,-0.1727528378240098,0.2,0.18019019844076972,0.5735819340567035,0.2,0,
2.432648706321686,0.679995129510615,0.21133233726339934,0.2,-0.6785934312320197,-0.48204991051004065,0.2,-0.693131410879552,0.5090393514001895,0.2,-0.11620608323352255,0.21649239697195224,0.2,0.6939579052069236,0.16845338605257082,0.2,0.1806118043113664,0.10080679830979863,0.2,0,
2.44065084022406,0.6857214938818329,0.6073761657778842,0.2,-0.6857874515696619,-0.4356599634379385,0.2,-0.6885903787437778,0.07674802972842953,0.2,-0.11770175712125211,-0.01610683926579065,0.2,0.692999006302264,-0.2782824822096311,0.2,0.1818031072137265,0.3677993929159188,0.2,0,
2.448652974126434,0.6897131481630612,0.336622729178733,0.2,-0.6855639906470267,-0.25828274297095416,0.2,-0.6919034424038971,0.2551846968916194,0.2,-0.1164637926617752,0.5627378554370682,0.2,0.6895053854915695,-0.43156348048088017,0.2,0.1864965945980211,0.6614393683543502,0.2,0,
2.4566551080288077,0.6911074575486926,0.12023575449322116,0.2,-0.6899199754571972,-0.7823649449053768,0.2,-0.6845074235935119,0.4194930917998732,0.2,-0.10869795143425902,0.5250026225873611,0.2,0.6860939906145699,-0.25278766045212786,0.2,0.1923861371073961,0.33540972271653424,0.2,0,
2.4646572419311816,0.6916369202349527,0.18439350673308402,0.2,-0.6980818297655127,-0.36907103513814793,0.2,-0.6851915529350991,-0.10146394683465537,0.2,-0.10806375070037742,0.24404392123127897,0.2,0.6854607829243354,-0.36242377749431953,0.2,0.19186315016148564,0.2510815106629167,0.2,0,
2.472659375833556,0.694057753656422,0.42351633686413953,0.2,-0.6958251120194076,0.10124292950506458,0.2,-0.6861308467428664,0.3950053801274403,0.2,-0.10479324869455856,0.4631061781292193,0.2,0.6802952101746608,-0.44682303151202113,0.2,0.19640344127800277,0.3917980897698778,0.2,0,
2.48066150973593,0.698413181624779,0.6095028087193185,0.2,-0.6964619428934317,-0.6808385701734115,0.2,-0.6788714668530601,0.5280307485676095,0.2,-0.10065405185030991,0.5726144337020438,0.2,0.6783116144201431,-0.35438506918981233,0.2,0.19813191959780369,0.533729037608897,0.2,0,
2.488663643638304,0.7038097985959311,0.6491720587624289,0.2,-0.7067185291421821,-0.5263161243103872,0.2,-0.6776823547657846,0.2671553393628692,0.2,-0.09563141775532585,0.4159722577328946,0.2,0.6746250490676238,-0.21104122003585274,0.2,0.20494310587974512,0.4968152210165274,0.2,0,
2.4966657775406778,0.7087999345649778,0.5482256998381798,0.2,-0.7048830008823979,0.0013261691894569938,0.2,-0.6745969814232542,0.08915626270531579,0.2,-0.0939984957265836,0.33859926162802584,0.2,0.6749349548995695,-0.19196091185923192,0.2,0.20608096313406812,0.3514738279822762,0.2,0,
2.5046679114430517,0.712581409793342,-0.057598321581309175,0.2,-0.7066973104351508,-0.4492208891005503,0.2,-0.6762558545624996,0.23479609005555568,0.2,-0.09021382956927744,0.6611322140701003,0.2,0.6715536744778761,-0.3346657262292829,0.2,0.21056668712746154,0.47039168730117314,0.2,0,
2.5126700453454256,0.7078783614196769,0.33049394179358177,0.2,-0.7120705351080067,-0.4942280606476182,0.2,-0.6708402439823653,0.4303622402932056,0.2,-0.083420380301462,0.2935449156855167,0.2,0.6695803032799009,-0.03818984623334826,0.2,0.2136072301308869,0.4064934301549871,0.2,0,
2.5206721792477995,0.7178693128620393,0.8660759703255083,0.2,-0.7146049594055127,-0.6077568575354741,0.2,-0.6693700587178083,0.2573694813324534,0.2,-0.08551711091830917,0.2652654354040008,0.2,0.6709426369381425,-0.24036569494235993,0.2,0.21707058200994134,0.20805952298087216,0.2,0,
2.5286743131501734,0.721735576944885,0.2046957045246378,0.2,-0.7217946448285743,-0.5812323056839999,0.2,-0.666722332281046,0.4335675147774179,0.2,-0.07917613333499798,0.4387201787034419,0.2,0.6657344521608232,-0.16115472916068685,0.2,0.21693618249858085,0.424166279984815,0.2,0,
2.5366764470525474,0.7211444441344335,0.3967402336874856,0.2,-0.7239046762964567,-0.13829335367568363,0.2,-0.6624329784813696,0.3255098145031679,0.2,-0.0784975880590541,0.6156750993944817,0.2,0.6683641612715715,0.015542093768243503,0.2,0.22385724248969838,0.7212266153167023,0.2,0,
2.5446785809549217,0.7280834206838848,0.7749864794563688,0.2,-0.7240073384873852,-0.455553794072569,0.2,-0.6615141752489954,0.3602137942829639,0.2,-0.06932533174468627,0.5178350041894277,0.2,0.6659831256611151,-0.504509902306667,0.2,0.22847580834364808,0.4290795013005416,0.2,0,
2.5526807148572956,0.7335442278057354,0.41606963868894703,0.2,-0.7311935370016178,-0.6266477543862697,0.2,-0.6566695577728422,-0.1455857983760772,0.2,-0.07021222799202326,0.2672257762428463,0.2,0.6602920028346648,-0.27806421261460795,0.2,0.23072251451050704,0.15517261067824265,0.2,0,
2.5606828487596696,0.7347405349029079,0.12623353906892482,0.2,-0.7340337025575655,-0.08029863656048436,0.2,-0.6638435480230126,0.01008036269488366,0.2,-0.06504971932480073,0.48129195766394556,0.2,0.6615340982592813,0.002511739457297657,0.2,0.23095857011449997,0.4804229696763595,0.2,0,
2.5686849826620435,0.7355639644308382,0.42656388409613444,0.2,-0.7324783151865856,-0.46846300443136035,0.2,-0.656508271969724,0.5261677017233818,0.2,-0.06251155666940013,0.2259157489820267,0.2,0.6603321906659816,-0.18405239762961378,0.2,0.2384092820253288,0.6372577926483554,0.2,0,
2.5766871165644174,0.7415655570484461,0.3606739990631713,0.2,-0.7415291106284673,-0.7536015517710034,0.2,-0.6554248647954385,0.17675523822367756,0.2,-0.061435067341088306,0.7719511911262544,0.2,0.6585892598972075,-0.508469824301784,0.2,0.24115469479687365,0.2526269069151651,0.2,0,
2.5846892504667913,0.7413347484158489,0.23935119267876753,0.2,-0.7445359400149216,-0.33132685237294984,0.2,-0.6536801881581452,0.21446731018300025,0.2,-0.05016033761138006,0.6441115287648216,0.2,0.652196673477153,-0.4753410037519126,0.2,0.24245131253597144,0.1441156586990521,0.2,0,
2.5926913843691652,0.7453951761313063,0.4471117713780656,0.2,-0.7468303402664345,-0.4675727433925622,0.2,-0.6519933878325105,0.18179743186152314,0.2,-0.05112928288085116,0.17628119209919585,0.2,0.6509838038371769,-0.12072484619399249,0.2,0.2434605453360585,0.2826976304388645,0.2,0,
2.600693518271539,0.748488536757898,0.6459171302394817,0.2,-0.7520171039092026,-0.42319979737358987,0.2,-0.6507714292483608,0.27241270757098757,0.2,-0.04733983853779292,0.38371949647859066,0.2,0.6502650759380492,-0.19542549457604586,0.2,0.24697447462299327,0.6614507225873589,0.2,0,
2.608695652173913,0.755729850215138,0.430248409788378,0.2,-0.7536015370244119,-0.3100185498959157,0.2,-0.6476347845113747,0.16793128779492295,0.2,-0.04498977093719371,0.2646752315566304,0.2,0.6478569959239602,-0.37036360738938734,0.2,0.25404375689745623,0.38660293533938905,0.2,0,
2.616697786076287,0.755372511314512,0.38244304881746016,0.2,-0.7569774007075373,-0.24339901211376663,0.2,-0.6480845286436421,0.16807236267573494,0.2,-0.043105034832886836,0.07749996335400287,0.2,0.644339258219819,-0.21223571586843903,0.2,0.2531601215884235,0.2717165098061053,0.2,0,
2.6246999199786614,0.7618489389962174,0.40903885075484203,0.2,-0.7574959212182322,-0.6292659448330559,0.2,-0.6449456267085629,0.3044079143153869,0.2,-0.043749771523529664,0.5717450017913646,0.2,0.6444612244700652,-0.19488079090792393,0.2,0.2583912210543539,0.7669685916402713,0.2,0,
2.6327020538810353,0.7619171329265895,0.42499271981284725,0.2,-0.7670456558248662,-0.7205069515906284,0.2,-0.6432140020145959,0.2427017967085096,0.2,-0.033957114804225,0.8258696640654603,0.2,0.6412211655652922,-0.4278783694571034,0.2,0.26543161905466783,0.685731234930001,0.2,0,
2.640704187783409,0.768648822513223,0.4432834693553142,0.2,-0.7690240324436822,-0.17352194448004565,0.2,-0.6410623979612268,0.34617013435808697,0.2,-0.0305358568984823,0.16475569245619606,0.2,0.6376151705587515,-0.3292191103048264,0.2,0.26936292081323393,0.3876767670065069,0.2,0,
2.648706321685783,0.7690096684362745,0.2971789158428967,0.2,-0.7698220069365469,-0.6383683497996825,0.2,-0.6376752798648665,0.36491840867091535,0.2,-0.031321023724925866,0.2946187772850633,0.2,0.635953659800415,-0.28655045212692964,0.2,0.27163444732677194,0.1906991841498125,0.2,0,
2.656708455588157,0.7734036851667093,0.3788245611524993,0.2,-0.7792379260404771,-0.34838670484011597,0.2,-0.6352237034224921,0.12760206962828674,0.2,-0.025821956461921286,0.46599089694922335,0.2,0.6330303633247206,-0.05419002702129749,0.2,0.27241410775963093,0.12844845155583068,0.2,0,
2.664710589490531,0.7750708614147145,0.5854263316553004,0.2,-0.7753961942139888,-0.2945791174102236,0.2,-0.6356336467508139,0.25668550970243953,0.2,-0.023865169373738292,0.212028028074372,0.2,0.6350866193680742,-0.2280077963193461,0.2,0.27368962255166523,0.22026595215242362,0.2,0,
2.672712723392905,0.7827705064731941,0.5650170152514608,0.2,-0.7839511919190407,-0.39573048612536604,0.2,-0.6311167352672531,0.2917156848052521,0.2,-0.022429508012731334,0.542743156753982,0.2,0.6293822385836111,-0.2704328637687381,0.2,0.2759383629940697,0.5266935151649332,0.2,0,
2.680714857295279,0.7841111336587379,0.548246732827308,0.2,-0.7817278819919946,-0.05864979726286773,0.2,-0.6309661957939299,0.11441674692081599,0.2,-0.01518127886567458,0.5933267148062351,0.2,0.6307596935477744,-0.44086064448686096,0.2,0.28211671879430417,0.8677986753427014,0.2,0,
2.6887169911976527,0.7915424541984311,0.23308754106171614,0.2,-0.7848895886752466,-0.47002923623065684,0.2,-0.62928606731652,0.291111033034433,0.2,-0.012936280575831571,0.31215072692232754,0.2,0.6223284682718213,-0.3060240828756666,0.2,0.28982314179955293,0.45636753162796306,0.2,0,
2.696719125100027,0.7878405343157253,-0.14513084346850363,0.2,-0.7892483497716851,-0.5102731946169808,0.2,-0.626308419265379,0.24267112851780737,0.2,-0.01018686723491734,0.5324230925709855,0.2,0.6258633082217637,0.01695614353917213,0.2,0.2894185993003516,0.1464858541894258,0.2,0,
2.704721259002401,0.789220360702935,0.5157463226838424,0.2,-0.7930539597891183,-0.7046033266380758,0.2,-0.6254033292602351,0.236615153298661,0.2,-0.004417511094695803,0.26770937773561104,0.2,0.6225997665684481,-0.07263811479940596,0.2,0.29216691546658374,0.4604769104386806,0.2,0,
2.712723392904775,0.7960924754786668,0.6763001961440848,0.2,-0.8005220029978943,-0.328900968450771,0.2,-0.6225225768126004,0.18570163624710007,0.2,-0.005903517191147563,0.2479520507694912,0.2,0.6247010983849732,-0.13545255114931487,0.2,0.29678622986737047,0.5041351849803324,0.2,0,
2.720725526807149,0.8000411638412404,0.2835491903622894,0.2,-0.7983163752843306,-0.1778421607397246,0.2,-0.6224321030802815,0.16725210405094115,0.2,-0.0004502782823839432,0.6285457033229325,0.2,0.620432525750059,-0.3069302998665105,0.2,0.30023307842626906,0.482318940660819,0.2,0,
2.7287276607095228,0.8006292625244634,0.3600335731347923,0.2,-0.8033674775697299,-0.4468614882233851,0.2,-0.6198465431477853,0.6557458204226942,0.2,0.004153214062019356,0.5721124992566536,0.2,0.6197902135871091,-0.23799940916076345,0.2,0.30450333291794357,0.29914308496817654,0.2,0,
2.7367297946118967,0.805801701011397,0.3166621256326316,0.2,-0.8054661590959048,-0.6062859052269332,0.2,-0.6119401699535184,0.3618808791665054,0.2,0.008703521705722516,0.1837388119308166,0.2,0.6166245352034868,-0.1624931575580288,0.2,0.3050193677857599,0.6055663842168546,0.2,0,
2.7447319285142706,0.8056958565345855,0.5037138458291734,0.2,-0.8130680520533609,-0.5558744302815444,0.2,-0.6140564490811212,0.19512701992453058,0.2,0.007093035052912422,0.25060764135100283,0.2,0.6171903230661806,-0.15694111983446946,0.2,0.31419239506541324,0.5588426826517411,0.2,0,
2.7527340624166445,0.8138611225446638,0.8211684212317549,0.2,-0.8143601499804095,-0.16307608177300315,0.2,-0.6088181376347259,0.0923824372857096,0.2,0.01271324396733856,0.4890735655963662,0.2,0.6141134772861353,-0.32275042416791966,0.2,0.31396085070818774,0.1485516207966643,0.2,0,
2.7607361963190185,0.8188345512742936,0.4691185447494445,0.2,-0.8156772693617289,-0.2938764279698386,0.2,-0.6125783300845499,0.07136996917928018,0.2,0.014918212102454281,0.5534658751935706,0.2,0.6120263162794939,-0.6078264435360816,0.2,0.3165692209981599,0.4819681902169873,0.2,0,
2.7687383302213924,0.8213670192606549,0.1650875512921382,0.2,-0.8190621728279269,-0.3662787199572859,0.2,-0.6076762181278574,0.3826470962507225,0.2,0.02156869797043569,0.6637971598558116,0.2,0.604388254189558,-0.4975500583355441,0.2,0.32167234175165954,0.3249169866482299,0.2,0,
2.7767404641237667,0.8214759520949678,0.4311722974099236,0.2,-0.8215377288810455,-0.4725426719292755,0.2,-0.6064559765445383,0.1363359602235409,0.2,0.025538966660147266,0.12711565813388345,0.2,0.6040655153461252,-0.01894492447419155,0.2,0.32176789278453155,0.22059954652796712,0.2,0,
