samirx20/RADAR/data/datasets/vibration_j5_70.csv
timestamp,actual_q_0,actual_qd_0,actual_current_0,actual_q_1,actual_qd_1,actual_current_1,actual_q_2,actual_qd_2,actual_current_2,actual_q_3,actual_qd_3,actual_current_3,actual_q_4,actual_qd_4,actual_current_4,actual_q_5,actual_qd_5,actual_current_5,protective_stop,fault_code
0.0,0.00024905766191018087,0.16988859877243292,0.2,-0.9016900451711145,0.7815362631204137,0.2,-1.4021821202067177,-0.15636214989295238,0.2,-0.09708565829107707,-0.3304865414049344,0.2,0.5997122227572007,0.15770278240659352,0.2,0.0010726192833424735,0.17118694891944805,0.2,0,
0.008002133902373967,0.0016081664520896442,0.5290785583999124,0.2,-0.8954377550661512,0.5267666222189895,0.2,-1.4034330174058613,0.4164811672569685,0.2,-0.09972955062231655,-0.03239724138396575,0.2,0.6009738450164535,0.35559828157319395,0.2,0.002442114874698058,0.25135367991082636,0.2,0,
0.016004267804747934,0.00871431459630878,0.8783301307336714,0.2,-0.8932617792156107,0.4294319901603713,0.2,-1.3955184215306062,0.6899213461692422,0.2,-0.09760401415322052,0.10423519760352755,0.2,0.6054017952623718,0.20315161680876243,0.2,0.005094278161915695,0.3367026208012815,0.2,0,
0.0240064017071219,0.015661448543828387,0.41065926356555116,0.2,-0.8885668432235853,0.7860095435756955,0.2,-1.3923942758671535,0.5102829195629266,0.2,-0.0980617874606601,-0.1303862335973651,0.2,0.6042242708853937,0.06661187651939293,0.2,0.007829356807518562,0.14691501532997228,0.2,0,
0.03200853560949587,0.015284862813357598,0.13444997375423806,0.2,-0.8806856265183995,0.48572071385367954,0.2,-1.3873538948175994,0.49362561333481103,0.2,-0.09969019389077836,-0.15798456056530066,0.2,0.6064675852866821,0.3318551565597988,0.2,0.0074449184071952515,-0.018197357933854175,0.2,0,
0.04001066951186984,0.017812648123896196,0.7053387677263945,0.2,-0.8807953118019264,0.5050182927382393,0.2,-1.3844962660537965,0.37957068057863086,0.2,-0.10058954042970492,-0.09750589730127268,0.2,0.6095339533903504,0.3077837656118715,0.2,0.007538199080576895,0.29780080142969234,0.2,0,
0.0480128034142438,0.02657028309697991,0.5622664575240729,0.2,-0.8726053338345877,0.4261532623859865,0.2,-1.3812807639283413,0.34498484604057744,0.2,-0.10125028824759873,-0.07486382632763011,0.2,0.611392125536472,0.5646329670028968,0.2,0.012209731230070329,0.31342875503548195,0.2,0,
0.05601493731661777,0.026808911444281363,0.4112676890111661,0.2,-0.8739768596037506,0.3381303546182851,0.2,-1.3789765085171473,0.2837411505382387,0.2,-0.101787361650947,-0.23336893995040686,0.2,0.6185680808623968,0.23899674680789157,0.2,0.012553059161144606,0.2548460743217267,0.2,0,
0.06401707121899174,0.03315056612115857,0.543590630318558,0.2,-0.8671952481606952,0.5743998804955269,0.2,-1.3767409055197295,0.4793922505953313,0.2,-0.10498419128680524,0.10638027871654343,0.2,0.6152160734853983,-0.22566982003727198,0.2,0.016287268419217956,0.3356186629699289,0.2,0,
0.0720192051213657,0.03550636152937829,0.531274366787184,0.2,-0.8647864615158222,0.4542196801740478,0.2,-1.371306232507622,0.2897362124313074,0.2,-0.1000852771914823,0.02663838427790447,0.2,0.6149573637418004,0.27074235300555277,0.2,0.01792295776866347,0.21249592713893664,0.2,0,
0.08002133902373967,0.04165095598975351,0.4407845786370229,0.2,-0.8599277332779104,0.5585590638693196,0.2,-1.3721051261208286,0.3194443119272222,0.2,-0.10455797713835877,0.05158702818772783,0.2,0.6195479511334872,0.31352674812707565,0.2,0.019687203253440942,0.3828864183603128,0.2,0,
0.08802347292611364,0.04255891478757066,0.54407958386053,0.2,-0.855849516493913,0.33828488132554846,0.2,-1.3661951235167864,0.43908171490479597,0.2,-0.09925988474047866,0.02803146555844637,0.2,0.6199737917118336,0.1995679257357913,0.2,0.024049140462428474,0.34233761959549064,0.2,0,
0.0960256068284876,0.05035622933152199,0.7031735857006308,0.2,-0.8545151751767016,0.4121886100894867,0.2,-1.3650798186823518,0.3561839864923422,0.2,-0.10410947368942362,-0.39687801837468784,0.2,0.6227410379452598,0.38730804598966634,0.2,0.025164605166968793,0.06299794354403367,0.2,0,
0.10402774073086157,0.05380969215878075,0.27827250388557906,0.2,-0.8492544987324813,0.6942621244547045,0.2,-1.360496179732909,0.4620861802595855,0.2,-0.10560993303447366,0.20350348552588063,0.2,0.6261707204476683,0.4550725140658671,0.2,0.025057107559133013,0.44531257057473306,0.2,0,
0.11202987463323553,0.05480858939369126,0.469292215794575,0.2,-0.8434069811854263,0.5533061001954664,0.2,-1.3576864397981985,0.3686752501914914,0.2,-0.10085341792100953,0.20823119247118538,0.2,0.6300221981703137,0.26637582363421564,0.2,0.03228960629616452,0.2075913745602435,0.2,0,
0.12003200853560951,0.06131836761149395,0.5644833893845296,0.2,-0.8404016011293538,0.7223554584239317,0.2,-1.354597375729845,0.2694163858129872,0.2,-0.1022782339549347,-0.22341570037333597,0.2,0.6304327336258158,0.17901503310246286,0.2,0.02837856955209691,-0.10387267386973136,0.2,0,
0.12803414243798347,0.06384032362384373,0.42635206840345874,0.2,-0.8318492938506434,0.6308080772388299,0.2,-1.3533757776251907,0.2455483831069888,0.2,-0.10442806912698291,-0.12227183035452924,0.2,0.6328864386999531,0.16046844568644303,0.2,0.03062764351424882,0.38083969558946407,0.2,0,
0.13603627634035745,0.06814000070594929,0.5632129139570199,0.2,-0.8303086718935325,0.1713578075217409,0.2,-1.3506686016001332,0.6135548314551015,0.2,-0.10423458324060716,-0.14295104642735296,0.2,0.6330002287567988,0.11514348049482259,0.2,0.034472004681528334,0.38071820333485235,0.2,0,
0.1440384102427314,0.07285173024715605,0.3865442844391839,0.2,-0.8291075689302956,0.2089119702448003,0.2,-1.343558900321909,0.5176838127615851,0.2,-0.10671528586982056,0.006438049012499891,0.2,0.6347287343878703,0.281564404726313,0.2,0.03671913476760646,0.3720290478527147,0.2,0,
0.15204054414510537,0.07432470925697623,0.5265186546107581,0.2,-0.8269660803696157,0.5966593356910854,0.2,-1.3423856605959479,0.12241393871016693,0.2,-0.10413157445640717,0.019405601370497787,0.2,0.6375052592324199,0.3656438532050263,0.2,0.04042446944717177,0.15273367808289273,0.2,0,
0.16004267804747935,0.08127602872092818,0.6817816812738622,0.2,-0.8195610195592382,0.6765822956645364,0.2,-1.3416002773025464,0.4887385617309281,0.2,-0.10640479624789259,-0.2397579369428941,0.2,0.6405790360391507,0.08628335698268597,0.2,0.03916287361693274,0.2557041592717293,0.2,0,
0.1680448119498533,0.08523321615735803,0.24944038106424793,0.2,-0.8161407636389831,0.6089988068997271,0.2,-1.334565843608253,0.6310538888103789,0.2,-0.10796770144749347,-0.049208340107436375,0.2,0.6388857929441428,0.18972448114804724,0.2,0.04451573599551944,0.20504648124221575,0.2,0,
0.17604694585222727,0.08526707481795615,0.38259088366424193,0.2,-0.8098170386488426,0.5175864291449075,0.2,-1.3315034150815803,0.3691444716993897,0.2,-0.10719212968961157,-0.19027064685209552,0.2,0.6436146277375194,0.0932607638140584,0.2,0.042443617316808194,-0.010983533616270528,0.2,0,
0.18404907975460125,0.0913546702959859,0.4078187902672118,0.2,-0.8078593807726646,0.26014209404218863,0.2,-1.3286595320610628,0.21640996960045622,0.2,-0.111012031797127,-0.032763900344400486,0.2,0.6403779651651678,0.17235803045427545,0.2,0.04433999945765911,0.3593557992719082,0.2,0,
0.1920512136569752,0.09179217546223153,0.40480195193405394,0.2,-0.8056547651441676,0.52469446615587,0.2,-1.328040855567973,0.3281230400416085,0.2,-0.10771635209512198,0.12899828808645222,0.2,0.6463723562247878,0.7104946375297294,0.2,0.048193310105158725,0.3652234468678028,0.2,0,
0.20005334755934917,0.09783150152693076,0.6732125572468548,0.2,-0.7994642693141707,0.717816802361125,0.2,-1.323409563420397,0.2896952775940237,0.2,-0.10894805918774376,-0.16220913884884558,0.2,0.6517458793656434,0.4099629797797086,0.2,0.050183574607543954,0.2332873185335099,0.2,0,
0.20805548146172315,0.10256357637818121,0.6323092850385607,0.2,-0.7941696963063896,0.52458969360962,0.2,-1.3234057311264686,0.2634341385863853,0.2,-0.11031169831670351,-0.06522569674762349,0.2,0.6529317639012632,0.0980199419506958,0.2,0.05192590720169488,-0.04596304633950731,0.2,0,
0.21605761536409712,0.10794845008754773,0.6389142938807053,0.2,-0.7910708342164168,0.18390277810912542,0.2,-1.319194617203015,0.38656696688738057,0.2,-0.10999167033570574,-0.005021709463316239,0.2,0.6533141984368546,0.053267672596994664,0.2,0.04944816586611184,0.08503743019796757,0.2,0,
0.22405974926647107,0.1127862050802725,0.5370193471113185,0.2,-0.7912272518566436,0.25159384775155086,0.2,-1.3172206596562706,0.33093382683230255,0.2,-0.11039204566811657,-0.18090501884534485,0.2,0.6537840466628151,0.22084695122695508,0.2,0.053286506084862365,0.37178779042233495,0.2,0,
0.23206188316884505,0.11654075964132883,0.4615828964366726,0.2,-0.787045332652392,0.6695399073183006,0.2,-1.313899675973698,0.45365184396951863,0.2,-0.11288615063723126,-0.18813014804962974,0.2,0.6568477496564858,0.48212792269310134,0.2,0.055396770512869196,0.3513392232668017,0.2,0,
0.24006401707121902,0.12017153142325926,0.44543728542091426,0.2,-0.7805146133395507,0.5936613274393695,0.2,-1.3099622301527583,0.17357877423705703,0.2,-0.11340212803691065,-0.2244879789625653,0.2,0.6614980934259047,0.3969361957968445,0.2,0.05890793365713119,0.37329079011369026,0.2,0,
0.24806615097359297,0.12366775620806346,0.47659404684206874,0.2,-0.777546751413362,0.37910725011679886,0.2,-1.3111224155859051,0.30362217292287386,0.2,-0.1164779583006323,-0.4747371157025667,0.2,0.6631987287892354,-0.005237705915650537,0.2,0.06136942315468824,-0.057335528791868734,0.2,0,
0.25606828487596694,0.12779703617273236,0.6014031783499107,0.2,-0.774448897337682,0.534394603961992,0.2,-1.3051042753859923,0.5904599840255015,0.2,-0.12099792188815171,-0.04596889467500809,0.2,0.6614142901312543,0.1859642408366738,0.2,0.05799056519646129,-0.07270812432850614,0.2,0,
0.2640704187783409,0.13329020706166203,0.4488974240723937,0.2,-0.7689964377499702,0.42582328355432464,0.2,-1.3016750558414971,0.2500417984249437,0.2,-0.11721346061543243,0.15375849771953176,0.2,0.6661741566426221,0.14530028047624044,0.2,0.06020609316543214,0.41397361895843504,0.2,0,
0.2720725526807149,0.13497939495789066,0.42315037216460355,0.2,-0.7676357248008128,0.28999834092591215,0.2,-1.3011036066111932,0.3511039645174574,0.2,-0.1185377859246392,-0.0682480242580677,0.2,0.6637390946188741,0.08139428431248874,0.2,0.06461414309979625,0.35703522732432547,0.2,0,
0.28007468658308887,0.1400606130162957,0.33675809692812647,0.2,-0.7643564642951556,0.7279437393694979,0.2,-1.2960573924092178,0.46286197650541316,0.2,-0.11830542900356152,-0.18513974782526868,0.2,0.667476465191622,0.47916972339345776,0.2,0.06591865680262135,0.15854897864372736,0.2,0,
0.2880768204854628,0.14036752450874068,0.39565357541299256,0.2,-0.7559886249709008,0.7123299785397399,0.2,-1.2936978149871066,0.2770041704851095,0.2,-0.1215000218898435,-0.39620493480287555,0.2,0.6714058101931695,0.29401198368393666,0.2,0.06715092675809589,0.24126986675504328,0.2,0,
0.29607895438783677,0.14639107022290357,0.334520447256367,0.2,-0.7529591846385197,0.3821991549628548,0.2,-1.291625325681456,0.38645710207986517,0.2,-0.12464470796040752,0.035256037954024474,0.2,0.672180656930565,0.23478982974002582,0.2,0.06977897467070204,0.31291540499924286,0.2,0,
0.30408108829021074,0.14571985166484255,0.32020448005567853,0.2,-0.7498734384914951,0.08913971191971265,0.2,-1.2875145013538287,0.36611452845666803,0.2,-0.12093592528257911,-0.013307082052133913,0.2,0.6751624474690099,0.1795062444489154,0.2,0.07215757323808378,-0.054727047758904544,0.2,0,
0.3120832221925847,0.15151434190379443,0.5707707451581365,0.2,-0.7515329492478043,0.45674772418598936,0.2,-1.2857674932261494,0.24907097255476296,0.2,-0.12485762127324167,-0.42785111053465685,0.2,0.6750527568417476,0.250138040285626,0.2,0.06890334190655957,0.10164662202035574,0.2,0,
0.3200853560949587,0.15485218358737274,0.6429302237770905,0.2,-0.7425654749045193,0.6770277107281536,0.2,-1.2835293657929525,0.25175108960907855,0.2,-0.12778154305113362,0.040441861398981226,0.2,0.6791646561135799,0.12512840124017516,0.2,0.07378391919040947,0.37187231916498226,0.2,0,
0.32808748999733267,0.16180122548422787,0.6479106454784188,0.2,-0.7407005058761539,0.3485326084907009,0.2,-1.281739475792404,0.37913833380560924,0.2,-0.12421055149085797,0.15056629518727,0.2,0.6770548112615904,0.1543737382040944,0.2,0.07485329901319929,-0.028664623491509583,0.2,0,
0.3360896238997066,0.16521875391502744,0.1865409348969227,0.2,-0.7369889531686681,0.5499722787778577,0.2,-1.2774631524520628,0.4766778200676891,0.2,-0.1253724823281373,-0.20432430221257492,0.2,0.6816346359248454,0.4337371468060361,0.2,0.07332528521454532,-0.06313769019059175,0.2,0,
0.34409175780208057,0.16478588044257864,0.51990484107548,0.2,-0.7319009494157082,0.689978748538593,0.2,-1.274112630671321,0.15801330978966466,0.2,-0.12747974032625917,-0.14866897398979095,0.2,0.683994605610487,0.16421115725308993,0.2,0.07384309597014982,0.25781687737989367,0.2,0,
0.35209389170445454,0.17353723137223512,0.6249898962342997,0.2,-0.7259492931920506,0.563965090794101,0.2,-1.2749349394954281,0.2905891290718443,0.2,-0.12775118591197396,-0.2447372107944358,0.2,0.6842620144408949,0.18748238990778238,0.2,0.07745035525262361,0.29104895155823446,0.2,0,
0.3600960256068285,0.17478571878232743,0.36444388792064225,0.2,-0.7228775079630025,0.25509305842728175,0.2,-1.2694632046061716,0.6833334658289808,0.2,-0.13139553569897014,-0.05886690426628802,0.2,0.6869943238490115,0.2412909721520584,0.2,0.07849987919508157,0.2089199467723334,0.2,0,
0.3680981595092025,0.1793683335789654,0.41124386561113174,0.2,-0.7218678042572141,0.263175504168732,0.2,-1.2640016040421644,0.09177226558026996,0.2,-0.12869305638023457,-0.12348444541787629,0.2,0.6881226699953278,0.13823986565594804,0.2,0.08079307440098095,0.11287812607120844,0.2,0,
0.37610029341157647,0.18136562063210554,0.46021413420818147,0.2,-0.7186666998963028,0.5212135702931455,0.2,-1.2679948483568872,0.13589439218517074,0.2,-0.13337128682565616,-0.4476542625682662,0.2,0.6892061616995067,0.26250784089904694,0.2,0.0803059292122209,0.0034372651888311956,0.2,0,
0.3841024273139504,0.1867317597262963,0.2974584651675039,0.2,-0.7135283871325238,0.5281054117948144,0.2,-1.2618272937672017,0.7993764719576302,0.2,-0.13585552458132683,-0.18024856637566428,0.2,0.6923227954497125,0.2654865044219093,0.2,0.08084807064400225,0.1372202832465837,0.2,0,
0.39210456121632437,0.1861249560747856,0.4452978072144384,0.2,-0.7102170133075858,0.16754296198703833,0.2,-1.2552048248055652,0.1974743618717717,0.2,-0.1362552638876668,-0.1360923380598223,0.2,0.6934539457702572,0.14081657636669243,0.2,0.08250145374416624,-0.050894095000164966,0.2,0,
0.40010669511869834,0.1938565246417273,0.6532710941103294,0.2,-0.7108476997407311,0.5145257066993605,0.2,-1.2586677039772534,0.04114370850955007,0.2,-0.13803300199028398,-0.08729934754268462,0.2,0.6945758606715796,0.32359635275874127,0.2,0.08003376512399961,0.13530968025492282,0.2,0,
0.4081088290210723,0.19657729358055087,0.40826423881390983,0.2,-0.701984602000396,0.7037081303364958,0.2,-1.2545465254694124,0.597588930296794,0.2,-0.13765205344834974,-0.20583616297847362,0.2,0.6986314874143971,0.3851076717853591,0.2,0.08466640862824501,0.3753973057995649,0.2,0,
0.4161109629234463,0.20038875246274987,0.21822203951145022,0.2,-0.6995883696553472,0.2663156441860895,0.2,-1.2491062810925047,0.4611743808932839,0.2,-0.14132638059793956,-0.09185010625032027,0.2,0.7007375834201454,-0.010041634019498924,0.2,0.08604012201679265,0.31337202641228307,0.2,0,
0.42411309682582027,0.20006884621273407,0.3631157492925089,0.2,-0.6977235516934186,0.4950825400452247,0.2,-1.2471677353751198,0.033624068810314545,0.2,-0.13912165514835487,-0.10805187433859942,0.2,0.6984708212700851,0.23600048933694606,0.2,0.08968036105084154,0.2399123413816869,0.2,0,
0.43211523072819424,0.20619860445143,0.7039697875988615,0.2,-0.6916670490146236,0.7513461851974962,0.2,-1.2485682959915396,0.27923543695061726,0.2,-0.14305521058735715,-0.23585706515945673,0.2,0.7045135912495365,0.3399917946119435,0.2,0.08987871947889964,-0.06450597184176447,0.2,0,
0.44011736463056816,0.21133236281431586,0.48861577171410014,0.2,-0.6857020127302587,0.43140804350823986,0.2,-1.24269996838391,0.699971590756937,0.2,-0.14289536819090617,-0.28570909089602714,0.2,0.7039106899838762,0.2875828618305043,0.2,0.08864826550137331,-0.1639046995072198,0.2,0,
0.44811949853294214,0.21401645679885561,0.4119410873826938,0.2,-0.6847645203184918,0.32239448004036525,0.2,-1.2373687505394286,0.37115394513440036,0.2,-0.14762655604169359,-0.32173806123584997,0.2,0.7091149170388246,0.2589935971242102,0.2,0.08725624428678412,0.21305936285545557,0.2,0,
0.4561216324353161,0.21792342021243896,0.5587527451134666,0.2,-0.6805437010496128,0.4951679675355286,0.2,-1.2367615052617595,0.37280948429904703,0.2,-0.14804317717067977,-0.09698401179566475,0.2,0.7080545875378635,-0.013187248330395751,0.2,0.0920572153070606,0.395227437604978,0.2,0,
0.4641237663376901,0.22295650072067108,0.3158015764459683,0.2,-0.6768418328379233,0.2166725268423486,0.2,-1.2314037987906439,0.19849122625692495,0.2,-0.14917830023042422,-0.2331223000880938,0.2,0.7089039210655382,0.3087543651304134,0.2,0.09357988328846377,0.03154758493681669,0.2,0,
0.47212590024006407,0.22297624543557445,0.39657200950125177,0.2,-0.6770769406201352,0.19528426974893542,0.2,-1.2335856456416487,0.1191733077940682,0.2,-0.15177313397208927,-0.43490313926458635,0.2,0.7129946573799502,0.18112990696126513,0.2,0.09256197666604966,-0.15406564970136746,0.2,0,
0.48012803414243804,0.2293016528726911,0.4660028795513641,0.2,-0.6737172845219404,0.23092091298777817,0.2,-1.2294970258659388,0.22789309479639974,0.2,-0.1561367504586576,-0.2597291994042537,0.2,0.7118019995769185,-0.12154229100364011,0.2,0.09111483289324189,0.24334159340743106,0.2,0,
0.48813016804481196,0.23043229150839628,0.44051520663647425,0.2,-0.6733822060123308,0.5770624580901801,0.2,-1.2299393561249063,0.28226251604582253,0.2,-0.15592880116255733,0.04215453621799099,0.2,0.7110499807238919,0.2727337105314989,0.2,0.09645544216056856,0.20191757189854526,0.2,0,
0.49613230194718594,0.2363498961788747,0.7231627383329289,0.2,-0.6644842851924975,0.6791507815177219,0.2,-1.2249808256092056,0.4595073606753347,0.2,-0.15546227787916975,-0.08585011373217141,0.2,0.7161657389454225,0.39810861620036275,0.2,0.09434551404361861,-0.048448323875370514,0.2,0,
0.50413443584956,0.24200289532172314,0.3447818618223207,0.2,-0.6625157935080472,0.12914333406023604,0.2,-1.222587238354101,0.44092750050477025,0.2,-0.15730240298227208,-0.04362976034155523,0.2,0.7174197185830977,0.4338623268390074,0.2,0.09568026897856263,0.10947627776246044,0.2,0,
0.5121365697519339,0.24186640596803183,0.24591165765759995,0.2,-0.6624179918475337,0.16949859811721257,0.2,-1.2179259856011293,0.3265379253899192,0.2,-0.15616035404463463,-0.13585121974778874,0.2,0.7231075361748466,0.48604997190695304,0.2,0.09609713448781798,0.08744883174227787,0.2,0,
0.5201387036543078,0.24593748184424474,0.4338141034624862,0.2,-0.6598038159381718,0.3326849228588377,0.2,-1.2173626315478623,0.20897646462235409,0.2,-0.1594760224982367,-0.6574476082837674,0.2,0.725196518133609,-0.1610385940484238,0.2,0.09707945028643908,-0.003293701731512007,0.2,0,
0.5281408375566818,0.2488074316234316,0.4126851315716176,0.2,-0.6570950330817923,0.5187529150078376,0.2,-1.2145823621671716,0.28805250577289276,0.2,-0.1666795157771749,-0.535744291182038,0.2,0.7205309186700718,-0.16624340068732701,0.2,0.09604443526011379,-0.18840304172439148,0.2,0,
0.5361429714590558,0.2525404439493906,0.10011876294011013,0.2,-0.6515037692980464,0.5628711492885463,0.2,-1.212753791455496,0.4557612693597418,0.2,-0.1680479311571493,0.028755009646762655,0.2,0.7225366237226117,0.2548469755659852,0.2,0.09406500161884881,0.03744822554325924,0.2,0,
0.5441451053614298,0.25040933183047337,0.16863473693750144,0.2,-0.6480890946931755,0.3871164380152073,0.2,-1.2072901818574158,0.0702386323852694,0.2,-0.1662194356228267,-0.03621823461112672,0.2,0.7246084702791276,0.43226556149141004,0.2,0.09664360686880594,0.3971722638699783,0.2,0,
0.5521472392638037,0.25523859974039065,0.6682542016282211,0.2,-0.6453099062898031,0.39066553426788525,0.2,-1.2116299733373317,0.09761484806064535,0.2,-0.16862742291092733,-0.3414839014660199,0.2,0.7294528727064743,0.2823240892518286,0.2,0.10041975784076847,0.11698330358366274,0.2,0,
0.5601493731661777,0.2611013990565249,0.534234633177328,0.2,-0.6418384461448894,0.6146340352580006,0.2,-1.2057283442884454,0.5113936094513355,0.2,-0.17168317804628302,-0.30081876571299954,0.2,0.7291256557071568,-0.08415278502481999,0.2,0.09851533972614454,0.10076698024221505,0.2,0,
0.5681515070685517,0.2637863538712279,0.3134158678146058,0.2,-0.6354757617256751,0.4131385306891666,0.2,-1.2034476755861103,0.15979787918776744,0.2,-0.17344052316233532,-0.39413811858439624,0.2,0.7281064281460772,0.16806326225008578,0.2,0.10203202952464391,0.09556800232782443,0.2,0,
0.5761536409709256,0.2661160529415586,0.3539746610674785,0.2,-0.6352282296538627,0.11363797435922501,0.2,-1.2031715782214412,0.4304837857795063,0.2,-0.17798938794363336,-0.1759820511265369,0.2,0.7318146679031582,0.43754922381965267,0.2,0.10004442776338973,-0.038974244958193266,0.2,0,
0.5841557748732996,0.26944994844830755,0.4368359816841749,0.2,-0.6336575541359275,0.48867216998226687,0.2,-1.1965599350136382,0.5513512831986228,0.2,-0.17625623598035992,-0.030927078806631397,0.2,0.7351072157271916,0.11822358463662447,0.2,0.10140844160531282,-0.11904841494713922,0.2,0,
0.5921579087756735,0.2731054286485054,0.27866969923382234,0.2,-0.6274094749341464,0.7072805457645492,0.2,-1.1943499576902632,0.24508152761744395,0.2,-0.17848422120453947,-0.1545077323198349,0.2,0.7337062452573442,-0.008658529408851756,0.2,0.0981396531242355,-0.15158355932765216,0.2,0,
0.6001600426780476,0.2739086636360487,0.13012054961862238,0.2,-0.6223410654036947,0.39851115528000136,0.2,-1.1926386305717591,0.23616142470132828,0.2,-0.17872835969747727,-0.3835855619037012,0.2,0.73496867925665,0.15796053365656204,0.2,0.09898310465607038,0.18876878169941502,0.2,0,
0.6081621765804215,0.27518735744240336,0.5798174383174134,0.2,-0.6210332964496664,-0.002909968451272893,0.2,-1.190571374895042,0.240422463631762,0.2,-0.18462159019499869,-0.12755273401763612,0.2,0.7362336137958492,0.3003658123607589,0.2,0.10115995363142614,-0.011355871802445558,0.2,0,
0.6161643104827954,0.2831857426491273,0.607614038665695,0.2,-0.6223876248989151,0.2994637629940705,0.2,-1.188791871153651,0.2159555387012957,0.2,-0.18076920344175945,-0.2255106697201612,0.2,0.7397745322544221,0.5549788838824856,0.2,0.09880141070723125,-0.11976880297707732,0.2,0,
0.6241664443851694,0.2849091820610545,0.2852128706083215,0.2,-0.6162418762417613,0.4652693452947554,0.2,-1.1871160862758212,-0.05985877292469244,0.2,-0.18822976091052127,-0.7444612745915388,0.2,0.7451132759379689,0.24239773756706134,0.2,0.09924365278379291,-0.14417957458005315,0.2,0,
0.6321685782875434,0.28774914857886047,0.047252271251199685,0.2,-0.614943315374199,0.3545241226922541,0.2,-1.189749611520446,0.24897612060795216,0.2,-0.19268058383522407,-0.4025291043042081,0.2,0.7436528960554951,-0.055082864229345774,0.2,0.0964945375139504,-0.13294132511637147,0.2,0,
0.6401707121899174,0.2856652184010737,0.07198020396888619,0.2,-0.6105694902786852,0.29039519717712764,0.2,-1.183132468346094,0.44464721495915405,0.2,-0.1946702265793886,-0.03911107066300809,0.2,0.7442319501102994,0.3062467583494974,0.2,0.09711659158193096,0.29284045519133856,0.2,0,
0.6481728460922913,0.28890083184236265,0.5511505328049289,0.2,-0.610296992219365,0.49260824147162596,0.2,-1.1826352560810995,0.21388706549188563,0.2,-0.1933063609658322,-0.41915209102985973,0.2,0.7485528441890871,0.14945834270736064,0.2,0.10117998479701182,-0.0034935132932007243,0.2,0,
0.6561749799946653,0.29448362692595254,0.5024364746559935,0.2,-0.6026877584151392,0.4113756584721365,0.2,-1.1797102752982238,0.35294624962509125,0.2,-0.20137666003586635,-0.3747281498070777,0.2,0.7466232835936172,0.29925208603557435,0.2,0.09706069536923975,-0.06160460113115596,0.2,0,
0.6641771138970393,0.29693981543685855,0.298101738978436,0.2,-0.6037149816838108,0.06197997730988253,0.2,-1.176988116087098,0.21806722914313736,0.2,-0.19930201136274545,-0.019152256942640486,0.2,0.7533408775656563,0.3122623890346038,0.2,0.10019431117891332,0.13607051616517774,0.2,0,
0.6721792477994132,0.2992532547496075,0.28342935795531293,0.2,-0.6016960787781811,0.3359010667416118,0.2,-1.1762211996319336,0.19337873138282335,0.2,-0.2016830961469486,-0.2037495166941159,0.2,0.7516194818181708,-0.3485106582565081,0.2,0.0992378236278826,-0.05963752852270257,0.2,0,
0.6801813817017872,0.30147468516414355,0.4594758296089414,0.2,-0.598340564615945,0.2648768420740327,0.2,-1.173894056384973,0.5127286494619188,0.2,-0.2025620036298513,-0.38752234159118193,0.2,0.7477647070335521,-0.10335630976972265,0.2,0.09924011072255008,-0.035464541105275846,0.2,0,
0.6881835156041611,0.3066048680233506,0.2968753726216092,0.2,-0.5974580493049966,0.37095186885309495,0.2,-1.168017541240543,0.26019020425083195,0.2,-0.2078834536124075,-0.5448839598639725,0.2,0.7499657808618553,0.3917955715518756,0.2,0.09867039097019818,0.10458235814936409,0.2,0,
0.6961856495065352,0.3062246911260893,0.1675649332698835,0.2,-0.5924053347142955,0.4687462012855706,0.2,-1.1697310131169596,0.019468384139159634,0.2,-0.21128014698767486,-0.14795557707041918,0.2,0.7540334361783821,0.5383618553027603,0.2,0.10091342845293991,-0.3258989410731724,0.29276310319676546,1,C153C5
0.7041877834089091,0.3092859069556687,0.37003590699387007,0.2,-0.5899581100844274,0.21911911932900874,0.2,-1.1677060470943164,0.17198244959466813,0.2,-0.21025074284553422,-0.13133064629000135,0.2,0.7585795705466994,0.375126132283736,0.2,0.09494021756417567,0.04726041041596834,0.20354924129421295,1,C153C5
0.7121899173112831,0.3121452656379912,0.37255144622958675,0.2,-0.5888994288050313,0.13314279578233862,0.2,-1.166979293923445,0.38997300646370636,0.2,-0.21338143732831488,-0.05143028703148353,0.2,0.7600354542949219,-0.14352193144603204,0.2,0.10161286389001757,0.17666103510210077,0.2994725426904593,1,C153C5
0.720192051213657,0.3152467300953421,0.5207022481672346,0.2,-0.58782782535191,0.2631535171922425,0.2,-1.161466478990897,0.18830811844204598,0.2,-0.21107362743803795,-0.23456333123285203,0.2,0.7562832196435629,0.018322639671025653,0.2,0.09617841021059237,0.04154907048416984,0.3714593576331411,1,C153C5
0.728194185116031,0.320476501608667,0.29656631893901564,0.2,-0.5846889725299554,0.5894843047174886,0.2,-1.1639663640283722,0.2445558723138952,0.2,-0.21713445062804052,-0.43041397308957696,0.2,0.7603286165296583,0.2515721737527954,0.2,0.09954250472850182,0.24582284455927783,0.4017201494633652,1,C153C5
0.736196319018405,0.31999179119836635,0.022905882375932884,0.2,-0.5783960764764302,0.25208889846276006,0.2,-1.1575535850338747,0.47862091456433997,0.2,-0.21796025100747118,-0.3732900920108955,0.2,0.7603083744236077,0.07817172572640446,0.2,0.09689691198707284,-0.21752382372585835,0.3826189038114912,1,C153C5
0.7441984529207789,0.3208429957266819,0.3723087331992565,0.2,-0.5806555501545513,-0.04201851003141771,0.2,-1.1563084293953427,-0.10127805642203003,0.2,-0.22310709210021484,-0.5149483970385733,0.2,0.7615793641412808,0.24281672456590714,0.2,0.09315475791606832,0.22565261637129627,0.31859821595900867,1,C153C5
0.7522005868231529,0.32594873092955445,0.45277933647585794,0.2,-0.5790683726369329,0.3457104900172897,0.2,-1.1591740339366272,0.2647179743800049,0.2,-0.22619942536008836,-0.29911710937627867,0.2,0.7641934420166622,0.08994645082639058,0.2,0.09862109991725997,0.022540144435702927,0.22514894700355745,1,C153C5
0.7602027207255269,0.32808746511029563,0.15659205311891605,0.2,-0.5751241823142746,0.6239339822734918,0.2,-1.1520729418052627,0.37266481305014976,0.2,-0.2278929658502353,-0.15759500946344387,0.2,0.763018507354503,0.21340381130445507,0.2,0.09311581417733061,-0.44981516722806697,0.27493734348607846,1,C153C5
0.7682048546279008,0.3284542037794571,0.3053860511141558,0.2,-0.569085428920557,0.3757182270668624,0.2,-1.1532113969278248,0.1602307554339072,0.2,-0.22872094551150346,-0.21368221704446203,0.2,0.7676079029975335,0.1962303040844368,0.2,0.09261353888424706,-0.22218156840977532,0.35712674682896006,1,C153C5
0.7762069885302748,0.3329736419281221,0.4661740391003269,0.2,-0.5691126906812048,0.40526610808098995,0.2,-1.1495092497183201,0.6317010404831153,0.2,-0.2313118813229467,-0.3849187636967514,0.2,0.766158192219854,0.020206105993014756,0.2,0.09205251260037912,-0.1277915512888836,0.401156663166793,1,C153C5
0.7842091224326487,0.33591298840506234,0.04059793346986029,0.2,-0.5626011711912612,0.2790669701326978,0.2,-1.143104180280095,0.28103041259522343,0.2,-0.23487964573065148,-0.19865678077201318,0.2,0.7679312006934217,0.15718948869516275,0.2,0.09375551427220778,-0.400332301119889,0.3960307913633666,1,C153C5
0.7922112563350228,0.3336232088636399,0.23063347256630298,0.2,-0.5646476191590817,0.013082454358000206,0.2,-1.1450127631167966,-0.21576268073106308,0.2,-0.2344903898152989,-0.2880479037177617,0.2,0.7686732240389766,0.024734827457878472,0.2,0.08874956241135691,-0.3889810190002425,0.3427642332021642,1,C153C5
0.8002133902373967,0.3396031239661232,0.4585034996529742,0.2,-0.5623918519215332,0.275877344672798,0.2,-1.146556383171792,-0.07933676311004667,0.2,-0.23948841219013567,-0.24825062334038991,0.2,0.7683269579327477,0.007424452283188998,0.2,0.08978895999511559,-0.07714503553723095,0.2541937096949441,1,C153C5
0.8082155241397707,0.3409592648580875,0.1741659489611358,0.2,-0.5602335816443169,0.21581097823485107,0.2,-1.1462821513265573,0.27945451637508,0.2,-0.23846239978874514,-0.31790796289678236,0.2,0.7687920152755077,0.08525198850076882,0.2,0.08837121356548491,-0.10463323419801704,0.24811503223987066,1,C153C5
0.8162176580421446,0.34238977914950136,0.1717888192877201,0.2,-0.5589388762697756,0.26685802733255465,0.2,-1.1420851109097907,0.013812352756450985,0.2,-0.2445749395964842,-0.4478725527760855,0.2,0.76969098974876,0.2989231762758199,0.2,0.08735561669386652,0.17469512545115154,0.33911779445686974,1,C153C5
0.8242197919445186,0.343707885966691,0.004024811289093239,0.2,-0.555963853206996,0.42337627274456613,0.2,-1.146061153682454,0.01607657225960457,0.2,-0.2456283606331625,-0.4297088560328427,0.2,0.7735747860959208,0.2205349943751947,0.2,0.08897334570934382,0.16186194256201897,0.3964222338106821,1,C153C5
0.8322219258468926,0.34245417613012685,0.5199657139660709,0.2,-0.5521648559058625,0.2511590459632479,0.2,-1.141827885753637,0.6112046446984237,0.2,-0.25145028129300967,-0.4456313903635073,0.2,0.7732195496587632,-0.018795510857219644,0.2,0.08685214425028115,-0.011888965204874813,0.4057973935526711,1,C153C5
0.8402240597492665,0.35202733739014813,0.5046982583783651,0.2,-0.5519453084715841,0.18848573801314578,0.2,-1.1362818793672793,0.20441883440099062,0.2,-0.25275846287897863,-0.18972160843528513,0.2,0.7732740579222053,0.16427603184165918,0.2,0.08554540516002576,-0.061178873584039645,0.3647069573877435,1,C153C5
0.8482261936516405,0.3505293482641807,0.044965921745590554,0.2,-0.5491490840976522,0.07616585682440613,0.2,-1.1385571844032212,-0.0534212552387725,0.2,-0.25448582702797423,-0.3222891102833206,0.2,0.7758479661682297,-0.025310627071804814,0.2,0.08328456781497591,-0.45296641205434235,0.282989197656859,1,C153C5
0.8562283275540145,0.3527467921380776,0.10755032949345128,0.2,-0.5507266547623936,0.26696709415700154,0.2,-1.1371366194510997,0.4439138425647027,0.2,-0.25791508864351176,-0.5007211548501665,0.2,0.7728690878890564,0.14971909707480607,0.2,0.07699487371287783,-0.053373144788751915,0.2194972894144457,1,C153C5
0.8642304614563885,0.3522501535360759,0.2132309165055815,0.2,-0.5448776105911401,0.2915683897399615,0.2,-1.131454562922186,0.23955879378650957,0.2,-0.2624973655055769,-0.3062413787757838,0.2,0.7782434717214266,0.2818710534295346,0.2,0.08273643733230797,0.12806589393822232,0.3176990225744283,1,C153C5
0.8722325953587624,0.3561584868021669,0.37379488194358085,0.2,-0.5460615605265542,0.13221163950712794,0.2,-1.1333036787505155,-0.0006855896118457272,0.2,-0.2628149507039243,-0.1843568559756585,0.2,0.777379024743929,0.16889212204727888,0.2,0.0808883789083388,-0.38719633986754776,0.3874918359809736,1,C153C5
0.8802347292611363,0.3582308716471732,0.2862620111616608,0.2,-0.5427622243590261,0.31326313630745256,0.2,-1.1314655323559755,0.351994695120747,0.2,-0.26544707520118743,-0.34437984506044056,0.2,0.7809457456741831,0.09285896460242693,0.2,0.07947658882563619,-0.4299607406977487,0.4116068803113601,1,C153C5
0.8882368631635104,0.36073867898075346,0.17507921709973562,0.2,-0.541049350345635,0.1577747200065885,0.2,-1.1276717636285836,0.1847279794172929,0.2,-0.26832502822489135,-0.2640885585875434,0.2,0.7788647681775678,-0.32259337676091016,0.2,0.0773185965830612,-0.2678002359473336,0.38390280579771324,1,C153C5
0.8962389970658843,0.361032139120769,0.18405649973885635,0.2,-0.5402378288389207,0.3532127227522594,0.2,-1.1285098846852988,-0.054259922676533345,0.2,-0.2696724921385881,-0.3536725202900291,0.2,0.7757842516460085,0.07920073611658585,0.2,0.07806526639106812,-0.2948860654357783,0.31092737875636006,1,C153C5
0.9042411309682583,0.36368358297657516,0.120572824448828,0.2,-0.5353979467815988,0.2942355461700019,0.2,-1.128539922391408,0.0068162050442244215,0.2,-0.2739837885495318,-0.16272103803445168,0.2,0.7801319799554332,0.43239808137730124,0.2,0.0743319688630173,0.13063429362966028,0.21037200811532228,1,C153C5
0.9122432648706322,0.36296130431195023,0.11183733076135585,0.2,-0.5355300601002007,0.02855710374231879,0.2,-1.1284008254045912,0.25070406099872433,0.2,-0.27227602874713935,-0.019893036852274698,0.2,0.7827026209480453,-0.06750243107826043,0.2,0.08031716180439137,0.2520271670075138,0.2932165644773833,1,C153C5
0.9202453987730063,0.36547298026875685,0.49280226339292255,0.2,-0.5349410331217217,0.4321905658259892,0.2,-1.1245286574154285,0.17522872751588037,0.2,-0.2743020771391682,-0.5972631171606603,0.2,0.779051941058181,-0.2976099855918485,0.2,0.07691214936606436,-0.47653931198569566,0.3744280978253038,1,C153C5
0.9282475326753802,0.370846140526237,0.49210520247364165,0.2,-0.5286150110469848,0.3101565813718801,0.2,-1.125597165764337,0.14160007078675707,0.2,-0.2818322386217099,-0.5030176929118301,0.2,0.7779408611785757,0.3908768989527023,0.2,0.06997769860522252,-0.22776440218850263,0.41322168478324495,1,C153C5
0.9362496665777541,0.3733466635083351,-0.01976482325505638,0.2,-0.5299785278197716,0.012736692337693423,0.2,-1.1222630562828404,0.24121674403096427,0.2,-0.2823503602257575,-0.5177771422118921,0.2,0.7853059714414242,0.4387573465892969,0.2,0.06995251858456443,0.2488785210183646,0.3998708161397031,1,C153C5
0.9442518004801281,0.3705299033541561,-0.12008974584191978,0.2,-0.5284112239695817,0.13773110864699623,0.2,-1.1217376978598417,0.2870988351841297,0.2,-0.2901166728971002,-0.4375595358848128,0.2,0.7849609787240045,0.17076555074214267,0.2,0.07085496556458892,0.11041574987625688,0.3374006121059424,1,C153C5
0.952253934382502,0.3714252275748644,0.08436686650541841,0.2,-0.5277748300814197,0.04413526226670905,0.2,-1.1176694749198943,0.13976986379790612,0.2,-0.2893513127999145,-0.2184872908352585,0.2,0.7880382202532985,0.009830652278608465,0.2,0.069586862344277,-0.01550337288378701,0.24090685400716438,1,C153C5
0.9602560682848761,0.3718797732182428,0.22511807155639607,0.2,-0.5277050597733144,0.1816897835550807,0.2,-1.1195013800390752,-0.104382631219882,0.2,-0.29361246955046433,-0.48806779415009116,0.2,0.7851182691604622,-0.08065825152580447,0.2,0.06997269680763958,-0.45613572704474986,0.266091081098544,1,C153C5
0.96825820218725,0.37502711671976674,0.5605372419271969,0.2,-0.5248677935445384,0.2755955021138609,0.2,-1.1193395970194124,0.14719470161353443,0.2,-0.29716039750631595,-0.1653811928168554,0.2,0.7867476882288856,0.30871280014165003,0.2,0.06331236670147068,-0.6136524945816183,0.3573824679480962,1,C153C5
0.9762603360896239,0.38084836908907793,0.3295708197707456,0.2,-0.5232955317394926,0.16013707050674397,0.2,-1.1171462648132586,0.32882449764909394,0.2,-0.296258568635534,-0.13181596488700403,0.2,0.7900576739627286,0.16122258610826168,0.2,0.0625895755473023,-0.048726982078029196,0.41048566325730357,1,C153C5
0.984262469991998,0.38030024983609867,-0.07692873820093829,0.2,-0.5223056004164305,0.037119291673257115,0.2,-1.114078405057027,0.16633264251378344,0.2,-0.299269452944508,-0.42690401824216,0.2,0.7893272496066178,-0.32158305773592744,0.2,0.06578661963761048,-0.20487432346098353,0.4121840735833349,1,C153C5
0.9922646038943719,0.3796175092778629,0.23098362357498042,0.2,-0.5227016230727205,0.16047896351052693,0.2,-1.114484942533038,-0.026776423717872477,0.2,-0.3030890329274086,-0.6964138180621595,0.2,0.7849123450389538,0.13638685641277626,0.2,0.06258856048132169,-0.6576825745114874,0.361814563729969,1,C153C5
1.0002667377967458,0.38399598781329836,-0.09761198866775275,0.2,-0.519737937000262,-0.07274700612656254,0.2,-1.114506827836513,0.0025615209224283397,0.2,-0.31041207403350257,-0.4904795959565604,0.2,0.7915094393092222,0.19644298352555073,0.2,0.0577603551664291,-0.6610375675375941,0.2714903612703946,1,C153C5
1.00826887169912,0.3780557174591789,-0.2836044407697642,0.2,-0.5238655751707455,0.21212107983201167,0.2,-1.1144439581982792,-0.08118101486447038,0.2,-0.31093670646271354,-0.25433050355550685,0.2,0.7880554327753626,0.1554667762810602,0.2,0.0531139302873544,-0.308213480086108,0.2368109406225143,1,C153C5
1.0162710056014939,0.37945831676098213,0.5480339737074756,0.2,-0.5163439997229499,0.4739497712309762,0.2,-1.1158057240743444,-0.137258625493214,0.2,-0.3144813620903907,-0.4132750838280706,0.2,0.7939969077297192,-0.03255358246868206,0.2,0.0522620722569857,0.20558650983205812,0.33659451322047823,1,C153C5
1.0242731395038678,0.3868242610384985,0.4863003533001862,0.2,-0.5162823788310499,0.21148479685126342,0.2,-1.1166400962061707,0.39477898898915287,0.2,-0.31754910780396267,-0.32842522339673885,0.2,0.7875345754558637,-0.16253387266915859,0.2,0.05430186039512151,0.1482103191274066,0.403329710553455,1,C153C5
1.0322752734062417,0.3872391224137851,-0.13144063535727377,0.2,-0.5129602429733296,-0.2054003444111746,0.2,-1.109489260250518,0.2647747293960667,0.2,-0.3197361656647385,-0.15121409706168182,0.2,0.7913963657670127,0.591536682038006,0.2,0.05150829291647735,-0.00018897836884879116,0.42048029719951574,1,C153C5
1.0402774073086156,0.3847212108727821,0.02728688428114967,0.2,-0.5195687843416287,0.06371592535280024,0.2,-1.1124037005358336,0.02706071769388585,0.2,-0.3199685333569496,-0.2999756405637592,0.2,0.7969991623684718,-0.018114230712081014,0.2,0.05091334273431758,0.09657054238789457,0.38360119437557105,1,C153C5
1.0482795412109898,0.3876757125622835,0.1236735728520448,0.2,-0.5119407881676848,0.3808293961601039,0.2,-1.1090562887674158,0.032037896506159624,0.2,-0.32453577591375865,-0.36385122233309475,0.2,0.7911065380756194,-0.09441286194791093,0.2,0.050236912380868574,-0.18098042189598385,0.30148698229405146,1,C153C5
1.0562816751133637,0.3866999880384148,-0.06776962050878549,0.2,-0.513475514003067,0.1618634626270668,0.2,-1.111891094191735,0.006937667894571509,0.2,-0.3257901529142791,-0.13540509312016252,0.2,0.7954885565773052,0.2597291141125807,0.2,0.04646229993349829,-0.16452548372268375,0.2059237615964022,1,C153C5
1.0642838090157376,0.38659139863414294,0.3300509230813285,0.2,-0.5093509727656518,0.1868456204616939,0.2,-1.1089452860811027,0.5764266628173753,0.2,-0.32670225740368125,-0.5138364012592308,0.2,0.7952622039014207,-0.02381128455986037,0.2,0.047695203383451505,-0.4369368300306802,0.3123893124022167,1,C153C5
1.0722859429181115,0.3919808028077161,0.05925841806631721,0.2,-0.5104859840756799,0.023052064054625288,0.2,-1.102668267586657,0.38558309934311197,0.2,-0.3340115353344268,-0.7886523030305389,0.2,0.7951075760243475,0.027589358261977115,0.2,0.04119045883506808,-0.529496165417926,0.3917756683910515,1,C153C5
1.0802880768204854,0.387539533323204,0.043496916319156476,0.2,-0.5089821397407778,0.01900364480214578,0.2,-1.1027759564916129,-0.1790213740630875,0.2,-0.3393206942521699,-0.4467198805076719,0.2,0.7957036336336123,-0.07019383422888353,0.2,0.04215393397674255,-0.3118612710137695,0.4244713351747582,1,C153C5
1.0882902107228596,0.3926767534688226,0.1764710641974851,0.2,-0.5101819257588456,0.23263823358129349,0.2,-1.1055326095716664,0.10910974225225578,0.2,-0.34115905342254954,-0.2203588288537013,0.2,0.7939844746766853,0.010881232614314007,0.2,0.03962772178395858,-0.4346979544069083,0.4022315416231464,1,C153C5
1.0962923446252335,0.39036307035036377,-0.06286242216380078,0.2,-0.5052599280034771,0.0506939928544628,0.2,-1.1010302006155768,-0.10394059248559906,0.2,-0.3428464355138291,-0.2577446290486854,0.2,0.7958777333554413,0.08123453751770343,0.2,0.03828332787493587,-0.1675126097659205,0.33025546287901353,1,C153C5
1.1042944785276074,0.39167095471420177,0.23100086692539462,0.2,-0.5093708218731742,-0.0012465547440734803,0.2,-1.107195659051436,-0.030220944358297364,0.2,-0.3452829674873285,-0.2442537997055759,0.2,0.7952842272769686,-0.08237917377829779,0.2,0.03893236517633644,-0.16809202331964784,0.22597354209830375,1,C153C5
1.1122966124299813,0.3940590842211701,0.27475936226739606,0.2,-0.5052798728793823,0.37915085413753324,0.2,-1.1015137357253095,0.5908841421615324,0.2,-0.3467544963091183,-0.2592196484651997,0.2,0.7945596665749886,0.29993419490956935,0.2,0.03598926622834183,-0.25114108520414674,0.28517295083610383,1,C153C5
1.1202987463323555,0.3960671045104801,0.016667712552115993,0.2,-0.5033044082069736,0.13789681474986326,0.2,-1.0977415127768515,-0.43596052317369793,0.2,-0.3494304818627717,-0.6320045016679279,0.2,0.8000831743955217,0.3345991288182387,0.2,0.033618701716703496,-0.30104643977695805,0.3759383970502107,1,C153C5
1.1283008802347294,0.39432576762200394,0.1781145597387207,0.2,-0.5030735238433844,-0.17768494343303048,0.2,-1.1084891040960887,-0.2565585858927272,0.2,-0.35686656833580516,-0.3139868713617003,0.2,0.7999132526360804,-0.18558110804795663,0.2,0.02849919522153693,0.00028477753636210745,0.4239513353219865,1,C153C5
1.1363030141371033,0.39891693746629964,0.2810510439929248,0.2,-0.5061473673019021,0.02003595761603666,0.2,-1.1018464501511351,0.17424711792340952,0.2,-0.3544542718045589,-0.0016177023084186504,0.2,0.7971138766667544,-0.02267362907742987,0.2,0.030223617393384167,0.3369666864403462,0.4172280157131986,1,C153C5
1.1443051480394772,0.39882258432589074,-0.10396911765352124,0.2,-0.5027529485215279,0.2554370519700158,0.2,-1.1057011502093141,0.01950929258796863,0.2,-0.35689245157273985,-0.6168367274742015,0.2,0.7995504745708415,0.1317294015213688,0.2,0.030596208885709315,0.08520269437151105,0.3571622710318101,1,C153C5
1.1523072819418512,0.3972534315838433,0.019248534198820083,0.2,-0.5020603744703819,0.11266352779323169,0.2,-1.1015343014697276,0.34764812704715653,0.2,-0.36432365944414613,-0.573473779667575,0.2,0.7992215470910963,0.03334032237110873,0.2,0.029205613972543343,-0.649290150944118,0.2582460400228095,1,C153C5
1.1603094158442253,0.39913056087307186,0.07143514199559747,0.2,-0.5009503320768361,0.04987970252762208,0.2,-1.1001387801765596,-0.2804050759276089,0.2,-0.36606803204742105,-0.33051535782560937,0.2,0.8000839197287792,-0.02103516910270664,0.2,0.019325885637713217,-0.7122433238134195,0.2554261627340943,1,C153C5
1.1683115497465992,0.39839639385577286,0.04596449951175738,0.2,-0.5012622992299399,-0.149158270519395,0.2,-1.1060207826845694,-0.07507401644661627,0.2,-0.3696119051693559,-0.4582808010714402,0.2,0.798884984385453,-0.23264761319745364,0.2,0.018647923630607563,-0.08891321007680669,0.3560259170602145,1,C153C5
1.1763136836489732,0.39986599286526,0.0972427630913826,0.2,-0.5033368644051465,0.10646658699717607,0.2,-1.1013399644397055,0.3141018299414877,0.2,-0.3734005248645641,-0.3737457849852105,0.2,0.79636155791762,-0.0909180198529827,0.2,0.02026060635671418,-0.15568800551714757,0.4188033800713188,1,C153C5
1.184315817551347,0.399952278065235,0.03485202049876429,0.2,-0.4995588338379851,0.19865522848388356,0.2,-1.1009951534055056,0.011628679428526967,0.2,-0.37559183772911925,-0.20894612395941023,0.2,0.7974302960678052,0.09909608145493298,0.2,0.019459608071711598,-0.5111317523829961,0.4281759318084918,1,C153C5
1.192317951453721,0.4004236251932402,-0.26891829073825285,0.2,-0.5001583807494043,-0.11825482212857522,0.2,-1.101153905568849,0.07289608791614943,0.2,-0.37674366284791466,-0.4843082149307218,0.2,0.7979470952208989,-0.007285960864723828,0.2,0.015523417177149735,-0.6214049811407645,0.38159522433462245,1,C153C5
1.2003200853560951,0.39564958541342293,-0.24568386276294443,0.2,-0.5014509109920423,-0.1591151510417499,0.2,-1.0998288159988472,-0.06672281574858496,0.2,-0.3833407691680108,-0.4801426660107459,0.2,0.7973137206939697,0.1494929807210818,0.2,0.012253026291871758,-0.16507290501178667,0.2902331801905652,1,C153C5
1.208322219258469,0.3964926833890331,0.217115432536958,0.2,-0.5027042231660723,-0.01102717450109092,0.2,-1.1022214706208264,0.055485705165725374,0.2,-0.3844259455040866,-0.40136792150518436,0.2,0.8003389829124362,0.40722268465175765,0.2,0.014240417096819138,-0.21917339757402765,0.22369620884810543,1,C153C5
1.216324353160843,0.39912343233401426,0.45015030086315366,0.2,-0.5016273457840598,0.2466949809602978,0.2,-1.0989410447161956,0.18651909962072444,0.2,-0.38976265591209375,-0.2917266780993431,0.2,0.8038292836483978,0.0306786151797675,0.2,0.008389917963046632,-0.45473043084765785,0.3323375670085954,1,C153C5
1.224326487063217,0.40369508820284355,0.20572080441736904,0.2,-0.49875710347070756,-0.01180345174661701,0.2,-1.0992371650268948,0.020417792440746707,0.2,-0.3890935723536761,-0.389412720144415,0.2,0.8008298407553125,-0.029950267032008426,0.2,0.0049765601824702035,-0.0692029514710559,0.4090044029359049,1,C153C5
1.2323286209655908,0.40241496520469217,-0.33617979933106557,0.2,-0.5018162010120056,-0.01047005563321532,0.2,-1.0986143600371436,0.13905404982833547,0.2,-0.3959932594344044,-0.6913693978234485,0.2,0.8033500793758857,0.09047096277274569,0.2,0.0041456440537925915,0.10348988056489614,0.4347340108261615,1,C153C5
1.240330754867965,0.3983162114135465,-0.19942848770087077,0.2,-0.498924624360839,-0.021068659993267458,0.2,-1.0970123002296415,0.06983821786900324,0.2,-0.40015548271885126,0.04939650301295437,0.2,0.8022773761596764,-0.1964642118197496,0.2,0.003112488081050638,-0.020277559277774942,0.40297702834916127,1,C153C5
1.2483328887703389,0.39922410940147823,0.12902897494298723,0.2,-0.5021532995718979,0.09363015136372096,0.2,-1.0974969485512396,-0.3954839487688433,0.2,-0.3952029153861971,-0.4341071807085865,0.2,0.8002066519867697,-0.10634840785384708,0.2,0.0007803487480573873,-0.17544013069092929,0.321262063357764,1,C153C5
1.2563350226727128,0.4003806750126343,0.14843934606578388,0.2,-0.4974265419390195,0.19188139252607206,0.2,-1.103340043409943,-0.21245929212404535,0.2,-0.40710119761018865,-0.8343101068136529,0.2,0.8005758016340149,0.2390650886769305,0.2,-0.0015095147337874154,-0.3652725860024384,0.2094128822948124,1,C153C5
1.2643371565750867,0.4015991389385308,-0.12144880977485797,0.2,-0.49908319729148076,-0.07855778029974142,0.2,-1.1008962972252243,0.26169865293790284,0.2,-0.40855187709521557,-0.16787269214954895,0.2,0.8040316934056005,0.009147408289958414,0.2,-0.005204766008090972,-0.37296335250142804,0.3052601650695046,1,C153C5
1.2723392904774609,0.3984374940562366,-0.21655057481428583,0.2,-0.49868346642381534,-0.275400628479347,0.2,-1.0991528649629365,-0.2151486476140857,0.2,-0.40978716068458143,0.002522554359042639,0.2,0.8007221601666542,-0.30821328459817304,0.2,-0.005904414236450718,-0.18348448856013197,0.39462823592460883,1,C153C5
1.2803414243798348,0.3981343297415022,0.1564414832500409,0.2,-0.5034896073471503,-0.1448712235949945,0.2,-1.1043386755870497,-0.18489939260468713,0.2,-0.4085115162254709,-0.4832825207383429,0.2,0.7991002808520298,0.004582585566306752,0.2,-0.005235618781402206,-0.6956822614043219,0.4366435964439056,1,C153C5
1.2883435582822087,0.40094055778823723,0.019127452999149336,0.2,-0.5010014060013352,0.22652862528913312,0.2,-1.1021112552446115,0.20334343412108102,0.2,-0.4175196810163949,-0.4984496477519543,0.2,0.8007954815357151,0.17052174907598167,0.2,-0.013506628142030316,-0.5096738075359631,0.42077843312305446,1,C153C5
1.2963456921845826,0.3984403689894886,-0.2584004750025293,0.2,-0.4998651493425242,-0.031354940776710805,0.2,-1.1010851806411124,-0.04536014071965244,0.2,-0.41648671058950215,-0.13545325052485152,0.2,0.8018286288372455,-0.1733321005129712,0.2,-0.010101335521373453,-0.0713698586886458,0.35066133463052096,1,C153C5
1.3043478260869565,0.39680615018819676,0.22130816267448492,0.2,-0.5015030850537626,-0.2806000829931078,0.2,-1.102837017496126,-0.037623415808166194,0.2,-0.41968693302479254,-0.37873805626357016,0.2,0.7980221679275076,-0.3104241341265815,0.2,-0.012406144621431593,-0.33096111840482767,0.2432515428160978,1,C153C5
1.3123499599893307,0.40198129959228035,-0.09305491912640212,0.2,-0.5043547506704139,0.2699928830903475,0.2,-1.101687155294043,0.15890878834323718,0.2,-0.4225465194897193,-0.4110045955762129,0.2,0.7968618426912202,0.01845720315549193,0.2,-0.014753567797767457,-0.3471085871411709,0.2752622046456046,1,C153C5
1.3203520938917046,0.3953172714821743,-0.2838655329253856,0.2,-0.49718319892431706,0.11686722203931715,0.2,-1.1002944768826342,0.06167176007017272,0.2,-0.42626300655401195,-0.5075065429630473,0.2,0.7983174831779954,0.03589215523149697,0.2,-0.019077983477463468,-0.23576213490273557,0.3758466739173333,1,C153C5
1.3283542277940785,0.3974394510654742,0.20094681569335013,0.2,-0.5024848751177848,-0.3660284111775408,0.2,-1.1007004071329203,-0.015191732402303204,0.2,-0.43066662417712803,-0.31245148594816197,0.2,0.7974361171749241,0.2248345073562405,0.2,-0.021135731142368306,-0.037107218747252285,0.43373635721401227,1,C153C5
1.3363563616964524,0.39853242053326793,-0.19731098982141843,0.2,-0.5030396535031577,0.012734077770200358,0.2,-1.100537544601071,0.01383678948153888,0.2,-0.43126223032918254,-0.15836235853352448,0.2,0.8019148352956953,0.06575382087847109,0.2,-0.02313766905658929,-0.011313017955079802,0.43453071570541857,1,C153C5
1.3443584955988264,0.3942824752283315,-0.18722272168255824,0.2,-0.5022811298734616,-0.1729832678512011,0.2,-1.1004790185012157,-0.10992605813216205,0.2,-0.4332004219136644,-0.41917710369759886,0.2,0.7984881783089797,-0.06350311043893525,0.2,-0.02479126855121134,-0.15570878965227022,0.37777541048462704,1,C153C5
1.3523606295012005,0.395536856986347,0.04321600066352002,0.2,-0.5058073857887769,-0.246256475834844,0.2,-1.1022963615311856,-0.19058662112149405,0.2,-0.4379690639883441,-0.4106314776535225,0.2,0.8008987855286723,0.1645817547551165,0.2,-0.028260283111704643,-0.352954241869266,0.27713716086809514,1,C153C5
1.3603627634035744,0.3949739312389478,-0.1582162362743257,0.2,-0.5062212334868191,-0.014430134921666893,0.2,-1.1035284044391596,-0.06782711467023805,0.2,-0.4397705255561208,-0.5295480887773998,0.2,0.8011214863850615,0.042728017924854866,0.2,-0.031579196840610835,-0.2773683785626447,0.24288615770133154,1,C153C5
1.3683648973059483,0.3930053972059578,-0.17903487070033627,0.2,-0.5060382679475236,0.02539046505510567,0.2,-1.1033815953659094,-0.17568717867649797,0.2,-0.4464418334087825,-0.48622097806751835,0.2,0.80158243381547,-0.06875804463554736,0.2,-0.03206458665788396,0.03732308249699376,0.35292848192954196,1,C153C5
1.3763670312083223,0.3921093733077424,0.10891183660251269,0.2,-0.5058149860459374,0.32644983788231163,0.2,-1.1063393992979835,-0.2456826779913407,0.2,-0.4475500612052011,-0.06242491759009955,0.2,0.8000213576708928,-0.4113748210332127,0.2,-0.02872478055490924,-0.3702914442394088,0.4259402695823658,1,C153C5
1.3843691651106962,0.394747986591598,0.23311158474716848,0.2,-0.5008150705414066,-0.17035841717610856,0.2,-1.1073125182137709,0.24549655985703356,0.2,-0.4474406320902241,-0.3350954128588136,0.2,0.7950004366789386,-0.2194523892343203,0.2,-0.034657411688923855,-0.6574913779005211,0.44383720377232605,1,C153C5
1.3923712990130703,0.3958391586636971,-0.1649243525403618,0.2,-0.5085407207207552,-0.6267415081963323,0.2,-1.102411454340271,0.04563397481639753,0.2,-0.4529115878109421,-0.5413708652208353,0.2,0.7965101194431436,0.029988057568611226,0.2,-0.03565219761019675,-0.3280236060151176,0.4019787449812429,1,C153C5
1.4003734329154442,0.3921091969509522,-0.19548864608776723,0.2,-0.5108429346725479,0.25499536935363193,0.2,-1.1065823746167085,-0.3629276099317569,0.2,-0.4561025659337575,-0.4343731049803179,0.2,0.7954802456000364,0.05998261483566858,0.2,-0.03693278117937007,-0.11316207394278419,0.31036760787200784,1,C153C5
1.4083755668178182,0.39271134032629285,-0.10872194550236303,0.2,-0.5044607948110971,0.05462448194406416,0.2,-1.108218296099179,-0.057126305653534826,0.2,-0.4598615574906272,-0.5010875291817651,0.2,0.7974698412805143,0.1243066740788043,0.2,-0.035839737736340006,-0.25207559556186016,0.20873900200516604,1,C153C5
1.416377700720192,0.3903696458229144,-0.32254583895309147,0.2,-0.5099689429614429,-0.34136896116125637,0.2,-1.107496395507165,0.19712621466502767,0.2,-0.4641199664006657,-0.4696852878615862,0.2,0.7974691523852973,-0.1091575528075206,0.2,-0.04109438743203537,-0.19507842763240496,0.32623631367987627,1,C153C5
1.4243798346225662,0.3875506069030434,0.1785448271485364,0.2,-0.5099226981896772,-0.0007392802941902366,0.2,-1.1050642766645387,0.012750649330484087,0.2,-0.46737652209641256,-0.2959594737637905,0.2,0.795723320435594,-0.006747140409484043,0.2,-0.04081400268752089,-0.02744028877546914,0.41328370955181715,1,C153C5
1.4323819685249402,0.393226363057291,0.32544698335059546,0.2,-0.50998077144615,-0.13077242332321104,0.2,-1.1072923851178773,-0.42193505393381403,0.2,-0.46885531798088637,-0.3149741450043167,0.2,0.7973611981387455,-0.08483038369153789,0.2,-0.044661332467501605,0.04356534997883563,0.44838356900573506,1,C153C5
1.440384102427314,0.3927577586366529,-0.38434550549153523,0.2,-0.5120150569628485,-0.03250068160862846,0.2,-1.1118152375274797,-0.22744913443582815,0.2,-0.47241610841648163,-0.3366874495278199,0.2,0.7943660342965294,-0.25485159458087103,0.2,-0.04375627678025124,-0.12502504760395494,0.4226898307205819,1,C153C5
1.448386236329688,0.3870768349694264,-0.24189221425298738,0.2,-0.510500782351888,-0.04193048898825519,0.2,-1.1109315712688506,0.2492068984003143,0.2,-0.4742423171733315,-0.2516920085167927,0.2,0.7932835726254516,-0.17427258008877178,0.2,-0.04992160266331796,-0.3760796880809404,0.342235534412933,1,C153C5
1.456388370232062,0.3888874832086051,-0.04013411134204739,0.2,-0.5126859447866606,-0.08642052792807303,0.2,-1.1078279271530747,0.06344060927251927,0.2,-0.4764431805527503,-0.4590812895409364,0.2,0.7915776730151091,-0.06847192028813787,0.2,-0.051853778983885344,0.18600899656172323,0.22651887034647758,1,C153C5
1.464390504134436,0.38643468918795365,-0.2857551724022578,0.2,-0.5118835107987372,-0.2025895026843208,0.2,-1.1099165215204903,-0.4158319871016558,0.2,-0.48158761780598647,-0.5003444708922,0.2,0.7921880219008414,-0.09052525716325005,0.2,-0.047332949061292616,-0.1705870995913598,0.2962215540743128,1,C153C5
1.47239263803681,0.384315400450169,-0.16267943999016474,0.2,-0.5159273768296098,-0.30540643575500265,0.2,-1.1144812389467011,-0.0745616832092677,0.2,-0.4844486920870255,-0.4325583228527406,0.2,0.7901292689004971,0.28834257343116065,0.2,-0.05317847835728414,-0.40156476857238826,0.39589751717423205,1,C153C5
1.480394771939184,0.383831818148111,-0.0976541995623692,0.2,-0.5167700137708172,-0.22992448591786785,0.2,-1.1111095084518385,0.12185449038056018,0.2,-0.4885085509716303,-0.2538302418283421,0.2,0.7968015030757399,0.08721334249728319,0.2,-0.050900774533667134,-0.5739089394995216,0.4479466386150229,1,C153C5
1.4883969058415578,0.3827529332571711,-0.09517083574904842,0.2,-0.5196061686042956,-0.2511451587911412,0.2,-1.1125315671006122,-0.17025410155571685,0.2,-0.488509975956279,-0.3462019433615841,0.2,0.7915246823804536,-0.35427725763867435,0.2,-0.05874795561710858,-0.5037857198754061,0.4393846282268279,1,C153C5
1.4963990397439317,0.38230908477612624,-0.19620548083925174,0.2,-0.5207883363114755,-0.1698431250471491,0.2,-1.11383357407673,-0.06296240574750478,0.2,-0.49404778206541566,-0.0487746997790417,0.2,0.7911330669535211,-0.24906495465220474,0.2,-0.05547621952607832,-0.26359923327611845,0.3720431485182214,1,C153C5
1.5044011736463059,0.37961364556374305,-0.33223639438310915,0.2,-0.52232365860505,-0.22886437528492343,0.2,-1.1135389655925723,-0.14113462773755747,0.2,-0.48929037115274365,-0.3057406838109615,0.2,0.7875396431060183,-0.1650859606184621,0.2,-0.0604630975528978,-0.555317239176449,0.2621861670107741,1,C153C5
1.5124033075486798,0.3769933024659965,-0.29874856594030996,0.2,-0.5244501663160342,0.06972280185820606,0.2,-1.116091728120531,-0.14693694834391757,0.2,-0.49893963300639105,-0.6896421007710485,0.2,0.7884916915836258,0.11018431588240285,0.2,-0.06345759083685029,-0.17078896327479776,0.2634171432107845,1,C153C5
1.5204054414510537,0.3748336685086981,-0.02494235264353592,0.2,-0.5212080937753187,0.1014981955511085,0.2,-1.115889956766075,-0.2936848966716976,0.2,-0.5003246447650804,-0.43430077649983173,0.2,0.7893025921601368,0.10150275224562327,0.2,-0.06411647803550559,-0.050187856769420586,0.37401493831562505,1,C153C5
1.5284075753534276,0.3765942248236999,0.023555733971187404,0.2,-0.5228261951872165,-0.23039026868229562,0.2,-1.120790686467278,-0.13361418828947147,0.2,-0.5058884454303884,-0.2578411061216687,0.2,0.7901157356195557,0.07022394089748613,0.2,-0.06678483862408215,0.07196880628718116,0.442401499053753,1,C153C5
1.5364097092558016,0.3752105602522371,-0.3128025214846862,0.2,-0.5248943380742355,-0.31804060427834124,0.2,-1.1180277837787065,-0.20887722845555623,0.2,-0.5044501024630271,-0.20320058296946497,0.2,0.7904261752144965,-0.11328391266240273,0.2,-0.06647804233858827,0.2886417872970978,0.4516091221901962,1,C153C5
1.5444118431581757,0.37158938447994494,-0.20073443915364156,0.2,-0.52791484485567,-0.23798871210527206,0.2,-1.124132722122567,-0.27361098352791935,0.2,-0.5091396547578998,-0.5102594952015662,0.2,0.7883031930169573,-0.31729399483129,0.2,-0.0658097790364174,0.025269348025785454,0.3991171726082757,1,C153C5
1.5524139770605496,0.3719988092257788,-0.012948263252574727,0.2,-0.5287021574679198,-0.25018478393162846,0.2,-1.1224055595151532,0.11669894451084295,0.2,-0.5126142543862522,-0.6072853270308528,0.2,0.7853494712971959,-0.21755650638535795,0.2,-0.06895427052942743,-0.20238071624642168,0.2975344005447146,1,C153C5
1.5604161109629235,0.37138221226790374,-0.24433959414517023,0.2,-0.531917801398576,0.05124469362004225,0.2,-1.1222655390103935,-0.2073146774425605,0.2,-0.5188562199903934,-0.29078044832389627,0.2,0.7848222889147916,0.0115312104547044,0.2,-0.07045758179601275,-0.09269310008545698,0.22842848433038587,1,C153C5
1.5684182448652975,0.3680893757194561,-0.3701071432932225,0.2,-0.5278822423699991,0.008130910272380332,0.2,-1.1257225943542342,-0.1975018400539319,0.2,-0.5172667415594345,-0.09478352454465877,0.2,0.7855339706644712,-0.2584942080468555,0.2,-0.07002684050147509,-0.27564198365997045,0.34796939142789807,1,C153C5
1.5764203787676716,0.3654604979752122,-0.2425337060719332,0.2,-0.5317877068342179,-0.3961182321949863,0.2,-1.1254255684512564,0.1320521303268818,0.2,-0.520372756383108,-0.27876085179273646,0.2,0.7806863815860419,-0.14916805784064013,0.2,-0.07273303814877753,-0.5098771510541487,0.4317266971453946,1,C153C5
1.5844225126700455,0.36420883642230517,-0.16920154377856808,0.2,-0.5342201340851189,-0.5093880687659924,0.2,-1.123609760269004,-0.12446663126107482,0.2,-0.5217269151881183,-0.3892301129621578,0.2,0.7831472817390209,-0.10203239530995334,0.2,-0.07484467027480425,-0.2920261924179314,0.4589907143558164,1,C153C5
1.5924246465724194,0.3627532732747551,-0.25077413803310106,0.2,-0.5399379159344738,-0.2122756939678186,0.2,-1.1274170345514336,-0.18165919922502605,0.2,-0.5266004381905025,-0.3663672478787586,0.2,0.7790538632610826,-0.13959055357597172,0.2,-0.07367561795681361,-0.2289506933467895,0.4228236641190771,1,C153C5
1.6004267804747934,0.36019645021377555,0.17805417207086838,0.2,-0.537616545188604,-0.17854444516610113,0.2,-1.1265163074566045,-0.24448038720885357,0.2,-0.5275887911541784,-0.17327113570527602,0.2,0.7809138328818054,-0.20497533068919438,0.2,-0.07530178548174746,-0.22657077176519652,0.3318225218060523,1,C153C5
1.6084289143771673,0.365602140027889,-0.07715242352300533,0.2,-0.5427946270571314,-0.30655730419761745,0.2,-1.1313287207467753,-0.29935644158228525,0.2,-0.5293727763617869,-0.33199398278442593,0.2,0.7757742579700555,-0.23225884765246813,0.2,-0.0754057275297676,-0.16118521256595694,0.20807741818179537,1,C153C5
1.6164310482795414,0.35896201143740747,-0.8529118717988462,0.2,-0.5425214620557659,-0.029647252602210683,0.2,-1.131306010521921,-0.19525293315726666,0.2,-0.5329006948787293,-0.4666011157852118,0.2,0.7771976913193659,0.055487509712341676,0.2,-0.0777647356952725,0.0580287908191495,0.3181900525090554,1,C153C5
1.6244331821819153,0.35195555007910745,-0.32785029440859575,0.2,-0.5432689830987668,-0.11354105840628848,0.2,-1.1344527676772915,-0.05859129713903233,0.2,-0.5368383942143503,-0.11465058349833385,0.2,0.776662058125453,-0.07691877559721366,0.2,-0.07617326763015438,-0.10127276722782955,0.41600737994089787,1,C153C5
1.6324353160842893,0.35371640672686994,0.22658988614701267,0.2,-0.5443381189902665,-0.28543833062972396,0.2,-1.1322434712761456,0.042327055493590615,0.2,-0.5347351042147026,-0.28759241187700096,0.2,0.7759669909098105,0.2117074807922309,0.2,-0.08248197997007042,-0.06809622818407465,0.4612481807502196,1,C153C5
1.6404374499866632,0.35558098825745965,-0.03271517012612066,0.2,-0.5478359963888424,-0.2048868298421963,0.2,-1.133775534789394,-0.06709228677424794,0.2,-0.5414398728043823,-0.666419091834583,0.2,0.7800493778181287,-0.1252752885496991,0.2,-0.08100494773947335,0.3564628275736564,0.44258238003976325,1,C153C5
1.648439583889037,0.353192964004852,-0.30516581445722,0.2,-0.5476163082677417,-0.2508745164313819,0.2,-1.1333169478645335,-0.38986460318765626,0.2,-0.5453978096840559,-0.3890983461917255,0.2,0.7739625862930153,-0.40506538817168536,0.2,-0.08025023669726063,-0.3445960097569183,0.3643121924622461,1,C153C5
1.6564417177914113,0.35069833522614413,-0.6159266511449879,0.2,-0.5518499886517445,-0.43093881120067484,0.2,-1.1400133684403966,-0.4833752445739803,0.2,-0.5476654463434499,0.10087805630144137,0.2,0.7735683316073817,0.030508009537195957,0.2,-0.08886789862247943,-0.3073651049134213,0.24538440308529752,1,C153C5
1.6644438516937852,0.3433381375865322,-0.3286081643524667,0.2,-0.5545113292469525,-0.21931032236691128,0.2,-1.1410509517777172,0.019771669651336143,0.2,-0.5437837607832329,-0.38747521914670596,0.2,0.7744507144456104,-0.17096924905602578,0.2,-0.08581642699137962,-0.001851781029220928,0.28519529810525013,1,C153C5
1.672445985596159,0.34544060459650466,-0.07704951496067397,0.2,-0.5553589538096151,-0.1818211871475392,0.2,-1.1396970217259752,-0.24188046013561004,0.2,-0.5538650498497972,-0.7888913489538657,0.2,0.7708328236224853,-0.4498141458106897,0.2,-0.08768153713707007,-0.14469755660567662,0.3954362550188225,1,C153C5
1.680448119498533,0.3421053453471614,-0.02893943227975232,0.2,-0.5574204682413131,-0.11411760329054638,0.2,-1.144921039139887,-0.2688672251466434,0.2,-0.5564060223664947,-0.008943308949203865,0.2,0.7672536881126394,-0.1526996415780399,0.2,-0.08534461812853109,-0.5019317367706239,0.45819994513644385,1,C153C5
1.6884502534009072,0.3449775736800286,-0.14139024459779506,0.2,-0.5571848354622638,-0.1826664890588678,0.2,-1.1439988973283215,-0.05752757172192147,0.2,-0.5540081427929845,-0.12889377577305489,0.2,0.7683896293572366,0.08334729924652784,0.2,-0.09203372798667957,-0.6575162737865825,0.4578803676393131,1,C153C5
1.696452387303281,0.3398431014335967,-0.48149305348743965,0.2,-0.560343132066255,-0.563253547082393,0.2,-1.1458414802874377,-0.30599253236300583,0.2,-0.5584683227788636,-0.5540695815501456,0.2,0.7685872449005838,-0.029879608178295936,0.2,-0.09219398359610127,0.053339687661068835,0.39428338674035285,1,C153C5
1.704454521205655,0.3372736848242296,-0.21745965798418768,0.2,-0.5661968922155821,-0.2509055177010097,0.2,-1.1488947778461296,-0.2821371227441083,0.2,-0.5628732560977868,-0.061851497207783546,0.2,0.7679115556263839,-0.30353569501116034,0.2,-0.08841715148379523,0.0882029913796907,0.28274095271183247,1,C153C5
1.712456655108029,0.3363637469058497,-0.3264362968550989,0.2,-0.5643576203494711,-0.0480725607691912,0.2,-1.1503556742513434,-0.24666214425766997,0.2,-0.5594579467341881,-0.2022087875039255,0.2,0.7637306737804053,-0.06646343021415868,0.2,-0.08960702059780125,-0.39095518944456875,0.2495840931191416,1,C153C5
1.7204587890104028,0.332050704074548,-0.31236460572673164,0.2,-0.5669660531878892,-0.503340926703455,0.2,-1.1528413721542523,0.1534618099871543,0.2,-0.5661085966978496,-0.6677125035737876,0.2,0.7668481407429574,-0.01661412901658721,0.2,-0.09537637904898665,-0.18586511631184766,0.3703122968277185,1,C153C5
1.728460922912777,0.331365913214222,-0.3374357838798192,0.2,-0.5724110751767264,-0.4706419956994473,0.2,-1.147900285291549,-0.01864492646308502,0.2,-0.5701413467913687,-0.16792854795939088,0.2,0.7634648477161399,0.021118032934558384,0.2,-0.09499663971875845,0.1886645778181102,0.44977045070760135,1,C153C5
1.736463056815151,0.3266517315324709,-0.4746221450990587,0.2,-0.5744963251190803,-0.023529432381763637,0.2,-1.1531396909776617,-0.5791489972591796,0.2,-0.5687954534651999,-0.34955964701970793,0.2,0.7671860292699103,0.08176252692957547,0.2,-0.09589745103978849,0.22921660764182894,0.4682844725846284,1,C153C5
1.7444651907175248,0.32377195889263705,-0.4997300356142965,0.2,-0.5727875460948346,-0.1470356491803798,0.2,-1.1571666692476958,-0.2670773481657368,0.2,-0.5757343011436841,-0.7120743681701471,0.2,0.7647730481470131,-0.3417661194337965,0.2,-0.09512789219237773,0.28028603656907947,0.4210499980236879,1,C153C5
1.7524673246198987,0.31865605096264216,-0.28325627897250044,0.2,-0.5768488955059664,-0.2775278891193403,0.2,-1.1574129285483135,-0.0735358897063082,0.2,-0.5801886433559222,-0.1986790567075694,0.2,0.7617177713589696,-0.354154532362122,0.2,-0.09454001854697235,-0.11230148201558834,0.319375088863336,1,C153C5
1.7604694585222727,0.31923985842907704,-0.15528311505589448,0.2,-0.5772279923207441,-0.4991127150494601,0.2,-1.1583432434829968,-0.19630061037216595,0.2,-0.5789131660510052,-0.2578499585249999,0.2,0.7591065756292191,0.17901885529990336,0.2,-0.09861199631258949,-0.2847525818936486,0.21202545632946546,1,C153C5
1.7684715924246468,0.31617152112174784,-0.1634625251549955,0.2,-0.5848346989467578,-0.4097973090107579,0.2,-1.1605537383142681,-0.28543877083686553,0.2,-0.5843142426923222,-0.4774455173509051,0.2,0.764582073043768,-0.03593969989197643,0.2,-0.09892623876170899,-0.20904970798566624,0.3410371711900274,1,C153C5
1.7764737263270207,0.3166244580265971,-0.2517194548263511,0.2,-0.5837847492649162,0.019487970072000482,0.2,-1.1629102638163866,-0.1945041935441788,0.2,-0.5865522943286197,-0.09688847708295978,0.2,0.7585315404309475,-0.7201453115585967,0.2,-0.0999668491897072,0.03716985735656578,0.43599444754861627,1,C153C5
1.7844758602293946,0.3121440098445262,-0.4263889784432255,0.2,-0.5845228914256058,-0.3561404841012916,0.2,-1.163665805410975,-0.39531639425567644,0.2,-0.5858644583256496,-0.23310052843968782,0.2,0.7530597480588305,-0.21720725909933625,0.2,-0.09500472706975031,-0.16771339580668632,0.4734524714413545,1,C153C5
1.7924779941317686,0.3098022343715055,-0.21161205228707736,0.2,-0.5894829970105369,-0.3412558875928798,0.2,-1.1692353261244774,-0.3503900465795795,0.2,-0.5902819027836547,-0.548168168982753,0.2,0.7550562242853581,-0.07579483114477509,0.2,-0.0987988202628768,-0.38110561273796384,0.44397511802200307,1,C153C5
1.8004801280341425,0.308758217007933,-0.1581315386801098,0.2,-0.5899829856270918,-0.05214710418851437,0.2,-1.1692720461562482,-0.1700503700014372,0.2,-0.5946351490293736,-0.21794928114354795,0.2,0.7518470307605141,-0.06815958813648215,0.2,-0.09766916983015224,-0.16163882640891541,0.35451007380286015,1,C153C5
1.8084822619365166,0.30727212975262375,-0.6420524705840688,0.2,-0.5903173506775531,-0.3109520387056808,0.2,-1.1719561320445004,-0.1708381730431835,0.2,-0.5937690912819514,-0.12932486508596824,0.2,0.7539656708751744,-0.041805454561713584,0.2,-0.0992126678642896,-0.09208999844224242,0.22675381911934867,1,C153C5
1.8164843958388905,0.2984853774785879,-0.5537095295929141,0.2,-0.5949582182463827,-0.6707134990841037,0.2,-1.1720054569249392,0.009140620036721114,0.2,-0.5967043468707491,-0.016017574060257778,0.2,0.7511781434875267,-0.36231950637723165,0.2,-0.0987667879387579,0.05810313614496104,0.3081093982900295,1,C153C5
1.8244865297412645,0.2984127772791371,-0.06245284770437648,0.2,-0.6010487666628987,-0.5634351130152162,0.2,-1.171809882123913,-0.2504062908195298,0.2,-0.5940253724669156,-0.3356555951119569,0.2,0.7481685587731387,-0.15444181850345767,0.2,-0.09980034257425134,0.02765892329225242,0.4170190536705064,1,C153C5
1.8324886636436384,0.29748613191531786,-0.2667877615960615,0.2,-0.6039731800546262,-0.13477032085355833,0.2,-1.1760119575780517,-0.6447009674833415,0.2,-0.6020748363925404,-0.36692366707245794,0.2,0.7487070743914713,0.18021199292186235,0.2,-0.10136745713692157,0.08959776479615544,0.4731425580121254,1,C153C5
1.8404907975460125,0.29414417309360014,-0.48510007330194654,0.2,-0.6032050917965557,-0.30959272321547104,0.2,-1.1821250976036464,-0.36931161254903644,0.2,-0.5998961511400749,-0.1797837739159619,0.2,0.7510519506598885,-0.22970674862983487,0.2,-0.10219364429915384,0.5246749958664314,0.46248565533136693,1,C153C5
1.8484929314483864,0.2897245307424867,-0.2179141807030563,0.2,-0.6089266636260737,-0.399944182932023,0.2,-1.1819209433788362,-0.06334087404101518,0.2,-0.6049513767751958,-0.6463449238278685,0.2,0.745031766413394,-0.3890042823939746,0.2,-0.09664699708521253,0.34823101542438417,0.387380601810915,1,C153C5
1.8564950653507604,0.29065754620235124,-0.20791078936426705,0.2,-0.609604198723468,-0.23516326241196372,0.2,-1.1831385515883026,-0.23612638551927245,0.2,-0.6102376699213208,-0.13420202402630171,0.2,0.7448278821415849,-0.12811523504376032,0.2,-0.09924265576999887,0.027934243515239515,0.26598297143041316,1,C153C5
1.8644971992531343,0.28639795811265845,-0.423712992686065,0.2,-0.6126892758246651,-0.35895321193857993,0.2,-1.1856989655471446,-0.37101278273379834,0.2,-0.6070986091596167,0.03542129901117075,0.2,0.7429819226526938,-0.18217450385409756,0.2,-0.09712208197751596,-0.24204971808101772,0.2721163233511986,1,C153C5
1.8724993331555082,0.2838781383193742,-0.2926113818900733,0.2,-0.6153474501144853,-0.4721735150226697,0.2,-1.1890747561120434,-0.2649573302764968,0.2,-0.609670929137142,-0.27309633908724484,0.2,0.7419130900799193,-0.03139427565730657,0.2,-0.10210859159645119,-0.5206549308779553,0.3931034916875308,1,C153C5
1.8805014670578823,0.2817161760024173,-0.5968557097923398,0.2,-0.6202440520650279,-0.5939949098338961,0.2,-1.1899382828315686,-0.07879597493666568,0.2,-0.6114681505850126,-0.6895400796590873,0.2,0.7424796142421769,-0.05325855003737723,0.2,-0.10275887659344599,0.18516594886483909,0.4672209417691586,1,C153C5
1.8885036009602563,0.27432844696269676,-0.5221386037243259,0.2,-0.6248513686718277,0.016706384147462117,0.2,-1.19033549171103,-0.4036641707440558,0.2,-0.6207035704116874,-0.3791149480962541,0.2,0.7410609532793213,0.07168568268407088,0.2,-0.09542160273141992,-0.12621739391808723,0.47608596643408524,1,C153C5
1.8965057348626302,0.27336195834282806,-0.3682007576884805,0.2,-0.6199767499186685,-0.22726038576254687,0.2,-1.1963969095634734,-0.13651531347901036,0.2,-0.6175339897545526,-0.027082831055534606,0.2,0.743626585165122,-0.17421513781849113,0.2,-0.10093381576389399,-0.33084252839560613,0.41724914883620107,1,C153C5
1.904507868765004,0.26843723483968107,-0.22742355599765507,0.2,-0.6284875348440284,-0.5370555538439999,0.2,-1.1925197367266942,-0.006982519777806728,0.2,-0.621136895708576,-0.2469832230768132,0.2,0.7382735110742255,-0.5029587306171063,0.2,-0.09769248633237639,-0.03978054279533493,0.30486234542126084,1,C153C5
1.912510002667378,0.2697231814468656,-0.22504895250083368,0.2,-0.6285696387801725,-0.4192897404594262,0.2,-1.1965086298799184,-0.5873504848070144,0.2,-0.6214857213237817,-0.043478796529029806,0.2,0.7355792454752483,-0.33459764922560975,0.2,-0.10011261763129513,0.04886501667547679,0.23372401273010066,1,C153C5
1.9205121365697522,0.26483645159966773,-0.46591364133164237,0.2,-0.6351961706913792,-0.4152484566488507,0.2,-1.2019173444836064,-0.514287436702468,0.2,-0.6218325564530405,-0.18996628596359977,0.2,0.7329199486866157,-0.2688958074284903,0.2,-0.0973790351312646,0.27231237058820557,0.3646164505980728,1,C153C5
1.928514270472126,0.2622685631855593,-0.14494627565780904,0.2,-0.6352136140865541,-0.20270917472385575,0.2,-1.2047372288671578,-0.39172935600984005,0.2,-0.6245251818991993,-0.492469753434463,0.2,0.7312769125563925,-0.14336493127764527,0.2,-0.09803997634504877,0.11509891485379715,0.45566735129907693,1,C153C5
1.9365164043745,0.2625173111891428,-0.40564101320668744,0.2,-0.6384395174869609,-0.4525911146190109,0.2,-1.2081850141797639,-0.22021054632327675,0.2,-0.6297120725079919,-0.3374081812311386,0.2,0.7306261097861734,-0.1829386368785088,0.2,-0.09908223379411098,0.3308797852676426,0.4843701855929885,1,C153C5
1.944518538276874,0.2557783069742523,-0.6402003662615597,0.2,-0.6424550719204583,-0.425729364111338,0.2,-1.2082605976083303,-0.17877398782573106,0.2,-0.6299237127988975,-0.2058383596717714,0.2,0.7283498943663363,-0.3363690898544533,0.2,-0.09668522702707628,0.2936150899061836,0.44342213655810586,1,C153C5
1.9525206721792479,0.25227410532895783,-0.4674086895044335,0.2,-0.6452511873127423,-0.4565636125911862,0.2,-1.2110453979849756,-0.4425834014753216,0.2,-0.6330054862627402,-0.23880339233416092,0.2,0.7252442043485021,-0.160911921913226,0.2,-0.09775355687544741,-0.07651921594925598,0.34257944751926345,1,C153C5
1.960522806081622,0.24829976794218137,-0.20719422189885947,0.2,-0.6497600897219172,-0.5605115443060373,0.2,-1.2153419320319354,-0.10741411194600814,0.2,-0.633744567076244,-0.3509784785409309,0.2,0.7257753036157247,-0.1016018489481893,0.2,-0.09988124680750916,-0.07524414303236614,0.20633475974068827,1,C153C5
1.968524939983996,0.24895899777857608,-0.10754760020599032,0.2,-0.6542193720216389,-0.14320257296378258,0.2,-1.2127640237761117,-0.23490478940509096,0.2,-0.6386211419193951,-0.11049517461393654,0.2,0.7236185747653311,-0.1182977176727093,0.2,-0.09904499006884525,0.028285538670636462,0.3320310716921778,1,C153C5
1.9765270738863698,0.24657900633888552,-0.3907257565688854,0.2,-0.6520513308893378,-0.3870124934522712,0.2,-1.2191004086624169,-0.44776997135638485,0.2,-0.635512489870067,-0.34757475443325525,0.2,0.7238825401329614,-0.1166145802349583,0.2,-0.09760598867447799,0.0054089318137511,0.43857827558005313,1,C153C5
1.9845292077887438,0.2427073856734739,-0.7547876305984899,0.2,-0.6604115719168753,-0.493111622489259,0.2,-1.2199283433178139,-0.15570126054811895,0.2,-0.6441823379903272,-0.5831712125476257,0.2,0.7217527414815718,-0.2810636805498645,0.2,-0.09566771232423829,-0.35567503324807914,0.4870329605385612,1,C153C5
1.992531341691118,0.23450240424930968,-0.49243554604929196,0.2,-0.6599411168491659,-0.7040565039604582,0.2,-1.2215916288311868,-0.1346091664297111,0.2,-0.644843229270829,0.19275532993850986,0.2,0.7193855212441636,-0.3234535859080248,0.2,-0.09934112394493393,-0.04002047581188384,0.4652655630904005,1,C153C5
2.0005334755934916,0.23482841693668524,-0.04558157676512291,0.2,-0.6716764759802426,-0.4614774904947577,0.2,-1.2220820899806892,-0.46523137737164433,0.2,-0.641098252711311,0.19453451708151964,0.2,0.7165774841070434,-0.25376868237207,0.2,-0.09265550206335028,0.13673976465497545,0.37832566294966186,1,C153C5
2.0085356094958655,0.23377309902106772,-0.5433743821805902,0.2,-0.667324756697082,-0.14321905937958457,0.2,-1.229035330869133,-0.5234791731272975,0.2,-0.6417306769975247,-0.20803914832041165,0.2,0.7153252223262104,-0.07530744589057115,0.2,-0.09469996818578141,-0.11147130778509194,0.24727422668664223,1,C153C5
2.01653774339824,0.2261344268217958,-0.4681944550321681,0.2,-0.673967980930316,-0.4105425302896107,0.2,-1.230457756750726,-0.1530799504166347,0.2,-0.6444268790844376,-0.4196565507276831,0.2,0.7153725649727942,0.045365611843255216,0.2,-0.09378922543895447,0.36974024537620753,0.295917608321534,1,C153C5
2.024539877300614,0.22628198774055303,-0.2342040976595471,0.2,-0.6738934371817158,-0.2026663232456427,0.2,-1.2314846100757992,-0.20491041788731068,0.2,-0.6484451818091677,-0.07330778275946997,0.2,0.7160510721157025,-0.24863796846563702,0.2,-0.09010144763585183,0.3216522751705425,0.41616782031058475,1,C153C5
2.0325420112029877,0.22238716125924304,-0.5348073741009967,0.2,-0.6772106421022462,-0.6279295326731062,0.2,-1.233736323436923,-0.3908283047056177,0.2,-0.6455998036085892,-0.26604454494311147,0.2,0.711394357477344,-0.3477990377785123,0.2,-0.09160907130463862,0.2029784193253604,0.4838783280468197,1,C153C5
2.0405441451053616,0.21772506975493708,-0.3916494874576671,0.2,-0.6839403097044855,-0.5143461527068945,0.2,-1.2377378629510891,-0.5468145827309812,0.2,-0.6527018945282574,-0.5597620589702714,0.2,0.7104862875112463,-0.31238991709098274,0.2,-0.09074586940372328,0.45807338024364047,0.48221975583701765,1,C153C5
2.0485462790077356,0.21612076945992037,-0.33774991065631427,0.2,-0.6854401805455566,-0.14274288599323837,0.2,-1.2424853567606187,-0.33623756579760633,0.2,-0.6545559965521135,-0.18976645263794195,0.2,0.7063961188038883,-0.1407355837475116,0.2,-0.08814592127330226,0.27173917973860606,0.41131329605263467,1,C153C5
2.0565484129101095,0.21232107118443605,-0.5299640955988074,0.2,-0.6862241958803773,-0.685346684003052,0.2,-1.2431176640038508,-0.20910551488030615,0.2,-0.6557381577704645,-0.1863512623251143,0.2,0.7082345181712861,-0.14793345870477842,0.2,-0.08929026899227013,-0.07648771340968208,0.2882707907671827,1,C153C5
2.0645505468124834,0.20764134393033945,-0.28132218905219974,0.2,-0.6964057274896054,-0.44502395858575516,0.2,-1.2458310449987036,-0.37786073069287496,0.2,-0.6575376167493153,-0.09303699776194024,0.2,0.7040291834646119,-0.42423830354245545,0.2,-0.09057684661287847,0.08110541124741444,0.25693386006396185,1,C153C5
2.0725526807148573,0.20781991615960085,-0.4523946137178769,0.2,-0.6933445792177494,-0.11639288177668627,0.2,-1.2491634356949368,-0.3785888987931363,0.2,-0.6572267497346556,0.08516288653329096,0.2,0.7014467053146068,-0.22021096398752021,0.2,-0.08721466459760323,-0.03620731187491763,0.38876610454796223,1,C153C5
2.0805548146172312,0.20040303011085342,-0.4883910395929534,0.2,-0.6982680135980324,-0.5844811594327842,0.2,-1.2518884673793937,-0.10570806797463583,0.2,-0.6561750105647827,-0.30800316518405507,0.2,0.7005058080408115,-0.1330206736702838,0.2,-0.08857915193669337,-0.08175308041415708,0.47482649702344915,1,C153C5
2.0885569485196056,0.2000056595261136,-0.3281853250496104,0.2,-0.7026962777686739,-0.5136567059469618,0.2,-1.250854764782531,-0.11251177437067439,0.2,-0.6621548003776004,-0.3821832900935615,0.2,0.6993183745358823,-0.09371631638367683,0.2,-0.08477401486259702,-0.013768887862841306,0.49381291275321343,1,C153C5
2.0965590824219795,0.19515206491005965,-0.7051458327003747,0.2,-0.7064865208931838,-0.7068480526579642,0.2,-1.2536886557693245,-0.48062382171450146,0.2,-0.6622899432062797,-0.021893641880960102,0.2,0.6990063469786727,-0.2192628403645952,0.2,-0.08479518957346015,-0.1112590703400632,0.44079257992111986,1,C153C5
2.1045612163243534,0.1887233262029076,-0.6133391789074887,0.2,-0.7140058466112014,-0.4780480702905876,0.2,-1.258544745929963,-0.5323673629808179,0.2,-0.6625050986476958,-0.35698523255054543,0.2,0.6958101690900488,-0.3745104735895233,0.2,-0.08327528230400576,0.0802645692517245,0.3284793505404838,1,C153C5
2.1125633502267274,0.18533863804753983,-0.3316050575139767,0.2,-0.7141352900178332,-0.14709990485096275,0.2,-1.2622065335770176,-0.11285173349201427,0.2,-0.6680017069270884,-0.3204658652668779,0.2,0.6930141794012403,-0.34583630488745076,0.2,-0.0817629380907321,-0.011183223546027844,0.21581353160214747,1,C153C5
2.1205654841291013,0.18341764528268398,-0.546119482744677,0.2,-0.7163594450888168,-0.4051232755395637,0.2,-1.2603503736658352,0.10778058453631001,0.2,-0.6676325524919658,-0.22226075951217727,0.2,0.6902767882118496,-0.27400814686883573,0.2,-0.08366918117524888,0.551482291317468,0.35681517363833837,1,C153C5
2.128567618031475,0.176600726323625,-0.45418245819722586,0.2,-0.7206172624264662,-0.6373233895612603,0.2,-1.2604820442244367,-0.4131386714049806,0.2,-0.6715578790792832,-0.4205304221477704,0.2,0.688630049051339,-0.13351665383877498,0.2,-0.0750691388984246,0.5549242860008179,0.4599183459624794,1,C153C5
2.136569751933849,0.17615072595152836,-0.3697891733188234,0.2,-0.7265566193217969,-0.33034515114981067,0.2,-1.266960592408315,-0.5679364937613007,0.2,-0.6743610392463302,0.005279025967919182,0.2,0.6881405217504292,-0.053825470814707066,0.2,-0.07831769839686062,0.059406320186612765,0.4996731164011046,1,C153C5
2.144571885836223,0.17068409955052383,-0.5831745595144249,0.2,-0.7259027848448631,-0.18468217264971942,0.2,-1.2695690281246175,-0.4649326815529681,0.2,-0.6714734146637965,0.13331148576184448,0.2,0.6877688415183036,0.05549337526430248,0.2,-0.07818200206562327,0.34517536112878777,0.46606829405522837,1,C153C5
2.152574019738597,0.16681993299929757,-0.6106182147368726,0.2,-0.7295115340841924,-0.7162636080185192,0.2,-1.2743995153131624,-0.4129429496434328,0.2,-0.6722280554741407,-0.13737162771251116,0.2,0.689028415754658,-0.4263540105206298,0.2,-0.07639954351201225,0.23636742691312174,0.36705046987728,1,C153C5
2.160576153640971,0.16091420811473386,-0.358679208512307,0.2,-0.7373630025731595,-0.7692303507331744,0.2,-1.2761761153189124,-0.05465343050750637,0.2,-0.6736713607071967,-0.26756463701778366,0.2,0.6809471773499736,-0.48004693472856325,0.2,-0.0766613817105095,0.028551533736768542,0.2266472856779975,1,C153C5
2.1685782875433453,0.16108106566310065,-0.38823609461772873,0.2,-0.7418192196959232,-0.2537215996154876,0.2,-1.2752739702012825,-0.4383068179439481,0.2,-0.6765090896664252,-0.018338745492049724,0.2,0.681347664799001,-0.37644751545964916,0.2,-0.07630312182163052,0.010286471837835848,0.3208624567965359,1,C153C5
2.176580421445719,0.1547024306008502,-0.7491517633446392,0.2,-0.7414225481670073,-0.18371865066573595,0.2,-1.2831890244060156,-0.43104650426369073,0.2,-0.6739647806350695,0.01517192572970949,0.2,0.6749240171026192,0.01414796453460404,0.2,-0.0748635217179077,0.1771932630859914,0.43931748591647224,1,C153C5
2.184582555348093,0.14909463744958643,-0.273125446153882,0.2,-0.744758718106575,-0.4883371190411781,0.2,-1.2821707142695016,-0.1812352730038158,0.2,-0.6762663388547498,-0.29380824411470025,0.2,0.6815740322315547,0.06340079196211906,0.2,-0.07023673866317148,-0.02126429329383636,0.49953853048868685,1,C153C5
2.192584689250467,0.1503324234623881,0.0746950749772983,0.2,-0.7492359420716661,-0.48892246704732717,0.2,-1.2860887887740766,-0.5545462835029602,0.2,-0.6786657125409047,0.032503422578343544,0.2,0.6759384297740131,-0.5591595097573371,0.2,-0.07116275843099779,-0.14524827063843707,0.4865156288012809,1,C153C5
2.200586823152841,0.1502897586492232,-0.5810000116930318,0.2,-0.7525814775793322,-0.372440483654278,0.2,-1.291043454805549,-0.34047892348726405,0.2,-0.6757462840934964,-0.37675953787578986,0.2,0.6726274800754373,-0.20011377424908328,0.2,-0.06869866376438859,-0.05588989408921011,0.40314804691870787,1,C153C5
2.208588957055215,0.14103642327529958,-0.6447790801273022,0.2,-0.7551949898101346,-0.514675081121331,0.2,-1.2915364515498728,-0.19775915876675543,0.2,-0.6846938651469173,-0.43569150968163217,0.2,0.6727366093860278,-0.27362720298736154,0.2,-0.06932099610452336,0.03818740890745136,0.2696052668514927,1,C153C5
2.2165910909575888,0.13997329336718636,-0.008373437894379498,0.2,-0.7608162788772735,-0.7155466244896241,0.2,-1.294207601345817,-0.4998554862851723,0.2,-0.6827173482484025,0.20803490603772679,0.2,0.6682494448276395,-0.3399603463140194,0.2,-0.06715100898164743,0.36180047907119256,0.28155185063214316,1,C153C5
2.2245932248599627,0.1409024482689895,-0.504460850015485,0.2,-0.7666437358019685,-0.42926553954244356,0.2,-1.2995341393304356,-0.5173317808451344,0.2,-0.6813653066503137,-0.11993845211145937,0.2,0.6672972438450034,-0.2190528971099323,0.2,-0.06462868391006855,0.556651686582057,0.4133097885570741,1,C153C5
2.2325953587623366,0.1319019197669386,-0.9635181332957009,0.2,-0.7676845275099526,-0.1985736766896562,0.2,-1.3024849098393392,-0.21328518955740505,0.2,-0.6846363634821858,-0.31197484656874525,0.2,0.6647445984738806,-0.02506856803222851,0.2,-0.06111020468056053,0.33580245812500653,0.4932655206576897,1,C153C5
2.240597492664711,0.1254861581362583,-0.40144936478973825,0.2,-0.769820914629003,-0.5154099262308989,0.2,-1.302946702363354,-0.29089015580109623,0.2,-0.6863569041954136,0.04954720939270851,0.2,0.6668961467564878,0.09844255398420293,0.2,-0.0631922945217824,0.33296983493548116,0.5015949431464001,1,C153C5
2.248599626567085,0.1254787299303028,-0.07239866579163146,0.2,-0.775931086329647,-0.7008142906855183,0.2,-1.3071391523321567,-0.34927223732295065,0.2,-0.6838436081319025,-0.005804736586276227,0.2,0.6663196793376278,-0.5171444784880033,0.2,-0.059827548252307336,0.4625093122633256,0.43596712010575045,1,C153C5
2.256601760469459,0.1243277794835922,-0.5775359868298441,0.2,-0.7810339432799713,-0.3721127254693729,0.2,-1.3085350581605213,-0.3441327137219813,0.2,-0.686449779980794,-0.30511401144783096,0.2,0.6586218351006797,-0.2876546871524166,0.2,-0.05895418398594776,0.30583929322058534,0.31218635854904003,1,C153C5
2.2646038943718327,0.11623815414102528,-0.9552301222623995,0.2,-0.781884889937157,-0.4826192690854658,0.2,-1.3126452757517084,-0.6057341711220715,0.2,-0.6887254323150678,-0.021136303460365935,0.2,0.6617172043431891,-0.11152430793089779,0.2,-0.05643619632796177,0.08333451518769242,0.23961256229376307,1,C153C5
2.2726060282742067,0.1090440975273938,-0.4420304182824637,0.2,-0.7887558515853388,-0.7323849164433405,0.2,-1.3182268048984744,-0.800288584607442,0.2,-0.6867879608361599,0.08942133119209383,0.2,0.6568374461737854,-0.28182085460335543,0.2,-0.05709089779921541,0.17845963391451558,0.3823003305694188,1,C153C5
2.2806081621765806,0.10916566744850587,-0.19034695387102393,0.2,-0.7936030486002504,-0.23178506254296904,0.2,-1.3254498931054275,-0.11009117428940896,0.2,-0.6872946910159943,-0.24236955548163908,0.2,0.6572080706695355,-0.12866167233429454,0.2,-0.05114407920361632,0.30715356740457866,0.48083447959540127,1,C153C5
2.2886102960789545,0.10599854626545742,-0.26313997082757706,0.2,-0.7924644125860263,-0.3933952316745107,0.2,-1.319988263687105,-0.0037213318599682577,0.2,-0.6906658737238661,-0.20724123025173818,0.2,0.6547788594164367,-0.2982430526825078,0.2,-0.04842572980794881,-0.09179584928806023,0.5108650779725289,1,C153C5
2.2966124299813284,0.10495542791526463,-0.8939242591396628,0.2,-0.7998973723070426,-0.5929073963601705,0.2,-1.325509434415187,-0.4787885173769685,0.2,-0.6906105507000221,0.014819348651419484,0.2,0.6524361818266153,-0.3001179737224108,0.2,-0.04846448814872198,0.045329246506945475,0.4647514376812747,1,C153C5
2.3046145638837023,0.09169575811922281,-0.8143885470597353,0.2,-0.801950930927789,-0.4805965947094898,0.2,-1.3276488799651365,-0.26511814063701067,0.2,-0.6904287641454434,0.07033524856546458,0.2,0.6499769718368781,-0.5809009550302515,0.2,-0.04417044269475402,0.12770455497489677,0.35350331799101764,1,C153C5
2.3126166977860763,0.09192521116230887,-0.22345262221017473,0.2,-0.8075869178223944,-0.38363029033512686,0.2,-1.3297513246653792,-0.3688944795298549,0.2,-0.6894851867229747,-0.044804559138862665,0.2,0.6431417665461313,-0.33280441635633734,0.2,-0.044376208534855285,0.09032346113833525,0.20415410342119356,1,C153C5
2.3206188316884506,0.08812051616386002,-0.3212236242050685,0.2,-0.808089015573151,-0.6151864810003127,0.2,-1.3335511916376142,-0.34224007215344354,0.2,-0.6911456370916652,-0.28020256423354206,0.2,0.6446521011751767,-7.993853033683163e-05,0.2,-0.04266997143073442,0.2075133848731888,0.3468077594714231,1,C153C5
2.3286209655908245,0.08678563317502777,-0.22646036319970506,0.2,-0.8174299015183994,-0.8182110850940977,0.2,-1.3352271658198342,-0.2995345118027015,0.2,-0.6939684277507113,0.1609728964719892,0.2,0.6431404875296459,-0.24742144600103239,0.2,-0.04300854978132547,0.49968151750878476,0.46235318040060364,1,C153C5
2.3366230994931985,0.08449715035266474,-0.8712864286546506,0.2,-0.8211803929346566,-0.5673235668963924,0.2,-1.3383437438264574,-0.20465745018734272,0.2,-0.6885700707481134,-0.10914214664017874,0.2,0.6406933580391602,-0.43546537769761223,0.2,-0.03816148815259524,0.5961042577434016,0.5139949099694694,1,C153C5
2.3446252333955724,0.07284505031655336,-0.9831596775997765,0.2,-0.8265070785887417,-0.28469710462489944,0.2,-1.3385016850228317,-0.5793851877674838,0.2,-0.6957147020969542,-0.22145068496137732,0.2,0.6361730414864841,-0.3101026393540346,0.2,-0.037640108677772545,0.4751804897953211,0.48881041367639927,1,C153C5
2.3526273672979463,0.06876659551106831,-0.07594187225468466,0.2,-0.825735546608655,-0.033680955053468076,0.2,-1.3476139068307371,-0.6760560568115498,0.2,-0.6921132817074954,-0.2316382253255353,0.2,0.6357317158094956,-0.05942404727320855,0.2,-0.03439024759515898,0.3021862278729992,0.39267393882968243,1,C153C5
2.3606295012003202,0.0716299803604784,-0.28620297419314555,0.2,-0.8270459738695972,-0.37620182264109375,0.2,-1.3493185819318165,-0.08305088960589013,0.2,-0.6994209137021627,-0.36595246577485196,0.2,0.6352222567301128,-0.16327368804421732,0.2,-0.03535921604197433,0.06694157738493713,0.24888978079185792,1,C153C5
2.368631635102694,0.06418734792397798,-0.7048298409826278,0.2,-0.8317547757709125,-0.6838592873225913,0.2,-1.3489427210644314,-0.06902939662219165,0.2,-0.697968521159893,0.19611046065193954,0.2,0.6331193368007881,-0.14415987870364244,0.2,-0.03396672912245506,0.2455711645087149,0.30745614087098583,1,C153C5
2.376633769005068,0.06035270290475636,-0.3263002985251511,0.2,-0.8379877224667587,-0.6691405282969256,0.2,-1.3504230522777716,-0.4225271258399971,0.2,-0.6962831463317317,0.04776893563058354,0.2,0.6329156986708545,-0.2755353951280487,0.2,-0.030007994486811095,-0.03233619797186571,0.43805753071191994,1,C153C5
2.384635902907442,0.058966543147575566,-0.4576208625386184,0.2,-0.8424610242236633,-0.40624002962947464,0.2,-1.3557031550778713,-0.7103849572679399,0.2,-0.6972042181898037,-0.2994928199015548,0.2,0.6287107704787394,-0.48260856395255375,0.2,-0.03133624011530184,-0.11545469681139922,0.5107728617314127,1,C153C5
2.3926380368098163,0.05303076910413847,-0.5301913085296577,0.2,-0.8444875629408303,-0.40547631907286025,0.2,-1.3617892115940586,-0.28531891929438336,0.2,-0.7010750314501566,0.033644885099506916,0.2,0.6251939616476136,-0.3415733481978364,0.2,-0.027749269811100995,0.1820503180052176,0.5075350979790958,1,C153C5
2.4006401707121903,0.05048348221110104,-0.40120398316469086,0.2,-0.8489486453288291,-0.7553889205530253,0.2,-1.3602682577865814,-0.26931326201701244,0.2,-0.6966659000282116,0.118465065143597,0.2,0.623245596907574,0.11786150084863722,0.2,-0.024363565746966267,0.011998673193237663,0.4288395943020927,1,C153C5
2.408642304614564,0.04661150537350341,-0.5439617747503783,0.2,-0.8565737856696787,-0.5327183761401899,0.2,-1.3660982237863308,-0.3481961431445746,0.2,-0.699179590407859,-0.09834718414233196,0.2,0.6270797456611918,-0.015506733958947638,0.2,-0.024538796803543008,0.25621992539612237,0.29369562759309187,1,C153C5
2.416644438516938,0.04178009381509499,-0.545730015640546,0.2,-0.8574721393470721,-0.4252346241099894,0.2,-1.3658393960768946,-0.49497044608960705,0.2,-0.6982394549744889,0.0587426922676465,0.2,0.6229974891642308,-0.5880192518888174,0.2,-0.01902917870216911,0.2683414464500637,0.2649644020158451,1,C153C5
2.424646572419312,0.037879825123254676,-0.7598800333978258,0.2,-0.8633775396554385,-0.6273161294452767,0.2,-1.3740177509237645,-0.47867034076129467,0.2,-0.6982397073315767,-0.0823125535911115,0.2,0.6176714376309708,-0.3753455385218721,0.2,-0.021100831958493035,0.332339853632208,0.40830965246740536,1,C153C5
2.432648706321686,0.029622013280729775,-0.5043952213107288,0.2,-0.8675091974181965,-0.3992680449667746,0.2,-1.3734981215290754,-0.29733257598446583,0.2,-0.6995564558319467,-0.1555882745062423,0.2,0.6169919605478809,-0.04439840208831508,0.2,-0.01645265752388806,0.49814818398536553,0.501114120619367,1,C153C5
2.44065084022406,0.029809501582283016,-0.06652591015251975,0.2,-0.8697658283749069,-0.4024055613606539,0.2,-1.378775072139516,-0.4551826199683806,0.2,-0.7007291197236766,-0.18243696577058266,0.2,0.6169610631975577,-0.07884874658713875,0.2,-0.01708923334826036,0.26627262488474146,0.5204128007158945,1,C153C5
2.448652974126434,0.02855759871828946,-0.7042292328357941,0.2,-0.873947686399967,-0.668408474016037,0.2,-1.3807810434485694,-0.40949028636343143,0.2,-0.702475447284276,0.08507250285949564,0.2,0.6157303806024866,-0.27575593428100925,0.2,-0.016401330674709464,0.48211383030385213,0.46118371322638496,1,C153C5
2.4566551080288077,0.01854183385691031,-0.6763126160868363,0.2,-0.8804603639591635,-0.6287808994721866,0.2,-1.385326916721331,-0.4358074653775523,0.2,-0.6993679596779246,0.19401481133362458,0.2,0.6125489682490616,-0.36263127231260517,0.2,-0.012803582212391473,0.7331486634798935,0.33765014205985644,1,C153C5
2.4646572419311816,0.017736596860900077,-0.2736509480961911,0.2,-0.884008180791522,-0.24721020879826805,0.2,-1.3877539628946103,-0.16152255606786958,0.2,-0.699371210302938,0.09745921941047703,0.2,0.609928280245485,-0.24362341887058242,0.2,-0.0064761998237505974,0.20274933071316767,0.22013354007558272,1,C153C5
2.472659375833556,0.014163418687371252,-0.2845862336047886,0.2,-0.8844157272999358,-0.3878186013134277,0.2,-1.3879112776184168,-0.26558955240930937,0.2,-0.697808612167357,0.05441923557789052,0.2,0.6086509935471323,-0.41192906076575886,0.2,-0.009295762748000182,0.0178456822845319,0.37359326726556374,1,C153C5
2.48066150973593,0.01318321712322346,-0.3111146316625605,0.2,-0.8902132784125368,-0.6965158423272444,0.2,-1.3920033957331592,-0.800985788009384,0.2,-0.6985005025336918,-0.341507657188142,0.2,0.6033374152732328,-0.17519235327237426,0.2,-0.0039177619708240935,0.2341103877022605,0.48506536211172296,1,C153C5
2.488663643638304,0.009185584580770284,-0.5469643327696215,0.2,-0.8955599807771717,-0.4747822980860489,0.2,-1.400727050226567,-0.5346507851013288,0.2,-0.7032727346823673,-0.05417263737098055,0.2,0.6058479158947743,-0.2214032385061543,0.2,-0.0018206050535231571,-0.1457777729997818,0.5270400317571557,1,C153C5
2.4966657775406778,0.004431787798909514,-0.5522221767111772,0.2,-0.8978097951819136,-0.27304630514060624,0.2,-1.4005578082947805,-0.119869534965511,0.2,-0.6993672647316275,0.12423714888824128,0.2,0.5997949634571343,-0.261065015830772,0.2,-0.001975173243955822,0.0734902414940683,0.48894979727786864,1,C153C5
2.5046679114430517,0.0003500297533914477,-0.7428082976872393,0.2,-0.8999287216594214,-0.22023098606493985,0.2,-1.4026449627860151,-0.0907422070514502,0.2,-0.7012849403001554,0.026882297113520193,0.2,0.6016708756414819,-0.09235536911599701,0.2,0.003129276978909199,0.296697838623207,0.379827864115068,1,C153C5
2.5126700453454256,-0.007453144964086315,-0.6229058249486367,0.2,-0.9013334909589527,-0.5776619761357001,0.2,-1.4020096836076037,-0.358015747481219,0.2,-0.6989371479778111,0.11544332452540634,0.2,0.5983172775512784,-0.4774893614367254,0.2,0.005118848475680326,0.15699727924279225,0.22616818525096286,1,C153C5
2.5206721792477995,-0.00961646344578674,-0.3522777413005614,0.2,-0.9091713132775926,-0.9283534514181735,0.2,-1.4083732147457146,-0.5091689508889274,0.2,-0.6994378471077489,0.04882323440056485,0.2,0.5940310458584943,-0.19991892264383665,0.2,0.005982464876309283,0.03164627982796554,0.3345064240182421,1,C153C5
2.5286743131501734,-0.013089588824895297,-0.7310351757654713,0.2,-0.9161871461816434,-0.4056874744087016,0.2,-1.4101563868218265,-0.0792249110962151,0.2,-0.6981559762274021,0.08295230289209754,0.2,0.595118574788977,-0.3297063178770779,0.2,0.003872662255621689,0.38089628522796914,0.4628068217916836,1,C153C5
2.5366764470525474,-0.02131302625803428,-0.5690967972968477,0.2,-0.9156623128681318,-0.49093073869894976,0.2,-1.409640813323254,-0.5969021510166678,0.2,-0.6981106102614754,-0.05068207161326027,0.2,0.5887557447724611,-0.42158563524791887,0.2,0.008655398484165954,0.4958815103398587,0.5271334444095837,1,C153C5
2.5446785809549217,-0.02219513758164486,-0.1932445461084696,0.2,-0.9240420380008266,-0.6070588267831425,0.2,-1.4197068212380932,-0.6233819743462626,0.2,-0.6989668893732143,-0.033370293040610455,0.2,0.5883732046250103,-0.3089952154820552,0.2,0.007551372022235576,0.41419005592629127,0.5114585890766818,1,C153C5
2.5526807148572956,-0.024404938995769794,-0.2212946592931972,0.2,-0.9253752540966621,-0.38726720561959443,0.2,-1.4196149249127943,-0.24975391485880516,0.2,-0.6986445349501251,-0.05102751937227645,0.2,0.5838118213247482,-0.3532419692243646,0.2,0.011234236758981001,0.6193051975150351,0.4193185861532781,1,C153C5
2.5606828487596696,-0.025735852130336016,-0.734348730520089,0.2,-0.9302383132907401,-0.4307026011176468,0.2,-1.423702883875834,-0.666484251920188,0.2,-0.6997833296831707,0.052296009021048084,0.2,0.5827213331174205,-0.09103750973946112,0.2,0.014611961855810188,0.35005120824840996,0.27302180763259637,1,C153C5
2.5686849826620435,-0.03615451868409122,-0.8606802514579659,0.2,-0.9322664957145445,-0.5769406009586697,0.2,-1.4302786729435173,-0.4875584805538735,0.2,-0.6978077988057884,0.29314078850303793,0.2,0.5823552211689168,-0.2556610015688743,0.2,0.015887490055171666,0.20871150105832528,0.2917516627454257,1,C153C5
2.5766871165644174,-0.03950673615366347,-0.3290257137123134,0.2,-0.9394693629060789,-0.6943979313418016,0.2,-1.431503819564696,-0.08546119239966066,0.2,-0.6950930770671221,-0.16182848012481765,0.2,0.5786307570923185,-0.11939752698078565,0.2,0.019140994660366416,0.31861178451045663,0.4346516129083684,1,C153C5
2.5846892504667913,-0.04141893010348823,-0.39326227639660494,0.2,-0.9433768626160133,-0.5086116869849124,0.2,-1.4316460520219119,-0.18172243577543878,0.2,-0.7003970544877854,-0.2269320582321474,0.2,0.5804448607372242,-0.04332586905458208,0.2,0.024025299503317835,0.09453597505303968,0.5205385078430773,1,C153C5
2.5926913843691652,-0.04579893257600915,-0.5442712404493429,0.2,-0.9476071498978375,-0.38036049560726676,0.2,-1.434411378537103,-0.5245032797753096,0.2,-0.6987239899988364,0.36088431748221295,0.2,0.5779375431874452,-0.4124786917945114,0.2,0.02480293605853644,-0.2521706439857953,0.5281240100538054,1,C153C5
2.600693518271539,-0.05012726995067772,-0.48204793481514474,0.2,-0.9494626305457295,-0.5012466808644034,0.2,-1.4400381044983168,-0.5607265934847172,0.2,-0.69462290540807,0.121648979690539,0.2,0.573845201668512,-0.5197090734170712,0.2,0.024234695441146474,0.13363240254418585,0.45524667965933024,1,C153C5
2.608695652173913,-0.05351169953305147,-0.5495173764187072,0.2,-0.9556270967916679,-0.615233419194748,0.2,-1.4433830040328586,-0.31014280137847683,0.2,-0.6967776063237878,-0.15472505202196452,0.2,0.569622198012772,-0.21498335925209527,0.2,0.030239880730704872,0.15311393411534455,0.3194756484287884,1,C153C5
2.616697786076287,-0.058919547973377034,-0.5858396518046075,0.2,-0.9593063652528455,-0.3441698432955359,0.2,-1.4450003893203724,-0.042948905053089015,0.2,-0.6970985062404215,0.03200139492397919,0.2,0.5704054679204785,-0.0018930194236529974,0.2,0.02822738390342509,0.16602814022527967,0.24612376474773257,1,C153C5
2.6246999199786614,-0.06288513396192519,-0.6008268344420923,0.2,-0.9611338142843965,-0.4718590621852828,0.2,-1.444070186513708,-0.4389833464804871,0.2,-0.6962655840050042,0.11533961363439232,0.2,0.5695919097019936,-0.20807389325214892,0.2,0.0323011856227257,0.471534128085323,0.4010422425605481,1,C153C5
2.6327020538810353,-0.06853277732445051,-0.6576259183137559,0.2,-0.96685611024781,-0.7521038274410086,0.2,-1.4520241228640602,-0.645585423622197,0.2,-0.6952530724222712,-0.15856552097918974,0.2,0.5670762856284441,-0.3861203904152316,0.2,0.033179926825498744,0.5026102447609746,0.5072356749050719,1,C153C5
