samirx20/RADAR/data/datasets/vibration_j5_16.csv
timestamp,actual_q_0,actual_qd_0,actual_current_0,actual_q_1,actual_qd_1,actual_current_1,actual_q_2,actual_qd_2,actual_current_2,actual_q_3,actual_qd_3,actual_current_3,actual_q_4,actual_qd_4,actual_current_4,actual_q_5,actual_qd_5,actual_current_5,protective_stop,fault_code
0.0,0.0037736039865136307,0.04777715189382883,0.2,-0.9013590381967387,0.6066562349404947,0.2,-1.3987038826253928,0.5399277899568455,0.2,-0.09985687697257248,-0.0735887032922225,0.2,0.6037962729636275,-0.32530500659838646,0.2,0.0037917131156273384,-0.2597937751294211,0.2,0,
0.008002133902373967,0.004155821201664261,0.10374273713706703,0.2,-0.8965057883172147,0.5978531811334994,0.2,-1.394384460305738,0.23576249747477018,0.2,-0.10044558659891026,0.01327820850899157,0.2,0.6011938329108404,0.11619416871380683,0.2,0.00171336291459197,-0.014324148258026373,0.2,0,
0.016004267804747934,0.005433487780706703,0.32134857156596036,0.2,-0.8917933872986027,0.4926182139913596,0.2,-1.3949316826657965,0.038761887126967376,0.2,-0.09964442563642861,-0.21864865385761312,0.2,0.6056553796630484,0.3312988433084099,0.2,0.0035625267434989164,0.22145350411529993,0.2,0,
0.0240064017071219,0.009297398346719627,0.5979433933232781,0.2,-0.888623896893353,0.5243750866503402,0.2,-1.3937642701117066,0.43651343229056394,0.2,-0.10394396506063207,0.05665327080793536,0.2,0.606494614403775,0.2963528809738006,0.2,0.005256618980436769,0.12270035017023961,0.2,0,
0.03200853560949587,0.015000582073879153,0.5381775160308033,0.2,-0.8834033859121972,0.742262112209166,0.2,-1.3879474677491475,0.5982069619395736,0.2,-0.09873797330350165,0.07601295308156969,0.2,0.6103970257586292,0.062015345030391744,0.2,0.00552573234622275,0.26494374261707104,0.2,0,
0.04001066951186984,0.01790823860321248,0.544354659070747,0.2,-0.8767477030980063,0.47138255954972536,0.2,-1.3841929587206734,0.6073264969210512,0.2,-0.10272775781132695,-0.1180387997001776,0.2,0.6074868599242612,0.13101692696309425,0.2,0.009495718862309906,0.5070013761558284,0.2,0,
0.0480128034142438,0.023710256619011105,0.7957255761715041,0.2,-0.8758612649594016,0.6440013031024094,0.2,-1.3782302437984106,0.30617403853652747,0.2,-0.10062659409870449,0.16827684979342677,0.2,0.6124932965900387,0.5691118636264383,0.2,0.013637754364716006,0.3253555554468423,0.2,0,
0.05601493731661777,0.030639847821956546,0.7947994364542222,0.2,-0.8664436822483678,0.6380164987862119,0.2,-1.379294174104089,0.1337076833741735,0.2,-0.10003532821463212,0.02753245632662084,0.2,0.6165926497422842,0.12497234123880901,0.2,0.014701407749459383,0.1539838745872441,0.2,0,
0.06401707121899174,0.03642704760227866,0.2096328327517176,0.2,-0.8656530009788223,0.07924277109840061,0.2,-1.3760909208644239,0.4397687265998984,0.2,-0.10018607479747856,0.00481239933476825,0.2,0.6144928540498596,0.05462429414776482,0.2,0.01610149635811191,0.12304559636158534,0.2,0,
0.0720192051213657,0.03399397314598403,0.24550012785347136,0.2,-0.8651757979107934,0.4215911006592299,0.2,-1.3722578744784906,0.6568734708140983,0.2,-0.09995832982527583,-0.11829896616894105,0.2,0.6174666384486485,0.19622273616202307,0.2,0.01667013729124475,0.09798983351739783,0.2,0,
0.08002133902373967,0.0403550496479342,0.5552871117067799,0.2,-0.8589075433682746,0.49532160499222294,0.2,-1.3655809453313983,0.34906980593377157,0.2,-0.10207885825618161,-0.3214691595718397,0.2,0.617632417828452,0.12341746087526223,0.2,0.017669333694390277,0.3361741866985419,0.2,0,
0.08802347292611364,0.042878566933292506,0.4258802262021295,0.2,-0.8572506522309178,0.7746763579434753,0.2,-1.3666727575835502,0.11303010073082653,0.2,-0.10510183637842527,-0.12870386275608356,0.2,0.6194413178226527,0.3147428748707798,0.2,0.02204892427842142,0.43113577903950695,0.2,0,
0.0960256068284876,0.047169133267168276,0.5884860768184779,0.2,-0.846512721641179,0.7053965907564616,0.2,-1.363772463719705,0.34893969438751227,0.2,-0.10413812006027895,0.08222740318700704,0.2,0.6226683038263845,0.2698948086543862,0.2,0.02456750615902239,0.09584990980022523,0.2,0,
0.10402774073086157,0.05229434416238815,0.8012043274701046,0.2,-0.8459643067788144,0.2016479925085815,0.2,-1.36108972247335,0.3829459052773765,0.2,-0.10378619792743315,0.1381059594614438,0.2,0.6237596347611228,0.36281427507130204,0.2,0.023582522835225023,0.3571301235285997,0.2,0,
0.11202987463323553,0.05998840250668995,0.5125161047404049,0.2,-0.8432863537610417,0.34698808938233433,0.2,-1.357645329235267,0.38848504742644563,0.2,-0.10192842470889585,-0.1215858343857866,0.2,0.6284733322275253,0.5110675320845887,0.2,0.030281588135479983,0.5021969539728386,0.2,0,
0.12003200853560951,0.06049460183823463,0.21583016124914356,0.2,-0.840412497348697,0.47821756303079166,0.2,-1.354873961714527,0.30817626817510047,0.2,-0.10573157127760574,0.059343368056285,0.2,0.6319367152744763,0.24645113419475423,0.2,0.03161767409879044,0.14047852426644283,0.2,0,
0.12803414243798347,0.06344168508667625,0.5322656606242381,0.2,-0.835634872752549,0.5826374775476164,0.2,-1.3527145089444654,0.35802466514207876,0.2,-0.10097893081999529,0.07874394012595108,0.2,0.6324165503746414,-0.08170515851619459,0.2,0.03252924452374307,0.1166708702938237,0.2,0,
0.13603627634035745,0.06901085240822244,0.3726461130761655,0.2,-0.8310902977079352,0.4581970715748715,0.2,-1.3491455670722536,0.2552852885798207,0.2,-0.10447166823559052,-0.30686160106194615,0.2,0.6306294327382171,0.37540977108567464,0.2,0.03348440802349162,0.32845101464797294,0.2,0,
0.1440384102427314,0.0694040228958949,0.2723096806699042,0.2,-0.828303719607351,0.4566462881199218,0.2,-1.3486299443271883,0.3553076046157594,0.2,-0.10588871643698643,-0.05729640080471936,0.2,0.6384231067120122,0.4937308931497672,0.2,0.037784460758110636,0.20794150869799313,0.2,0,
0.15204054414510537,0.0733678072989409,0.7515158606140058,0.2,-0.8237839570980164,0.4751141655474564,0.2,-1.3434606453984015,0.5259220376059998,0.2,-0.10538841064846603,-0.03385009989807439,0.2,0.6385291270286134,0.13034028410083276,0.2,0.03681147216265951,0.01565670912607054,0.2,0,
0.16004267804747935,0.08142827666571899,0.6337458524344917,0.2,-0.8207018929585917,0.27667246549505087,0.2,-1.3402151917254923,0.3487719276768775,0.2,-0.10643031803535562,-0.07039564228175035,0.2,0.6405085512576255,0.13396245195439888,0.2,0.038034968104127764,0.28293995108686665,0.2,0,
0.1680448119498533,0.08350774093789277,0.39384908241398786,0.2,-0.8193571976500956,0.5636173989465656,0.2,-1.3378802945555714,0.38945003729649874,0.2,-0.10651474092497404,0.15648683165880514,0.2,0.6406725262598838,0.3011234775430957,0.2,0.041338511380049375,0.2959197868097302,0.2,0,
0.17604694585222727,0.0877298619843428,0.5774290696709669,0.2,-0.8116840145754467,0.7598931604818754,0.2,-1.3339839911287483,0.5167290740008962,0.2,-0.10392652872881473,-0.10871095740419989,0.2,0.645326526898315,0.4699866541053796,0.2,0.04276968469308345,0.21323999586838216,0.2,0,
0.18404907975460125,0.09274660605262824,0.4295138237136904,0.2,-0.8071989070823856,0.5320466070076607,0.2,-1.329612629371557,0.4325499314339065,0.2,-0.10825411624344124,-0.4940314453499486,0.2,0.6481923127255699,0.25561157477942825,0.2,0.04475035131394349,0.1555452749866502,0.2,0,
0.1920512136569752,0.09460208316376184,0.6198219798349385,0.2,-0.8031712688633241,0.5322082119536414,0.2,-1.3270631922258058,0.4135264115906201,0.2,-0.11183103185441391,0.10637266688813367,0.2,0.6494163120947859,0.1819858598132787,0.2,0.04525840909286985,0.27972705502478723,0.2,0,
0.20005334755934917,0.10266375772998726,0.5781427142576246,0.2,-0.7986835756911274,0.1884342597338537,0.2,-1.3229962067861072,0.2477070229923023,0.2,-0.1065521535732311,0.31484401671133966,0.2,0.6511040864825823,0.30792789358786987,0.2,0.049225984194340086,0.24096056124703552,0.2,0,
0.20805548146172315,0.10385236659188384,0.27609951742185895,0.2,-0.8001563207075825,0.10196001499299112,0.2,-1.323099879857929,0.10620971195061946,0.2,-0.10679352758703248,-0.2748777471570721,0.2,0.6543431583921918,-0.0744796281782617,0.2,0.04911377807282242,-0.28394788111522123,0.2,0,
0.21605761536409712,0.107081350008737,0.5941632167122176,0.2,-0.7970522154512395,0.8926113666710352,0.2,-1.3212968513948973,0.4652185511756085,0.2,-0.11095019752774425,-0.49368324384127094,0.2,0.6499124124317301,0.15224108696616084,0.2,0.044682818096496546,0.11281987471015771,0.2,0,
0.22405974926647107,0.11335897805927932,0.694485076119568,0.2,-0.7858745388408459,1.015827136188939,0.2,-1.3156563830391192,0.4089725529361765,0.2,-0.11469245948849281,-0.11491427712080615,0.2,0.6567790157836504,0.8079657910756016,0.2,0.05091889606818494,0.7273418455789921,0.2,0,
0.23206188316884505,0.11819311122665009,0.16278440102490166,0.2,-0.7807989812722165,0.228130024855,0.2,-1.3147532905479185,0.02942734153034421,0.2,-0.11278882596167715,-0.027410341448650018,0.2,0.6628398650889398,0.0838867606607896,0.2,0.05632028762576042,0.2661649335112112,0.2,0,
0.24006401707121902,0.11596352847567774,0.48506285386560893,0.2,-0.7822244584431659,0.11001646681836619,0.2,-1.3151855455746337,0.45441791390250785,0.2,-0.11513102495167121,0.037394151089073166,0.2,0.658121203954223,-0.13266876303387465,0.2,0.05517753500436432,0.29674003435677543,0.2,0,
0.24806615097359297,0.12595411688849983,0.6284340802430464,0.2,-0.7790387178031226,0.4201680965263688,0.2,-1.3074826039254783,0.48239804507752004,0.2,-0.11219051954425198,-0.013831090667814142,0.2,0.6607171648803978,0.431588738114122,0.2,0.061068128175468826,0.4379604056677544,0.2,0,
0.25606828487596694,0.12601847375956649,0.20761614029260814,0.2,-0.775501768898744,0.7600254440231282,0.2,-1.3074671768533934,0.22367749410664994,0.2,-0.11535232240235624,-0.3948635754195528,0.2,0.665026623764049,0.3417899083960202,0.2,0.06218490149504839,-0.15198971751552176,0.2,0,
0.2640704187783409,0.12927597513318156,0.4192160658326727,0.2,-0.7668783106987526,0.6607853318550613,0.2,-1.303903764019772,0.5315078114668942,0.2,-0.11850833675096482,0.05059536385391798,0.2,0.6661858034147341,0.11758601002961194,0.2,0.05863629269522048,-0.12917722045638694,0.2,0,
0.2720725526807149,0.13272593081288925,0.5047233804567463,0.2,-0.764929203589063,0.25911355370546174,0.2,-1.2989630518699231,0.37265519940012093,0.2,-0.11454279658069355,0.15940292291769312,0.2,0.6669079999245228,0.3016906114506959,0.2,0.0601180659677462,0.31882606754873477,0.2,0,
0.28007468658308887,0.1373515492204895,0.5361619495404049,0.2,-0.7627324938394652,0.5163711940646548,0.2,-1.29794128082937,0.35834849921111134,0.2,-0.11595788998428173,-0.4518539961124264,0.2,0.6710128531979452,0.18111301517345635,0.2,0.06373750977600023,0.16685746576383317,0.2,0,
0.2880768204854628,0.14130452200553573,0.48996993548567314,0.2,-0.7566672644840285,0.4755996740023333,0.2,-1.2932294758825453,0.737719504973755,0.2,-0.12177246051849237,-0.4105324666190974,0.2,0.6698058081672981,-0.003972895103093732,0.2,0.06278778541996753,0.23142664482792963,0.2,0,
0.29607895438783677,0.14519106818826027,0.45316949296572534,0.2,-0.7551228990554278,0.5631196034681929,0.2,-1.28613776874979,0.48581977942548094,0.2,-0.12252640945018729,-0.03084360905009076,0.2,0.6709492868762957,0.3264516155799188,0.2,0.06744033609324711,0.38738581419984,0.2,0,
0.30408108829021074,0.14855523389298733,0.35720091762179645,0.2,-0.7476573508285375,0.715578504851981,0.2,-1.2854563594117376,-0.165962332380018,0.2,-0.12226595826329383,-0.09778042250459684,0.2,0.6750290340165768,0.6185919636510148,0.2,0.06898595844716497,0.1258845430602935,0.2,0,
0.3120832221925847,0.15090628287020902,0.4428538717984581,0.2,-0.7436736429777961,0.20511752418675422,0.2,-1.2887931660678702,0.09235127531712073,0.2,-0.12409089621026084,-0.047635922375698254,0.2,0.680846758294712,0.06950658975175134,0.2,0.0694544887822118,0.19661439721293475,0.2,0,
0.3200853560949587,0.15564089584176266,0.43889221658435434,0.2,-0.7443754704415494,0.47474730088346156,0.2,-1.2839787390066637,0.4486037898936701,0.2,-0.123028133021305,-0.09028016984915024,0.2,0.6761411394526048,-0.016068344099465226,0.2,0.07213178880257193,0.1071794448341927,0.2,0,
0.32808748999733267,0.1579285583355587,0.46659964721348574,0.2,-0.7360776861636608,0.7396056300554149,0.2,-1.2816155054295715,0.15152939426078815,0.2,-0.12553537892784725,-0.11185074795072407,0.2,0.6805896647891205,0.33720860428283067,0.2,0.07116935989955889,0.1797245331448885,0.2,0,
0.3360896238997066,0.16310649019717843,0.6858855172323982,0.2,-0.7325417803606628,0.22893936487009686,0.2,-1.281554268698491,0.403566558075108,0.2,-0.12481774498851658,-0.0611196905170152,0.2,0.6815364771211301,0.025879209013320026,0.2,0.07500738133289014,0.46372785342024736,0.2,0,
0.34409175780208057,0.16890272661127706,0.5778412196020405,0.2,-0.7324146563257392,0.30831757292903994,0.2,-1.2751584405003697,0.6784358008193048,0.2,-0.1265132939761195,-0.32303335638103614,0.2,0.6810037321333337,0.4188770364316266,0.2,0.07858900555428285,0.16534400935548557,0.2,0,
0.35209389170445454,0.17235194971081108,0.22572584856755082,0.2,-0.7276086991937981,0.3861494371311183,0.2,-1.2706992958853822,0.39864098014502636,0.2,-0.12998627869061316,0.06612845458150649,0.2,0.6882385097040361,0.42272476275012627,0.2,0.07765288548257791,0.3321084266017906,0.2,0,
0.3600960256068285,0.17251434018835787,0.4612162740768016,0.2,-0.7262362653316413,0.3499728902600571,0.2,-1.2687801848180493,0.4805731278980513,0.2,-0.12545523870281539,-0.11365990571838604,0.2,0.6877673283373357,0.129316779701745,0.2,0.0839027403799115,0.0319552721953411,0.2,0,
0.3680981595092025,0.1797314100960399,0.5968676646524226,0.2,-0.7220091329496372,0.7469024501034899,0.2,-1.2630101258390134,0.3356677902312255,0.2,-0.13180483718210734,-0.5148648137607778,0.2,0.690307578179264,0.011585985218623418,0.2,0.07816416983770337,-0.32594036308663915,0.2,0,
0.37610029341157647,0.18206422282279663,0.6992075327529046,0.2,-0.7142858261299855,0.6886466417728582,0.2,-1.2634095001743497,0.1690595417018631,0.2,-0.13369307572298783,-0.09203228480294395,0.2,0.6879527041008336,0.09904575750120659,0.2,0.07868769457052527,-0.01538628762826847,0.2,0,
0.3841024273139504,0.19091873062008638,0.6054399767880213,0.2,-0.7109907866812715,0.2505818982585367,0.2,-1.2603051731717836,0.39399692246362694,0.2,-0.13327735373895444,-0.10853967205257456,0.2,0.6918923102992833,0.16824789544372942,0.2,0.07791798923565108,0.2461325585161123,0.2,0,
0.39210456121632437,0.19175126245140497,0.23761963518547333,0.2,-0.7102765157578489,0.33864101260113605,0.2,-1.2571055494149317,0.3399349771285587,0.2,-0.13542971047582902,-0.24008863290190044,0.2,0.6906446704279333,0.24707997731421988,0.2,0.08262581550678307,0.4097077568496008,0.2,0,
0.40010669511869834,0.19472064478305395,0.19571745942107907,0.2,-0.7055725304796533,0.35467901828467596,0.2,-1.2548662135377266,0.3300928834859551,0.2,-0.13711877186538485,-0.23010665762669863,0.2,0.6958455899363108,0.4333174505982418,0.2,0.08447331334524469,0.3112175532053287,0.2,0,
0.4081088290210723,0.19488274180214224,0.27742529613491473,0.2,-0.7046016514652941,0.13684417460416154,0.2,-1.2518240632791564,0.1920590665990679,0.2,-0.1391114169978562,-0.1956175822424855,0.2,0.6975777496375052,0.3401300421188372,0.2,0.08760529635806832,0.17596033748900394,0.2,0,
0.4161109629234463,0.1991594495212126,0.5443930043088508,0.2,-0.7033830236859867,0.3054986925211667,0.2,-1.2517932684721416,0.14488912352651762,0.2,-0.14024865318126462,-0.19628173031622023,0.2,0.7012876706102122,0.2602408807351672,0.2,0.08728867874506875,-0.2116794501868134,0.2,0,
0.42411309682582027,0.20359302987108385,0.6627115556587879,0.2,-0.6997136723849554,0.6412064545541287,0.2,-1.2495058373027321,0.19805861040582406,0.2,-0.14225192468291573,-0.3711282920212996,0.2,0.7017416037292679,0.1208290008634233,0.2,0.08421842515507931,0.12842398971828378,0.2,0,
0.43211523072819424,0.2097628344117532,0.45488842154208475,0.2,-0.6931237204131206,0.5035523701311175,0.2,-1.2486243307056484,0.33216808491733085,0.2,-0.1461867058536054,-0.029144822599604797,0.2,0.703220934624027,0.10182160235273907,0.2,0.08934346258056129,0.4624019847365955,0.2,0,
0.44011736463056816,0.2108712446157572,0.3687604537868563,0.2,-0.6916568344628575,0.5126197063221594,0.2,-1.2441911479440548,0.4513300186899799,0.2,-0.1427182418445094,0.05746481608951727,0.2,0.7033707493669117,0.12020170928520729,0.2,0.09161685691086484,0.16371742672849873,0.2,0,
0.44811949853294214,0.2156630016723429,0.3508646739862273,0.2,-0.6849218051119661,0.6118671831473951,0.2,-1.2414030504066087,0.545720272438488,0.2,-0.14526726879617313,-0.42992031412814913,0.2,0.7051441619725903,0.27125330250905855,0.2,0.09196294140821727,-0.005952817558458473,0.2,0,
0.4561216324353161,0.21648507939953684,0.30656058563003835,0.2,-0.6818669595324992,0.26199932050427477,0.2,-1.235459623585039,0.40729586467973256,0.2,-0.1495969668705598,-0.16202147893224805,0.2,0.7077108022070566,0.1673409000183257,0.2,0.0915216118299295,0.06503120261483822,0.2,0,
0.4641237663376901,0.2205679710424235,0.414210041614696,0.2,-0.6807298159838977,0.39543548853184646,0.2,-1.234886316571733,0.0062530373737684775,0.2,-0.1478596124590891,-0.16173010798192256,0.2,0.7078216163728835,0.19010202403481335,0.2,0.09300344065005468,0.10320180470287967,0.2,0,
0.47212590024006407,0.22311244006537198,0.31981809552797563,0.2,-0.6755399917159897,0.3709918358245981,0.2,-1.2353595749870587,0.4364818465878717,0.2,-0.15218464859827055,-0.42359702986599806,0.2,0.7107524345916136,0.09392172573515628,0.2,0.09317284070517558,0.05092367528979243,0.2,0,
0.48012803414243804,0.22568506057087112,0.39706914635936896,0.2,-0.6747939466107041,0.08822217460428827,0.2,-1.227902607026327,0.5384737800043504,0.2,-0.15463716493694507,-0.08512712934055297,0.2,0.709324363984646,0.48122683924917836,0.2,0.09381821945469136,-0.05278987504613204,0.2,0,
0.48813016804481196,0.22946554640712188,0.5649534612412118,0.2,-0.674128436922321,0.5782698014119708,0.2,-1.2267439945069891,0.2136816963985294,0.2,-0.1535466826677194,-0.2235358710245862,0.2,0.7184520640196005,0.5117351762795943,0.2,0.09232820270443746,0.08052056562278964,0.2,0,
0.49613230194718594,0.2347243159507305,0.3725402518746541,0.2,-0.6655416297881126,0.8323706313988141,0.2,-1.2244836998839506,0.5328757942623247,0.2,-0.15821373887333845,-0.15412150640514016,0.2,0.7175121268051196,-0.059568170370880025,0.2,0.095106548504656,0.23899055433915586,0.2,0,
0.50413443584956,0.23542619043711635,0.20898391201142064,0.2,-0.66081050681994,0.3167434579689696,0.2,-1.218217981798792,0.4218975099285899,0.2,-0.15601262677020164,-0.06641686712480048,0.2,0.7174989732936664,0.008621970664438039,0.2,0.09615205157386396,0.11504948827353086,0.2,0,
0.5121365697519339,0.23806805854291324,0.5429418388558301,0.2,-0.6604737344606091,0.29464687161077224,0.2,-1.2177333397250931,0.01416534014068993,0.2,-0.15927640874733526,-0.34994417270785977,0.2,0.7176500783357506,0.4096655730860266,0.2,0.09694734031703249,-0.009268346703683768,0.2,0,
0.5201387036543078,0.24411325985880963,0.3220909280544741,0.2,-0.6560961568741677,0.32274732584824245,0.2,-1.2179913363565409,0.17074254381900522,0.2,-0.1616117335335274,-0.17610097853498935,0.2,0.7240536224630428,0.4771133898344507,0.2,0.09600375802660502,0.04554187497592295,0.2,0,
0.5281408375566818,0.24322151339178483,0.36707400474591395,0.2,-0.6553097772470372,0.37430286465764406,0.2,-1.215001459023989,0.4976406299715824,0.2,-0.1620940244038951,-0.17340250926036088,0.2,0.7252838925731018,0.041801367223398556,0.2,0.09767601031664726,0.29234954783969713,0.2,0,
0.5361429714590558,0.24998644393474426,0.45868186131781813,0.2,-0.6501073110396454,0.39029054893863213,0.2,-1.2100290862769956,0.3282793368156456,0.2,-0.16438617368169317,-0.42245036517078727,0.2,0.7247224443386172,0.17971168828542772,0.2,0.10068135079204017,-0.16550590286879344,0.2,0,
0.5441451053614298,0.2505604231728699,0.4323497900516771,0.2,-0.6490651284640191,0.2966243356649356,0.2,-1.2097489896349387,0.10872448898251175,0.2,-0.16885323024662768,-0.4733818386924143,0.2,0.7281592795856686,0.20725629247959898,0.2,0.09502791587074656,-0.2958620121074843,0.2,0,
0.5521472392638037,0.2569040405755711,0.42884620449538596,0.2,-0.6453613216690064,0.39929996305297644,0.2,-1.2082894944532754,0.43117603198684906,0.2,-0.1719602831007718,-0.22561064673472414,0.2,0.7280385450182908,0.08729584519471395,0.2,0.09594755859832042,0.35897050464858,0.2,0,
0.5601493731661777,0.2574219624447961,0.3754511207968054,0.2,-0.6426763290551715,0.44807236844393583,0.2,-1.2028501731231491,0.007114161262686269,0.2,-0.17246300059438327,-0.02659485988283465,0.2,0.729556013108784,0.1666667543732958,0.2,0.10077144394512384,0.023643496322267414,0.2,0,
0.5681515070685517,0.26291125850832,0.5903869072427653,0.2,-0.6381921637739034,0.49343909317586115,0.2,-1.2081756678730724,-0.0556241612461178,0.2,-0.17238580085889715,-0.15162197095937127,0.2,0.7307052130882635,0.236208304219096,0.2,0.0963258545394767,0.0003727152661243266,0.2,0,
0.5761536409709256,0.26686815296068034,0.30725425242577803,0.2,-0.6347813035643577,0.3641339034447105,0.2,-1.203740159703087,0.45877335650243434,0.2,-0.1748889521297332,-0.2900456528014319,0.2,0.7333353459762896,0.4437247445230469,0.2,0.10077740738938183,0.1215129499737861,0.2,0,
0.5841557748732996,0.2678273265471324,0.23250018151271812,0.2,-0.632366021318788,0.30234570759262586,0.2,-1.2008352941690335,0.6952092929121273,0.2,-0.17702653130372006,-0.23579465207366687,0.2,0.7378048090006323,0.0951424385542271,0.2,0.09827006173905728,-0.13346053379411846,0.2,0,
0.5921579087756735,0.27058815586488383,0.5051671368878387,0.2,-0.6299437722428757,0.4427845846114234,0.2,-1.192616811016493,0.4547620506355765,0.2,-0.17866166656291188,-0.12392954420986299,0.2,0.7348576249931572,-0.003861738095474465,0.2,0.09864203884867594,0.18176800810206645,0.2,0,
0.6001600426780476,0.27591000073733785,0.3550955048167784,0.2,-0.6252814679650053,0.6643245415082905,0.2,-1.1935591013588642,-0.0036699535593542887,0.2,-0.17900940401107787,-0.36729173821666017,0.2,0.7377430211911047,0.1659648173946912,0.2,0.10117834986869034,0.19710652156176323,0.2,0,
0.6081621765804215,0.2762696839419523,0.2725479848096485,0.2,-0.619314579578743,0.16854001629837412,0.2,-1.1926755302734426,0.06002419092163147,0.2,-0.18453833437437844,-0.37959988879306994,0.2,0.7375130620714723,0.2048136986455909,0.2,0.10179574319366415,0.17318929857599966,0.2,0,
0.6161643104827954,0.2802707684942922,0.19969507003777393,0.2,-0.6225848277042313,0.09315769062116785,0.2,-1.1925987143041181,0.41522409894738377,0.2,-0.185083002231767,-0.3906836565449653,0.2,0.7410200403694341,0.20713166591588422,0.2,0.10394937864590634,-0.08111855419210695,0.2,0,
0.6241664443851694,0.27946480506255666,0.09070956977164438,0.2,-0.6178240565288043,0.48814506529968466,0.2,-1.1860319446902845,0.5979720336391908,0.2,-0.1907892728790979,-0.3356002465492742,0.2,0.7408271687261264,0.14167507999945234,0.2,0.10049784632659044,-0.32940251762479233,0.2,0,
0.6321685782875434,0.28172212161063853,0.5633221688213715,0.2,-0.6147745066594363,0.3921512718242162,0.2,-1.183031161765891,0.1304436928520475,0.2,-0.19045260617655538,-0.13309541531926136,0.2,0.7432868416494254,0.07081391533998727,0.2,0.09867893836390966,-0.17093891831603242,0.2,0,
0.6401707121899174,0.2884779597636986,0.68377462409977,0.2,-0.6115496361796169,0.43229664106065463,0.2,-1.1839448456046517,-0.04526787302373825,0.2,-0.19291879952420607,-0.19825666097686953,0.2,0.7419601913715662,-0.06494730796383769,0.2,0.09776282363353392,0.15378546409744193,0.2,0,
0.6481728460922913,0.29266251559623485,0.3595000236611273,0.2,-0.6078577604024659,0.11753162917289145,0.2,-1.1837554477342709,0.4780033257750782,0.2,-0.1936247127521853,-0.24359435566275767,0.2,0.742247684722004,0.13804198825722452,0.2,0.10113950578946873,0.2757915466082709,0.2,0,
0.6561749799946653,0.29422996014227665,0.20690399465995643,0.2,-0.6096691301128506,0.3349873296052894,0.2,-1.1762967923922505,0.37147639995169235,0.2,-0.1968163092148102,-0.49142037539900985,0.2,0.7441688631836818,0.5276517592506524,0.2,0.10217548837926625,-0.22287481223944547,0.2,0,
0.6641771138970393,0.29597297951079415,0.2893919724540825,0.2,-0.6024979631287812,0.5880511782815692,0.2,-1.1778118253350438,-0.2184060649528391,0.2,-0.20148743875856945,-0.1656624654605629,0.2,0.7506901128700144,0.3051443743522647,0.2,0.0975735087936376,-0.29012319622512445,0.2,0,
0.6721792477994132,0.29886023170154197,0.4838829694981811,0.2,-0.6002603112603455,0.25387753016672954,0.2,-1.179791289431496,0.03437916820649145,0.2,-0.1994669086621792,0.02052250972754341,0.2,0.749051173173318,0.04886718477024876,0.2,0.09753351723966426,0.20660458273949728,0.2,0,
0.6801813817017872,0.30371510702276505,0.28667147610919597,0.2,-0.5984359226461136,0.4962390207921413,0.2,-1.17726175864374,0.5120695481677373,0.2,-0.20115907860292875,-0.33759145158566634,0.2,0.7514719878263384,0.27285339378409906,0.2,0.10087918211746956,-0.010708328747102355,0.2,0,
0.6881835156041611,0.3034469753192891,0.33156547120065727,0.2,-0.5923204869276713,0.20408047330756907,0.2,-1.1715981766608121,0.4964485131497415,0.2,-0.20486837188754986,-0.23832080567518996,0.2,0.7534168274738636,0.12734953790784903,0.2,0.09736218397971062,-0.026275134596750495,0.2,0,
0.6961856495065352,0.30902015456197557,0.5203432789798942,0.2,-0.5951706350731925,0.12379422808701107,0.2,-1.169318582433344,0.28731690905166307,0.2,-0.2049722114937318,-0.38074931072414575,0.2,0.753509580432864,-0.08085361372242583,0.2,0.10045877996392155,-0.19224863367846376,0.2,0,
0.7041877834089091,0.3117724677829674,0.2824850638550383,0.2,-0.5903397792782791,0.5148369287261284,0.2,-1.1670011061159855,0.3512635759419236,0.2,-0.2109603608591362,-0.5136523610648498,0.2,0.7521231696543048,0.1488402472155509,0.2,0.0942862058408552,-0.2777320053894356,0.2,0,
0.7121899173112831,0.3135399155836562,0.19503273700203355,0.2,-0.5869332442135744,0.24340130697491497,0.2,-1.1636983652182733,0.06041774410724121,0.2,-0.2131906492707694,-0.38127625678757543,0.2,0.7558910243883128,0.33042694525626387,0.2,0.09601506787769058,0.1697573975043337,0.2,0,
0.720192051213657,0.31489299157499995,0.2803731151308428,0.2,-0.5864453583666804,0.3334636802508617,0.2,-1.1660344222102696,0.22510906076680937,0.2,-0.2170607809677374,-0.3168514195227602,0.2,0.757410000778405,0.011784007956386344,0.2,0.09700232420092454,0.0397023604030702,0.2,0,
0.728194185116031,0.31802588542574967,0.3440658752138052,0.2,-0.5815978253295606,0.4162664214255596,0.2,-1.1600966202460044,0.21261411539622022,0.2,-0.21826027198313355,-0.18170426607691179,0.2,0.756079568515615,-0.008317699857124383,0.2,0.0966503056441397,0.0010500284583266767,0.2,0,
0.736196319018405,0.32039804557842083,0.22144426637256062,0.2,-0.5797850956238715,0.10926365045510478,0.2,-1.1626325963639301,0.0794031096045672,0.2,-0.219968049224968,-0.10412631329303514,0.2,0.757276917580691,0.3715089509944286,0.2,0.09701912465625777,-0.03627326164534761,0.2,0,
0.7441984529207789,0.32156899368771064,0.20366294561212014,0.2,-0.5798496069222789,0.11888486419216887,0.2,-1.1588261704923313,0.476980511239275,0.2,-0.21992629299582211,-0.5053757335217769,0.2,0.7620237117315258,0.10408427605566178,0.2,0.09606993345781414,0.07939895600987158,0.2,0,
0.7522005868231529,0.32365665270821475,0.5486256997765532,0.2,-0.5778829377967968,0.6056223448860643,0.2,-1.1550009081841017,0.08169325257699478,0.2,-0.22805406096131642,-0.30782660512192717,0.2,0.7589422659975816,-0.2215983108372968,0.2,0.09828950795241571,-0.09660209548552431,0.2,0,
0.7602027207255269,0.3303470048841355,0.36056103682669327,0.2,-0.5701596494041019,0.3551076973468195,0.2,-1.1575190784510994,0.39597772041248536,0.2,-0.22485151867777295,-0.07656101377621037,0.2,0.7584781387581291,0.37131137033424855,0.2,0.09452429993004575,0.0010157501148131895,0.2,0,
0.7682048546279008,0.32942562929744185,0.03692752061153909,0.2,-0.5722012146392477,0.060531161500773645,0.2,-1.148665264657502,0.5647767930603148,0.2,-0.22927903718173578,-0.7396352290039953,0.2,0.7648832479229296,0.36561004492455945,0.2,0.09830575995425272,-0.07400878421028219,0.2,0,
0.7762069885302748,0.3309378452139201,0.19150572770174415,0.2,-0.5691911508200895,0.3317514031219368,0.2,-1.1484826497621343,-0.15999916406672643,0.2,-0.23668568234183687,-0.5194909651391778,0.2,0.764327899476922,0.10660084393757097,0.2,0.09334015938268124,-0.51549669147565,0.2,0,
0.7842091224326487,0.33248972094066975,0.5054597930861798,0.2,-0.5668931921892967,0.37561286728114013,0.2,-1.1512252512825696,-0.0812811870209984,0.2,-0.23759089262396263,0.18780047030862201,0.2,0.7665888614259307,0.20752130757872855,0.2,0.09005781289064232,-0.12666713149518843,0.2,0,
0.7922112563350228,0.339025201903299,0.3042283681834144,0.2,-0.5631813449435913,0.41423598911599635,0.2,-1.1497831487544703,0.46941688953559824,0.2,-0.23368087481689892,-0.2787427879046601,0.2,0.7676482403981817,0.10764041485104153,0.2,0.09131348527875822,0.018202197454546785,0.2,0,
0.8002133902373967,0.3373573748316044,0.03825403458888876,0.2,-0.5602654163634407,0.1631519385667246,0.2,-1.14371458105,0.472944960371674,0.2,-0.2420507772304372,-0.4410767652351967,0.2,0.7683111080635474,0.24083647299279198,0.2,0.09034904804991507,-0.06542586948097683,0.2,0,
0.8082155241397707,0.3396372664567212,0.3177711891764051,0.2,-0.5605709139265237,0.08962432552916955,0.2,-1.1422160293885235,0.34341180436001095,0.2,-0.24073810306066207,-0.1987870466859873,0.2,0.7715016239660664,0.04477408231281371,0.2,0.0902666713670626,-0.24216422766271203,0.2,0,
0.8162176580421446,0.34244171385842687,0.23181302446054555,0.2,-0.558831427154974,0.34971854139785596,0.2,-1.1382199921802398,-0.21110462337271818,0.2,-0.245231369977413,-0.3804081981488138,0.2,0.7690274933805524,0.1709157686977658,0.2,0.08647442040731168,-0.2033435417129201,0.2,0,
0.8242197919445186,0.34334627484808994,0.3307619018072978,0.2,-0.554975417264158,0.46817024735594515,0.2,-1.145593703362487,-0.35060880881643275,0.2,-0.2468246342310431,-0.17303062160727195,0.2,0.7742362762652306,0.10878286117359942,0.2,0.08701317469965587,-0.021260609925725753,0.2,0,
0.8322219258468926,0.34773390428734363,0.11295490169935599,0.2,-0.5513407031972789,0.029148278116827853,0.2,-1.1438297331213028,0.5137927821313865,0.2,-0.24799985992312934,-0.2876896836955401,0.2,0.77076801915933,-0.0197984674608076,0.2,0.08613425064850007,-0.30066323484025104,0.2,0,
0.8402240597492665,0.34515355327527963,-0.021745855181727614,0.2,-0.5545090448142888,0.17870475349054254,0.2,-1.1373730188483848,0.3248514044103673,0.2,-0.25142766917017173,-0.37081966528803784,0.2,0.7739195007858577,0.1683065279858703,0.2,0.08220256294221186,0.08582911889938594,0.2,0,
0.8482261936516405,0.347385970604436,0.5176890845229251,0.2,-0.5484814271414302,0.5021309982896557,0.2,-1.1386321106507369,-0.026649970357173203,0.2,-0.25393297456773795,-0.49927489557924015,0.2,0.773460923607104,0.3474933855200091,0.2,0.08750751655089024,0.21547236000616243,0.2,0,
0.8562283275540145,0.35343657862764644,0.4026555673073799,0.2,-0.5464749488416543,0.26280973921006395,0.2,-1.1377994183740996,0.3241464637347008,0.2,-0.2594160674994396,-0.4731180152690757,0.2,0.7794793949541778,0.12909355979017628,0.2,0.08565012070231046,-0.4529743603527364,0.2,0,
0.8642304614563885,0.35382845968135407,0.15104828405521423,0.2,-0.5442764713140692,0.20510183780349245,0.2,-1.1334457672309817,0.32005381101307684,0.2,-0.26150286281204316,-0.2412162173321998,0.2,0.7755264205637468,0.003656994080274145,0.2,0.08025992678524646,-0.30834857157881895,0.2,0,
0.8722325953587624,0.35585335117252986,0.005289847278943521,0.2,-0.5431933194367984,0.20114327019098155,0.2,-1.1326785573978904,0.16738003942033675,0.2,-0.26327552697675477,-0.26053312622601604,0.2,0.7795379068594622,0.15295374013464536,0.2,0.08071654355704935,-0.13931348744730415,0.2,0,
0.8802347292611363,0.35391309723781716,0.4554885500300566,0.2,-0.5410581789910135,0.015531966364730476,0.2,-1.1307676866002563,0.1860342146583066,0.2,-0.2656713928316594,-0.2707689887641654,0.2,0.7779736804059011,-0.09461859714799542,0.2,0.0780309109860896,-0.2007724184701909,0.2,0,
0.8882368631635104,0.36314116797301077,0.38005053976993,0.2,-0.5429448079749627,0.15619335047952626,0.2,-1.1297020099633575,0.08018756838107377,0.2,-0.2676078307969814,-0.3337199935211921,0.2,0.7780240093050943,0.3111786685937243,0.2,0.0775041848615263,0.0351746975758389,0.2,0,
0.8962389970658843,0.35999390587413604,0.287605597560029,0.2,-0.5385590853833411,0.39135682063048266,0.2,-1.129484685506159,0.18819655889446008,0.2,-0.2710109127279985,-0.2874255609476642,0.2,0.7829525391034007,0.4130086060218571,0.2,0.07859370614730302,-0.3179092822342064,0.2,0,
0.9042411309682583,0.36774285753397123,0.1599512083685639,0.2,-0.536683098844875,0.159566901178132,0.2,-1.126690865021046,0.2535296036346585,0.2,-0.27220663977214404,-0.57745949158651,0.2,0.784632147001444,-0.0456702915878765,0.2,0.072417636345779,-0.238601313777201,0.2,0,
0.9122432648706322,0.36255312520803307,-0.19719345033207547,0.2,-0.536006014964491,0.2935996242306102,0.2,-1.1254282118480046,0.17425016830879825,0.2,-0.28025026459338265,-0.5148481980677896,0.2,0.7822218144379947,-0.11006512920162803,0.2,0.0747760851268678,0.05167293450581822,0.2,0,
0.9202453987730063,0.364587762328658,0.12339366951326369,0.2,-0.5319855048571852,0.25946767608232835,0.2,-1.1239028623281053,-0.13489524411071374,0.2,-0.2804442109412287,-0.1880449465921745,0.2,0.782871104934218,0.0805173807289783,0.2,0.07324440329787209,-0.15687105366827755,0.2,0,
0.9282475326753802,0.3645274239202453,0.5492964990122251,0.2,-0.5318545321471737,0.09092812334272893,0.2,-1.127586535753776,-0.16099248007254985,0.2,-0.28325898373885744,-0.3778873353969987,0.2,0.7835100925296583,0.25964217228802156,0.2,0.07226614826817536,-0.37724710186470484,0.2,0,
0.9362496665777541,0.37337650631285363,0.392409179104141,0.2,-0.5305306548837015,0.19662843072398156,0.2,-1.1264787420092661,0.44194236725959846,0.2,-0.28649040830758066,-0.30514371365759213,0.2,0.7870253796908263,0.14477020284568015,0.2,0.06720844966803681,-0.18799614095827127,0.2,0,
0.9442518004801281,0.37080597078591154,-0.12004719599109301,0.2,-0.52870847725559,0.19238706664156252,0.2,-1.1205154578776224,0.2078872100719914,0.2,-0.2881412831573789,-0.3051869955791389,0.2,0.7858264157751892,-0.08940320266216661,0.2,0.06925821001284302,0.18293828039394125,0.2,0,
0.952253934382502,0.37145575117699614,0.23183750618204976,0.2,-0.5274524618174365,0.17396061206632896,0.2,-1.1231525466481143,0.009402627609830794,0.2,-0.2913734002368469,-0.29470630058883035,0.2,0.7855949284482316,-0.016880083155555725,0.2,0.07013546215433987,-0.043794943268380716,0.2,0,
0.9602560682848761,0.37451537088482434,0.21751664766313586,0.2,-0.5259251074625287,0.18851264568952447,0.2,-1.1203650158358651,0.38897713350635743,0.2,-0.2928565839668002,0.026252178903531792,0.2,0.7855563344447003,0.1621684472528223,0.2,0.06855749092054893,-0.40236205771353345,0.2,0,
0.96825820218725,0.3749360175396063,-0.08290686260691016,0.2,-0.5244362594864042,0.07287275795275772,0.2,-1.1169289125120125,0.22914679182739484,0.2,-0.29095336537439037,-0.5284968720132079,0.2,0.7881896236042768,0.04586830915136175,0.2,0.06369766923092333,-0.1546584147804706,0.2,0,
0.9762603360896239,0.3731888610831138,0.03412661121443214,0.2,-0.5247591433352846,0.19074593615669988,0.2,-1.1166986671666268,-0.0008092067964177163,0.2,-0.3013125339190115,-0.5449207311869868,0.2,0.7862902273911221,0.033949699573966596,0.2,0.0660829562840614,-0.12466802994441423,0.2,0,
0.984262469991998,0.37548204331903723,0.20881354401937682,0.2,-0.521384324507897,0.25061665988192205,0.2,-1.1169418598207552,0.25484828975892715,0.2,-0.29967209707338216,-0.3388566421867432,0.2,0.7887328187974603,0.08337194672643211,0.2,0.06170298075181271,-0.12817730719626164,0.2,0,
0.9922646038943719,0.3765298777874238,0.5615396038048809,0.2,-0.5207492767771739,0.12485935674108606,0.2,-1.112621094530484,-0.041383191582589074,0.2,-0.3067342401939994,-0.5453772185206734,0.2,0.787624178538745,0.3670762169503197,0.2,0.06403211936892121,-0.06385483535438886,0.2,0,
1.0002667377967458,0.3844666769799153,0.30232007192901655,0.2,-0.5193865748000396,0.16640660820081005,0.2,-1.1176039908860766,-0.047712857429382804,0.2,-0.30839813256971293,-0.36218040680929126,0.2,0.7946060382686654,0.094499045463034,0.2,0.060681303386142485,-0.4301539493192924,0.2,0,
1.00826887169912,0.38136699893828807,-0.11279911747703181,0.2,-0.5180867710459609,0.3562870945824498,0.2,-1.113384500249354,0.4759086863320161,0.2,-0.3125291267029481,-0.2333376594796377,0.2,0.7891361632661535,-0.12568555898722494,0.2,0.05714965617981253,-0.4958482487174565,0.2,0,
1.0162710056014939,0.3826618911002828,0.45779376707823227,0.2,-0.5136859812867204,0.06359027410545587,0.2,-1.1099894519047644,0.0344850993188317,0.2,-0.31213153512138714,-0.10833044425330798,0.2,0.7925950693248698,0.21732799994134133,0.2,0.05274773140666318,-0.3248123492978678,0.2,0,
1.0242731395038678,0.3886916992115398,0.2943958252176713,0.2,-0.5170693266602736,0.013996709149574627,0.2,-1.1128327386602528,-0.0643821771042774,0.2,-0.314262413811001,-0.24407461588062465,0.2,0.792613411265215,0.1591272714359243,0.2,0.05195265859104665,0.18169369563968618,0.2,0,
1.0322752734062417,0.38737222430376556,-0.04985958093137177,0.2,-0.5134620339403272,0.30239772109545704,0.2,-1.1110195667384328,-0.010653179231268073,0.2,-0.31603672897547713,-0.2545699876640786,0.2,0.7951411056678446,0.024755918866303794,0.2,0.05565483053689816,0.14945499381055277,0.2,0,
1.0402774073086156,0.38789394591663784,-0.025137469708485377,0.2,-0.5122309631227463,0.058447285876221666,0.2,-1.113003189527953,-0.027919519237085133,0.2,-0.31833553361362626,-0.4464266085937446,0.2,0.7930095059670759,-0.19320716894981327,0.2,0.05434393849201549,-0.5660447330127091,0.2,0,
1.0482795412109898,0.3869700247884298,-0.03158943664927083,0.2,-0.5125268773663076,-0.07543678594713193,0.2,-1.1114662790462262,0.2127379577641919,0.2,-0.32317955471297705,-0.5711313547352298,0.2,0.7920497909646476,-0.010105936948008598,0.2,0.046598114808694815,-0.6192800634507502,0.2,0,
1.0562816751133637,0.3873885149302495,0.10602996775598353,0.2,-0.5134379516979004,0.16119195997566643,0.2,-1.109599382203726,0.033552654568794194,0.2,-0.32747363528938994,-0.561864697376166,0.2,0.7928478109759077,0.11432066845701999,0.2,0.04443545747680349,-0.18818928176163535,0.2,0,
1.0642838090157376,0.3886665042725255,0.08178454391247203,0.2,-0.509947806006697,0.29393194329151856,0.2,-1.1109294365731255,0.22751079308057365,0.2,-0.3321693898709957,-0.2181360764132792,0.2,0.7938789216599599,0.2361018154132602,0.2,0.04358708630050865,0.0381713474953832,0.2,0,
1.0722859429181115,0.38869706763284906,0.1566868410529977,0.2,-0.5087350406052361,0.024572324255497935,0.2,-1.1059592095144368,0.4059367865901775,0.2,-0.3309638125120024,-0.4637665751502061,0.2,0.7966254400225199,-0.14915945206774722,0.2,0.04504619903672962,0.10561512168328485,0.2,0,
1.0802880768204854,0.3911734937293735,0.21799170862777523,0.2,-0.509554648818609,0.023095201756716255,0.2,-1.1044344479876826,0.04266861164484159,0.2,-0.339589655073399,-0.6122579787553247,0.2,0.7914923704268759,0.23435530500723334,0.2,0.04527692824744121,-0.3793727975674307,0.2,0,
1.0882902107228596,0.39218493497089346,0.1002061894488232,0.2,-0.5083655173771287,0.03686240965909693,0.2,-1.1052765117281194,-0.2155559772816923,0.2,-0.3407599401720876,-0.0915095775989444,0.2,0.8003751249026356,0.15225988022124493,0.2,0.03897623427565073,-0.5386990862556672,0.2,0,
1.0962923446252335,0.39277679276055466,0.25929472307195667,0.2,-0.5089648502640635,0.020400670408628196,0.2,-1.1078833436241897,0.019636489665159074,0.2,-0.3410538083149821,-0.33605887552070474,0.2,0.7939285285104158,-0.23597355903435396,0.2,0.03665774286735053,-0.23128850628771103,0.2,0,
1.1042944785276074,0.39633365054004477,0.18320872338789887,0.2,-0.5080391066505906,0.18897707560924099,0.2,-1.1049623278934768,0.1247267121255724,0.2,-0.3461368821804189,-0.4719420586078993,0.2,0.796599547958086,0.043744354240697614,0.2,0.03527561817504735,-0.03501703935829747,0.2,0,
1.1122966124299813,0.39570813233476104,-0.34063099090705234,0.2,-0.5059412170543156,0.2815243277949561,0.2,-1.1058877162301806,0.020724526516927022,0.2,-0.3486048812527085,-0.34646792310233376,0.2,0.794628438178267,-0.03688370680857839,0.2,0.03609747023761777,-0.12989154090420818,0.2,0,
1.1202987463323555,0.39088355468553193,-0.17408573117551687,0.2,-0.5035347174058713,0.18474219888990617,0.2,-1.104630735469206,0.01191743539676049,0.2,-0.3516803689500562,-0.17194452579597647,0.2,0.7960094086491487,0.31964171191199015,0.2,0.03319735352058002,-0.4836108535413374,0.2,0,
1.1283008802347294,0.3929227606359528,0.11507444195004574,0.2,-0.5029853418720771,-0.07596407703230196,0.2,-1.1056970372638324,0.12287202185450041,0.2,-0.3513559936654441,-0.3590313281399311,0.2,0.7997427055688588,0.24107538863751138,0.2,0.028359696580956373,-0.24058307880942853,0.2,0,
1.1363030141371033,0.39272474575673266,0.23463709388410123,0.2,-0.5047501426383881,0.0563292681257932,0.2,-1.102664783119534,0.21917594379416983,0.2,-0.3574248702002951,-0.500018542167472,0.2,0.7998666148673489,-0.20005632263044026,0.2,0.029348024259629166,-0.04127502605398982,0.2,0,
1.1443051480394772,0.3966769541380984,0.5484793522284003,0.2,-0.5020840735820644,0.10248336904796623,0.2,-1.1021902221631257,-0.05151623663862681,0.2,-0.3593562903401237,-0.14502397757054988,0.2,0.7965418044067718,-0.1816169121151498,0.2,0.027699296164092536,-0.2946571770844212,0.2,0,
1.1523072819418512,0.40150041539238707,-0.09819276056288392,0.2,-0.5031104087336207,-0.09606069272142387,0.2,-1.103489042905752,-0.01877544052743263,0.2,-0.3597452538414239,-0.6211270196201969,0.2,0.7969607442735065,0.33582173697940115,0.2,0.024633509426278427,-0.5907512528550657,0.2,0,
1.1603094158442253,0.39510586996909225,-0.2527481438566459,0.2,-0.5036210446656072,0.19707869280581256,0.2,-1.1024906292115646,0.23643419042074232,0.2,-0.3692943226540468,-0.6150404729582081,0.2,0.8019149521984422,0.28866185714841036,0.2,0.018247276118411485,-0.08416203126671451,0.2,0,
1.1683115497465992,0.39745644509068073,0.5161282405642849,0.2,-0.4999571496487277,-0.03757395506204242,0.2,-1.0997060958590201,0.08882551779008929,0.2,-0.36958590140875525,0.0391356638283942,0.2,0.8015793339878811,-0.16431930404469525,0.2,0.023286916926010995,0.029910135035186552,0.2,0,
1.1763136836489732,0.4033639218181208,0.02660250482824228,0.2,-0.5042222279465999,-0.15917237646096913,0.2,-1.1010694209269232,-0.07969841114635612,0.2,-0.3686681520327925,-0.4720798521282432,0.2,0.7992858433337271,-0.20581679847811452,0.2,0.01872583827897447,-0.3534715378807735,0.2,0,
1.184315817551347,0.3978820851679326,-0.26957298215645603,0.2,-0.5025039076721032,0.01787740892893186,0.2,-1.1009812704373618,0.029565020444002887,0.2,-0.37713917904280714,-0.5907172973056984,0.2,0.7982862652122312,-0.028009955920893503,0.2,0.01763137231991862,-0.4174261695896619,0.2,0,
1.192317951453721,0.3990507541036175,0.04631064367346255,0.2,-0.503936189403737,0.09681057300706813,0.2,-1.1005963805998191,0.23029811188149396,0.2,-0.3781196287896837,-0.5744916145088118,0.2,0.7988376840389928,0.09117628905050412,0.2,0.01204701956553988,-0.3805613891356943,0.2,0,
1.2003200853560951,0.398623055466708,-0.003054390435713872,0.2,-0.5009549385039901,-0.030179292038502725,0.2,-1.097296500647258,-0.09037758778585037,0.2,-0.3863310448749481,-0.30903028411446987,0.2,0.7997450858370393,0.18642265939371877,0.2,0.01154239009374751,-0.071784226703877,0.2,0,
1.208322219258469,0.3990018838566461,0.14139574893983972,0.2,-0.504419058076353,0.039678380772463495,0.2,-1.1020424220043927,-0.39167297188660855,0.2,-0.3830641133355152,-0.011802655873652257,0.2,0.8018204465892923,0.34038340217670826,0.2,0.010898471938277848,-0.10382134969519818,0.2,0,
1.216324353160843,0.40088538744974545,-0.12662306464079898,0.2,-0.5003200844116307,0.2842673447602598,0.2,-1.1035632681974437,0.1483487769998182,0.2,-0.38651988736892656,-0.5681638350481522,0.2,0.8051912202718666,0.04812862388665212,0.2,0.009881248498624338,-0.42371620013388883,0.2,0,
1.224326487063217,0.3969759148223933,-0.19147511556016905,0.2,-0.49987078056018885,-0.028684101146196628,0.2,-1.0996688415723956,0.09334536392627268,0.2,-0.39215473469628565,-0.6791746469830481,0.2,0.8025905045714787,-0.4943465488202736,0.2,0.0041190127361356264,-0.4457258514696187,0.2,0,
1.2323286209655908,0.39782178560078274,0.21291357136187655,0.2,-0.5007790300299698,-0.01870576047167255,0.2,-1.1020697423746233,-0.02539461590563008,0.2,-0.39738668172065533,-0.36956622802961425,0.2,0.7972816754907422,-0.2560503616343274,0.2,0.0027496348751104398,0.2211732726420229,0.2,0,
1.240330754867965,0.40038253196418333,0.06632096657891925,0.2,-0.5001700727277356,0.17623969515449464,0.2,-1.1000751554268857,0.2075438601422258,0.2,-0.3980677943447595,0.06157705784258158,0.2,0.7984936987853295,0.11404587944255362,0.2,0.007657785098407993,-0.05797035414206509,0.2,0,
1.2483328887703389,0.39888292106604545,-0.14651426938913636,0.2,-0.4979591949074979,-0.11365207064936711,0.2,-1.0987490406123477,-0.20936769942657418,0.2,-0.396401448795174,-0.28548761505671133,0.2,0.7991064095618231,0.007199400081210616,0.2,0.0018221092088373983,-0.4734027404179614,0.2,0,
1.2563350226727128,0.39803830365395715,-0.0885968403171386,0.2,-0.5019885058581255,-0.21336837286791213,0.2,-1.103425038617711,-0.1100494120573059,0.2,-0.40263559618566686,-0.4061929053547353,0.2,0.7986088891866289,0.21118052251035274,0.2,8.33412517206116e-05,-0.22821620663975178,0.2,0,
1.2643371565750867,0.39746537162097123,-0.001345098163955949,0.2,-0.5013730888733845,0.18340718382143378,0.2,-1.1005098312052646,0.2754026675097776,0.2,-0.4029005352808498,-0.38644965701094963,0.2,0.8024852979219887,0.25476841089211444,0.2,-0.0018293500973986302,-0.22952873326510728,0.2,0,
1.2723392904774609,0.39801678208333385,0.12665185470638746,0.2,-0.49905399091698255,0.1838011229990874,0.2,-1.0990185959375545,-0.04588524041981845,0.2,-0.40881879069784205,-0.2541505050864534,0.2,0.8026851837609027,-0.12951531978965675,0.2,-0.003589118480521105,-0.17562365690285126,0.2,0,
1.2803414243798348,0.39949180129627343,0.19166594349438043,0.2,-0.4984322709053991,-0.021785720853730733,0.2,-1.1012439950519817,-0.3373397971699471,0.2,-0.40696694336223305,-0.34916436812517865,0.2,0.8004130528053542,-0.29848886058810725,0.2,-0.0046393286078442505,-0.5111069799946037,0.2,0,
1.2883435582822087,0.40108343717924394,-0.03893492360173417,0.2,-0.49940256245064224,-0.1395654511025246,0.2,-1.1044160326922736,0.23847211887804975,0.2,-0.4144054205878449,-0.5695484603186612,0.2,0.797909361991493,-0.06167143014980392,0.2,-0.011766830160434765,-0.48288514932359194,0.2,0,
1.2963456921845826,0.3988688425186457,0.1771448434465285,0.2,-0.5006653181230395,-0.1959680938317769,0.2,-1.0974284411499329,0.2963950078616884,0.2,-0.4160797187273316,-0.30862066501847335,0.2,0.7994263099229574,0.1795866885210412,0.2,-0.012365490997021722,-0.11940720663757812,0.2,0,
1.3043478260869565,0.4039177546743884,-0.2553524643879451,0.2,-0.5025380519519507,-0.10902394784213787,0.2,-1.0996737125664866,-0.1587318325910747,0.2,-0.4193433512281405,-0.3190000729827863,0.2,0.8007827490078296,0.0033116286575624043,0.2,-0.013677345466636015,-0.3786827839383064,0.2,0,
1.3123499599893307,0.39478320308843856,-0.28960085289401677,0.2,-0.5024097012885137,0.020556865022919313,0.2,-1.09996815047139,0.07115576684907365,0.2,-0.4211837198950562,-0.3368649148330384,0.2,0.7994792959814784,-0.2610578950751341,0.2,-0.018424415540034624,-0.3944149864775299,0.2,0,
1.3203520938917046,0.3992841410280841,0.1823012440747042,0.2,-0.502209142111584,-0.07774138995363805,0.2,-1.0985352202969014,-0.1272258092108458,0.2,-0.4247331898654691,-0.5186124537640523,0.2,0.7966058226866275,-0.15308835626419437,0.2,-0.019987985250276494,-0.2112062630967894,0.2,0,
1.3283542277940785,0.39770002299363383,-0.1276069873743131,0.2,-0.5036535635277719,0.09505311135346584,0.2,-1.1020037634187636,-0.5026413589810652,0.2,-0.42948151915528104,-0.3204384850306746,0.2,0.7970298822812513,0.11017095779627256,0.2,-0.021803715749583254,-0.04385586455422528,0.2,0,
1.3363563616964524,0.3972424292300951,-0.251349765073898,0.2,-0.5006882923299285,0.24261877137029403,0.2,-1.1065774820405985,0.057201818560295714,0.2,-0.4298602056259599,-0.265970013955244,0.2,0.7983685580113679,-0.06369519804729634,0.2,-0.020689679083144098,-0.05784702786685116,0.2,0,
1.3443584955988264,0.39367842675245146,-0.027280389833711505,0.2,-0.4997716631858472,-0.35023254471350934,0.2,-1.1010885343217989,0.2647271644233423,0.2,-0.43373703937856495,-0.5525622194146561,0.2,0.7960107591124945,0.25098757155516543,0.2,-0.022729268195452873,-0.2575854974130052,0.2,0,
1.3523606295012005,0.39680594299275573,0.14975202180768019,0.2,-0.5062920130453447,-0.25428323764424554,0.2,-1.102341847409825,-0.13250959031380072,0.2,-0.4387012011365944,-0.45767187427102685,0.2,0.8023843591562505,0.30712326607325313,0.2,-0.02481104704175218,-0.4188717713955665,0.2,0,
1.3603627634035744,0.39607445910137434,-0.01895633973742969,0.2,-0.5038401949881551,0.3182634344117974,0.2,-1.1032086877668197,0.03150043997308949,0.2,-0.4410597893669014,-0.32432010840390685,0.2,0.8009247313696666,-0.28508406156448757,0.2,-0.029431216537781937,-0.18839978096885546,0.2,0,
1.3683648973059483,0.39650264155695686,0.034955371079274655,0.2,-0.5011997980947559,-0.0879605967751898,0.2,-1.1018378403702556,-0.1062356411097587,0.2,-0.4438903228710569,-0.2810233405312716,0.2,0.7978230141712187,-0.26798256916277935,0.2,-0.027825443537253868,-0.13624261247526123,0.2,0,
1.3763670312083223,0.39663374503864274,-0.313211458794909,0.2,-0.5052475645365582,-0.24254241860657832,0.2,-1.1049084580245758,0.07974064684987403,0.2,-0.4455561628154017,-0.27497131511037065,0.2,0.7966370102630621,0.048746079300977796,0.2,-0.031611098337386116,-0.24833252638461448,0.2,0,
1.3843691651106962,0.3914912582162383,-0.3397168064133427,0.2,-0.5050804767924612,0.15093313508330458,0.2,-1.1005619900206576,-0.0734591149604974,0.2,-0.44828986391282283,-0.3909763934489378,0.2,0.7986029514400343,0.15799986893000328,0.2,-0.0317987639594077,-0.32915331236136985,0.2,0,
1.3923712990130703,0.39119827613602925,0.1787433831288432,0.2,-0.5028326343752253,0.07385299253825917,0.2,-1.1060838038639438,-0.5097787556134631,0.2,-0.45181178511058473,-0.5564817769614302,0.2,0.7991650081659422,-0.32482486591009496,0.2,-0.036877551335168034,-0.4234316272449415,0.2,0,
1.4003734329154442,0.3943511523462998,0.25419415584666816,0.2,-0.503898828911849,-0.2846346270189079,0.2,-1.108718450110473,-0.052130321078078246,0.2,-0.4571935723442057,-0.660263071211184,0.2,0.7934057535854728,-0.3104934533885925,0.2,-0.03857366999532676,-0.27506128052616874,0.2,0,
1.4083755668178182,0.39526538262957595,-0.19021887083488231,0.2,-0.5073867884075278,-0.1472467223589055,0.2,-1.106917889001193,0.027312717537697484,0.2,-0.4623759942499637,-0.3315347106210946,0.2,0.7941971129117247,0.40891523021072823,0.2,-0.041278531823586734,0.039883710014911554,0.2,0,
1.416377700720192,0.3913076504129417,-0.21320011292701516,0.2,-0.5062547764695915,-0.31349767486203717,0.2,-1.1082814466298698,-0.02939428921619469,0.2,-0.4624981277141432,-0.2842635932182938,0.2,0.7999483972688445,0.25530127469038794,0.2,-0.03793553063508818,-0.16889967028746064,0.2,0,
1.4243798346225662,0.3918541808227437,-0.19082502587636913,0.2,-0.5124027512053204,-0.2731188070101906,0.2,-1.1073881976286521,0.017993615966771515,0.2,-0.4669242117414564,-0.1554109414910708,0.2,0.7982819333067709,-0.36086247476245503,0.2,-0.043980926548186104,-0.26109862758481484,0.2,0,
1.4323819685249402,0.3882544499989198,-0.12442617753303034,0.2,-0.5106246773817545,-0.12381047491050179,0.2,-1.1079935487744015,-0.10721267188021355,0.2,-0.46498470277800036,-0.30199472794529764,0.2,0.7941745976726452,-0.39878574723585525,0.2,-0.042113108676445216,-0.051993376677940316,0.2,0,
1.440384102427314,0.3898633619822152,-0.14258727715780323,0.2,-0.5143837188038884,-0.19611599575385802,0.2,-1.1091036003787356,0.035377197134381366,0.2,-0.47175612738858114,-0.6110028789353232,0.2,0.7919013613509972,0.14593958357391607,0.2,-0.04481282057503315,-0.27515620244051436,0.2,0,
1.448386236329688,0.38597305356439493,-0.27687638889277094,0.2,-0.5137625333138163,-0.006483395006542936,0.2,-1.1074275136202514,-0.062409011839181794,0.2,-0.47476074884096553,-0.37859460991931243,0.2,0.7965096310098279,0.1606022244452429,0.2,-0.046515607915493445,-0.37860718981633146,0.2,0,
1.456388370232062,0.3854333397599309,-0.08246335433487531,0.2,-0.5144874531239931,-0.06543528622886263,0.2,-1.1101021445681625,0.02944831020103289,0.2,-0.47781364114729014,-0.38707312307721675,0.2,0.7944709969421211,-0.2593021025800099,0.2,-0.05087053561209445,-0.2888183354704927,0.2,0,
1.464390504134436,0.3846536398950369,0.0021287203568545743,0.2,-0.5148094978934781,-0.03055463471993841,0.2,-1.1069563406570349,-0.02649162207886413,0.2,-0.480953918810201,-0.23706804351844232,0.2,0.7923607973685477,-0.19761371858113136,0.2,-0.05113670128302133,-0.0179920993950383,0.2,0,
1.47239263803681,0.38546739928564056,-0.03541923431242197,0.2,-0.5149763272795121,-0.008266313469042219,0.2,-1.1105260105214243,-0.19588672446062272,0.2,-0.4816067298435852,-0.3129412968795875,0.2,0.791309177444823,-0.019546317754380593,0.2,-0.051158409202415066,-0.3085386551151558,0.2,0,
1.480394771939184,0.3840869321460382,-0.39549623436259396,0.2,-0.5149417589089827,-0.20497396176149402,0.2,-1.1100905282484048,-0.01020909982397955,0.2,-0.4859609795602744,-0.47967378658978277,0.2,0.7920480562844776,-0.01834204401757189,0.2,-0.05607331976486382,-0.5203898786911549,0.2,0,
1.4883969058415578,0.37913945953583905,-0.2975926297931093,0.2,-0.518255910667696,-0.38710265249668196,0.2,-1.110689356118608,-0.15055012837894566,0.2,-0.48928151042902174,-0.491050005498532,0.2,0.7910157047405418,-0.11897029395817327,0.2,-0.059484647261473546,-0.08178313577514784,0.2,0,
1.4963990397439317,0.3793254500693484,0.16379693273898405,0.2,-0.5211354013489297,-0.08752589006843364,0.2,-1.112499330302468,-0.1581110909962824,0.2,-0.4938177796482509,-0.6309578510143333,0.2,0.7901445315811468,-0.0875774185128339,0.2,-0.05738184993726619,0.2859279208962417,0.2,0,
1.5044011736463059,0.3817602104596628,-0.026965065806090066,0.2,-0.519656324908791,-0.10737857359360836,0.2,-1.1132191335745485,-0.20506081293178435,0.2,-0.49937683604525107,-0.2547586329628912,0.2,0.7896144660443365,0.005539436103124684,0.2,-0.05490980052713368,-0.19199940812177638,0.2,0,
1.5124033075486798,0.378894009016451,-0.38996345735253096,0.2,-0.5228534585264274,-0.19223579782667866,0.2,-1.1157803033093765,-0.20745733672254685,0.2,-0.49789391777565717,0.10394404790511208,0.2,0.7902331625587968,-0.17651085388017962,0.2,-0.06045384046721461,-0.5399543577639119,0.2,0,
1.5204054414510537,0.3755207951420223,-0.09038600079214545,0.2,-0.5227320976740178,0.21489483942134513,0.2,-1.1165384509621092,-0.13363047369106817,0.2,-0.4977137312787693,-0.38798107627060346,0.2,0.7867902923822536,0.04462888953871147,0.2,-0.06354907025135627,-0.19934953651789666,0.2,0,
1.5284075753534276,0.37744783300377666,0.08554305014300823,0.2,-0.5194151410956859,-0.1421410459440317,0.2,-1.1179183908884336,0.015005039292734224,0.2,-0.5041016149959868,-0.4294962026148638,0.2,0.7909472247914162,0.11793328717404211,0.2,-0.06364343305150096,-0.21398579288310365,0.2,0,
1.5364097092558016,0.37688948394431043,-0.28274933809497443,0.2,-0.5250063544091224,-0.37386372647994076,0.2,-1.1162983703334255,0.010706527178341863,0.2,-0.5045856705206071,-0.0699491442540251,0.2,0.7886772249770383,-0.2597198886926874,0.2,-0.06697284293748593,-0.46596278890137593,0.2,0,
1.5444118431581757,0.37292384359425707,-0.39162636319221844,0.2,-0.5253969607193649,-0.22199255690758674,0.2,-1.1177470864535801,-0.5472274364986957,0.2,-0.5052208013040512,-0.20565521781804735,0.2,0.7867917065723332,-0.24932100514353517,0.2,-0.07109883767392297,-0.03950542237867588,0.2,0,
1.5524139770605496,0.37062346213323494,-0.17437645384689102,0.2,-0.5285582353196437,-0.24586612854108486,0.2,-1.1250540093174046,-0.20233523309677592,0.2,-0.5078761540056959,-0.3292782919805809,0.2,0.7846880888947417,-0.18188023505568557,0.2,-0.06760492969554474,-0.011346693476273553,0.2,0,
1.5604161109629235,0.3701338203327068,-0.41849620282678746,0.2,-0.5293308187760223,-0.17410687662799962,0.2,-1.1209844501831285,0.156463897877393,0.2,-0.5104892539757405,-0.5462589230094544,0.2,0.7838816228114422,0.004282401367503019,0.2,-0.07128038476954335,-0.26813789515400027,0.2,0,
1.5684182448652975,0.36392752288800634,-0.26348853485776147,0.2,-0.5313439453456917,-0.27703770414453516,0.2,-1.1225505869513663,-0.12656202826327734,0.2,-0.5166162967738471,-0.5985331248507044,0.2,0.7847566073166218,0.08858820102620318,0.2,-0.07189513601800875,0.0034648615227575452,0.2,0,
1.5764203787676716,0.3659180037749826,-0.06944799790992856,0.2,-0.5337634220423348,-0.4622853440487476,0.2,-1.123009442635341,-0.30864413298473115,0.2,-0.5200657839733518,-0.44550213508298686,0.2,0.7852990340278615,-0.1607341564552056,0.2,-0.07122494698517923,-0.022616756647397124,0.2,0,
1.5844225126700455,0.3628163549214475,-0.190704593771851,0.2,-0.5387405108504717,0.018515493641221847,0.2,-1.127488893079122,-0.2358771633100415,0.2,-0.5237443309351749,-0.21637902234872275,0.2,0.7821848608133385,-0.10499874039270052,0.2,-0.0722570041243671,-0.46040760094826805,0.2,0,
1.5924246465724194,0.362866730274633,-0.15760511139485678,0.2,-0.5334671741440753,-0.007990873679343535,0.2,-1.1267834772483016,-0.1332229409942015,0.2,-0.5235278483309314,-0.19953809748004397,0.2,0.7836190541815783,-0.1047179350890659,0.2,-0.07859146860035152,-0.34675554310071266,0.2,0,
1.6004267804747934,0.3602946731391298,-0.12253255605669186,0.2,-0.5388683648293412,-0.5824638768366294,0.2,-1.1296204601350293,-0.187579001444102,0.2,-0.5269369404948556,-0.6312387580928099,0.2,0.7805093738519134,-0.26185989955906236,0.2,-0.0778050928139785,0.14079460150236145,0.2,0,
1.6084289143771673,0.36090620937772594,-0.01893311001324033,0.2,-0.5427865961734614,-0.05746257619052009,0.2,-1.1297847412714073,-0.03587795639470315,0.2,-0.5336276684604163,-0.5236791661880832,0.2,0.7794292957886333,-0.04160789580109209,0.2,-0.07633875497631373,-0.09029019466716762,0.2,0,
1.6164310482795414,0.3599917433789179,-0.2842357725016398,0.2,-0.5397877660483895,-0.0881799330440941,0.2,-1.1301945074373445,-0.33241159671004716,0.2,-0.535315807153865,-0.21254172696703877,0.2,0.779843647519096,-0.04778407518443023,0.2,-0.07924973592865318,-0.3825897119394189,0.2,0,
1.6244331821819153,0.3563584370176997,-0.4444962379225141,0.2,-0.5441974751021669,-0.38963202766745947,0.2,-1.135103326818768,-0.148504477889444,0.2,-0.5370283360918889,-0.07554456759733402,0.2,0.7786647505856824,-0.12205451167204145,0.2,-0.08246019036734444,-0.295442659691331,0.2,0,
1.6324353160842893,0.3528798035721577,-0.2770285109761315,0.2,-0.5460218784910689,-0.10448540683549723,0.2,-1.1325705790835756,0.028032587621656946,0.2,-0.5365245202354223,-0.12566090208109004,0.2,0.7778907753323433,0.042981546086909295,0.2,-0.08397681848371448,-0.21899880419399934,0.2,0,
1.6404374499866632,0.3519259808420816,-0.006764578148868439,0.2,-0.5458692416115348,-0.18815659722592332,0.2,-1.1346548054168215,-0.19662269468538607,0.2,-0.5390389105251864,-0.5188751078128786,0.2,0.779352455323073,-0.15117546538247206,0.2,-0.08596417123444842,-0.14591666325835823,0.2,0,
1.648439583889037,0.3527715703217758,-0.31785653521822566,0.2,-0.5490323840466836,-0.27659330914929503,0.2,-1.1357165421985418,-0.47797536239795047,0.2,-0.5448265219604284,-0.44515956961199005,0.2,0.7754719678862237,-0.20622326645079736,0.2,-0.08631148509584821,0.004152464151804119,0.2,0,
1.6564417177914113,0.34684027627859,-0.30923334119744084,0.2,-0.5502947345579235,-0.48372295914844016,0.2,-1.1423024112151887,-0.410598166617121,0.2,-0.5461614636389782,-0.29577232337092,0.2,0.7760528830598602,0.0704565807997451,0.2,-0.08589773180801956,-0.3103965134201407,0.2,0,
1.6644438516937852,0.34782383686261675,-0.24079031078455895,0.2,-0.5567719513930587,-0.24324765463074743,0.2,-1.1422861128644157,-0.03487770565940851,0.2,-0.5495588791343631,-0.17490033705300917,0.2,0.7765992731790197,-0.1928240431373976,0.2,-0.09127782931057046,-0.09285620580923043,0.2,0,
1.672445985596159,0.34298763130603704,-0.22444562894171835,0.2,-0.5541866970320155,-0.39309305898065083,0.2,-1.1428604545057393,0.0550130612666927,0.2,-0.5489598690318264,-0.1804295594090427,0.2,0.7729676983696618,-0.17270724677417165,0.2,-0.08738343110096725,0.279156584980309,0.2,0,
1.680448119498533,0.34423270679954926,-0.25044943078441834,0.2,-0.5630614403367491,-0.39004934683094933,0.2,-1.1414059038841486,0.1484341399259348,0.2,-0.5524457520849078,-0.5739832052820623,0.2,0.7738359572306329,-0.03684668375052158,0.2,-0.08681132395088552,-0.11208591832886135,0.2,0,
1.6884502534009072,0.33898044041348635,-0.26997186595971445,0.2,-0.5604274865813107,0.16297220446577498,0.2,-1.1404855082669243,-0.34405011387407536,0.2,-0.5581436003163394,-0.4577506345299423,0.2,0.7723781514296535,-0.06620957361991309,0.2,-0.08917680579422903,-0.06980004661592559,0.2,0,
1.696452387303281,0.33991315694419383,-0.24347984808598816,0.2,-0.5604538850652967,-0.2458956377867222,0.2,-1.1469107057061338,-0.2737934757434113,0.2,-0.5597697622373868,-0.37355798770441484,0.2,0.7727766040527143,-0.4041294727685982,0.2,-0.08792812469674033,0.02398210180127973,0.2,0,
1.704454521205655,0.33508476284411054,-0.2749608394996376,0.2,-0.5643618167858983,-0.19640225212644996,0.2,-1.1448662038788189,-0.2830781025987966,0.2,-0.56412052811961,-0.5306248883893833,0.2,0.7659120798653559,-0.3659094333087337,0.2,-0.08879309216540855,-0.2338491629844657,0.2,0,
1.712456655108029,0.3355137835121996,-0.17783180013972513,0.2,-0.5635963210993199,-0.21583693279057792,0.2,-1.1514399553477146,-0.5027038769844783,0.2,-0.568259760451617,-0.08403812302214264,0.2,0.7669220531197746,0.12651697527094052,0.2,-0.09166971130449178,-0.1255486815076824,0.2,0,
1.7204587890104028,0.33223945404187494,-0.46649070047755437,0.2,-0.5678152077105475,-0.42114022847902083,0.2,-1.1529094659105705,-0.027417561855758166,0.2,-0.5654651380879643,-0.0458538758764393,0.2,0.767936351469691,-0.02454159120671845,0.2,-0.09080187106953147,-0.04349241702757828,0.2,0,
1.728460922912777,0.32804993230455876,-0.23521114510904537,0.2,-0.5703345647549842,-0.24507820304658923,0.2,-1.1518786363374067,-0.157229031762407,0.2,-0.56899342246564,-0.36705926208771555,0.2,0.7665293876604671,-0.3217062651258776,0.2,-0.09236558997693303,-0.16137290710298638,0.2,0,
1.736463056815151,0.3284760757201302,-0.26404901765963645,0.2,-0.5717364589592929,-0.32628288099612046,0.2,-1.155425130418769,-0.12123496346362617,0.2,-0.5713380862813677,-0.4290615648446794,0.2,0.7627890512276769,-0.360165448797925,0.2,-0.09338383758317925,-0.05666382717242537,0.2,0,
1.7444651907175248,0.32382514802200457,-0.594600269628695,0.2,-0.5755550908509222,-0.6109542928631125,0.2,-1.1538183957528247,-0.10276696056989165,0.2,-0.5758584075031549,-0.3364398718704309,0.2,0.7607667404797003,0.13461672087055482,0.2,-0.09327221121169184,-0.1851883847879803,0.2,0,
1.7524673246198987,0.3189624714060711,-0.15734715448824377,0.2,-0.5815117276451027,-0.17556319789934632,0.2,-1.1570694017878873,-0.318361696440117,0.2,-0.5767211242312946,-0.28456060273381045,0.2,0.7649429187616058,-0.025694918669910694,0.2,-0.09634685173978694,-0.18797798279604655,0.2,0,
1.7604694585222727,0.32130759355019267,0.14557123372075514,0.2,-0.5783641020173117,0.05014302734602377,0.2,-1.1589121828958666,-0.46876922535891985,0.2,-0.5804113771468958,-0.3286956334018626,0.2,0.7603556217809817,-0.6189395615241663,0.2,-0.09627985893642858,-0.2196010607485874,0.2,0,
1.7684715924246468,0.3212916111456032,-0.15859707227570963,0.2,-0.5807094392075663,-0.3977303508752375,0.2,-1.16456970939363,-0.22921519507158872,0.2,-0.5819802543657244,-0.11344273093032153,0.2,0.7550398857772191,0.15271707187526629,0.2,-0.09986046871176434,-0.07487284509641919,0.2,0,
1.7764737263270207,0.3187700403937813,-0.4521717985494014,0.2,-0.5847277876313155,-0.47508139385955134,0.2,-1.162579626017012,0.0873202451925209,0.2,-0.582226460841781,-0.2840338555179789,0.2,0.762799094930986,0.15877344835165536,0.2,-0.09747782445797129,0.17016918938699171,0.2,0,
1.7844758602293946,0.31405686236881275,-0.5534405943373663,0.2,-0.5883107415093192,-0.3074340357992478,0.2,-1.1631725854705497,-0.3739438923465038,0.2,-0.5865247960540121,-0.4954045991411374,0.2,0.7575802609508456,-0.42830394199885186,0.2,-0.09713776168157247,0.02215461821715014,0.2,0,
1.7924779941317686,0.30991499088438346,-0.6323126956619615,0.2,-0.5896467322041035,-0.5089057849347739,0.2,-1.168562728294556,-0.3865769879429076,0.2,-0.5901529344280392,-0.3570006734516726,0.2,0.7559462318590043,-0.11795833943330225,0.2,-0.09712335056649689,-0.07394019486372562,0.2,0,
1.8004801280341425,0.30393985923822137,-0.4594581213214072,0.2,-0.5964532340682756,-0.3029634172422718,0.2,-1.1693578172776362,-0.1455750865870381,0.2,-0.5922368068292388,-0.22739776530230488,0.2,0.7556929275199128,-0.21807642773835623,0.2,-0.09832080479939208,-0.03686814311591128,0.2,0,
1.8084822619365166,0.30256366094324094,-0.028525352379453472,0.2,-0.5944941468799798,0.05478764606561132,0.2,-1.1708919296799487,-0.26280011165651096,0.2,-0.5937912986728761,-0.23306344730734257,0.2,0.7524570090151906,-0.27647435482499455,0.2,-0.09771324085635147,-0.04782161760084891,0.2,0,
1.8164843958388905,0.3034834536001501,-0.07020598825300053,0.2,-0.5955766317312258,-0.3093486745210927,0.2,-1.1735626190641404,-0.08783217388723397,0.2,-0.5959658219861563,-0.31610644759535317,0.2,0.7512693378427129,-0.16911391791510355,0.2,-0.09908595068100566,-0.2701605390804298,0.2,0,
1.8244865297412645,0.30144036513119293,-0.409194982929198,0.2,-0.5994437256723173,-0.27927682918887226,0.2,-1.1722972444621444,-0.285840813079169,0.2,-0.5988490018344017,-0.06489330116638686,0.2,0.749751186328549,-0.32149223078190015,0.2,-0.10203580948163835,0.016564736631600498,0.2,0,
1.8324886636436384,0.29693633387328294,-0.5628723749408516,0.2,-0.6000450609982477,-0.253794678450818,0.2,-1.178136072073407,-0.455486722341622,0.2,-0.5970041148048185,-0.32124217850070663,0.2,0.7461254621502025,-0.18830140932684508,0.2,-0.09882091489490005,0.20372101095809425,0.2,0,
1.8404907975460125,0.2924344071321393,-0.5412551203268084,0.2,-0.6035044405275304,-0.5747622340115249,0.2,-1.1795850320196104,-0.3216592235521232,0.2,-0.603988876690413,-0.43406393709658625,0.2,0.7467383637793195,-0.025091581366140647,0.2,-0.09877627330630884,0.00547332804759753,0.2,0,
1.8484929314483864,0.288276251948054,-0.14930919459678685,0.2,-0.6092412567424321,-0.4466927561698267,0.2,-1.183282619650241,-0.2499242543894109,0.2,-0.6039491377983639,-0.16752513830722848,0.2,0.7457239968483442,-0.18545480141860665,0.2,-0.09873334164613849,0.13142216177189792,0.2,0,
1.8564950653507604,0.2900454600185907,0.010845647354033872,0.2,-0.6106515246262476,-0.40264353899997773,0.2,-1.183583820089841,-0.26093072521223004,0.2,-0.6066692789033287,-0.2865260376540557,0.2,0.7437710869566218,-0.268205429934297,0.2,-0.09667351871795847,-0.15147362428262132,0.2,0,
1.8644971992531343,0.28844978230571855,-0.39402701773401033,0.2,-0.6156835533664318,-0.4334151769009448,0.2,-1.1874575112536367,-0.39856940947788355,0.2,-0.6085335544008288,-0.13271459024201404,0.2,0.7414327099693955,-0.20872512384364356,0.2,-0.10115691963466043,-0.2319325709277311,0.2,0,
1.8724993331555082,0.28374102773484655,-0.5744452736603997,0.2,-0.6175861674566627,-0.23948683048673203,0.2,-1.1899609306414871,-0.22818290566881116,0.2,-0.6087927123472009,-0.380772256253159,0.2,0.7404314849751235,-0.04231656865134881,0.2,-0.10038443985280217,0.12244057224022192,0.2,0,
1.8805014670578823,0.27925865792715215,-0.42028634156001177,0.2,-0.6195153426542195,-0.5117184670141647,0.2,-1.1911084377443377,-0.15719612958481344,0.2,-0.6146259105008793,-0.3369207790301504,0.2,0.7407556448709739,-0.1444030920773956,0.2,-0.09919787047881688,0.2956146317511831,0.2,0,
1.8885036009602563,0.27701644626988636,-0.26355590374397414,0.2,-0.6257736629288894,-0.24983927456199984,0.2,-1.1924760687148441,-0.21214224956869754,0.2,-0.6141834448116833,-0.16793529403783675,0.2,0.7381210355018851,-0.14703916344133844,0.2,-0.09565460574478324,-0.009026055400714918,0.2,0,
1.8965057348626302,0.27504176346724857,-0.5216516227895887,0.2,-0.6235127710472115,0.0678800697554785,0.2,-1.1945027137374369,-0.2687313552204307,0.2,-0.6173128752054847,-0.44391767666149273,0.2,0.7384030182559125,-0.049810358421331635,0.2,-0.09934228736522832,-0.07244265191496974,0.2,0,
1.904507868765004,0.26867002030525294,-0.25537527551870026,0.2,-0.6246875818128017,-0.40198122349190124,0.2,-1.196775770398371,-0.33840769139191484,0.2,-0.6212861276382672,-0.21910227068613897,0.2,0.7373240697671438,-0.311844276744605,0.2,-0.09681368817542275,0.015056569109776936,0.2,0,
1.912510002667378,0.27095575905894936,-0.010294889715014438,0.2,-0.6299444706230819,-0.7284378722504092,0.2,-1.1999172367997075,-0.35080294788084054,0.2,-0.620818511536463,-0.2076798121488435,0.2,0.7334135098279988,-0.29974723089398053,0.2,-0.09910138225947189,-0.08208498543633198,0.2,0,
1.9205121365697522,0.2685053020698127,-0.4941218783056367,0.2,-0.6363425877688083,-0.6485494442790007,0.2,-1.2023886175644645,-0.21925819637651223,0.2,-0.6246090046326487,-0.255924758471672,0.2,0.7325281140728401,-0.18491638055392196,0.2,-0.09812704794240407,-0.03238529569888661,0.2,0,
1.928514270472126,0.2630498090060592,-0.4794330672711067,0.2,-0.6403212617315459,-0.1369726409869501,0.2,-1.2034253679417317,-0.08409287282812317,0.2,-0.6249133076720097,-0.2693934896995029,0.2,0.730454847739136,-0.32760430628553383,0.2,-0.09961954699065408,0.21252320000971284,0.2,0,
1.9365164043745,0.260834372993475,-0.47725369863002226,0.2,-0.6385341500245995,-0.2685829185065172,0.2,-1.2037341035297144,-0.37153450327635784,0.2,-0.6289193004678407,-0.44264346544888034,0.2,0.7272864451722716,-0.16712736403229345,0.2,-0.09472667674224866,0.04478009360182802,0.2,0,
1.944518538276874,0.2554137498279788,-0.2945685658020287,0.2,-0.6446185884276502,-0.5749380097881396,0.2,-1.2093699199941534,-0.4752425849890163,0.2,-0.6319956031191918,-0.34574173795575563,0.2,0.7277808099146194,-0.06651373425717311,0.2,-0.09890306549302483,0.06469758297693046,0.2,0,
1.9525206721792479,0.25612127594064255,-0.2226100093077714,0.2,-0.6477331581812097,-0.2785629018742866,0.2,-1.2113379848895387,-0.3840709781621904,0.2,-0.6344511682751328,-0.0633821350877542,0.2,0.7262222254241568,-0.058427664426000114,0.2,-0.09369151541461777,0.12602130430642253,0.2,0,
1.960522806081622,0.2518519896790545,-0.4763099022740986,0.2,-0.6490755948576388,-0.22153705058979012,0.2,-1.2155150556447485,-0.18537908792873314,0.2,-0.6330097172805959,-0.16489698586219514,0.2,0.7268459672838034,-0.09494657645708199,0.2,-0.09688672462412207,-0.40488474922409107,0.2,0,
1.968524939983996,0.24850031750425697,-0.5745880038453434,0.2,-0.6512777509906463,-0.2460545593016769,0.2,-1.2143040502963984,-0.01828795736814881,0.2,-0.6370895200489279,-0.10788125256920578,0.2,0.7247030802008435,-0.4271281845966146,0.2,-0.10016967140220323,0.163405090559671,0.2,0,
1.9765270738863698,0.24265858161752898,-0.43808501621166346,0.2,-0.6530124678064656,-0.43156496486271984,0.2,-1.2158076629626389,-0.3330286400191479,0.2,-0.6347358173217031,-0.23376900791695354,0.2,0.7200119163302575,-0.3544220130540787,0.2,-0.09427224317516733,0.4470513385919925,0.2,0,
1.9845292077887438,0.24149095724487035,-0.3444225337505824,0.2,-0.6581827904284498,-0.5803493625679903,0.2,-1.2196325085367048,-0.41941576905168976,0.2,-0.6408298241755992,-0.3907023804418097,0.2,0.7190323279919782,-0.1770662436320139,0.2,-0.09301684998473135,-0.30623233848303416,0.2,0,
1.992531341691118,0.23714782107751967,-0.46577076265139594,0.2,-0.6622980576075534,-0.24921589961065388,0.2,-1.222518315267466,-0.1948371297071788,0.2,-0.6409870554087721,0.06862881593981685,0.2,0.7171788564321453,-0.019303608149313922,0.2,-0.09917196059089588,-0.14931406205051945,0.2,0,
2.0005334755934916,0.23403862504244802,0.007236090003748252,0.2,-0.6621702448222203,-0.36452582134851447,0.2,-1.2227499026120197,-0.15765145089725874,0.2,-0.6397317631205621,-0.13638150918309638,0.2,0.7187234702615892,0.1150191073166218,0.2,-0.09540587497753966,0.16857614192493983,0.2,0,
2.0085356094958655,0.23726359851757964,-0.483849916080286,0.2,-0.6681304707491297,-0.6217365358631918,0.2,-1.225040738481822,-0.37157884106917005,0.2,-0.6431691595557016,-0.2931282796558854,0.2,0.7190191621492112,-0.1359316678522446,0.2,-0.09647474232009684,-0.025401756943039915,0.2,0,
2.01653774339824,0.22629702638516344,-0.6269205600210274,0.2,-0.6721180293960314,-0.27928790545940496,0.2,-1.2286951640691264,-0.4353094715236344,0.2,-0.6444218155950563,-0.3133438366747926,0.2,0.7165485635759533,-0.4505882392128041,0.2,-0.0958123030886283,0.4925867434800255,0.2,0,
2.024539877300614,0.2272328695572432,-0.2310838769156373,0.2,-0.6725990772364802,-0.5312970450804879,0.2,-1.2320056900262002,-0.4795418121257,0.2,-0.6481826609424983,-0.2809455863013663,0.2,0.7118097503218064,-0.4408028107612469,0.2,-0.08859335442441643,0.38820511866224755,0.2,0,
2.0325420112029877,0.22259968435451324,-0.7403685645554058,0.2,-0.6806187821173192,-0.6200693381777158,0.2,-1.2363678330631376,-0.33473027359078034,0.2,-0.6489169449758782,-0.3240535320023427,0.2,0.7094957186037734,-0.10411485109545343,0.2,-0.08960102119003234,-0.14130002152802895,0.2,0,
2.0405441451053616,0.2153869725243567,-0.2478426121032412,0.2,-0.6825201866473236,-0.45187387875338103,0.2,-1.2373613744036527,-0.17528658375753903,0.2,-0.6533675174545358,-0.30066856480028686,0.2,0.7101439127042791,0.029742731158910463,0.2,-0.0908541547688649,-0.017041171335094307,0.2,0,
2.0485462790077356,0.21863420256086138,-0.07667317618371972,0.2,-0.6878487641773733,-0.41114470239028006,0.2,-1.2391724184032582,-0.3448075497484576,0.2,-0.6537276420126827,-0.2660912982079891,0.2,0.7099716023023159,-0.25247350095309457,0.2,-0.08987367993139385,0.06296884548263708,0.2,0,
2.0565484129101095,0.2141602017054172,-0.6963958802050554,0.2,-0.6890985018855681,-0.23240475993451665,0.2,-1.242878295199628,-0.16765372253400856,0.2,-0.6576249782258636,-0.18440795021061607,0.2,0.7061043366890296,-0.6748299276632049,0.2,-0.0898466532411427,0.04892746590913228,0.2,0,
2.0645505468124834,0.2074918684775805,-0.387521018803183,0.2,-0.6915672403363256,-0.35492557462359076,0.2,-1.2418548779638023,-0.33818742390830103,0.2,-0.6566781692160526,0.13541323102070346,0.2,0.6991743234597046,-0.20246072111883978,0.2,-0.08909084047684773,0.2732830039491492,0.2,0,
2.0725526807148573,0.20795986540456626,-0.29932471634179847,0.2,-0.6947773110795455,-0.445880679247182,0.2,-1.2482892939821608,-0.2179336477305116,0.2,-0.6554583665295324,-0.23890717257213367,0.2,0.7028649651511282,0.12685876644559502,0.2,-0.08547412517795631,0.2972228830442842,0.2,0,
2.0805548146172312,0.20270267301611172,-0.702628517099119,0.2,-0.6987013312042805,-0.44135276503260573,0.2,-1.2453418163274905,-0.07882565333472424,0.2,-0.6605006839772067,-0.3715480880949404,0.2,0.7012040637228342,-0.24988985934500801,0.2,-0.08433527434813919,-0.10203906698023381,0.2,0,
2.0885569485196056,0.19671780913098036,-0.5173098355246205,0.2,-0.7018389553200672,-0.5405721338820613,0.2,-1.2495505044355164,-0.7049696008123163,0.2,-0.6614031359390514,-0.25028767022518966,0.2,0.698866727401608,-0.430191290611677,0.2,-0.08710675024964006,0.08637377563076604,0.2,0,
2.0965590824219795,0.1944257156477178,-0.29019286324025,0.2,-0.7073504853463934,-0.5231767325867206,0.2,-1.2566213299404876,-0.39397150205137954,0.2,-0.6645052867008098,-0.023988274450006952,0.2,0.6943210030730473,-0.1993429132478297,0.2,-0.08295329393804693,0.3621043830991698,0.2,0,
2.1045612163243534,0.19207472331913636,-0.3888406790478957,0.2,-0.7102097830414548,-0.4591907189262501,0.2,-1.2558540484683385,-0.24008108879412793,0.2,-0.6617869483302515,-0.10807333677002873,0.2,0.6956772407896428,0.0681106477716173,0.2,-0.08131308012005334,0.12417848768784233,0.2,0,
2.1125633502267274,0.18820426478295146,-0.45646689771790605,0.2,-0.7146975368492134,-0.31738317557743895,0.2,-1.2604626273611936,-0.5128088271415115,0.2,-0.6662344600891302,-0.21725054391744797,0.2,0.6954107734373932,-0.2274604814777939,0.2,-0.08096643813504145,0.19385890614848597,0.2,0,
2.1205654841291013,0.18477125295564986,-0.4202918331500972,0.2,-0.7152879138506938,-0.3158472016680791,0.2,-1.2640589897026027,-0.35278813803256426,0.2,-0.6652629570329307,-0.0961851137874642,0.2,0.6920378730859981,-0.20994173816395179,0.2,-0.07821133762167756,0.29758966883694155,0.2,0,
2.128567618031475,0.1814795954525499,-0.477882810554579,0.2,-0.7197510920759027,-0.5090138790593002,0.2,-1.2661072375697147,-0.2788626617098028,0.2,-0.6677734219097297,-0.42432887846147876,0.2,0.69205170562677,-0.35491894385744627,0.2,-0.07620500343365039,-0.027063243233677904,0.2,0,
2.136569751933849,0.1771251279867766,-0.6400679853108132,0.2,-0.7234321359156426,-0.373408869367417,0.2,-1.2685207922899595,-0.12527590565732105,0.2,-0.6720522190883144,-0.2750956883729866,0.2,0.6863591699842789,-0.4278422075821853,0.2,-0.07864434951341641,0.01957951122188214,0.2,0,
2.144571885836223,0.1712385076875769,-0.6683354482936738,0.2,-0.7257256339857814,-0.3830710257987785,0.2,-1.2681116520602318,-0.4175883045334089,0.2,-0.6721749529236974,-0.017677615862965457,0.2,0.685206230305455,-0.008146163348217439,0.2,-0.07589173125410027,-0.09501640479773164,0.2,0,
2.152574019738597,0.16643176081407782,-0.4510014318309819,0.2,-0.729561272328423,-0.4463924511640127,0.2,-1.275202205162494,-0.5254964843465354,0.2,-0.6723350609421218,-0.08969256210823728,0.2,0.6862288313707074,-0.20161909476011652,0.2,-0.08016461199018012,0.1423934779180222,0.2,0,
2.160576153640971,0.16402248477828119,-0.36328423993499737,0.2,-0.7328679132044056,-0.5060554686452736,0.2,-1.2765195958097764,-0.2399475149291036,0.2,-0.6736100339174292,0.09544777072822974,0.2,0.6819803247892932,-0.07421059886017489,0.2,-0.07361343560741192,0.49776229768886626,0.2,0,
2.1685782875433453,0.16061921297511786,-0.4453895944098694,0.2,-0.7376581598267474,-0.48065421442462786,0.2,-1.2790413654013597,-0.2834487372892214,0.2,-0.6708078966104701,0.01511738935418977,0.2,0.6850414617889447,-0.18877951330276838,0.2,-0.07220041522715825,-0.08424685783459551,0.2,0,
2.176580421445719,0.15689625126772327,-0.4389130894221979,0.2,-0.7405583806351996,-0.5512511973769924,0.2,-1.281054775606404,-0.4621722181388649,0.2,-0.6733681556877622,-0.5241584280539016,0.2,0.6789598525764489,-0.47150488181075395,0.2,-0.07496138533276545,-0.15365951437774047,0.2,0,
2.184582555348093,0.1535966035443627,-0.2598438845241267,0.2,-0.7464781789847793,-0.31493123494969605,0.2,-1.2864361208915815,-0.27544751758536157,0.2,-0.6791944314593326,-0.33491496345455785,0.2,0.6774973836799726,-0.3348870837250398,0.2,-0.0746589674572021,0.1604087055814213,0.2,0,
2.192584689250467,0.15273874911533725,-0.38132036646431644,0.2,-0.7455972803943948,-0.24810686794015518,0.2,-1.2854619358877697,-0.20171923099959743,0.2,-0.6787267951030351,0.18608047013913415,0.2,0.6736016592368482,-0.33219189560446116,0.2,-0.0723948460434627,0.20224163851872023,0.2,0,
2.200586823152841,0.14749547768093363,-0.5995134116991828,0.2,-0.7504478888718218,-0.9594272421807534,0.2,-1.289663628587575,-0.3480125443053733,0.2,-0.6762171439371064,0.10574019620433056,0.2,0.6721823133503012,-0.18124781467278306,0.2,-0.07142310124090258,0.14807672853107792,0.2,0,
2.208588957055215,0.14314653452815032,-0.545901209771129,0.2,-0.7609481162692868,-0.6866620096691242,0.2,-1.2910301365966557,-0.27053495827648877,0.2,-0.6770349519637658,-0.1674720685873321,0.2,0.6707016942020837,-0.18360334659963534,0.2,-0.07002561838696546,0.48127777460199234,0.2,0,
2.2165910909575888,0.13876105832459557,-0.5944527869827034,0.2,-0.7614344810265278,-0.31430294149243504,0.2,-1.293992187919999,-0.49161837578176604,0.2,-0.6788966970345037,-0.2311884534191705,0.2,0.669244659804707,-0.25872949654242444,0.2,-0.0637226568472707,0.5045890541614237,0.2,0,
2.2245932248599627,0.13363528993642707,-0.3704272398460575,0.2,-0.7659769633331658,-0.626064824965411,0.2,-1.298896030609164,-0.3596386598074819,0.2,-0.6807339672184726,-0.17499256055181212,0.2,0.6665620222574049,-0.14300937800752062,0.2,-0.06195219352038268,0.02656970900267227,0.2,0,
2.2325953587623366,0.13283422248705865,-0.41573612169623975,0.2,-0.7714515182259744,-0.3896954810515829,0.2,-1.2997464064769186,-0.3440869035514216,0.2,-0.6816965780033327,-0.2841080276903274,0.2,0.6669565097565867,-0.2835473385579615,0.2,-0.06329754150322794,-0.026540997707366187,0.2,0,
2.240597492664711,0.12698351198928723,-0.3810762781378662,0.2,-0.7722120910299911,-0.3678459155641439,0.2,-1.3044014210659867,-0.42590517438642617,0.2,-0.6852796956615178,-0.2947031101762851,0.2,0.6620252648404775,-0.21225626014845234,0.2,-0.062376849483700536,0.17102382138681813,0.2,0,
2.248599626567085,0.12673700203685279,-0.059413283110185816,0.2,-0.7773370528750007,-0.40737903193249075,0.2,-1.3065608892671015,-0.31338937234885733,0.2,-0.6864118277661533,-0.3007543601223489,0.2,0.6635604095942115,-0.041399360145341624,0.2,-0.060561160361038854,0.5343725279642114,0.2,0,
2.256601760469459,0.12603289945952426,-0.7269954991656153,0.2,-0.778730155540911,-0.38264716410269656,0.2,-1.3094156510235684,-0.4958227015532529,0.2,-0.6900917654234754,0.1515309617546104,0.2,0.6613628750781521,-0.37453878111141925,0.2,-0.053826889036273154,0.4180903754872891,0.2,0,
2.2646038943718327,0.11510507405020294,-0.7512331091705038,0.2,-0.7834594075006438,-0.5095626184840676,0.2,-1.3144940524919535,-0.2911106275800823,0.2,-0.6839873323780795,0.22242809588288864,0.2,0.6575677890964288,-0.2655723503784818,0.2,-0.05387171435324223,0.0071153490281208875,0.2,0,
2.2726060282742067,0.1140131697127962,-0.4715617696784899,0.2,-0.786883157436656,-0.6194659434399785,0.2,-1.3140734210648497,-0.2162265925537421,0.2,-0.6865329158893492,-0.3171103830046096,0.2,0.6571137174720963,-0.05597729112422761,0.2,-0.05371304345182322,0.06891019177142008,0.2,0,
2.2806081621765806,0.1075600857353471,-0.38775814634249905,0.2,-0.7933708625956835,-0.2952611684103462,0.2,-1.3179536779728134,-0.3921896660299684,0.2,-0.6890610985061533,-0.1328930066899145,0.2,0.6566721524384411,-0.459176961648336,0.2,-0.05276915128489951,0.09229418926325451,0.2,0,
2.2886102960789545,0.10780903937131621,-0.4516872591815461,0.2,-0.7916073361312216,-0.34158390130272637,0.2,-1.3203484557213292,-0.1842560591251846,0.2,-0.6886592039963878,-0.02323608944401756,0.2,0.649766886085723,-0.3642808838113798,0.2,-0.05223633642361115,0.2581802549229571,0.2,0,
2.2966124299813284,0.10033308958844236,-0.6038824844519629,0.2,-0.7988362050165271,-0.7768783805669407,0.2,-1.3209017749188163,-0.34076091949299114,0.2,-0.6894328759372575,-0.31629036068776817,0.2,0.650843658297459,-0.11135729715145565,0.2,-0.048638267206132194,0.23982419954951192,0.2,0,
2.3046145638837023,0.0981469196200848,-0.3216924713365316,0.2,-0.8040373902202926,-0.6395727696261871,0.2,-1.325800630433217,-0.4751616562751748,0.2,-0.6937198497673921,-0.19826945859165862,0.2,0.6479851693312997,-0.21693552880259342,0.2,-0.04839914923081896,0.3750857037664516,0.2,0,
2.3126166977860763,0.09518601004705786,-0.6115194489719928,0.2,-0.8090693693305461,-0.22575333281921878,0.2,-1.3285043614192191,-0.5903944967294711,0.2,-0.6926051872747241,0.0027837907856029243,0.2,0.6473726898366176,0.10298971701733217,0.2,-0.04263689594586897,0.10399086096067904,0.2,0,
2.3206188316884506,0.08836260843653292,-0.9439573698682711,0.2,-0.8076494435454001,-0.40099766203242904,0.2,-1.3352469423808886,-0.439788258537091,0.2,-0.6936753091148224,0.07712362201323791,0.2,0.649633004803577,-0.35640317905701047,0.2,-0.04673529545544809,0.09362067371425364,0.2,0,
2.3286209655908245,0.08008269212916552,-0.18414178061859546,0.2,-0.8154853319230649,-0.5969757402584444,0.2,-1.3355409735558126,-0.04467395851824596,0.2,-0.6913712093225123,0.138933074411908,0.2,0.6416702389717054,-0.5050283114781257,0.2,-0.04113896516644091,0.44731849714191,0.2,0,
2.3366230994931985,0.08541633994663539,-0.20147818285875477,0.2,-0.8172010553895352,-0.57444840794528,0.2,-1.3359617257171805,-0.4696464847074172,0.2,-0.6914523799242319,-0.1117892742282453,0.2,0.641552551819927,-0.16803202011638624,0.2,-0.03957819950117753,0.35351852653499977,0.2,0,
2.3446252333955724,0.07685904120342545,-0.6056122737821655,0.2,-0.8246765064501894,-0.41967744715250277,0.2,-1.3430553173111313,-0.5188551539172803,0.2,-0.6931598377101642,-0.16493148566913696,0.2,0.6389817266498432,-0.345119595038218,0.2,-0.03548266874188091,0.3145473349124212,0.2,0,
2.3526273672979463,0.07572654356612074,-0.4133838548266233,0.2,-0.8239158945439753,-0.23810072071004523,0.2,-1.344263408179857,-0.34017546623875405,0.2,-0.6940912836949381,-0.15745495758594935,0.2,0.6360306382993155,-0.3102262155701696,0.2,-0.03454544214257879,0.10111388899150096,0.2,0,
2.3606295012003202,0.07024489952619947,-0.5349481698460082,0.2,-0.8284861179815501,-0.6013266947208842,0.2,-1.3484981247709513,-0.4379053559794427,0.2,-0.6956791170315394,-0.31713254544263325,0.2,0.6340181072007205,-0.48269446408043953,0.2,-0.0338648465180169,-0.10809702230751665,0.2,0,
2.368631635102694,0.06716737284858461,-0.6303114863488815,0.2,-0.8335371216595094,-0.6286817818961926,0.2,-1.351269893875528,-0.1451093871042558,0.2,-0.6991654044220202,0.19485546214964566,0.2,0.6283075268740285,-0.17957958366375537,0.2,-0.03627499449949906,0.38527586336608066,0.2,0,
2.376633769005068,0.06015991574461737,-0.5450111304098494,0.2,-0.8385450264918892,-0.5587094328119296,0.2,-1.3508198749646194,-0.37721201537414817,0.2,-0.6925614296371451,0.11383570626708611,0.2,0.6311448338621004,0.05429683540647545,0.2,-0.027700432704159606,0.530563986252089,0.2,0,
2.384635902907442,0.05844719476202702,-0.24706295442398182,0.2,-0.8424764725845003,-0.45465142920377705,0.2,-1.3573052861215145,-0.5715766079411877,0.2,-0.6973440331217469,-0.27046936642761976,0.2,0.6291762762405321,-0.28570273850762884,0.2,-0.027785970719465633,0.08988790973449398,0.2,0,
2.3926380368098163,0.05620690847383366,-0.6258124606598938,0.2,-0.8458194493591497,-0.4807688123368986,0.2,-1.3599651006916784,-0.3455453993719826,0.2,-0.696888939499987,0.041158036291961964,0.2,0.6265735900459783,-0.16923555101738819,0.2,-0.026262226148407702,0.2531799841100986,0.2,0,
2.4006401707121903,0.04843419539146872,-0.7823814649059514,0.2,-0.8501687735818907,-0.5039361809119902,0.2,-1.3628340125114662,-0.23530489101834806,0.2,-0.6966855045410755,-0.16744842380776725,0.2,0.6264685074242539,-0.005380348469329055,0.2,-0.023735090973704055,0.132705303667339,0.2,0,
2.408642304614564,0.04368880503533844,-0.39157670518614496,0.2,-0.8538824282537415,-0.5105449386033425,0.2,-1.363729978947972,-0.4504318473712299,0.2,-0.6995681142809113,-0.05470847698713088,0.2,0.6264875044704691,-0.1833868514534917,0.2,-0.02413894128973028,0.4881891493080915,0.2,0,
2.416644438516938,0.0421689681084904,-0.1646835067298019,0.2,-0.8583374925995442,-0.49536580899506993,0.2,-1.3700409220694059,-0.36723179300843234,0.2,-0.6975608401728696,0.007221425007593318,0.2,0.623534317800998,-0.42579981156469493,0.2,-0.01592406458477459,0.11425538468841237,0.2,0,
2.424646572419312,0.04105386892766161,-0.44266904223240344,0.2,-0.8618082811976626,-0.2736580084278725,0.2,-1.369605687636107,-0.24426871301931607,0.2,-0.6994525714807898,-0.257780280974694,0.2,0.619674707485434,-0.26538574343933086,0.2,-0.02231085513471568,-0.07352953828255407,0.2,0,
2.432648706321686,0.03508626343277194,-0.6231000927138037,0.2,-0.8627160207343901,-0.49006172394493175,0.2,-1.373949221477715,-0.5984322858826746,0.2,-0.7016853246684647,-0.026129481295510126,0.2,0.6192881459059687,-0.27273828402202965,0.2,-0.017100537197295457,0.510926519717097,0.2,0,
2.44065084022406,0.031084267444240747,-0.3961827713971238,0.2,-0.8696492687807815,-0.5473380614543916,0.2,-1.3791806042102297,-0.3407132175644312,0.2,-0.6998706431815179,-0.03918240978467713,0.2,0.6153108949410815,-0.41046104576407394,0.2,-0.014136030819242128,0.1554767668001608,0.2,0,
2.448652974126434,0.02874733909041796,-0.6078982617804695,0.2,-0.8714734297176604,-0.5793142825988514,0.2,-1.3794006329587458,-0.2726679104135127,0.2,-0.7023122432250195,-0.11544412744094595,0.2,0.6127207691737435,-0.36067009732937416,0.2,-0.014612908928492884,0.05205067387170376,0.2,0,
2.4566551080288077,0.021357895255753236,-0.8485212402330014,0.2,-0.8789182973023631,-0.7659433488820185,0.2,-1.383543290776846,-0.5583906831555241,0.2,-0.7017177492205731,-0.005917347591651023,0.2,0.6095401733838115,-0.13398670057618994,0.2,-0.013303220037294868,0.14876721594074482,0.2,0,
2.4646572419311816,0.01517099924668994,-0.524261576211533,0.2,-0.8837285232997727,-0.43394001981060526,0.2,-1.3883348838892342,-0.5148539839827243,0.2,-0.7024069207864859,0.05556639543510128,0.2,0.6105769819645245,-0.043494857809620036,0.2,-0.012232633473440967,0.3234208668591387,0.2,0,
2.472659375833556,0.012969710036368707,-0.4743164771153146,0.2,-0.8858613376193328,-0.5762105211886276,0.2,-1.3917809545205695,-0.27874156147472684,0.2,-0.7008286868936114,0.04279901277318837,0.2,0.6088442556588576,-0.1162039342770399,0.2,-0.00812848616754865,0.4794714053859535,0.2,0,
2.48066150973593,0.0075819356128449065,-0.5105963277214467,0.2,-0.8929478916387907,-0.3592086614367593,0.2,-1.3927947488728298,-0.20219005658089761,0.2,-0.7017221365821149,-0.029327266897839765,0.2,0.6087177190160918,-0.3851472042897888,0.2,-0.0045610909872657104,0.4402917043512743,0.2,0,
2.488663643638304,0.004800168792825559,-0.40918825149417043,0.2,-0.891608676202321,-0.3462098271577313,0.2,-1.3950159954258639,-0.3521612823889769,0.2,-0.7012979231639769,-0.17384943561252197,0.2,0.602681900390221,-0.5339950946505051,0.2,-0.0010838188979282607,0.2122171757295487,0.2,0,
2.4966657775406778,0.0010349235889381796,-0.2647982093611944,0.2,-0.8984872488733144,-0.7047796313628604,0.2,-1.3984293293910535,-0.3527593851855859,0.2,-0.7045037275519153,0.08406396119693682,0.2,0.6001737975016838,-0.29637204579648774,0.2,-0.001165616175592931,0.3151165549195581,0.2,0,
2.5046679114430517,0.0005633974430464491,-0.5177874083273656,0.2,-0.9028851503041267,-0.5082476284199305,0.2,-1.4006601455888332,-0.17864548238745448,0.2,-0.6999528997848259,0.27538239593481034,0.2,0.5979399476574772,-0.20032206863010438,0.2,0.003958045980784669,0.1641593564561752,0.2,0,
2.5126700453454256,-0.007249674944299672,-0.7250468944590681,0.2,-0.9066192109280333,-0.38123756256464025,0.2,-1.4012876571092527,-0.6027222329707538,0.2,-0.7000976092169583,0.043271225825813886,0.2,0.5969686444036021,-0.1685602623069174,0.2,0.001460933527705872,-0.015837544252417537,0.2,0,
2.5206721792477995,-0.011037352868298642,-0.6581251308258764,0.2,-0.908984951305161,-0.3208292398210605,0.2,-1.4103037013163653,-0.568073144911474,0.2,-0.6992605601716129,-0.0867563003633734,0.2,0.5952429834605665,-0.40517948242743684,0.2,0.0037046452727459885,0.5013683756375762,0.2,0,
2.5286743131501734,-0.017779677037513694,-0.49105717600291754,0.2,-0.9117524787651703,-0.6073916400058734,0.2,-1.4103768274278363,-0.1655029348626158,0.2,-0.7014857100227723,-0.16578170355530109,0.2,0.5904857726847631,-0.1861397027274822,0.2,0.009482827537907091,0.41592840746772936,0.2,0,
2.5366764470525474,-0.018894267684345323,-0.24999590031943753,0.2,-0.918703217545255,-0.6381203374797029,0.2,-1.4129517482741671,-0.473837910855604,0.2,-0.7019130674284977,0.16198675714914484,0.2,0.5922647482169268,-0.32138910567604956,0.2,0.010359499792229658,0.07390724989414683,0.2,0,
2.5446785809549217,-0.021779611442624695,-0.6198563529792842,0.2,-0.9219624041648455,-0.45579829482155637,0.2,-1.417958234001526,-0.4271819615058736,0.2,-0.698893921908386,0.2790702040347884,0.2,0.5853435469939463,-0.34870434998238165,0.2,0.01066534353621344,0.23592721190036903,0.2,0,
2.5526807148572956,-0.02881196933201387,-0.6815272040276265,0.2,-0.9259959902623999,-0.5021673689582159,0.2,-1.4197866596582611,-0.2794525529908609,0.2,-0.6974479441639411,-0.20815369276169088,0.2,0.5866854786172087,0.19290429233031342,0.2,0.014134335182635563,0.2867800962996482,0.2,0,
2.5606828487596696,-0.03268404670706672,-0.3304704682394351,0.2,-0.929997082068177,-0.4498822532913935,0.2,-1.4224294748493798,-0.43901747959027015,0.2,-0.702224380992573,-0.21006584400568712,0.2,0.5884300156712313,-0.13260654433878277,0.2,0.015253825077007812,0.09324512250378157,0.2,0,
2.5686849826620435,-0.03409949682384483,-0.41815705674536074,0.2,-0.9331941063150622,-0.7882457340915722,0.2,-1.4268109393317054,-0.4970723823261164,0.2,-0.7008089976680321,0.27335937253093745,0.2,0.5845637739077881,-0.4381371214513888,0.2,0.015626257142696068,0.39217544141122745,0.2,0,
2.5766871165644174,-0.03937455961499249,-0.577147693177485,0.2,-0.9426090138136421,-0.6608284505844955,0.2,-1.4303826329665976,-0.19664789074844147,0.2,-0.697850631032078,0.15767661568656666,0.2,0.5814198217280091,-0.3784003989274823,0.2,0.02152863213958745,0.604505182018818,0.2,0,
2.5846892504667913,-0.043333859914684594,-0.5354067384997787,0.2,-0.9437673615244141,-0.5395803025507947,0.2,-1.4299573055836805,-0.45428308796457983,0.2,-0.698286171817047,0.019771781244209974,0.2,0.5785093675249484,-0.06738802571838037,0.2,0.025298340054997155,0.1235688008618611,0.2,0,
2.5926913843691652,-0.04794106743098895,-0.5636625832884643,0.2,-0.9512422986544549,-0.44886805206494074,0.2,-1.437651162374031,-0.539923011699861,0.2,-0.6975342825321706,-0.15155475391672585,0.2,0.580341613316515,-0.11896846252607701,0.2,0.02350573295337723,-0.14775776801765955,0.2,0,
2.600693518271539,-0.052352461247300024,-0.5982344549120573,0.2,-0.9509492503574531,-0.24938276909917956,0.2,-1.4385960737708783,-0.17201810435256426,0.2,-0.7007110478797146,-0.0023894291755616193,0.2,0.5766058721245312,-0.46322581689788034,0.2,0.022934215766714602,0.25225275494869787,0.2,0,
2.608695652173913,-0.057512818709581866,-0.37817018262777197,0.2,-0.9552324229600417,-0.2786824850331826,0.2,-1.440403452043672,-0.2733800162515315,0.2,-0.6975725133989796,0.40187768600778717,0.2,0.5729300002461489,-0.39614214817398213,0.2,0.027541777032556395,0.3135505922649377,0.2,0,
2.616697786076287,-0.058403184169344376,-0.06593692526467776,0.2,-0.9554081701179841,-0.5691249073440791,0.2,-1.4429701540309028,-0.3715190291302961,0.2,-0.69428100490359,0.06245541547476169,0.2,0.5702675977537475,-0.5143359092689911,0.2,0.027951025242953606,0.19730384376777355,0.2,0,
2.6246999199786614,-0.05856780951381671,-0.5458969882305253,0.2,-0.964338421477547,-0.732140832216517,0.2,-1.4463477565097567,-0.49364413034454213,0.2,-0.6965732267513834,-0.17562421140459444,0.2,0.5647006256978451,-0.08641673269606243,0.2,0.030698638532840772,0.3907120829969232,0.2,0,
2.6327020538810353,-0.06713753598103278,-0.8451239891058889,0.2,-0.9671224234334483,-0.30648060091997137,0.2,-1.4508684601164155,-0.26009558628865836,0.2,-0.6970909922860635,0.05704914628770763,0.2,0.5688849300306105,0.0016365835448714505,0.2,0.03420241857090438,0.19939338682600696,0.2,0,
2.640704187783409,-0.07208979333951093,-0.42624064645085336,0.2,-0.9692421110922665,-0.434775457395474,0.2,-1.4505092858903752,-0.13781795734026103,0.2,-0.6956604404107801,-0.026485267123704803,0.2,0.564726811034563,-0.27531530882986266,0.2,0.03388893272205688,0.24009041051413535,0.2,0,
2.648706321685783,-0.07395738632424644,-0.4244263217182209,0.2,-0.9740788307517759,-0.507092999868855,0.2,-1.4530735474338596,-0.7119982938866287,0.2,-0.6975147565600428,-0.17819895146499454,0.2,0.5644798850893327,-0.05119883398742309,0.2,0.038043865139130544,0.008210125880828579,0.2,0,
2.656708455588157,-0.07888061448700247,-0.6652642224366104,0.2,-0.9773555990901682,-0.6733604989622651,0.2,-1.4619012585925613,-0.604078756081608,0.2,-0.69851162363422,0.40203893146328884,0.2,0.5639076296907642,-0.32109915204230066,0.2,0.03402029473615014,0.13539449136229986,0.2,0,
2.664710589490531,-0.0846016138832322,-0.4901738124519737,0.2,-0.9848525987351722,-0.7886958505143038,0.2,-1.4627388075311654,-0.3295256585345019,0.2,-0.6910821336566302,0.5025568651668144,0.2,0.5593422986566559,-0.2904311078494315,0.2,0.04021017700092734,0.45402391496160693,0.2,0,
2.672712723392905,-0.08672339548623405,-0.13094216886675153,0.2,-0.9899747326983971,-0.5063865656904711,0.2,-1.4671736691291133,-0.5395785056069025,0.2,-0.690470713791551,-0.02849263709954475,0.2,0.5592607319651733,-0.24917728517690613,0.2,0.04128467737553585,0.44774500860668764,0.2,0,
2.680714857295279,-0.08669668858510023,-0.4721874958815127,0.2,-0.9929547837862197,-0.2892155448518882,0.2,-1.4713720636208758,-0.25886667353787474,0.2,-0.6915380158502229,-0.00871679134992892,0.2,0.5553554620938254,-0.27715604321099097,0.2,0.047374097138634344,0.2895807743387053,0.2,0,
2.6887169911976527,-0.09427839542033825,-0.7449890320256682,0.2,-0.9946021814160273,-0.4187639362687387,0.2,-1.4713155359057193,0.006364332547428853,0.2,-0.6906101824531499,0.07818365065006411,0.2,0.5548262352737975,-0.35216045441634203,0.2,0.04591796976495514,0.23513913813715978,0.2,0,
2.696719125100027,-0.09861651309751092,-0.37810239840973137,0.2,-0.9996550067665195,-0.5190630037440469,0.2,-1.471270234300117,-0.11746515702609761,0.2,-0.6902870774398219,0.16282079790906623,0.2,0.5497208948231639,-0.47664800260621004,0.2,0.0511363233488289,0.30177886231592865,0.2,0,
2.704721259002401,-0.10032803379489395,-0.3590483458664256,0.2,-1.002907189475932,-0.2851397707112485,0.2,-1.4731949784181368,-0.6007961154036179,0.2,-0.6880050496866048,0.181404613622628,0.2,0.5471998672320981,-0.07687413115158026,0.2,0.050746431562009996,0.12461342348150808,0.2,0,
2.712723392904775,-0.10436128663137373,-0.5825418311379924,0.2,-1.0042172430978995,-0.7285683070170634,0.2,-1.4808829721465748,-0.65761822536968,0.2,-0.6873846036218598,-0.15901707221905453,0.2,0.5484909087247386,0.13069060201613414,0.2,0.05313013812453303,0.16870922811880287,0.2,0,
2.720725526807149,-0.10964870309310183,-0.6042498298829031,0.2,-1.014564282388205,-0.37272154953206516,0.2,-1.4837168700240517,-0.1014657945670322,0.2,-0.6905493228421097,-0.2959091463349134,0.2,0.5492909168643563,-0.053700747844831476,0.2,0.05344577921191084,0.172136159563067,0.2,0,
2.7287276607095228,-0.11402928390950018,-0.40679725527359084,0.2,-1.0101807878904125,-0.2457128730980057,0.2,-1.4825064248596473,-0.5283963493893234,0.2,-0.6921191499632184,0.15500353905595343,0.2,0.5476316967592213,-0.4688302986380066,0.2,0.0558843166775421,0.16020330351088422,0.2,0,
2.7367297946118967,-0.11615745917747929,-0.3559705928254178,0.2,-1.0184956883577732,-0.6641847545353075,0.2,-1.492171211614281,-0.7412746547725141,0.2,-0.6880692662172144,0.3033442565076386,0.2,0.5417896320861482,-0.5982835841838174,0.2,0.05600903206808499,0.1578777738810884,0.2,0,
2.7447319285142706,-0.11972481339470686,-0.5706383447935436,0.2,-1.0208077439629775,-0.44650011429407666,0.2,-1.4943668193360076,-0.07494797431636946,0.2,-0.6872656418590962,0.2922955055869175,0.2,0.5380591594122802,-0.30702961073919566,0.2,0.058410361059639516,0.30677502347365054,0.2,0,
2.7527340624166445,-0.12528767269417598,-0.42701552203933296,0.2,-1.0256396901864784,-0.3262861426266417,0.2,-1.4933703792033428,-0.13099512074975228,0.2,-0.6833925381278237,0.22704307134118612,0.2,0.536877158314321,-0.04282728477884162,0.2,0.0609174324436634,0.11706281663935143,0.2,0,
2.7607361963190185,-0.1265570617473362,-0.5354393646401674,0.2,-1.0260283222450037,-0.33307567106413694,0.2,-1.4964627412680036,-0.4049122167174013,0.2,-0.6836329527176372,0.10942095434069571,0.2,0.5373739228558188,-0.2871085509285193,0.2,0.06028336612586914,0.07105303965435203,0.2,0,
2.7687383302213924,-0.13385470252841866,-0.6630026373515806,0.2,-1.0309689009235046,-0.6868921991276672,0.2,-1.4998489746708212,-0.4230620931745255,0.2,-0.6816418028583726,0.08720166502620974,0.2,0.5322834214994647,-0.4096638840014183,0.2,0.06205428107813303,0.2153180107208035,0.2,0,
2.7767404641237667,-0.13716510394496148,-0.2938465680116832,0.2,-1.0370185974310464,-0.482422204592034,0.2,-1.503231734758796,-0.1016001159299118,0.2,-0.6822377260772179,0.24814596385634713,0.2,0.5308193007117961,-0.06307763705470232,0.2,0.063728454297402,0.2926832326452158,0.2,0,
