samirx20/RADAR/data/datasets/vibration_j1_21.csv
timestamp,actual_q_0,actual_qd_0,actual_current_0,actual_q_1,actual_qd_1,actual_current_1,actual_q_2,actual_qd_2,actual_current_2,actual_q_3,actual_qd_3,actual_current_3,actual_q_4,actual_qd_4,actual_current_4,actual_q_5,actual_qd_5,actual_current_5,protective_stop,fault_code
0.0,0.1989567244060662,0.3170831107540961,0.2,-0.5982918957914324,0.24046482061032548,0.2,-1.0022262234317658,1.733367897204449,0.2,-0.004206932517881593,2.1132827296123526,0.2,0.4999357751231786,0.3039598561110149,0.2,-0.29639608673663786,-0.5972411745228459,0.2,0,
0.008002133902373967,0.20149338929209898,0.2543532524118524,0.2,-0.5963681772265498,0.7809158389996129,0.2,-0.9883592802541302,1.163922551370905,0.2,0.012699329319017226,1.9168643696264003,0.2,0.5023674539720667,0.45707399424009876,0.2,-0.30117401613282063,-0.12198273837583581,0.2,0,
0.016004267804747934,0.20302637644465585,0.06180211710016259,0.2,-0.5857972423674386,1.1062171846096118,0.2,-0.9836034626098313,0.9758264804623009,0.2,0.026462897396140814,1.7212253649938487,0.2,0.5072489590310202,0.38810121846602486,0.2,-0.29834781055065124,0.49074697303061116,0.2,0,
0.0240064017071219,0.20248222316570158,0.3569703509917286,0.2,-0.578668702272796,0.8902039994812607,0.2,-0.9727460565667334,1.7477108439792333,0.2,0.040238935158918805,1.7283526958463182,0.2,0.5085770734675231,0.47536521569897794,0.2,-0.29332206456433085,0.22860923347316903,0.2,0,
0.03200853560949587,0.2087379020605235,0.21508695773683922,0.2,-0.5715539783757384,0.776935432022098,0.2,-0.9556400891061636,1.3253631127335823,0.2,0.05411654052968191,1.6497604810557167,0.2,0.5148548024822038,0.5900379199375444,0.2,-0.29469006281508053,-0.17580491113868696,0.2,0,
0.04001066951186984,0.205923614489491,-0.023672480288585568,0.2,-0.5662377353604424,0.43860769084211326,0.2,-0.9515402467629961,0.8407425646321312,0.2,0.06663510285581027,1.5956445322625505,0.2,0.5180176801865238,0.2726950409754139,0.2,-0.29613494314254984,-0.1788209771351433,0.2,0,
0.0480128034142438,0.20835914237590614,0.26765586334171615,0.2,-0.5645362553222646,0.9063079510081146,0.2,-0.9421882080720495,1.3401164978323956,0.2,0.07964685304588272,1.5756987788126684,0.2,0.5192179231378105,0.3383069568348787,0.2,-0.2975511984492428,0.028747086253264054,0.2,0,
0.05601493731661777,0.21020610830295847,0.20239867874806589,0.2,-0.5517368081443126,1.0092832855252907,0.2,-0.9300983827976778,1.4706035211996606,0.2,0.09184628331681297,1.6564320528001664,0.2,0.5234305914958819,0.3960206048380932,0.2,-0.2956749897624976,0.17178784297969263,0.2,0,
0.06401707121899174,0.2115975212358752,0.4866043821211228,0.2,-0.5483877227538599,0.6343451847227662,0.2,-0.9186585517328549,1.1287815332425912,0.2,0.10614976589068538,1.8516464011577252,0.2,0.52555425281522,0.4115270256262113,0.2,-0.29480259296156774,0.06349402970419471,0.2,0,
0.0720192051213657,0.21799177841689643,0.26477832293459597,0.2,-0.5415872851887483,0.6199789066206676,0.2,-0.9120378782657963,1.0663911853039387,0.2,0.12147262573533657,1.4355564852728169,0.2,0.5300150239059013,0.40615719770604325,0.2,-0.2946590852872305,0.11981497146378722,0.2,0,
0.08002133902373967,0.21583397440282873,0.0011315864174646362,0.2,-0.5384680602479293,0.8115793653808018,0.2,-0.9015962927679919,1.2630990421776538,0.2,0.12911866965505045,1.3800326471191497,0.2,0.5320527679785166,0.474022983661844,0.2,-0.29288555341814715,-0.04879342130335862,0.2,0,
0.08802347292611364,0.21800988379957587,0.12976386204486579,0.2,-0.5286020153426555,1.0931757284056154,0.2,-0.8918282935909538,1.1029022084132756,0.2,0.14355314808924297,1.702474390364127,0.2,0.5375993916444908,0.495068567201086,0.2,-0.29543978002808424,-0.15682114110645087,0.2,0,
0.0960256068284876,0.21791019619554658,0.11967907814904206,0.2,-0.5209772485934394,0.7345074786756847,0.2,-0.8839498574333795,1.1196109197795858,0.2,0.15635825990087648,1.4812221496299462,0.2,0.539973865053734,0.39790012788985113,0.2,-0.29539469167585036,0.15053834204626498,0.2,0,
0.10402774073086157,0.21992474904996054,0.1640347622555039,0.2,-0.5168498956838445,0.8490073083059352,0.2,-0.8739145188744805,1.3126325131103747,0.2,0.1672527024833221,1.538153927591825,0.2,0.5439657936907284,0.34021683562341504,0.2,-0.293031166555344,0.2156429308799064,0.2,0,
0.11202987463323553,0.22053475239163464,0.08953180453255723,0.2,-0.5073931316605444,0.8656004988434259,0.2,-0.8629477372236135,1.249284175930808,0.2,0.18096872274234568,1.5984240329178447,0.2,0.5454173344237087,0.29916684669179655,0.2,-0.29194440478177186,0.24978278538091703,0.2,0,
0.12003200853560951,0.22135725792248145,0.3369083484079643,0.2,-0.5030002877023497,0.543591094559679,0.2,-0.8539259720595875,1.2632244133548922,0.2,0.19282748701000763,1.4734678645350867,0.2,0.5487524632377971,0.43585306716451694,0.2,-0.28903464198924933,-0.1443148591955129,0.2,0,
0.12803414243798347,0.22592528596616207,0.08875355149545044,0.2,-0.4986956741475896,0.5435225019609219,0.2,-0.8427361466099352,1.1119470841186239,0.2,0.20454420857490707,1.4959138153804088,0.2,0.5523909834983409,0.5026671875117197,0.2,-0.29425344252890007,-0.20623273957162333,0.2,0,
0.13603627634035745,0.22277731474640866,0.07274045193228842,0.2,-0.494303927670975,0.7897036471056009,0.2,-0.8361348187136896,0.8311888971650194,0.2,0.21676210805609417,1.4952112045020627,0.2,0.5567951382379847,0.2518457640166144,0.2,-0.2923343658223953,0.22953618234529752,0.2,0,
0.1440384102427314,0.22708913319707869,0.5505219434859647,0.2,-0.48606041579389997,0.8226231763009094,0.2,-0.8294371242552949,0.8581167294925418,0.2,0.22846758784694007,1.3276465264868889,0.2,0.5564205157226068,-0.07838849969526995,0.2,-0.2905808636113753,0.14124119144980768,0.2,0,
0.15204054414510537,0.2315856658421841,0.38874805344743174,0.2,-0.4811419568501604,0.6418716174705179,0.2,-0.8224049510418089,0.7992935113562485,0.2,0.2380044524798844,1.1405362853274397,0.2,0.5555409222428603,0.17921329392875385,0.2,-0.2900745067591984,0.07326385500720789,0.2,0,
0.16004267804747935,0.2333091020522376,0.20942716071388826,0.2,-0.4757904699143717,0.48976564824988744,0.2,-0.816648428073595,1.2139785438846986,0.2,0.2467161684121791,1.3511692281632548,0.2,0.5592879284254668,0.6901723457034686,0.2,-0.28940864193126,0.0678919249737786,0.2,0,
0.1680448119498533,0.2349365004136063,0.15514436109892102,0.2,-0.4733057064781622,0.6545861488424266,0.2,-0.8029812943396537,1.0620685089642103,0.2,0.25962316013049647,1.4742947578420522,0.2,0.5665836797741158,0.6585165124174188,0.2,-0.2889882359596179,-0.07148136039547559,0.2,0,
0.17604694585222727,0.23579141182982033,0.22651598581960308,0.2,-0.46531709153289286,1.0211007542817903,0.2,-0.7996553319301676,0.7105494638926582,0.2,0.27030488453765195,1.1776385588594604,0.2,0.5698241926241455,0.08791531187039153,0.2,-0.2905523436975876,0.1485875279624918,0.2,0,
0.18404907975460125,0.23856075618671996,0.16553191828531064,0.2,-0.4569680944096536,0.48305952995314483,0.2,-0.7916125029173712,0.8692494729023933,0.2,0.27846537707224783,1.080181119674308,0.2,0.5679903247640421,0.10377887704005051,0.2,-0.28661083551221805,0.10318550965056003,0.2,0,
0.1920512136569752,0.2384399225223853,-0.1121458867337586,0.2,-0.45758813905364254,0.1817183672407456,0.2,-0.7857473403637293,1.0559037652608725,0.2,0.2875877824524409,1.2203352737814692,0.2,0.5714846546567863,0.5098976590776835,0.2,-0.28890137554317863,-0.09222331738533568,0.2,0,
0.20005334755934917,0.23676642199897982,0.13732025240068868,0.2,-0.45406060053380165,0.5608396163969687,0.2,-0.7747180426731972,0.9782969389250314,0.2,0.29799074145275134,1.2339088740108175,0.2,0.576148687309285,0.35692021402261576,0.2,-0.2880864085903834,0.28102773543355053,0.2,0,
0.20805548146172315,0.24063704656079632,0.18405978838737305,0.2,-0.44861470519129104,0.8073862263886129,0.2,-0.7700945893409288,0.7333183757333647,0.2,0.30733032443661396,1.1339711060778177,0.2,0.5771953780811482,0.1351625789366706,0.2,-0.2844049317762418,-0.008204138598571359,0.2,0,
0.21605761536409712,0.2397113786131778,0.24970358387642158,0.2,-0.44114242091158384,0.45043288336979803,0.2,-0.7629849486614634,0.6547662246920716,0.2,0.3161342791499964,0.9151046180042796,0.2,0.5783112885722718,0.21743893670112674,0.2,-0.28821767480796057,-0.11202350294838362,0.2,0,
0.22405974926647107,0.24463230390281906,0.2398408235315657,0.2,-0.44140777905737427,0.44604635900568135,0.2,-0.7596183297458556,0.6810341806156167,0.2,0.32197199832468243,0.7561486977521563,0.2,0.5806744010683662,0.26494779493679843,0.2,-0.28619730782341596,0.320102653145915,0.2,0,
0.23206188316884505,0.24354883178968284,0.2785408265106488,0.2,-0.43400567916749294,0.6660822488201955,0.2,-0.7520884017716135,0.7381396052906636,0.2,0.3282326583140309,1.0170814203695582,0.2,0.5825504532912605,0.3552588575291976,0.2,-0.2830960323576259,0.04629717021834012,0.2,0,
0.24006401707121902,0.24908895712698945,0.37752840537230364,0.2,-0.43075046307625114,0.2813702727702781,0.2,-0.747808096061205,0.6651505637284213,0.2,0.33824530105059536,1.0339363364697436,0.2,0.5863585427888334,0.09826101097470258,0.2,-0.2854565530999225,0.007294012899776436,0.2,0,
0.24806615097359297,0.2495892862756397,0.08059362405679789,0.2,-0.4295037548031685,0.5503631718199244,0.2,-0.7414459927519588,0.8352391270218668,0.2,0.3447756396975468,0.983078483923875,0.2,0.5841226294668558,0.10514080366286899,0.2,-0.2829793281512295,-0.0209199422610655,0.2,0,
0.25606828487596694,0.2503784551118982,0.2517302371979613,0.2,-0.42194465232713235,0.5073242686488427,0.2,-0.7344442700288552,0.9302312431678922,0.2,0.35397455679337736,0.6394074140308528,0.2,0.5880407956474393,0.29591928733778416,0.2,-0.28579127217609956,0.3438959387394892,0.2,0,
0.2640704187783409,0.2536169700708071,0.3312138756308737,0.2,-0.421386566504787,0.2898331146658911,0.2,-0.7265622928612725,0.26909553057536534,0.2,0.35500615832204047,0.5917475868222818,0.2,0.5888573380642603,0.13513948605385628,0.2,-0.2774769931313977,0.5479857346169688,0.2,0,
0.2720725526807149,0.2556778771219922,0.1701423959060734,0.2,-0.4173073224924781,0.44272804415159195,0.2,-0.7301387415396493,0.16089088715511013,0.2,0.36344251818253387,1.0461836377558784,0.2,0.590203027424301,0.19733790149586983,0.2,-0.27702350042222806,-0.2938232194707561,0.2,0,
0.28007468658308887,0.25633924840530425,0.0455488692604443,0.2,-0.41430291779836154,0.26950912187319664,0.2,-0.7239880386667907,0.5701972383758414,0.2,0.3717450965261345,0.6532974688392353,0.2,0.5920147444881942,0.23812852542220986,0.2,-0.2821781646429298,-0.1950348695547513,0.2,0,
0.2880768204854628,0.2564066590301593,0.30414562653732075,0.2,-0.41299517654250695,0.19341823439050082,0.2,-0.7210155857256358,0.3902744337886538,0.2,0.37389527768396164,0.5763309261710043,0.2,0.5940130838310563,0.04963463916816263,0.2,-0.2801440583351041,-0.13452835319343118,0.2,0,
0.29607895438783677,0.2612055784299014,0.4797251408328838,0.2,-0.4112082260481135,0.24167434021196352,0.2,-0.7177436477261723,0.5982292176975185,0.2,0.3809663913448706,0.6573158046212709,0.2,0.5928088987148848,0.30859991518309565,0.2,-0.2843306182940247,-0.045270478537740716,0.2,0,
0.30408108829021074,0.26408226128348544,0.096524695096082,0.2,-0.40912838709911553,0.2889177236428779,0.2,-0.7114439182424755,0.35236053701173664,0.2,0.38441233055790197,0.38106765852984403,0.2,0.5989506824739859,0.2584336754358624,0.2,-0.28086838599170794,0.27182914673883757,0.2,0,
0.3120832221925847,0.2627499735514387,-0.13381547834473428,0.2,-0.4065855424698275,0.2735951057405567,0.2,-0.7121058791339845,0.14726983493618812,0.2,0.3870634738813481,0.26192008322907867,0.2,0.5969438375218586,-0.01809432915021031,0.2,-0.27998135194620327,0.02802130830485347,0.2,0,
0.3200853560949587,0.2619412136299697,0.11467141343354109,0.2,-0.4047508654072666,0.14372267428986243,0.2,-0.7090876008834965,0.30679557854501605,0.2,0.38860305188956723,0.42425351520574556,0.2,0.5986611732075825,-0.04639358684620232,0.2,-0.2804200450588303,0.3517727364851439,0.2,0,
0.32808748999733267,0.26458471616637536,-0.08461540088749997,0.2,-0.4042859796811897,0.12649460173614485,0.2,-0.7071971498772642,0.24939427954358967,0.2,0.39385153012464,0.2875186306150433,0.2,0.5962015401323194,-0.024912631165767418,0.2,-0.27435298816244097,0.3002844916369027,0.2,0,
0.3360896238997066,0.2605873672157697,0.3097860275610431,0.2,-0.4027269517794883,0.3052793586256243,0.2,-0.7050972924107991,0.18424183168473662,0.2,0.3932033499794079,0.2544562512305851,0.2,0.5982625711089302,0.018414808790778725,0.2,-0.27561549319263984,-0.10229050162191902,0.2,0,
0.34409175780208057,0.26954129260735205,0.7677184183748353,0.2,-0.3994015099431797,0.2247096882608754,0.2,-0.7042492805703084,0.18204279355099606,0.2,0.3979228301443294,0.3508843669587126,0.2,0.5964961770729719,-0.2130578967902974,0.2,-0.2759896361883917,0.18212836622041872,0.2,0,
0.35209389170445454,0.27287086190976706,0.060368747747726464,0.2,-0.3991315967673143,-0.034193370938236795,0.2,-0.7021846077139832,-0.022395827191247497,0.2,0.3988174998507473,0.06124475651055755,0.2,0.5948536447602855,0.24809431164844048,0.2,-0.27270143933311314,-0.034365448995210546,0.2,0,
0.3600960256068285,0.27050719257131567,-0.0076951692673937755,0.2,-0.3999486038781915,0.14253159866643716,0.2,-0.7046076138053684,0.1965374994705657,0.2,0.3989027462484983,0.1292802897246599,0.2,0.6004656860593469,0.46894517505596117,0.2,-0.27653948337231504,-0.21117217024842552,0.2,0,
0.3680981595092025,0.27274773920148876,0.2771226935632254,0.2,-0.3968510911886513,-0.10189935140170192,0.2,-0.6990400077224541,0.5300766944784304,0.2,0.4008859844863419,0.25184767007531067,0.2,0.6023567675611808,0.07698293087103625,0.2,-0.27608019405708795,0.014880352262481439,0.2,0,
0.37610029341157647,0.2749411556683273,0.14606997711380174,0.2,-0.4015789935006187,-0.17674320052449288,0.2,-0.6961263866937135,-0.0669368476323845,0.2,0.4029323089697033,-0.2235845231536547,0.2,0.6016974129532835,-0.08652976077995478,0.2,-0.27630139773611534,0.2739876302997324,0.2,0,
0.3841024273139504,0.2750848588353096,0.11234239789323364,0.2,-0.3996789823970432,0.08481001936251273,0.2,-0.7001109972845723,-0.5153716331560351,0.2,0.3973086321158834,-0.22648763916487819,0.2,0.6009722913887016,-0.04301315279188478,0.2,-0.27169639197229223,0.22646015392277508,0.2,0,
0.39210456121632437,0.276738634034619,0.42163593496324925,0.2,-0.4002220331908185,-0.08451281909540101,0.2,-0.7043723328242101,-0.13691169719418084,0.2,0.39930850674306523,0.0671849054743566,0.2,0.6010092025086133,0.028089366837735774,0.2,-0.27267803527335094,-0.15562666174065085,0.2,0,
0.40010669511869834,0.2818310337947216,0.22506971743583085,0.2,-0.4010311875025696,-0.09423926528874527,0.2,-0.7023015844396792,-0.03665727621180587,0.2,0.3983835906034731,-0.11723597898815122,0.2,0.6014217212581053,-0.26512624836119714,0.2,-0.27418641856014264,-0.17274048504604955,0.2,0,
0.4081088290210723,0.2803397495135923,0.31730157969524564,0.2,-0.40172986143543843,-0.22912093199065411,0.2,-0.704958849243599,-0.46267984181218996,0.2,0.3974327310792548,-0.15841688242190094,0.2,0.5967671825348342,-0.27988090459307724,0.2,-0.27544188303408773,0.2418666858843184,0.2,0,
0.4161109629234463,0.2869078590698455,0.22406600474553576,0.2,-0.4046971224144201,-0.2223198303365273,0.2,-0.7097044619086742,-0.017080383143873445,0.2,0.3958489204847227,-0.3718273252361938,0.2,0.5969436267846161,0.08328741257230404,0.2,-0.27031655158599355,0.03888815809374377,0.2,0,
0.42411309682582027,0.2839248055895209,7.6968048975945e-05,0.2,-0.40528697872082287,-0.043310659237013466,0.2,-0.705232135373901,-0.05352196616034005,0.2,0.3914834938754757,-0.4816768888861317,0.2,0.598099781135991,-0.10209995641298486,0.2,-0.27481967250458783,-0.059584700724927414,0.2,0,
0.43211523072819424,0.2869090905586291,0.5711095263011244,0.2,-0.4053900929622123,-0.36508211556371406,0.2,-0.7105608133672396,-0.1782912558685526,0.2,0.3881420902625446,-0.3064851854236404,0.2,0.5953100274820083,-0.006667707530896849,0.2,-0.2712699067975924,0.4781817988002979,0.2,0,
0.44011736463056816,0.29306255801033887,0.16025450685809225,0.2,-0.4111282925698423,-0.2799392392861151,0.2,-0.7080847954677978,-0.3758421010415236,0.2,0.38657973090869746,-0.5613610860128633,0.2,0.5979930978154967,0.004512808301111726,0.2,-0.26716876372378306,0.033041706026946255,0.2,0,
0.44811949853294214,0.2894731626683586,0.06628698285222542,0.2,-0.40986912079079013,0.005285050594109469,0.2,-0.716574286983904,-0.5432930215819309,0.2,0.3791603128863388,-0.4076040705493292,0.2,0.5953822324148261,-0.11774546515728318,0.2,-0.27074123950116125,0.07293174825426935,0.2,0,
0.4561216324353161,0.2941231497359745,0.13272938422973293,0.2,-0.41104373176033654,-0.08321486584069934,0.2,-0.7167774838131087,-0.14627684225697324,0.2,0.3800580657799082,-0.4516937177225025,0.2,0.5961091703729802,-0.22051783371222766,0.2,-0.26600185575171476,0.027403608856984424,0.2,0,
0.4641237663376901,0.2915968328160343,0.17643059162146882,0.2,-0.4112005586442413,-0.09836601583820132,0.2,-0.7189147164600156,-0.4928072341481224,0.2,0.37193321340277874,-0.5786778071032416,0.2,0.5918539470754305,-0.07721661064050839,0.2,-0.2703027817594495,-0.12799379194864888,0.2,0,
0.47212590024006407,0.296946039201918,0.21771242328681717,0.2,-0.41261758801374776,-0.5935617625352669,0.2,-0.7246623995594786,-0.5850809062234105,0.2,0.37079922086625633,-0.5779176807846516,0.2,0.594873704602732,-0.1594795777519406,0.2,-0.26804975642289314,0.06871193861995514,0.2,0,
0.48012803414243804,0.2950802315886234,0.22191849157873408,0.2,-0.4206975468448056,-0.6089217001133407,0.2,-0.7282760109595902,-0.5300664843907384,0.2,0.3626865305102243,-0.8361080299599255,0.2,0.5893022738313994,-0.5950837944087989,0.2,-0.2692033907415302,-0.019763322678237327,0.2,0,
0.48813016804481196,0.3004967350671777,0.16344710048323344,0.2,-0.4223603352155612,-0.36360689614655173,0.2,-0.7331434633097305,-0.6811319296060742,0.2,0.3574214923868975,-0.9541622196727572,0.2,0.5853523638921913,-0.3196780782204686,0.2,-0.26836596958574493,0.015865030223896626,0.2,0,
0.49613230194718594,0.29769538519635513,-0.03214940778837813,0.2,-0.4265152571831504,-0.23691127174500087,0.2,-0.7391741218332873,-0.7304231659819374,0.2,0.3474199349954602,-0.9329929095553934,0.2,0.5841874245798719,0.17460801480309596,0.2,-0.26894955025794787,-0.008388784167482483,0.2,0,
0.50413443584956,0.2999823445425637,0.19187248101432477,0.2,-0.4261509155634812,-0.1772067254411265,0.2,-0.7448302339654415,-0.5796149190964023,0.2,0.3424936058340112,-0.7482032034994944,0.2,0.5881460921290408,0.04789632203416189,0.2,-0.26850019013242465,-0.05177293821668691,0.2,0,
0.5121365697519339,0.30076534489258433,0.2082093707145051,0.2,-0.42935056479020844,-0.7051738387135152,0.2,-0.7484479605388298,-0.4702668616278355,0.2,0.3354486837394683,-0.8457203733216664,0.2,0.5849537657324185,-0.2488464866507792,0.2,-0.26977791726941486,0.2624905560065886,0.2,0,
0.5201387036543078,0.30331369447399575,0.3877851859178556,0.2,-0.43743369698289747,-0.7858744312200585,0.2,-0.7523545037514868,-0.5405838099356505,0.2,0.32896207986086456,-1.0212975263718358,0.2,0.5841645483426283,-0.46185289057883855,0.2,-0.26430034123631924,0.39648775184848023,0.2,0,
0.5281408375566818,0.30696990786727,0.28394502315117265,0.2,-0.4419245556897294,-0.1599306581659167,0.2,-0.7570973014978002,-0.7844970009293212,0.2,0.3191079233175189,-0.7809093883481277,0.2,0.5775641194831571,-0.4707027450988055,0.2,-0.2634341132398392,-0.03977366783869743,0.2,0,
0.5361429714590558,0.3078568148444145,0.34200892524448995,0.2,-0.43999258751355214,-0.4686863931791657,0.2,-0.764906455766356,-0.9248435838281401,0.2,0.3164675296472945,-0.9608389675914986,0.2,0.5766333044210474,-0.05053209585138829,0.2,-0.2649367199217384,0.06437596574739371,0.2,0,
0.5441451053614298,0.31244205067118186,0.18650034569495794,0.2,-0.44942353798059603,-0.6884787183876473,0.2,-0.7718947988390504,-0.7906056295156338,0.2,0.30373449983605494,-1.398617269092392,0.2,0.5767556059495349,-0.2026915026834969,0.2,-0.2624040977878809,0.29273998950423913,0.2,0,
0.5521472392638037,0.31084082037553384,-0.06888884312109336,0.2,-0.4510082470077545,-0.621193379336922,0.2,-0.7775561458386061,-0.7411946848161904,0.2,0.29408965334181625,-1.0874116594338998,0.2,0.5733902403781115,-0.486628530965906,0.2,-0.26025288008967057,-0.1860143431932186,0.2,0,
0.5601493731661777,0.31133982918124437,0.15369713956298742,0.2,-0.4593626320499868,-0.6021717229827278,0.2,-0.7837539137961095,-0.7379167543526618,0.2,0.28633591328511254,-1.3890698502360201,0.2,0.5689695494540804,-0.058750073833574445,0.2,-0.26538032727897237,-0.11908392615197008,0.2,0,
0.5681515070685517,0.31329997460854164,0.23117739492046693,0.2,-0.46064299457547814,-0.3940230594153757,0.2,-0.7893628139082487,-1.0199030137505518,0.2,0.2718645357380399,-1.3669046106323142,0.2,0.5724502391967743,-0.2881719628438639,0.2,-0.2621582229081021,0.4432108631071303,0.2,0,
0.5761536409709256,0.31503866749997184,0.1752607737979979,0.2,-0.4656670010006328,-0.8193842976271827,0.2,-0.8000723620161183,-1.1778487379719913,0.2,0.2644654395149955,-0.929557088333064,0.2,0.5643587980485786,-0.5085306189248281,0.2,-0.2582889534692583,0.16496847384242855,0.2,0,
0.5841557748732996,0.3161041469893096,0.2451913085776969,0.2,-0.47375314333751306,-0.8852821794010298,0.2,-0.8082083937158006,-0.8116307532246222,0.2,0.2569916223247109,-1.021486572970791,0.2,0.564313749293977,-0.15864562365012352,0.2,-0.25951872732662323,-0.05528997443463024,0.2,0,
0.5921579087756735,0.318961728437215,0.3736701418558634,0.2,-0.4798315158710493,-0.30504360007364145,0.2,-0.8130584540677123,-1.0407301409371197,0.2,0.24812165434746286,-1.4683922204616218,0.2,0.5618204680701766,-0.41299662693110306,0.2,-0.25917359306021237,0.07755126483847963,0.2,0,
0.6001600426780476,0.3220828692590034,0.05670841015025657,0.2,-0.4786338409386913,-0.5050938869556251,0.2,-0.8248600759707945,-1.0625809559864294,0.2,0.23349734679732495,-1.6342090744678444,0.2,0.5577058032630794,-0.12291672575807239,0.2,-0.25827790708920756,0.11923841231645249,0.2,0,
0.6081621765804215,0.3198690629996191,0.14537467390974765,0.2,-0.4879130180623393,-0.8563086913880059,0.2,-0.8300597493634951,-0.8563389184677375,0.2,0.22197430915597735,-1.2484832311734448,0.2,0.5598538004580474,0.1673576948342248,0.2,-0.25726577846314913,0.09279310136564578,0.2,0,
0.6161643104827954,0.3244088640415594,0.39439505895311544,0.2,-0.4923347800008994,-0.8608679670726628,0.2,-0.8385614986662783,-1.2455673996430021,0.2,0.21352161509854983,-1.0478660575811045,0.2,0.560383526380427,-0.5903361884944114,0.2,-0.2567932174673572,0.12976932226813065,0.2,0,
0.6241664443851694,0.32617938394286894,0.12961982033788538,0.2,-0.5016869055355019,-0.6168183343300792,0.2,-0.8499888277577832,-1.205301384321962,0.2,0.20520845223467968,-1.6183814459955792,0.2,0.5504084214421369,-0.8124372296314033,0.2,-0.25518946930685904,-0.00444245328084375,0.2,0,
0.6321685782875434,0.32648278116696555,0.02693477746011988,0.2,-0.5022038733501807,-0.518340217869416,0.2,-0.8578463208154297,-1.0084992256235437,0.2,0.18762751196262056,-1.6903326037990083,0.2,0.5473845307063245,-0.28055330159288544,0.2,-0.2568642967198507,-0.3265928421848155,0.2,0,
0.6401707121899174,0.32661034038223086,0.441309686015183,0.2,-0.5099803490214125,-0.8826454855173984,0.2,-0.8661248153677599,-1.19391846347644,0.2,0.17816313057389555,-1.3167789431225725,0.2,0.5459195686166507,-0.5499639342744916,0.2,-0.2604149547818161,-0.0281717854562491,0.2,0,
0.6481728460922913,0.3335437361432085,0.30458034897415037,0.2,-0.5163262011184591,-0.9042546453583086,0.2,-0.8769490162310527,-1.3397167858514163,0.2,0.1665590488726594,-1.6952042131714393,0.2,0.5385851077579327,-0.3726237186316289,0.2,-0.2573150452871507,0.2968029455291468,0.2,0,
0.6561749799946653,0.33148362596581726,-0.1285469977643991,0.2,-0.5244484233471455,-0.9521739731425601,0.2,-0.8875602839413825,-1.2284487728032034,0.2,0.15103986316315252,-1.6182612257609856,0.2,0.5399575891185446,0.017542483948349008,0.2,-0.25566610765334974,0.18025793216018202,0.2,0,
0.6641771138970393,0.3314869841789781,0.35901576646159283,0.2,-0.53156098468874,-0.621957586302492,0.2,-0.896604196595904,-1.0339428982505603,0.2,0.14066686926048363,-1.317129833523641,0.2,0.5388657875011063,-0.3412818791696526,0.2,-0.2544309183725878,0.06682301429447937,0.2,0,
0.6721792477994132,0.33722787822920275,0.2873520246160152,0.2,-0.5343997447279853,-0.5766997759156303,0.2,-0.9041033703133915,-1.0568417616268477,0.2,0.12996578582677426,-1.591859238116923,0.2,0.5344970790518302,-0.621877725451761,0.2,-0.25459693942463807,-0.23891668319088802,0.2,0,
0.6801813817017872,0.33608461657283434,0.17747310111254633,0.2,-0.5407881811033901,-1.1893730009162538,0.2,-0.9135136647819335,-0.9871977840836196,0.2,0.11519712145061287,-1.8789602054781551,0.2,0.5289157438938781,-0.5092703068913518,0.2,-0.258253585303642,-0.08613486487960356,0.2,0,
0.6881835156041611,0.3400674478470035,0.01349944048895449,0.2,-0.5534297127426454,-0.857201820613225,0.2,-0.9198985348587294,-1.1695564508950387,0.2,0.09990242253912378,-1.7354244168537383,0.2,0.5263487541415686,-0.3959427490466197,0.2,-0.2559750972627117,0.3353788102097577,0.2,0,
0.6961856495065352,0.3363006076206576,0.08977739674531637,0.2,-0.5545034102332017,-0.4833462525324281,0.2,-0.9322265679962541,-1.3994578036664596,0.2,0.08743033078095305,-1.3426527322080257,0.2,0.5225806599091322,-0.5264311739660368,0.2,-0.2528875243402859,0.21153939288053383,0.2,0,
0.7041877834089091,0.34150388619492855,0.4483530205235085,0.2,-0.5611632527831643,-0.9538263670907723,0.2,-0.9422898597173928,-1.2462875612610362,0.2,0.07841997882379537,-1.4269070927576895,0.2,0.517925855358112,-0.5263275054230576,0.2,-0.2525904669766232,-0.1848677131934956,0.2,0,
0.7121899173112831,0.34347425594903375,0.25060820707101944,0.2,-0.5697646321066541,-1.0504949400761896,0.2,-0.9521671689764307,-1.3489023883919982,0.2,0.06459981729683002,-1.7853007323189205,0.2,0.5141594198223632,-0.3483229991812775,0.2,-0.2558454077513818,0.12293437339414709,0.2,0,
0.720192051213657,0.34551361750806486,0.09738085196377491,0.2,-0.5779711718243833,-0.9118472825244001,0.2,-0.9638722979316647,-1.167056948376273,0.2,0.04985516710669264,-1.6672305655672583,0.2,0.5123526873712115,-0.24179581980292297,0.2,-0.25062351700231683,0.3147217655887248,0.2,0,
0.728194185116031,0.34503234958045415,0.022597927723310568,0.2,-0.5843541886270445,-0.5881983930381348,0.2,-0.9708400801504511,-1.0614227929558462,0.2,0.03792412824775389,-1.6719732049246578,0.2,0.5102906867055165,-0.4020474547004535,0.2,-0.2508098595019622,0.11666146975866654,0.2,0,
0.736196319018405,0.34587518435163783,-0.005891201823982062,0.2,-0.5873823461129934,-0.7537960160318574,0.2,-0.9808550626189583,-1.4314051755927246,0.2,0.023103595827898112,-1.683451398679842,0.2,0.5059199280960043,-0.2005118526320765,0.2,-0.24875693348617817,-0.1709301912702424,0.2,0,
0.7441984529207789,0.34493809035127043,0.2067442167474308,0.2,-0.5964149248835542,-0.8915141527344045,0.2,-0.9937425629599347,-1.511162508629163,0.2,0.010988905868876415,-1.7518769052630332,0.2,0.5070824970634032,-0.3014379181891652,0.2,-0.2535447425622861,-0.15375041361547284,0.2,0,
0.7522005868231529,0.3491830918195967,0.5316243315093977,0.2,-0.6016465725567439,-0.6614635097823215,0.2,-1.0050336627570249,-1.2428679990121108,0.2,-0.004926434656310419,-1.866838825351129,0.2,0.5010969214049776,-0.5318144805993262,0.2,-0.25121694010402573,0.34883151626120473,0.2,0,
0.7602027207255269,0.3534440796554208,0.3183290487119121,0.2,-0.6069983410400713,-1.0200940070229716,0.2,-1.0136284509441285,-1.355745134173039,0.2,-0.01888051533674165,-1.605602592283613,0.2,0.49857346537381403,-0.7340464974425025,0.2,-0.24796343830210682,0.044241403954918546,0.2,0,
0.7682048546279008,0.3542763565989873,0.18854457747697131,0.2,-0.6179680766691115,-1.1823968396739506,0.2,-1.0267255849037935,-1.318729151592715,0.2,-0.030616076132848228,-1.743140571205184,0.2,0.4893521774458976,-0.5662435152504648,0.2,-0.25050907764074704,-0.10339715930939193,0.2,0,
0.7762069885302748,0.35646079289505234,0.0395564078599607,0.2,-0.6259166904748545,-0.7617568684756617,0.2,-1.034728117369612,-0.9295613669015046,0.2,-0.046770764476024594,-1.6624587128864992,0.2,0.4895135691298066,-0.2701194600002385,0.2,-0.2496177928510571,0.13223021564735815,0.2,0,
0.7842091224326487,0.3549092591247467,-0.07399691076755838,0.2,-0.630156186564722,-0.7691450656762272,0.2,-1.0415985667742176,-1.0639624980635365,0.2,-0.05721541553903221,-1.395434583428799,0.2,0.4850302660858938,-0.4717880194396763,0.2,-0.2483933941903893,0.1126577833776253,0.2,0,
0.7922112563350228,0.3552768423227714,0.34780532680839943,0.2,-0.6382230115256742,-0.7946705299213194,0.2,-1.0517515173386285,-1.3559143367849469,0.2,-0.06909771781088538,-1.6987850799006359,0.2,0.48196496081877177,-0.18693385040225927,0.2,-0.24781526831701509,0.12124836552911654,0.2,0,
0.8002133902373967,0.3604741443536811,0.26071704083939146,0.2,-0.6428709150434632,-0.6879714495759622,0.2,-1.0632931961627767,-1.4153541424186122,0.2,-0.08439597681744239,-1.893516094607357,0.2,0.48203932447945763,-0.4688222949339009,0.2,-0.24645342034192344,0.011141395100489754,0.2,0,
0.8082155241397707,0.35944831497620167,0.03112318328509986,0.2,-0.6492305547188896,-0.9034379575443215,0.2,-1.0743971836173263,-1.0043506942857827,0.2,-0.09939397532460309,-1.5845825347369458,0.2,0.47446380409982936,-0.7003138795736962,0.2,-0.24763700599540725,0.030572321031796176,0.2,0,
0.8162176580421446,0.3609721152862427,0.18299427626729606,0.2,-0.6573259223641723,-0.6208872917229241,0.2,-1.0793628072713493,-1.4638582537257887,0.2,-0.10974929737323352,-1.5878845743489107,0.2,0.4708343024062785,-0.3220606720076638,0.2,-0.2459642632054147,0.28763748899060354,0.2,0,
0.8242197919445186,0.3623762233964784,0.4880359809913172,0.2,-0.6591647513864564,-0.8136676389314326,0.2,-1.097818915676939,-1.5697604629752449,0.2,-0.12480012851418566,-1.659060244843741,0.2,0.46931083334770674,-0.2531773146757302,0.2,-0.2430348061715576,0.02326720339466612,0.2,0,
0.8322219258468926,0.36878069098210375,0.5378432445478886,0.2,-0.6703446045870752,-0.8945883273502181,0.2,-1.1044789746789532,-0.6144345853202615,0.2,-0.13629426129073338,-1.3304632298754533,0.2,0.4667834653714668,-0.14448222923140255,0.2,-0.24559198795110004,-0.09467297530308012,0.2,0,
0.8402240597492665,0.3709817153092446,0.18711374053912572,0.2,-0.6734781646240598,-0.6917558720013206,0.2,-1.107649869042063,-0.7611585407719668,0.2,-0.14608754019219292,-1.2605796348043024,0.2,0.4669991176800043,-0.11368451557448866,0.2,-0.24454957377640688,-0.020996145587346554,0.2,0,
0.8482261936516405,0.37177451083072977,0.18788952551539173,0.2,-0.6814126985390964,-0.50568779062133,0.2,-1.1166575113313046,-1.174393712900859,0.2,-0.15646353544760222,-1.5060010945926947,0.2,0.464964513122275,-0.8175170807645445,0.2,-0.2459279262804976,0.12726979022540696,0.2,0,
0.8562283275540145,0.3739879477174909,0.24329580143489168,0.2,-0.6815691692740011,-0.515401034710844,0.2,-1.1264401684484768,-1.1586180323818196,0.2,-0.17018355770567603,-1.85109076386741,0.2,0.4539188443877716,-0.6417505779635763,0.2,-0.24251325713280036,0.1407010247530902,0.2,0,
0.8642304614563885,0.37566724365368803,0.10208190498878916,0.2,-0.6896591150944699,-0.9869490449292001,0.2,-1.1351953998494138,-1.155821362078896,0.2,-0.18608098766948078,-1.5705669907556952,0.2,0.45469650387485777,-0.4553362032454662,0.2,-0.24367670988444814,0.07430765254656455,0.2,0,
0.8722325953587624,0.3756212581973115,-0.1795781304096758,0.2,-0.6973603539928683,-0.9693231689866174,0.2,-1.1449333102417392,-1.2724640489579357,0.2,-0.19531262955776715,-1.3547995181771109,0.2,0.4466334651358441,-0.3911119528205685,0.2,-0.24132433469205533,0.22764380496758177,0.2,0,
0.8802347292611363,0.3727939935671332,0.14420508272820418,0.2,-0.7051682857982557,-0.7489961248109411,0.2,-1.1555548246327407,-1.1087334961082522,0.2,-0.20775777996031455,-1.673619628909634,0.2,0.4484387126297287,-0.19029277751612603,0.2,-0.24003440900496684,0.037063087240567574,0.2,0,
0.8882368631635104,0.3779285395209628,0.2489281191779616,0.2,-0.7093442919898434,-0.5580445542276713,0.2,-1.1626730461794712,-1.0511308368863352,0.2,-0.2220905436203213,-1.3178043402031059,0.2,0.4435887806955861,-0.38954200519147886,0.2,-0.24073132529620625,-0.07722560709867189,0.2,0,
0.8962389970658843,0.3767768434739806,-0.08412273214535027,0.2,-0.7140969986658985,-0.5383230218466358,0.2,-1.172372918022922,-1.0399243650462686,0.2,-0.22884264940356425,-1.2324087420715282,0.2,0.442206040546665,-0.1352501792521721,0.2,-0.2412700187185456,0.20047572698159155,0.2,0,
0.9042411309682583,0.3765825758066372,0.5376142897802229,0.2,-0.7179574603393896,-0.607858078278782,0.2,-1.1793118360202115,-0.9850290507350673,0.2,-0.24180908349346575,-1.6014246639614385,0.2,0.44142477782755135,-0.18981430051738524,0.2,-0.23752371366450079,0.16775345537952366,0.2,0,
0.9122432648706322,0.38537867211046417,0.5880788035165612,0.2,-0.723822727918359,-0.882051093230446,0.2,-1.1881333828346832,-0.979160163035786,0.2,-0.25446544402694726,-1.019897098631331,0.2,0.43916901173838685,-0.4919115441551387,0.2,-0.2385859634324732,0.02398276323712159,0.2,0,
0.9202453987730063,0.38599183666290215,0.08732737758986378,0.2,-0.7320702778310767,-0.7586048224166239,0.2,-1.194978398628784,-1.001408341810353,0.2,-0.25812743707156705,-1.0380973848169475,0.2,0.43355419312106913,-0.2634953104440514,0.2,-0.23713998945270684,-0.1200314662123704,0.2,0,
0.9282475326753802,0.386775910151902,-0.026086773036202576,0.2,-0.735960405077025,-0.78332354544422,0.2,-1.2041559163036488,-0.9498957169007116,0.2,-0.2710750021840184,-1.3967504936850081,0.2,0.434953086771282,-0.17137362231003928,0.2,-0.24050646689187113,0.2667434744852443,0.2,0,
0.9362496665777541,0.3855744482943229,0.23677302208212347,0.2,-0.7446034545581842,-0.490766627946497,0.2,-1.2101767300991955,-0.7760549405811112,0.2,-0.2804754449705272,-1.3887832009394674,0.2,0.4308122151641085,-0.6077329358153207,0.2,-0.23287209386094293,0.4371982804004682,0.2,0,
0.9442518004801281,0.39056427850521597,0.20433629158791294,0.2,-0.7438126711241689,-0.33005522641212093,0.2,-1.2165727953529466,-0.906427523385836,0.2,-0.2932955333990499,-1.2435139315228119,0.2,0.4252293597982369,-0.4203097013123942,0.2,-0.23351129440546364,-0.3973352446749023,0.2,0,
0.952253934382502,0.3888438289597295,0.20387511686054127,0.2,-0.7498843381807782,-0.6341457649475662,0.2,-1.2246795704733688,-0.8105011090832892,0.2,-0.30037166787489217,-1.1263796591541932,0.2,0.4240872599431102,-0.03775417109741844,0.2,-0.23922945777574137,-0.0564105882393251,0.2,0,
0.9602560682848761,0.3938262803749846,0.4789098173447227,0.2,-0.75395900336333,-0.36654087714568795,0.2,-1.2295408130982792,-1.1227336608747307,0.2,-0.311317607945517,-1.1013237675195422,0.2,0.4246252930606782,-0.19969398741078587,0.2,-0.23441386381729284,0.15558612069922934,0.2,0,
0.96825820218725,0.3965063860372451,0.17954923676264528,0.2,-0.7557489922151092,-0.6634036448980168,0.2,-1.2426433090473645,-0.7509657980097201,0.2,-0.31799284815520484,-0.987372148577189,0.2,0.4208921561445376,-0.2971023616647368,0.2,-0.2367400798445537,-0.01339211740833575,0.2,0,
0.9762603360896239,0.39669906816318695,-0.042085596844217144,0.2,-0.7645734616816983,-0.5797469304715738,0.2,-1.2415562658664347,-0.2633527345372866,0.2,-0.327115562322752,-0.9918154671897973,0.2,0.4198716552740424,-0.29293053518937573,0.2,-0.23462813769582622,-0.0068100546997788836,0.2,0,
0.984262469991998,0.3958330164877376,0.2101925315282499,0.2,-0.7650249431026543,-0.47476979937578073,0.2,-1.2468569527999611,-0.722492391153795,0.2,-0.3338618956302416,-0.7821221726866563,0.2,0.4162052675815076,-0.34468758243173453,0.2,-0.23684904071975016,0.1366987351659188,0.2,0,
0.9922646038943719,0.40006214866763895,0.13335268371713824,0.2,-0.7721697784717108,-0.6456631183876932,0.2,-1.2531161441248955,-0.8101721703491771,0.2,-0.3396295170857385,-0.695741430005583,0.2,0.41435665395513466,-0.11362025028177972,0.2,-0.23244095793317152,0.12934041558506323,0.2,0,
1.0002667377967458,0.3979666594272118,-0.05970730917645092,0.2,-0.7753555529968574,-0.3976464284225975,0.2,-1.259819707525548,-0.7701586480418632,0.2,-0.34499375851033093,-0.8977118625074533,0.2,0.41438734357699913,-0.22134117189328076,0.2,-0.23477959407038915,0.05865747579444913,0.2,0,
1.00826887169912,0.39910683172081574,0.44966254932031835,0.2,-0.7785321213264723,-0.39507937805853544,0.2,-1.2654386824935653,-0.7978768220849725,0.2,-0.35399290688585777,-0.8062934775414227,0.2,0.41081519520484217,-0.3752587242580596,0.2,-0.23150243832046033,0.15441694426319985,0.2,0,
1.0162710056014939,0.4051612602163369,0.2551028008538035,0.2,-0.781676823045794,-0.281645282821992,0.2,-1.2725857366789075,-0.6869808862650512,0.2,-0.3578944541509937,-0.542489582321299,0.2,0.4083832039888702,-0.1068699080556991,0.2,-0.23230892296217795,0.1350241519677362,0.2,0,
1.0242731395038678,0.4031884765344766,0.028530714589160983,0.2,-0.7830384458516242,-0.29742214535535133,0.2,-1.276430376673806,-0.3270893836200689,0.2,-0.36267274020299856,-0.7095951626705232,0.2,0.409105276675951,-0.024590805751331657,0.2,-0.22934205188897655,0.19248896861815898,0.2,0,
1.0322752734062417,0.4056177516497635,0.24284979885107888,0.2,-0.7864355773714796,-0.43358975855466164,0.2,-1.2778191668168286,-0.2994589305872347,0.2,-0.36924797675372206,-0.743535758395128,0.2,0.4079897510968489,-0.027106325803719772,0.2,-0.2292290994642874,0.05792186301071221,0.2,0,
1.0402774073086156,0.40707407331609385,0.5100901992324235,0.2,-0.7899758819884988,-0.12585227856369563,0.2,-1.2812217195632019,-0.41332333940530264,0.2,-0.3745693123373206,-0.6906604201906592,0.2,0.40867157546309146,-0.2638737648761047,0.2,-0.22841530208080515,-0.09358846860541697,0.2,0,
1.0482795412109898,0.41377919483748227,0.29040828389908024,0.2,-0.7884492138284988,-0.14989437536723493,0.2,-1.2844323402473135,-0.5135685742863605,0.2,-0.3802985434767726,-0.6501762972992916,0.2,0.4037677708588312,-0.3883075216114182,0.2,-0.23072651496197408,0.1462065440753918,0.2,0,
1.0562816751133637,0.41172060585847914,-0.25303966347541007,0.2,-0.7923741919943745,-0.3128147182736435,0.2,-1.2894388167517836,-0.494599155256778,0.2,-0.38497213309410927,-0.35175717177405097,0.2,0.4024586551173088,0.12107420428843912,0.2,-0.22607599737559889,0.18826512656088498,0.2,0,
1.0642838090157376,0.4097305602218757,0.17448266138869045,0.2,-0.793454249320877,-0.15032876755949331,0.2,-1.292345926731422,-0.15367858452601524,0.2,-0.3859266582251574,-0.5403507206921642,0.2,0.4057049581274462,-0.11311376385076538,0.2,-0.22771427293699992,-0.3809880373861485,0.2,0,
1.0722859429181115,0.4145123284406982,0.4093057988443817,0.2,-0.7947794522753264,-0.1945029729965575,0.2,-1.2918976741041999,-0.33658593573687723,0.2,-0.3936177446251839,-0.5445466165104086,0.2,0.4006488348956965,-0.18975384756262856,0.2,-0.23217180597377726,0.10655654845889186,0.2,0,
1.0802880768204854,0.4162794530033858,0.27864691772536837,0.2,-0.796566296888822,0.10324793437065799,0.2,-1.297731301703212,-0.11186193814886891,0.2,-0.39463940408932396,-0.1800650370484512,0.2,0.40266889656644417,0.210766310534391,0.2,-0.22600936816165765,0.1862558814462265,0.2,0,
1.0882902107228596,0.4189706791243041,0.3460818535690052,0.2,-0.7931274853253959,-0.24403357873969272,0.2,-1.2936874651145818,-0.045479868218553654,0.2,-0.3964987852179591,-0.07235423417770517,0.2,0.4040210958642468,-0.022453770410560403,0.2,-0.22919171187063764,0.016922485720865382,0.2,0,
1.0962923446252335,0.4218167626604899,0.043288349730330467,0.2,-0.800470834148657,-0.38304793982213425,0.2,-1.2984589795947088,-0.09754763471743477,0.2,-0.39579707183616725,-0.16423230586961463,0.2,0.4023096362398752,-0.1133988355905384,0.2,-0.2257386083901238,0.038038451453925246,0.2,0,
1.1042944785276074,0.41966329271998937,0.1727118692950308,0.2,-0.79925625236255,0.1582845990246301,0.2,-1.2952482272700607,-0.08979287664505342,0.2,-0.39912650211187295,-0.17563088352282735,0.2,0.40220671449479817,-0.029952937523159556,0.2,-0.22858309664737483,-0.2197669715237882,0.2,0,
1.1122966124299813,0.4245801525692104,0.3824745169744396,0.2,-0.797938280564263,0.01927711884107397,0.2,-1.2998956656210297,-0.29905203131669333,0.2,-0.3986071659725325,-0.14500249957561523,0.2,0.40183038923950465,0.024096302760508864,0.2,-0.2292548799345044,0.2858187529079445,0.2,0,
1.1202987463323555,0.4257828849915804,-0.07946160260855623,0.2,-0.7989478184610929,-0.21341378932146493,0.2,-1.3000330597711278,0.21212618638938308,0.2,-0.4014465421050828,0.1420476749528568,0.2,0.4025922553389663,-0.09904534294919234,0.2,-0.22400999660084772,0.310514827454228,0.2,0,
1.1283008802347294,0.4233087669274735,0.1989195085545653,0.2,-0.8013529011934064,0.3135002773755613,0.2,-1.2965016466387995,0.10034820855704674,0.2,-0.3963344031732868,0.060100146919032926,0.2,0.40024566375231757,-0.10465300691413215,0.2,-0.22428664269523677,0.010820331471751016,0.2,0,
1.1363030141371033,0.42896559712845345,0.5192378475301663,0.2,-0.7939318140230839,-0.0284843360642828,0.2,-1.298427488434215,-0.2333149004096896,0.2,-0.40048493975437827,-0.161402896521088,0.2,0.4009178072283402,0.11860429290120114,0.2,-0.2238368712972997,0.06894746975155339,0.2,0,
1.1443051480394772,0.43161657248795615,0.08956679784595176,0.2,-0.8018086505704349,-0.3762853968733368,0.2,-1.3002346850453546,-0.21771768159500882,0.2,-0.3989168495176242,0.07546547055629904,0.2,0.4021433324387368,-0.17575317017408387,0.2,-0.2231834831792119,0.12499187657625914,0.2,0,
1.1523072819418512,0.4303986658939887,0.1258324408826908,0.2,-0.7999523803730573,0.36851984306866814,0.2,-1.3019109713397352,0.18219289668228167,0.2,-0.3992774922254775,0.34486039984791755,0.2,0.39810575650555485,-0.15783878512301217,0.2,-0.22183700127207956,-0.04927463830628649,0.2,0,
1.1603094158442253,0.4336298915420792,0.18881152779479105,0.2,-0.7959123330813362,0.09271119932553057,0.2,-1.297319598698438,0.31632378479186374,0.2,-0.3933990831200575,0.454517212773408,0.2,0.3996179118767686,0.35811985571006577,0.2,-0.2239718773921125,-0.024998524360603583,0.2,0,
1.1683115497465992,0.43341965033870533,-0.00428943190259462,0.2,-0.7984690011838488,-0.05783599750471685,0.2,-1.2968497907830654,0.051780978698443,0.2,-0.39200521682110295,-0.01409344541403873,0.2,0.4038356741969159,0.14639629351341152,0.2,-0.22223697766184922,0.1530529313098737,0.2,0,
1.1763136836489732,0.4335612606316377,0.3089232193983389,0.2,-0.7968377090414117,0.3335700122773441,0.2,-1.296491103039263,0.2093919948519679,0.2,-0.3936245782466821,0.21903706338391796,0.2,0.4019602525729832,-0.17829141793442027,0.2,-0.22152303049115452,0.12249506114328512,0.2,0,
1.184315817551347,0.43836242184907875,0.3537243955130734,0.2,-0.7931318809874113,0.40720255487514817,0.2,-1.293499518865434,0.5193407688115492,0.2,-0.38850062380696027,0.481970718472384,0.2,0.4009830115099652,0.24353077867050876,0.2,-0.22027705668355665,0.005232119444352826,0.2,0,
1.192317951453721,0.43922085095984686,0.08941973167572378,0.2,-0.7903224681634093,0.15309392782558717,0.2,-1.2881816507382782,0.5770459375287751,0.2,-0.385913046751124,0.7045919099106894,0.2,0.4058567450317113,0.12371429714505555,0.2,-0.22143931658004487,-0.17664292168696574,0.2,0,
1.2003200853560951,0.43979313755589033,0.20419040266058536,0.2,-0.7906823781422019,0.4280248630921177,0.2,-1.2842667838649735,0.3772658306769455,0.2,-0.37722715324838924,0.6091749325998486,0.2,0.40296244026428607,0.030586283596509972,0.2,-0.2231033434305481,0.13160564965700172,0.2,0,
1.208322219258469,0.44248789740241623,0.21951227634624607,0.2,-0.7834740703539355,0.519224302452978,0.2,-1.282145397447447,0.46234382120674544,0.2,-0.3761662478295264,0.4643797116129847,0.2,0.4063461255692555,0.31426704611525746,0.2,-0.21933362618553284,0.39519960434540763,0.2,0,
1.216324353160843,0.44330533397743027,0.3488797660214857,0.2,-0.7823747893029542,-0.13621079841339562,0.2,-1.2768692827256656,0.5216753917613726,0.2,-0.3697970778625815,0.6905072087066456,0.2,0.4079907130021302,-0.025733686866469957,0.2,-0.21678014976102158,-0.11604435263111099,0.2,0,
1.224326487063217,0.44806997365876,-0.005187415705237841,0.2,-0.7856534431285498,0.14132001413336842,0.2,-1.273798591179265,0.51039384372073,0.2,-0.36511813249022007,0.4846492268843656,0.2,0.40593438657939196,0.13135496298740876,0.2,-0.22119033582763062,-0.23774292538451466,0.2,0,
1.2323286209655908,0.44322233532614647,0.13047953491440722,0.2,-0.7801136690768203,0.7420533463483383,0.2,-1.268702981226134,0.4047870599915987,0.2,-0.36204269023243163,0.7543638495546185,0.2,0.41009239240992873,0.23451213961896145,0.2,-0.22058403656717382,0.2901760035567951,0.2,0,
1.240330754867965,0.4501576462173905,0.2655128236328692,0.2,-0.7737805895869764,0.4275621327500187,0.2,-1.2673219982193995,0.43600383389189035,0.2,-0.3530483108973462,1.0167618839187,0.2,0.40968658081329534,0.27721139423039776,0.2,-0.2165475197707219,0.16305035882964794,0.2,0,
1.2483328887703389,0.4474705405042724,0.1606522122384671,0.2,-0.77327267495282,0.2716157766517527,0.2,-1.2617269198838637,0.7968622741560405,0.2,-0.34577450008973243,0.6947818321728291,0.2,0.4145277747176151,0.39126367867425155,0.2,-0.21797523082589945,0.21175959780330397,0.2,0,
1.2563350226727128,0.452728081613206,0.4489023345156176,0.2,-0.7694347371605483,0.5630509793793648,0.2,-1.2545722018329029,0.7795165539301457,0.2,-0.3419318015825809,0.7663721569287109,0.2,0.41594679967208337,0.30864905423953065,0.2,-0.21315936620586903,0.08261487064263086,0.2,0,
1.2643371565750867,0.45465297785652226,0.08635615380081854,0.2,-0.7642638592827502,0.5908081954533392,0.2,-1.2492546550209813,0.6548056939129354,0.2,-0.33351254557887305,0.9787055929503901,0.2,0.4194661595854476,0.1404863926572457,0.2,-0.21665339289561736,-0.03170470725302049,0.2,0,
1.2723392904774609,0.4541097800740191,0.1449984239617723,0.2,-0.7599818060332949,0.22877123250497622,0.2,-1.244095310730296,0.7604149732504811,0.2,-0.32627251209537467,0.9696612963720798,0.2,0.4181945819545993,0.042406498545585064,0.2,-0.21366664152191736,0.09144824648106217,0.2,0,
1.2803414243798348,0.4569729526399106,0.3376888848628627,0.2,-0.7606035195626706,0.3308037416888607,0.2,-1.2370880154489736,0.9117645108152467,0.2,-0.3179979648369198,0.9608847362829499,0.2,0.42014466356217695,0.29506991824956513,0.2,-0.21519022095192036,0.2135145057346032,0.2,0,
1.2883435582822087,0.4595128022318249,0.30540586166123707,0.2,-0.7546889461662731,0.6359084647520191,0.2,-1.229507078557252,0.49487469072312384,0.2,-0.31089835631484747,1.1825781366284378,0.2,0.42291570064659234,0.21423252689735037,0.2,-0.2102504094301637,0.27075101173290245,0.2,0,
1.2963456921845826,0.4618594464264904,0.11592760692775636,0.2,-0.7504289841266383,0.5962048346138462,0.2,-1.2291700203974036,0.9211168925871982,0.2,-0.2990767146508648,1.020972176297156,0.2,0.42357238399253455,0.32933166652291884,0.2,-0.21085820476419392,0.0006003654056049856,0.2,0,
1.3043478260869565,0.461367643942669,0.1270266680966775,0.2,-0.7451496688124516,0.6881279105361501,0.2,-1.2147692082758568,1.1437440579831064,0.2,-0.294562801494093,0.8781488951362555,0.2,0.42818500731095904,0.26487723248854245,0.2,-0.21024080358367403,-0.23914217043659314,0.2,0,
1.3123499599893307,0.46389187311603725,-0.06850347067568346,0.2,-0.7394189375580599,0.535297631296866,0.2,-1.210870115469674,0.5820780733753056,0.2,-0.2850263323286847,1.4868435559934716,0.2,0.42781041971235123,0.33810182638503367,0.2,-0.21468447949117941,-0.17925017555957787,0.2,0,
1.3203520938917046,0.46027158841185806,0.014980979874519573,0.2,-0.7365849067117017,0.3953942647996894,0.2,-1.2054559591018519,0.7277661488402087,0.2,-0.27077330459819743,1.377823481633112,0.2,0.4335946365331196,0.45946765799291867,0.2,-0.21310880639262728,0.40297545743956353,0.2,0,
1.3283542277940785,0.46413156879402956,0.3897597860742161,0.2,-0.7330926293212648,0.7931880130538499,0.2,-1.1992258570882306,0.8544929711095106,0.2,-0.2629811566225549,1.1506995352269165,0.2,0.43516190224023793,0.19929475264118465,0.2,-0.2082368721721464,0.373285564312445,0.2,0,
1.3363563616964524,0.4665077449890455,0.2673140122136444,0.2,-0.7238938985028401,0.598477987001432,0.2,-1.1917840715640997,1.0835489559636728,0.2,-0.25236211203456677,1.2737663490135376,0.2,0.43678335257537854,0.2212868231531752,0.2,-0.20713623736362816,-0.25804872545411894,0.2,0,
1.3443584955988264,0.46840859298944787,0.1700661904607964,0.2,-0.7235169815292419,0.3373111227756506,0.2,-1.1818890737928118,1.0401747789038767,0.2,-0.2426008950383383,1.2524008445297785,0.2,0.43870249141068873,0.44623698302248893,0.2,-0.2123656517794123,-0.26276133624706166,0.2,0,
1.3523606295012005,0.46922880403641826,0.354176457776207,0.2,-0.7184969205384297,0.7897674570984808,0.2,-1.1751412751016377,1.0203106007149187,0.2,-0.2323236985220903,1.3277438865921236,0.2,0.44392314430373836,0.14268045238132604,0.2,-0.21134041874358114,0.14822041871858163,0.2,0,
1.3603627634035744,0.4740754163138672,0.2301332925439062,0.2,-0.7108807022156662,0.881595788029696,0.2,-1.1655641041813731,1.231886091022663,0.2,-0.2213569928528643,1.3914590436765288,0.2,0.44098537864878995,0.18508542751723492,0.2,-0.209994125079915,0.07824093725070612,0.2,0,
1.3683648973059483,0.47291093671712076,-0.008091988549674412,0.2,-0.7043913879299546,0.7517121157562603,0.2,-1.155431097645275,0.828845761104216,0.2,-0.21006035382326585,1.4501479720394113,0.2,0.4468845111440141,0.5217369540160901,0.2,-0.21008856374756985,-0.21289446195245365,0.2,0,
1.3763670312083223,0.4739459444970724,0.2822721969246919,0.2,-0.6988533083635661,0.824470598767113,0.2,-1.1523025720037057,0.8843775138935306,0.2,-0.19815462530023373,1.6143251517778487,0.2,0.4493331699130474,0.47252099067939674,0.2,-0.21340043647115425,0.3300788488808087,0.2,0,
1.3843691651106962,0.4774272918679158,0.0625336197860489,0.2,-0.6911998583496808,0.7230504020944023,0.2,-1.1412810574229786,1.3637184783451965,0.2,-0.18423115139482027,1.7289677653777764,0.2,0.45444484699488447,0.48679528374753755,0.2,-0.2048073021654769,0.15768555785532384,0.2,0,
1.3923712990130703,0.4749464824136492,-0.034038495488577375,0.2,-0.6872845019300556,0.6206875094921585,0.2,-1.1304830763501825,1.3532467574255829,0.2,-0.1704911410541893,1.3637611865635768,0.2,0.457121894453008,0.24563988665215683,0.2,-0.21087746754546907,-0.15046106692932248,0.2,0,
1.4003734329154442,0.4768826759400986,0.5193213976992863,0.2,-0.6812688581978062,0.823723327989162,0.2,-1.1196291093041693,0.9593459104818708,0.2,-0.16241097240980304,1.27803777759611,0.2,0.458375085181319,0.3386802137859655,0.2,-0.20721467923634607,0.31427944427076837,0.2,0,
1.4083755668178182,0.48325562477683776,0.43221543153198344,0.2,-0.674104928682229,0.8971957637027363,0.2,-1.1151335417824726,1.1854888827856347,0.2,-0.15004253661265154,1.714066141452317,0.2,0.46254077787358344,0.4036334035235692,0.2,-0.20584899643713678,0.07325728518969843,0.2,0,
1.416377700720192,0.4837981228446103,0.1486679798786035,0.2,-0.6669137259785625,0.633012667803079,0.2,-1.100661287179599,1.2112001325832733,0.2,-0.13498591414656597,1.6343634924979162,0.2,0.4648332196376961,0.33266598050010404,0.2,-0.2060425626733109,0.3342462476960181,0.2,0,
1.4243798346225662,0.4856343124548954,0.11892128514053371,0.2,-0.6639767259973798,0.7454284659410976,0.2,-1.0957543396611402,1.1916531914137607,0.2,-0.12389272073268488,1.3857751265230243,0.2,0.4678634335615851,0.3424822331256419,0.2,-0.2005010564740005,-0.1320999973680806,0.2,0,
1.4323819685249402,0.48570086340685886,0.3020316309082227,0.2,-0.6549868705235049,1.001630032419827,0.2,-1.081594836116979,1.4619832492159395,0.2,-0.11281351212219758,1.7814369657010078,0.2,0.47031293536770635,0.5409316262071744,0.2,-0.20815616263120018,-0.18183618286592323,0.2,0,
1.440384102427314,0.490466818549427,0.4299451152717688,0.2,-0.6479506454786625,0.8597634447819121,0.2,-1.0723626076736852,1.0408616135798021,0.2,-0.09538972928146876,1.4220537442424737,0.2,0.4765183395808999,0.6775773042491419,0.2,-0.20341043539985526,0.27112744902959074,0.2,0,
1.448386236329688,0.49257998525120716,0.18070155336693747,0.2,-0.6412306554069943,0.6841266603056853,0.2,-1.064941050299702,1.1277090312791505,0.2,-0.090060652214318,1.525975074589318,0.2,0.4811541722356926,0.2444277068965467,0.2,-0.20381812344672673,0.07087473004632056,0.2,0,
1.456388370232062,0.493358043403298,0.18819722314174572,0.2,-0.6370046189137716,0.5680680842209476,0.2,-1.0543192631732188,1.3792202636873223,0.2,-0.07097412808803967,1.972096156983124,0.2,0.48042918289124464,0.22701576030954157,0.2,-0.20227643971911413,0.04235529419120872,0.2,0,
1.464390504134436,0.4955911408214751,0.17946818426541403,0.2,-0.6321415660594591,0.8319444880428711,0.2,-1.042873526080705,1.4015982991803788,0.2,-0.058507113702588015,1.5793528771448897,0.2,0.4847864244006453,0.48541045322887666,0.2,-0.2031404387396674,-0.1721135347656083,0.2,0,
1.47239263803681,0.4962295343515446,0.05940712254364974,0.2,-0.6236935071050856,0.9004546518465647,0.2,-1.0318936903863327,1.149848360055633,0.2,-0.045704482053721435,1.6621552480146697,0.2,0.48819575014290667,0.4943238244889958,0.2,-0.20503025627536386,-0.09174183400680047,0.2,0,
1.480394771939184,0.4965416547821735,0.20194849795429626,0.2,-0.6177342916299141,0.7827986977048257,0.2,-1.0244759523198148,1.1710840144622259,0.2,-0.0319126297343533,1.5635165470902193,0.2,0.4926956055924692,0.4808907604157593,0.2,-0.2046083080837762,0.21025916073992568,0.2,0,
1.4883969058415578,0.49946071031881334,-0.05572455632851109,0.2,-0.6111687279418084,1.0857322776772065,0.2,-1.013156346154937,1.2405754926305828,0.2,-0.020688217300277926,1.6646494869734798,0.2,0.4958900023095588,0.3899161224507966,0.2,-0.20166610970352505,0.47109958660845713,0.2,0,
1.4963990397439317,0.4956500618809173,0.20483952219275958,0.2,-0.6003625751870788,0.9145842290364248,0.2,-1.0046267444377255,1.0230962018521472,0.2,-0.0052782379427776215,1.601278541975719,0.2,0.49893426355168197,0.3165820396547614,0.2,-0.19707071469804088,0.04312954963911486,0.2,0,
1.5044011736463059,0.5027381426738975,0.1314050648709257,0.2,-0.5965353802772256,0.9330391440796406,0.2,-0.9967868069253027,1.3146739156451106,0.2,0.004932239371333577,1.7696210978768854,0.2,0.500955314944035,0.41327189085179833,0.2,-0.20097603690929922,-0.0003085537247180664,0.2,0,
1.5124033075486798,0.4977525429188521,-0.027414210733565925,0.2,-0.5854339488818046,0.6862275164830484,0.2,-0.9835919617874037,1.4659070548312738,0.2,0.023035699623252547,1.657685943482118,0.2,0.5055466138053107,0.3624878411865179,0.2,-0.19707565155763637,0.4120806947160837,0.2,0,
1.5204054414510537,0.5022995153021604,0.3329761829440787,0.2,-0.5855557400134969,0.48859457247665133,0.2,-0.9733322940480024,1.2814723216591077,0.2,0.031455214467047465,1.7052447312826406,0.2,0.5067551204030193,0.21473939353083837,0.2,-0.19438274579384188,-0.06826718959704152,0.2,0,
1.5284075753534276,0.5030801618459574,0.36678391857239423,0.2,-0.5776164357221781,0.9656775824867722,0.2,-0.963088404640858,1.159947189881695,0.2,0.0503196153237748,1.9279189635856109,0.2,0.5089824441018042,0.644305605672725,0.2,-0.19816792659118904,-0.2027252341258133,0.2,0,
1.5364097092558016,0.5081680579993187,0.21942600654192151,0.2,-0.5701048986937085,0.9879163984973793,0.2,-0.9547731390098952,1.5148939429713153,0.2,0.06230191788441724,1.5731454669547307,0.2,0.5170640100937829,0.6747424488723341,0.2,-0.1976263495398549,0.20442319814997603,0.2,0,
1.5444118431581757,0.5065909779506281,0.03895149565610184,0.2,-0.5618097733462201,0.9481341168556673,0.2,-0.9388501015533169,1.3705726319606926,0.2,0.07548994279505049,1.4957038986989135,0.2,0.5197783232837615,0.273426155674536,0.2,-0.19489715542078942,0.008089974562129967,0.2,0,
1.5524139770605496,0.5087912819298164,0.34514126387460986,0.2,-0.5549347528240178,0.7912721769590264,0.2,-0.9328439768985242,0.7238208236969856,0.2,0.08623318026359986,1.5687302217274897,0.2,0.5214388285845755,0.3302227158167928,0.2,-0.1974969099468608,-0.2784185736981245,0.2,0,
1.5604161109629235,0.5121132381726219,0.3664744543832518,0.2,-0.5491494185148756,0.7453107763007241,0.2,-0.9272689683741652,1.0894967325895053,0.2,0.10058962634269032,1.6064859426899394,0.2,0.5250618867368302,0.38872055931837846,0.2,-0.1993518525999594,0.1222633172423878,0.2,0,
1.5684182448652975,0.5146548731999484,0.07337272516942661,0.2,-0.5430097804032062,0.5822355618825825,0.2,-0.9154120291770921,1.323650218153831,0.2,0.11193695534663889,1.522339250833023,0.2,0.5276583575336695,0.5482943966724149,0.2,-0.1955406968709826,0.6388080421194705,0.2,0,
1.5764203787676716,0.5132872017753327,0.005165320790020966,0.2,-0.5398336495247543,0.6304757320516121,0.2,-0.9060905648837039,1.4916833095271684,0.2,0.12494705435601869,1.7800302224954527,0.2,0.5338345970835888,0.34902275738950966,0.2,-0.18913092392604788,0.10211667914431302,0.2,0,
1.5844225126700455,0.5147375183325887,0.345716167615244,0.2,-0.5329221686903804,0.8818831644786945,0.2,-0.8915450962246574,1.1811265424219384,0.2,0.14041743890656613,1.7200694875888713,0.2,0.5332427216519017,0.34178648258289396,0.2,-0.1939068300046736,-0.3629318606448006,0.2,0,
1.5924246465724194,0.5188186604571766,0.5484805839802361,0.2,-0.5257235188930952,1.1636709013461282,0.2,-0.8871925402049529,0.8116920802639024,0.2,0.15246816615744063,1.5278185907887618,0.2,0.5393031808049151,0.6218493433816086,0.2,-0.1949378336963647,0.0348844903857292,0.2,0,
1.6004267804747934,0.5235132076762725,0.11299526106248181,0.2,-0.5143034342688424,0.7070398764739069,0.2,-0.878558022940435,1.0168774229772013,0.2,0.16486253635918632,1.5333487749129224,0.2,0.5431923111460074,0.12915648163912968,0.2,-0.19334867815850193,0.03231306904732424,0.2,0,
1.6084289143771673,0.5206265846341763,-0.04484197547013208,0.2,-0.5144108808695127,0.5432186319155596,0.2,-0.8709225014373176,1.0767274912948586,0.2,0.1770017465560474,1.4489470300205476,0.2,0.5413696845111412,0.16500668757069015,0.2,-0.1944208245916075,-0.022925836843070563,0.2,0,
1.6164310482795414,0.5227957360687504,0.11512137154578994,0.2,-0.5056119361581934,0.9349983746666998,0.2,-0.8613303830797172,1.1097186618049815,0.2,0.18804568883951508,1.205744580338692,0.2,0.5458324181471385,0.6470522747215115,0.2,-0.19371549154799106,0.2973578814610793,0.2,0,
1.6244331821819153,0.522468526578909,0.24351271238270966,0.2,-0.4994509068748455,0.8351652916370571,0.2,-0.8531670028484379,1.147076818405507,0.2,0.19629365984146646,1.6262271389812875,0.2,0.5517225209066854,0.5456384186944968,0.2,-0.18966309848823024,-0.1489688159962317,0.2,0,
1.6324353160842893,0.5266919394668738,0.37286586696509694,0.2,-0.49224929149200053,0.7670362591061797,0.2,-0.8429771539852291,1.3136842419844628,0.2,0.21406532306321568,1.8029413050396834,0.2,0.5545626328462504,0.41239427628859265,0.2,-0.19609899260393077,0.03278611046417766,0.2,0,
1.6404374499866632,0.5284343804503505,0.017290691474422526,0.2,-0.4871783267291466,0.4124474183366776,0.2,-0.8321480549766865,1.083855036734631,0.2,0.2251407207221014,1.3314954652742343,0.2,0.5583208293273029,0.20235777941583072,0.2,-0.1891385207208034,0.18407652222749737,0.2,0,
1.648439583889037,0.5269685905304645,0.1904236179534058,0.2,-0.4856501327986137,0.6048006091676599,0.2,-0.825635473397475,0.9637688832671021,0.2,0.23536925050760343,1.1888904699300042,0.2,0.5578003573169037,0.23368462003650614,0.2,-0.1931537682482908,0.08034333972365727,0.2,0,
1.6564417177914113,0.531481158337605,-0.06013720953120666,0.2,-0.47750151698246407,0.8533831671387534,0.2,-0.8167277528444129,1.1518675398292377,0.2,0.24416296824098147,1.0406449365842896,0.2,0.562059783247887,0.37077584296781735,0.2,-0.18785302728522488,0.04158455777485831,0.2,0,
1.6644438516937852,0.5260063951779652,0.28220245441286373,0.2,-0.47199600212439363,0.6292237767487087,0.2,-0.8072055927602072,0.892394272271696,0.2,0.25201956949295207,1.2232287827074768,0.2,0.5637327708043888,0.22011993838116917,0.2,-0.19248841532389308,-0.07858028804885557,0.2,0,
1.672445985596159,0.5359963976082108,0.585849388410789,0.2,-0.46743393655448473,0.6838780943607646,0.2,-0.8024494444880658,1.0158144506207945,0.2,0.2637346287643011,1.467325185252416,0.2,0.5655817022619857,0.31714046486225334,0.2,-0.18911031189400657,0.2960062358096822,0.2,0,
1.680448119498533,0.5353799853925378,0.297328901909609,0.2,-0.4610539526146214,0.7444447761995148,0.2,-0.7909525615502745,1.0126633197747037,0.2,0.2754967724569907,1.1414270564164866,0.2,0.5688070182421848,0.07550879045009617,0.2,-0.18775231555093816,0.0174894124338517,0.2,0,
1.6884502534009072,0.5407536600387646,0.08724901621297299,0.2,-0.4555228201352925,0.47124975447985007,0.2,-0.7862468313716705,0.9743749689958905,0.2,0.2819974616669649,1.1367172617582564,0.2,0.5667898429091872,0.061879112139909265,0.2,-0.18883048129506494,0.017318326126386854,0.2,0,
1.696452387303281,0.5367759696519454,0.012629651429348077,0.2,-0.4535139565429438,0.37490351427495877,0.2,-0.7753625620463402,0.7604317924024967,0.2,0.2936842486451228,1.2011877645084108,0.2,0.5697970840364234,0.3226750534242248,0.2,-0.18747522233291597,0.1398926843131955,0.2,0,
1.704454521205655,0.5409557344616341,0.33738405147057393,0.2,-0.44952436390689315,0.5402932227910536,0.2,-0.7740799226932306,0.32006875525365797,0.2,0.30121646589909945,1.095417910083444,0.2,0.5719526437639748,0.49701224750323125,0.2,-0.1865921983460538,0.5536758161893696,0.2,0,
1.712456655108029,0.5421741144754746,0.12442654330529351,0.2,-0.44486926497828694,0.38586568909716734,0.2,-0.7702414619622817,0.931451718489712,0.2,0.31121093520645793,1.064267505734122,0.2,0.5777492799964751,0.35660219661426407,0.2,-0.17861640927388606,-0.05618126865534513,0.2,0,
1.7204587890104028,0.5429465591545188,0.07822730927509874,0.2,-0.4433505128813385,0.47531518091473157,0.2,-0.7591766951973952,0.7533758533971937,0.2,0.3182447459908454,0.8943339778982144,0.2,0.577658278909803,0.21991046180656892,0.2,-0.18749109864453933,-0.6760789574630759,0.2,0,
1.728460922912777,0.5434257514238762,0.4071396764575713,0.2,-0.43726422208365123,0.48218346322129874,0.2,-0.7581874483079266,0.6636650146279038,0.2,0.32552027885282936,0.7541714822516359,0.2,0.5812678473853802,0.3198663537092028,0.2,-0.18943367259329527,0.3640170656485694,0.2,0,
1.736463056815151,0.54946079397784,0.4523369724572998,0.2,-0.4356355774697977,0.3827476744776535,0.2,-0.7485580549633487,0.8522389197564636,0.2,0.3303114897068716,1.1959250944066149,0.2,0.5827761405691503,0.17466160303754308,0.2,-0.18166682559416222,0.2728027488543248,0.2,0,
1.7444651907175248,0.550663142983193,0.22022605388879318,0.2,-0.4311402592920088,0.5896587197593457,0.2,-0.7445516255918232,0.49701114971648086,0.2,0.3446550803633352,1.1238125332832873,0.2,0.5840624330339809,0.2617429012076039,0.2,-0.18506882861162607,-0.12278512373461309,0.2,0,
1.7524673246198987,0.5529844108400607,0.13738717529654387,0.2,-0.42620103795364817,0.4397009318980564,0.2,-0.740605876567885,0.6675281505250513,0.2,0.3482924902394042,0.43514234091836246,0.2,0.5869640269884719,0.3538738059440452,0.2,-0.18363138757391603,0.10776077828521073,0.2,0,
1.7604694585222727,0.5528613377879377,-0.17069887232863679,0.2,-0.4241050443816399,0.47812892114038746,0.2,-0.7338711751834224,0.6924512144998313,0.2,0.351617357818029,0.5874982241015555,0.2,0.5897244139290856,0.2541356601805239,0.2,-0.1833446561590627,-0.0382098319432287,0.2,0,
1.7684715924246468,0.5502532288828025,0.2965520874359806,0.2,-0.41855097521540197,0.38756178813906944,0.2,-0.7295266571358877,0.30927755962703585,0.2,0.35769246182502906,0.7818367375214651,0.2,0.5910301975513603,0.01519581703739864,0.2,-0.1842427448850077,0.19618672220515948,0.2,0,
1.7764737263270207,0.5576061711869134,0.5694957977701864,0.2,-0.41790405577141476,0.34268862662702876,0.2,-0.7289227342293898,0.4404597454072262,0.2,0.36412674561837244,1.0288343887147575,0.2,0.589967547001684,0.013908766159712038,0.2,-0.18020566860378015,0.10249156195168453,0.2,0,
1.7844758602293946,0.5593651616471255,0.0766811965913633,0.2,-0.4130679571893695,0.44110937842212206,0.2,-0.7224793012093721,0.7090042040174133,0.2,0.3741538120444652,0.730862070350148,0.2,0.5912527378099157,0.18829521184114684,0.2,-0.18260287989378074,0.0207456458339271,0.2,0,
1.7924779941317686,0.5588330703323752,-0.09483245185668704,0.2,-0.4108463057166608,0.40766491405839,0.2,-0.7175786669651112,0.5261936626947267,0.2,0.3758205387439748,0.40456109900915277,0.2,0.5929802703911423,0.14798706934618377,0.2,-0.17987373827043732,-0.010312284361071317,0.2,0,
1.8004801280341425,0.5578478424174185,0.06887745991195765,0.2,-0.40654531856443527,0.17263270260875485,0.2,-0.7140602026062565,0.40477541144386814,0.2,0.38062678962861163,0.6570640981653185,0.2,0.5936205309194547,0.3257833329769755,0.2,-0.18276787644355788,0.017621472561650184,0.2,0,
1.8084822619365166,0.5599351096909665,0.4185543151899937,0.2,-0.40808418247492073,-0.08401863770708326,0.2,-0.7111022603820093,0.24271448010115826,0.2,0.3863335643146199,0.4694552730839449,0.2,0.5981928037187739,0.3754222367417584,0.2,-0.1795917947094509,0.18237929655095206,0.2,0,
1.8164843958388905,0.5645447114604584,0.3664375811574805,0.2,-0.4078896167677486,0.1944053332167163,0.2,-0.7101767709246379,0.091404887721247,0.2,0.38813807399795475,0.30051070681494024,0.2,0.5996272867073228,-0.14022536577672912,0.2,-0.17984980769874265,-0.07308926848862557,0.2,0,
1.8244865297412645,0.5657981109894862,-0.1821059473051112,0.2,-0.40497369714345327,0.29618861844261934,0.2,-0.7096397821784693,0.2610868122590315,0.2,0.39114173562365895,0.4334810554578322,0.2,0.5959491978663463,0.047304528339259244,0.2,-0.18076122300526892,0.4435561732302473,0.2,0,
1.8324886636436384,0.5616310163035766,0.015298491623239041,0.2,-0.4031505988726667,-0.0494786077054471,0.2,-0.7059993819284934,0.3438579043940834,0.2,0.39507377088528006,0.30163339470289097,0.2,0.6003841591607509,0.25872835314870446,0.2,-0.1727529089270587,0.43917230474282976,0.2,0,
1.8404907975460125,0.566042886855458,0.6406115055547986,0.2,-0.4057653548667404,0.262802653151116,0.2,-0.704138055708164,0.45449372442651903,0.2,0.3959678699389052,0.23933979785278198,0.2,0.6000888515167255,0.005341816281784206,0.2,-0.17373446612938365,-0.14821292817231851,0.2,0,
1.8484929314483864,0.5718808003924534,0.5435072302739721,0.2,-0.39894575642224883,0.2608700822105715,0.2,-0.6987274823376691,0.24917172205080745,0.2,0.3989032076509246,0.25033220989868415,0.2,0.6004696282212595,-0.06957945502758522,0.2,-0.1751243157778158,-0.3325053866081243,0.2,0,
1.8564950653507604,0.5747390025398416,0.1422885570610266,0.2,-0.4015914335513713,-0.043801713910107676,0.2,-0.7001513081553511,-0.10181038264777537,0.2,0.39997318529728415,0.11052150145044251,0.2,0.5989755802362842,0.03943306711475664,0.2,-0.17905455231511364,0.0023958557943803277,0.2,0,
1.8644971992531343,0.5741574173054298,-0.12718826760978186,0.2,-0.39964658384481055,-0.019468093924994434,0.2,-0.7003564484600335,-0.17576133423469198,0.2,0.40067155167413165,-0.09551189324899512,0.2,0.6011005572950956,0.14617481239661417,0.2,-0.1750859820851057,0.3093591527118921,0.2,0,
1.8724993331555082,0.572703990258085,0.02697975560971011,0.2,-0.4019029230541712,0.013100442672515228,0.2,-0.7029634895031062,0.0481753682102376,0.2,0.39844499500530023,0.03363258495219304,0.2,0.60131437723463,-0.11498046950837032,0.2,-0.17410480587172336,-0.09178836987214396,0.2,0,
1.8805014670578823,0.5745890933951852,0.31572972485566925,0.2,-0.3994369767620503,0.0014821674509252203,0.2,-0.6995856425686697,0.28043494076900044,0.2,0.40120967303336674,-0.19049204352398694,0.2,0.5992608697829617,-0.11914633882838949,0.2,-0.17655459600306,0.048075810855417386,0.2,0,
1.8885036009602563,0.5777556658557758,0.20271416357193345,0.2,-0.4018792083749564,-0.0268974689715748,0.2,-0.6984765304508022,0.07092873549017359,0.2,0.39539712230891644,-0.21851847977024524,0.2,0.5994080358133758,-0.09574898560355677,0.2,-0.17333559289803668,0.35317399472291344,0.2,0,
1.8965057348626302,0.5778325200123361,0.15704485876290308,0.2,-0.3998673362655955,0.01700236890141496,0.2,-0.698450782800827,-0.40241944180677974,0.2,0.3977133773570428,0.2129773875146658,0.2,0.5977288860133048,0.2015702627977886,0.2,-0.1709038120874934,0.20478047158882343,0.2,0,
1.904507868765004,0.5802683835959822,0.28344797570765967,0.2,-0.40160717047253375,-0.13827332907875162,0.2,-0.7049152415197106,-0.35801817280624315,0.2,0.3988047605091511,-0.1554502093698007,0.2,0.6026331600181404,0.025901344910664315,0.2,-0.1700591053526155,0.05947825064368806,0.2,0,
1.912510002667378,0.5823676876236586,-0.111871003936094,0.2,-0.40207970953085553,-0.3691236208030538,0.2,-0.7041790735657268,-0.06507393642330578,0.2,0.395226174007126,-0.3621726936530907,0.2,0.5981433075318754,-0.2180235598092939,0.2,-0.16995216007719438,-0.01608705071106352,0.2,0,
1.9205121365697522,0.5784784475330047,0.031995486141869756,0.2,-0.4075131484053826,-0.2796229725415475,0.2,-0.7059564245024835,-0.18797670290861962,0.2,0.39300999741070164,-0.47534106828499634,0.2,0.5991447830611917,-0.2758082472830506,0.2,-0.17031649816399252,0.006532246737998154,0.2,0,
1.928514270472126,0.5828796154019286,0.657999944395797,0.2,-0.4065536770915203,-0.2571296185752067,0.2,-0.7071867008122648,-0.24321323954128865,0.2,0.38762071691456607,-0.3297728567879278,0.2,0.5937303755753466,-0.27494824287663255,0.2,-0.1698476441293864,0.0018384617116694313,0.2,0,
1.9365164043745,0.5890064466433375,0.20048231633770092,0.2,-0.4116272223025859,0.12810381964383638,0.2,-0.7098478363351441,-0.15739303688111494,0.2,0.3877336317020948,-0.2657930332618484,0.2,0.5947456111751656,0.003190887311599333,0.2,-0.1702870827766058,0.022878855909080204,0.2,0,
1.944518538276874,0.5860873324633318,-0.014549564404442439,0.2,-0.4045040159772189,-0.10852908215989998,0.2,-0.7097049894023626,-0.19340404876392464,0.2,0.3833680283823765,-0.41295993119685664,0.2,0.5937814297723322,0.2249338065585041,0.2,-0.16948158243484113,-0.04092155147888271,0.2,0,
1.9525206721792479,0.5887736536128664,0.33317038804327875,0.2,-0.4133636876171443,-0.3164736918921385,0.2,-0.7129423011153669,-0.578041880658596,0.2,0.3811262728029451,-0.5320819190273163,0.2,0.5983445520801016,0.13301738234126892,0.2,-0.17094182760026794,0.05630976966990338,0.2,0,
1.960522806081622,0.5914180586720242,0.46937013990256543,0.2,-0.4095675950474931,-0.010915599936038578,0.2,-0.7189536594929001,-0.6663058584713901,0.2,0.37485471767793943,-0.8173463335641867,0.2,0.5959097078897925,-0.3468769788876197,0.2,-0.16858062612012267,0.20275357405093,0.2,0,
1.968524939983996,0.5962835758513074,0.2838089875380617,0.2,-0.41353833721612093,-0.6207005640932288,0.2,-0.7236031948509092,-0.6385940977610762,0.2,0.3680487314659181,-0.5476755496967439,0.2,0.5927945204178997,-0.19969108588806933,0.2,-0.16769777041545306,-0.09613995459890542,0.2,0,
1.9765270738863698,0.5959590024726332,0.1049715052043737,0.2,-0.4194988040729848,-0.4444855740138205,0.2,-0.7291711650570774,-0.40084079199437933,0.2,0.36609190888279153,-0.6661864647320506,0.2,0.5927146505155834,-0.29506720400918757,0.2,-0.17011886539370516,-0.12433272181427805,0.2,0,
1.9845292077887438,0.5979631199345774,0.16679495090353436,0.2,-0.42065010640034206,-0.17356093054399918,0.2,-0.7300166475228193,-0.39383323290278355,0.2,0.3573897480302053,-0.7854919177264982,0.2,0.5880734451537527,-0.29283678499007065,0.2,-0.1696870939644815,-0.0024597388304757606,0.2,0,
1.992531341691118,0.5986277216870898,0.11820446519841821,0.2,-0.4222757789616888,-0.5569663493508841,0.2,-0.7354724967835219,-0.9530050294711545,0.2,0.35352403819916756,-0.6685159686078481,0.2,0.5880292619557422,-0.19537980604648897,0.2,-0.17015822121499277,0.13894582073800849,0.2,0,
2.0005334755934916,0.5998543913777521,0.13292324973702974,0.2,-0.4295615679899562,-0.2532052707773409,0.2,-0.7452647279943577,-0.7252274150579482,0.2,0.3466934925324797,-1.1278395714572689,0.2,0.5849473682570089,-0.19913989105525137,0.2,-0.16746396083267337,0.29378502617882946,0.2,0,
2.0085356094958655,0.6007544936828823,0.3554171639691128,0.2,-0.42632706329412623,-0.4336620219431431,0.2,-0.7470761354244491,-0.13337588024160685,0.2,0.33547860505585125,-0.8725214064444868,0.2,0.5848430236988582,-0.14712354260836696,0.2,-0.1654576607961315,-0.016171464496374244,0.2,0,
2.01653774339824,0.6055410660012579,0.07734387568362339,0.2,-0.4365001603410465,-0.555205872418793,0.2,-0.7473987420782234,-0.39893195193944214,0.2,0.33273315002936793,-0.46515877761409835,0.2,0.582593391575275,-0.24473234080694267,0.2,-0.16772270426461536,-0.012124729377385388,0.2,0,
2.024539877300614,0.6019919956938202,-0.12233670192999396,0.2,-0.4352103572528269,-0.4434934266874697,0.2,-0.7534590466554801,-1.1712289751826324,0.2,0.3280360646140257,-1.0363602763406796,0.2,0.5809273062459471,-0.339599859798069,0.2,-0.16565165646616967,0.16290350749730875,0.2,0,
2.0325420112029877,0.603583678770378,0.2964883132757154,0.2,-0.443596055168046,-0.6858389588360985,0.2,-0.7661384056811456,-0.9951233835600106,0.2,0.31615138560791706,-1.2338882563589053,0.2,0.5771597938185059,-0.5128253150611384,0.2,-0.16511624814465842,0.012211198648495042,0.2,0,
2.0405441451053616,0.6067358087062317,0.2580523963235451,0.2,-0.4461837805942045,-0.7871162195094358,0.2,-0.7693810207924403,-0.6175696277774464,0.2,0.3082938525122832,-0.9352700179891745,0.2,0.5727221012049689,-0.20279518662379148,0.2,-0.16545627728779375,0.2339378406886368,0.2,0,
2.0485462790077356,0.6077125171115547,0.25808095334112213,0.2,-0.456189914680197,-0.5135400721731145,0.2,-0.7760195197255847,-0.9735310983283313,0.2,0.30118706532009026,-1.2204406793597418,0.2,0.5739150708325252,-0.3185800217686066,0.2,-0.16137324269364023,0.22551658947259426,0.2,0,
2.0565484129101095,0.6108651039596896,0.35585509211576855,0.2,-0.4544004217489743,-0.18047761543090943,0.2,-0.7849575183656936,-0.9414784122303427,0.2,0.2887668016425273,-1.2148741149540823,0.2,0.5676248208566712,-0.10266448426673319,0.2,-0.16184801185623224,-0.1291711384893944,0.2,0,
2.0645505468124834,0.613406198585407,0.2921807328590473,0.2,-0.45907755652709153,-0.7025352390106661,0.2,-0.7910831743212702,-0.6083633163460889,0.2,0.28174907948082495,-1.2320343556800895,0.2,0.5722724390842575,0.14558797086098446,0.2,-0.16343998090947054,0.053704912841370106,0.2,0,
2.0725526807148573,0.6155399956854344,0.12764778543006283,0.2,-0.465640985573145,-0.5651162264318326,0.2,-0.794691331427231,-1.0245468938975753,0.2,0.2690542519516459,-1.1817201907999217,0.2,0.569954228390447,-0.38023732660318055,0.2,-0.16098873325077032,-0.13079910523528837,0.2,0,
2.0805548146172312,0.615448563152288,0.38155780914496396,0.2,-0.46811941615000086,-0.4995467675399448,0.2,-0.8074759246236314,-1.1673473235623149,0.2,0.2628415564280262,-1.033576416121215,0.2,0.5661886418586066,-0.39343645346535255,0.2,-0.16553276659323515,-0.012619106495430701,0.2,0,
2.0885569485196056,0.6216449206317538,0.12587323096677205,0.2,-0.4736337338537841,-0.7539092275933406,0.2,-0.8133688886042281,-0.7361239657051668,0.2,0.25251702929370645,-1.385564607082031,0.2,0.5636592451350013,-0.3674647799218403,0.2,-0.1611906389546972,0.36625953325886484,0.2,0,
2.0965590824219795,0.6174625348477564,0.1420617951522693,0.2,-0.4801819637914943,-0.8388303810367633,0.2,-0.819253908074914,-0.6043241341408406,0.2,0.2406725227147137,-1.3319781753973816,0.2,0.5603092053798572,-0.3543576767088344,0.2,-0.15967261406109332,0.24068299445799066,0.2,0,
2.1045612163243534,0.6239179093541901,0.21462113743105082,0.2,-0.4870550199503723,-0.5603669025028395,0.2,-0.8230380747504815,-1.1739363188320653,0.2,0.23120537848734835,-1.2566259228462118,0.2,0.55798952230766,-0.2803393378014926,0.2,-0.15733971104336936,-0.05295199847199679,0.2,0,
2.1125633502267274,0.6208964730466532,-0.1516211622301436,0.2,-0.48914783423153974,-0.35561806683850894,0.2,-0.8380368891762271,-1.3937829240889403,0.2,0.22056650794917432,-1.4957598379342958,0.2,0.5558237759750333,-0.37209378410656135,0.2,-0.16051984603664526,-0.15925350383539336,0.2,0,
2.1205654841291013,0.6214919707585078,0.17580663015473452,0.2,-0.49274490901978846,-0.7875123932554462,0.2,-0.8453386015359046,-1.0453763957665867,0.2,0.2072732210803996,-1.5745735184898735,0.2,0.552036021761955,-0.3108306102346664,0.2,-0.15988776710473565,0.12643576191333564,0.2,0,
2.128567618031475,0.6237093791291289,0.44622481592958285,0.2,-0.5017480325236269,-0.8428028932725602,0.2,-0.8547629115084925,-1.1506671602601326,0.2,0.19537333165333634,-1.338065242349723,0.2,0.5508504862112786,-0.5053588616254628,0.2,-0.1584968738460319,0.1887503126214284,0.2,0,
2.136569751933849,0.6286315678133811,0.4797462642680342,0.2,-0.5062297553121494,-0.9138966757555461,0.2,-0.8637492761000667,-1.14959196442041,0.2,0.18586417720280404,-1.5379437681740347,0.2,0.5439502799759476,-0.5776632653837072,0.2,-0.1568677621027928,-0.029302605715523025,0.2,0,
2.144571885836223,0.6313853193574175,0.46401503918711007,0.2,-0.5163703793357156,-0.8533424189677077,0.2,-0.873156382939219,-0.9850022930354765,0.2,0.17076623136255178,-1.6719705040259425,0.2,0.5416078739651393,-0.24043410757656342,0.2,-0.15896571553748026,0.0066926488450098215,0.2,0,
2.152574019738597,0.6360558084403749,0.1208134337357461,0.2,-0.5198832340156327,-0.6027007143957069,0.2,-0.8795093127886343,-1.1669823482893804,0.2,0.15911264913838896,-1.807176658143202,0.2,0.5401033342547226,-0.09551846522944107,0.2,-0.15676067972127264,0.32043775792455625,0.2,0,
2.160576153640971,0.6333183342971894,-0.10306318812992876,0.2,-0.5260135907660469,-0.618996685687316,0.2,-0.8918281005118491,-1.1748719318902465,0.2,0.14185140483226055,-1.4566439914114344,0.2,0.5400795785214683,-0.5014650451679592,0.2,-0.15383871141068736,-0.05464811972860986,0.2,0,
2.1685782875433453,0.634406797430296,-0.025510007368480248,0.2,-0.5297871809866298,-0.9297135406512377,0.2,-0.8983072636988783,-0.9500278629205744,0.2,0.135806345275806,-1.227470290084098,0.2,0.5320798935320352,-0.7013517403224797,0.2,-0.1576350496369304,-0.044465408109073054,0.2,0,
2.176580421445719,0.6329101741792937,0.37798251769063235,0.2,-0.5408890074164667,-1.1209651727358687,0.2,-0.9070285463185783,-1.4547552744553494,0.2,0.12221188019091499,-1.6088986871266013,0.2,0.5288579506763086,-0.2827935039628332,0.2,-0.15455015794043253,0.3169201229502594,0.2,0,
2.184582555348093,0.6404545177133462,0.29958963309017345,0.2,-0.5477226237504037,-0.7043538779809357,0.2,-0.9215833480901638,-1.2515657863825593,0.2,0.11006396628178039,-1.5625794962655786,0.2,0.5275551974686299,-0.2634184158038372,0.2,-0.15256432766972625,0.08258298716963021,0.2,0,
2.192584689250467,0.6377036083087365,-0.11251267085526928,0.2,-0.5521586694641617,-0.7897486080874274,0.2,-0.9270535989006993,-0.8693841350458156,0.2,0.09721060825066573,-1.895361577601078,0.2,0.5246432560234472,-0.4126558474030831,0.2,-0.15322883014571845,0.025740754462860033,0.2,0,
2.200586823152841,0.6386543149796619,0.054676831432946826,0.2,-0.5603586014798025,-0.7899068365979852,0.2,-0.9354934942508969,-1.5497401139919,0.2,0.07973818104016314,-1.6906236752787127,0.2,0.5209527039101806,-0.48721877348565507,0.2,-0.15215247559832049,0.06601513649830137,0.2,0,
2.208588957055215,0.6385784376116637,0.2423788529464163,0.2,-0.5647971788497295,-0.8074656949184841,0.2,-0.9518494407245697,-1.1371630097527161,0.2,0.07016062944620632,-1.3044012132463114,0.2,0.5168477556476767,-0.33496870760351544,0.2,-0.15217258796174563,0.12895342759892958,0.2,0,
2.2165910909575888,0.6425323766268045,0.12293820532902067,0.2,-0.5732780525984983,-0.5852578751360665,0.2,-0.9536881024069404,-1.2216316957459408,0.2,0.05886776162822216,-1.795350755715955,0.2,0.5155932045885243,-0.27833751664652073,0.2,-0.1500892207567376,0.004590559819609569,0.2,0,
2.2245932248599627,0.640545448896928,0.14075474929794302,0.2,-0.5741613048519065,-0.7737088473294476,0.2,-0.9713955478565047,-1.4196887813293368,0.2,0.041435017354751046,-1.8546260521572149,0.2,0.5123943553813324,-0.6829261289010707,0.2,-0.15209913900463187,-0.14311642910915662,0.2,0,
2.2325953587623366,0.6447844526155716,0.5090546600012291,0.2,-0.5856573941557695,-0.9355625058676889,0.2,-0.9764031229082097,-0.9397873555752403,0.2,0.029193744793706723,-1.7919007293033262,0.2,0.5046663865261072,-0.46163997261450956,0.2,-0.15237908362248412,0.07736783293831213,0.2,0,
2.240597492664711,0.6486903234569477,0.3033413834865467,0.2,-0.5891303049457896,-0.6559130174361161,0.2,-0.9864321455457086,-1.3233837698625321,0.2,0.012764605685897826,-1.8336322551247035,0.2,0.5050081158195002,-0.3698337988703136,0.2,-0.15086125367761888,0.11436450897324077,0.2,0,
2.248599626567085,0.6496379147513563,0.22327285326338708,0.2,-0.5961520024347473,-1.1965451109321872,0.2,-0.9975772632260103,-1.5733161997489864,0.2,-0.00014437128828853445,-1.3409874256306125,0.2,0.49874904574418216,-0.5376257565994704,0.2,-0.15054925147891227,0.19453246693428883,0.2,0,
2.256601760469459,0.6522626891091619,0.0707032586508144,0.2,-0.6082750267207045,-0.8476315865280359,0.2,-1.0116052047416924,-1.4211068295167106,0.2,-0.00869119312419197,-1.5871300592084905,0.2,0.4964061037139087,-0.14388942794257148,0.2,-0.14774873420667026,-0.0860916867692664,0.2,0,
2.2646038943718327,0.6507691668897694,0.04131258601827725,0.2,-0.6097141078191959,-0.726994672516544,0.2,-1.0203149724982776,-0.8479484204143017,0.2,-0.02553845223562438,-1.6659665205993457,0.2,0.496446814897101,-0.26025929614422944,0.2,-0.15192671846722053,-0.19564564932782885,0.2,0,
2.2726060282742067,0.6529236904854543,0.36334104802532297,0.2,-0.6199069414809693,-1.204148752599582,0.2,-1.0251723794683212,-1.1871971949079656,0.2,-0.0353466574537815,-1.8047348866865474,0.2,0.492241954975601,-0.577166536234297,0.2,-0.15087906459591552,0.3267162859553804,0.2,0,
2.2806081621765806,0.6565826236581745,0.468192669414641,0.2,-0.6289804878607892,-0.7083013472077571,0.2,-1.039310127616805,-1.623555948785993,0.2,-0.05441421042260914,-1.9747754170638416,0.2,0.48721215031735227,-0.5596933403237796,0.2,-0.14669925789193444,-0.06608477757193316,0.2,0,
2.2886102960789545,0.6604147731960885,0.08077288175794423,0.2,-0.6312397630362934,-0.7531492649557742,0.2,-1.051149274648897,-1.18598974827408,0.2,-0.06694306412680297,-1.5922605737546065,0.2,0.48328686153042055,-0.46950653209442206,0.2,-0.15193642103706645,-0.2655108752899985,0.2,0,
2.2966124299813284,0.6578749897663017,0.021305215090340612,0.2,-0.6410308761000816,-0.8559390262548663,0.2,-1.0582859635891904,-0.9694445874301183,0.2,-0.07989037960268285,-1.602473091574538,0.2,0.4797000458038415,-0.3655010753900942,0.2,-0.15094743189657442,0.40511139350493663,0.2,0,
2.3046145638837023,0.660755656637534,0.21243372443340014,0.2,-0.6449347874563712,-0.4932230293818521,0.2,-1.066660388047779,-1.4173959226171233,0.2,-0.09258263359199558,-1.4773763540056848,0.2,0.47743884432417905,-0.28017538313427487,0.2,-0.14545463874098746,0.3182811814873357,0.2,0,
2.3126166977860763,0.6612739293572361,0.2489229532273221,0.2,-0.6489224445701912,-0.5687899249070677,0.2,-1.0809642983510643,-1.1765770906661392,0.2,-0.1035284012667738,-1.818074859433803,0.2,0.4752172396736931,-0.4492416979853253,0.2,-0.14585493299277705,0.059166695368368175,0.2,0,
2.3206188316884506,0.6647384238891711,0.35084055479620013,0.2,-0.6540354262548843,-0.9013447095752164,0.2,-1.0854856214984372,-0.9148844607982376,0.2,-0.12167183134293642,-1.6208170766034693,0.2,0.47025097715641384,-0.44480693693052864,0.2,-0.14450797161509357,-0.021246256116391055,0.2,0,
2.3286209655908245,0.6668873782339753,-0.11993152576808552,0.2,-0.6633439599233947,-0.8203583567855249,0.2,-1.0956024497238361,-1.3240988428313283,0.2,-0.1294614744924293,-1.1999195648258751,0.2,0.46810032868280466,-0.3535653423968922,0.2,-0.1461948730906393,0.04323672232924708,0.2,0,
2.3366230994931985,0.6628195194768818,0.07530863684004213,0.2,-0.6671611599634527,-0.8747875151906211,0.2,-1.1066712029837384,-1.3108668026181185,0.2,-0.14087054438015043,-1.601567927960231,0.2,0.46459393167806357,-0.3290983772283491,0.2,-0.14381618405782562,0.2910089452118417,0.2,0,
2.3446252333955724,0.6680923164234159,0.5470653326888827,0.2,-0.6773405601664446,-1.0331729952923265,0.2,-1.116576318565726,-1.021891572285577,0.2,-0.155086561339793,-1.8137488573638905,0.2,0.46283475464715107,-0.2630052404375242,0.2,-0.14153872996724984,0.10217675942534622,0.2,0,
2.3526273672979463,0.6715725647999039,0.2940986501622639,0.2,-0.6836919278881299,-0.751187155174457,0.2,-1.1230214681403077,-1.0318519893342675,0.2,-0.16989052609797267,-1.5770134018760034,0.2,0.4603858478310632,-0.5707168067013713,0.2,-0.14218135590702008,0.03106363343538185,0.2,0,
2.3606295012003202,0.6727978948260122,0.09867643681155114,0.2,-0.6893595546492359,-0.7859855969608933,0.2,-1.1330859503950743,-1.2692738664010217,0.2,-0.18031877576980906,-1.6016007478250691,0.2,0.45370328573992913,-0.6735488173975519,0.2,-0.14104171183228373,-0.10381545101000728,0.2,0,
2.368631635102694,0.6731513877888887,-0.07800226784650255,0.2,-0.6962676974395042,-0.635718030792598,0.2,-1.143329850002724,-1.253620823900542,0.2,-0.19551613806317378,-1.218756762169251,0.2,0.44960906675270235,-0.3507449295330617,0.2,-0.1438424031231802,0.12853436078376357,0.2,0,
2.376633769005068,0.6715498585404681,0.24138945964709974,0.2,-0.6995310431419175,-0.668833908745052,0.2,-1.153143883577483,-0.9479623991766328,0.2,-0.19981888396451708,-1.121469180855492,0.2,0.44809136686740014,-0.17864976711123512,0.2,-0.1389851620597435,0.07757839195582719,0.2,0,
2.384635902907442,0.6770136191432423,0.49842529667565305,0.2,-0.7069690399794251,-0.7658419998669493,0.2,-1.1584972483895501,-0.8247848278762071,0.2,-0.21345964495686165,-1.5376541440381921,0.2,0.4467506704789226,-0.15726444871639114,0.2,-0.14260114885188696,-0.12352793939022881,0.2,0,
2.3926380368098163,0.6795246632872786,0.3519413313772951,0.2,-0.7117845151397887,-0.7704318001883828,0.2,-1.1663404408235023,-1.1080324584892136,0.2,-0.22442135026912816,-1.4808883142111238,0.2,0.4455751356879379,-0.3545174290442987,0.2,-0.14096160908998717,0.26679781486205895,0.2,0,
2.4006401707121903,0.682644680445279,0.06481144116712856,0.2,-0.7192959487824392,-0.7256402229952815,0.2,-1.1762257677253776,-1.1574400091672044,0.2,-0.23715385798423963,-1.439800048764459,0.2,0.4410783916142138,-0.5874536712134649,0.2,-0.13833238381409402,0.3535938030617067,0.2,0,
2.408642304614564,0.6805616463459526,0.1674877444844125,0.2,-0.7233947587077132,-0.5055691551997671,0.2,-1.1848594809701776,-1.1763810410319457,0.2,-0.2474581510493595,-1.2616982415105062,0.2,0.43617587694852245,-0.2097735189550004,0.2,-0.13530410824099987,-0.16227686534923436,0.2,0,
2.416644438516938,0.6853244843570296,0.21460442691297738,0.2,-0.7273850552656355,-0.5927785359851958,0.2,-1.1950478643818887,-0.9929933276506542,0.2,-0.25734102984840773,-1.3083811207003064,0.2,0.4377220153109338,-0.33906229852597586,0.2,-0.14092881365968177,0.09755389584645627,0.2,0,
2.424646572419312,0.6839953171765603,0.25261610153245323,0.2,-0.7328792152834763,-0.8409327196178192,0.2,-1.200747374212588,-1.0268007707677218,0.2,-0.2683922489805644,-1.1594855884506787,0.2,0.43075088017210683,-0.16248843855343892,0.2,-0.13374324590745656,0.24252540369747339,0.2,0,
2.432648706321686,0.6893663419815489,0.2963847236352804,0.2,-0.7408399787795206,-0.7877050082785997,0.2,-1.2114766767141723,-0.7314001834422684,0.2,-0.2758927992636186,-1.1367625365936336,0.2,0.4351222002940788,-0.12293692972756634,0.2,-0.1370484072005222,-0.16448569181083497,0.2,0,
2.44065084022406,0.6887374727547247,0.029140611573615083,0.2,-0.7454824954159339,-0.5681209068096673,0.2,-1.2124497771476643,-0.4659916041080542,0.2,-0.28658044956606255,-1.2771121373102676,0.2,0.42878388929646577,-0.5118452511750256,0.2,-0.13637501697642992,-0.03614279101640805,0.2,0,
2.448652974126434,0.6898325917667267,0.11892255907562654,0.2,-0.7499299132884752,-0.27166161692367824,0.2,-1.2189325423799011,-1.087810160247518,0.2,-0.2963265934605829,-1.1555458047652554,0.2,0.42693267627527837,-0.42520199098095357,0.2,-0.13762669185678472,-0.1626309609537857,0.2,0,
2.4566551080288077,0.6906402336999348,0.3729823421503506,0.2,-0.7498290812867128,-0.22206193541746827,0.2,-1.2298547397116246,-0.9093013389563642,0.2,-0.30506918244230663,-1.0849128131860433,0.2,0.4219806574407705,-0.38288343957448495,0.2,-0.1389771123516905,0.006998979666951108,0.2,0,
2.4646572419311816,0.6958003092411323,0.10019148933430172,0.2,-0.7534829042551547,-0.6295966732171379,0.2,-1.233481363803203,-0.7177193705877466,0.2,-0.31368519847155957,-0.9936905679116398,0.2,0.4208065412420866,-0.06360711024542762,0.2,-0.1375147081821135,0.09491598728616352,0.2,0,
2.472659375833556,0.6922432975292836,0.01667477603069928,0.2,-0.759902628058187,-0.4260490676510839,0.2,-1.2413382496410286,-0.9148135107033689,0.2,-0.32096823152889287,-0.9371942149070458,0.2,0.42096294367684367,-0.08461600073099429,0.2,-0.13745845655511188,0.16140503084813815,0.2,0,
2.48066150973593,0.6960671056576235,0.4420686675138952,0.2,-0.7602996893375721,-0.5540927481473834,0.2,-1.2481183799744568,-0.49699684801272903,0.2,-0.3286803059100723,-0.8576785084678136,0.2,0.4194526852303907,-0.28725660429735134,0.2,-0.1349322276885433,0.182793047032042,0.2,0,
2.488663643638304,0.6993163962095059,0.29458293979338357,0.2,-0.7687681120285451,-0.7372927641169438,0.2,-1.2492901992092322,-0.7960772098015295,0.2,-0.3346910876643779,-1.0262739005194692,0.2,0.41636683800808605,-0.19818570327819265,0.2,-0.1345337678025992,0.020295922040478726,0.2,0,
2.4966657775406778,0.7007804326943177,0.28005546985328256,0.2,-0.7720963735634432,-0.5220672315814842,0.2,-1.2608556153312813,-0.7629441671094528,0.2,-0.3451006883183838,-1.1397791248860187,0.2,0.4162817139779396,-0.13226173750873968,0.2,-0.13460749293589563,0.2003822886568682,0.2,0,
2.5046679114430517,0.7037972837271584,0.03943598237342305,0.2,-0.7771211877338489,-0.6835908044182728,0.2,-1.2614973058829835,-0.4741279342663912,0.2,-0.3529275536625542,-0.8188415916961441,0.2,0.4142506502079462,-0.2552665215394718,0.2,-0.13132765118408932,0.27936750201094235,0.2,0,
2.5126700453454256,0.7014114084122924,-0.0512552095316976,0.2,-0.7830338264341355,-0.442436568092959,0.2,-1.2684416622795436,-0.6577157234845393,0.2,-0.3582021537855221,-0.8650984231854258,0.2,0.41219744963330807,-0.348548423483596,0.2,-0.13013761290372056,-0.19868598573828838,0.2,0,
2.5206721792477995,0.7029772003746513,0.25237224006079834,0.2,-0.7842001728233362,0.039774693951506734,0.2,-1.272020757458736,-0.2422045938383771,0.2,-0.366769128433521,-0.7101551082134387,0.2,0.4086738754322087,-0.2818673373192679,0.2,-0.13450662695590193,-0.5191393054392608,0.2,0,
2.5286743131501734,0.7054493642532652,0.3607151337207057,0.2,-0.7823974313309114,-0.20099757352232822,0.2,-1.2723169357809576,-0.6188631025148689,0.2,-0.36956463551693713,-0.5028354375060905,0.2,0.4076875722361998,-0.11123740889450867,0.2,-0.13844384179074873,0.3056674593292924,0.2,0,
2.5366764470525474,0.7087486425141826,0.11220757739380943,0.2,-0.7874161339996935,-0.36090105291905483,0.2,-1.281922567098974,-0.7809064701707058,0.2,-0.37481449543361844,-0.7256142308393193,0.2,0.40689407688989654,0.08720045353971181,0.2,-0.12961594760663325,0.6438053858679061,0.2,0,
2.5446785809549217,0.7072446854915662,0.11513485527345213,0.2,-0.7881718481776163,-0.26276911480128257,0.2,-1.284811439303689,-0.2768517647225577,0.2,-0.38117446321036624,-0.4839451789693111,0.2,0.40908277949283517,-0.3043503877279106,0.2,-0.12814295561686223,-0.022772633831430814,0.2,0,
2.5526807148572956,0.7105908001985578,0.5159608826288755,0.2,-0.791620439836514,-0.38657441715636565,0.2,-1.286352195334535,-0.3896721369424788,0.2,-0.3825576182971274,-0.31408202959153086,0.2,0.40202447068624997,-0.46191876348527366,0.2,-0.12998030974793615,0.013141287920744038,0.2,0,
2.5606828487596696,0.7155000596136282,0.3266079439527905,0.2,-0.7943570388521182,-0.27342138562150287,0.2,-1.2910461934947686,-0.5140544139393133,0.2,-0.38619977568383074,-0.34183277041844456,0.2,0.4016920792770708,0.062411207775801836,0.2,-0.12793269501013033,-0.12522074463959879,0.2,0,
2.5686849826620435,0.7158165273018025,0.07716692068265862,0.2,-0.795995182006458,-0.03086996493173455,0.2,-1.294577065957564,-0.16879639656020018,0.2,-0.38802694262382253,-0.27629700426837905,0.2,0.4030230500106628,0.014469878443272577,0.2,-0.13198384166216973,0.08443755609516615,0.2,0,
2.5766871165644174,0.7167347303445507,0.01767897391685702,0.2,-0.7948509582910259,-0.02619189817305162,0.2,-1.2937469358397318,-0.021205859392789406,0.2,-0.3906205277521248,-0.37562374246289526,0.2,0.40192359733216315,-0.16483844255727603,0.2,-0.12658169411260767,0.27106885186330837,0.2,0,
2.5846892504667913,0.7160993908844722,-0.034361006393819615,0.2,-0.7964142523772269,-0.06603439503440056,0.2,-1.2949163597078486,-0.2959223547746581,0.2,-0.39403692250322886,-0.5666027895639518,0.2,0.4003856349297464,0.2197893649362459,0.2,-0.1276467400323568,-0.06066010369983922,0.2,0,
2.5926913843691652,0.7161849542422496,0.1700541798179689,0.2,-0.7959075086115763,-0.23802280089570138,0.2,-1.2984816935161263,-0.20808992462495457,0.2,-0.39968617238514803,0.012878791368128167,0.2,0.4054402271711431,0.07191781777875564,0.2,-0.1275522557718051,0.046262495921812335,0.2,0,
2.600693518271539,0.7188202577615597,0.46717521602075707,0.2,-0.8002226171915581,-0.2754591334857906,0.2,-1.2982457985018478,-0.1721938504973819,0.2,-0.3938308618413388,0.2562599201824632,0.2,0.40153632001420647,-0.1781611124762085,0.2,-0.1269065400976078,0.07829551277878898,0.2,0,
2.608695652173913,0.7236597576985817,0.2692018371234922,0.2,-0.800314854747349,0.0386259547480311,0.2,-1.3012367951240844,-0.01184757072436593,0.2,-0.3955860136622286,-0.4247501709021585,0.2,0.40258964937152375,0.021200116457217866,0.2,-0.12629952756734447,0.09684456418536727,0.2,0,
2.616697786076287,0.7231274871555355,0.1022470983252019,0.2,-0.7996046019155896,0.27216432309370986,0.2,-1.2984353596334377,0.19827201620122026,0.2,-0.40062686457577334,-0.4422464603271274,0.2,0.40187552187752196,0.05547104210182341,0.2,-0.12535702707064192,0.2680884608482264,0.2,0,
2.6246999199786614,0.7252957112717849,0.136888178388056,0.2,-0.7959602255778496,0.16822474201261262,0.2,-1.2980644428648649,-0.08974176417854418,0.2,-0.40266195702746266,0.13281276655690774,0.2,0.4034771860451529,-0.237739693602676,0.2,-0.12201011219377285,0.02602628765421399,0.2,0,
2.6327020538810353,0.7253176980097444,0.18990022731679712,0.2,-0.7969130060433878,0.11274035239691726,0.2,-1.2998712278602944,-0.21284617129430083,0.2,-0.3985018603108628,0.16377666125836493,0.2,0.39807168677987914,-0.4068497747650446,0.2,-0.1249406064681745,-0.10303781355033327,0.2,0,
2.640704187783409,0.7283341149088537,0.15056848778084025,0.2,-0.794156379939499,-0.1451652923921687,0.2,-1.3014699816055737,0.04148579818366582,0.2,-0.4000415304473288,0.09531334851373488,0.2,0.3969675896489122,0.17199603456304058,0.2,-0.12365871721057818,-0.03936777443710234,0.2,0,
2.648706321685783,0.7277267938142379,0.2165485718094856,0.2,-0.7992356507216625,-0.2955614425158293,0.2,-1.2992074550893558,0.22444284133305015,0.2,-0.39697684673464306,0.3239886270025791,0.2,0.4008236233328878,0.2544064044872202,0.2,-0.12557049085916813,0.07935739063935979,0.2,0,
2.656708455588157,0.7317988920578055,0.3958625745936889,0.2,-0.7988853630197522,0.0483328408953515,0.2,-1.297878896144245,0.22273237128704604,0.2,-0.39485771241528755,0.08003851135757536,0.2,0.40103809212070773,0.15332546950111436,0.2,-0.12238899896034842,0.1006729925830882,0.2,0,
2.664710589490531,0.7340605950077369,0.10612693079398161,0.2,-0.7984623252673368,-0.03683079425253338,0.2,-1.295643737148763,0.28235775781500216,0.2,-0.39569623055292186,0.19896862186425876,0.2,0.4032768308449056,-0.17506981416296613,0.2,-0.12395972297783872,-0.08972018398752286,0.2,0,
2.672712723392905,0.7334969229505092,0.18538651211117557,0.2,-0.7994746557277927,0.29584820198884365,0.2,-1.2933611720192049,0.3779912472500757,0.2,-0.3916742144654594,0.38390376005886445,0.2,0.3982369750941003,0.005620360559711879,0.2,-0.12382452190414879,0.07380224662680793,0.2,0,
2.680714857295279,0.7370267792015157,0.37190094327547996,0.2,-0.7937287540355153,0.29488974000477924,0.2,-1.2895958771927618,0.3077540182704064,0.2,-0.38955377039198,0.32462633974345706,0.2,0.403366756613861,0.4513873462871007,0.2,-0.1227788870318098,0.20428337672627386,0.2,0,
2.6887169911976527,0.7394473380429168,-0.056721783407008564,0.2,-0.7947564198877163,0.1468860255764287,0.2,-1.2884371077268784,0.009145215345382485,0.2,-0.3864801930295641,0.5712921666068439,0.2,0.4054591726346939,0.08375537181885828,0.2,-0.12055598787652841,0.2310799269351861,0.2,0,
2.696719125100027,0.7361192306670036,0.24340473245442612,0.2,-0.7913785776262925,0.4998629037924751,0.2,-1.2894495537472357,0.32981101610543573,0.2,-0.3804130957262705,0.6053351967150143,0.2,0.40470684256296274,0.03510498055208158,0.2,-0.11908160820084682,0.0019273781791760008,0.2,0,
2.704721259002401,0.7433418137621877,0.19718404464364597,0.2,-0.7867586134270367,0.24985776433684298,0.2,-1.2831601314691914,0.6229069440789464,0.2,-0.37679482988212387,0.4820235719858075,0.2,0.4060208523235272,0.13783665739366263,0.2,-0.12052514982566159,-0.07466541554729862,0.2,0,
2.712723392904775,0.7392741753813019,0.0018918612304172355,0.2,-0.787380853396903,-0.024260770037164148,0.2,-1.2794830426419725,0.4254379373821865,0.2,-0.3727007185744976,0.6090598116325687,0.2,0.40691222908126135,-0.04511618804365833,0.2,-0.1202762548496036,0.18388450452528227,0.2,0,
2.720725526807149,0.7433720835418743,0.4718667880690003,0.2,-0.7871467857476313,0.4205525607896207,0.2,-1.2763531244710764,0.5175192980947374,0.2,-0.36704987289600277,0.5257812127806988,0.2,0.40529899331482866,0.27481653640083065,0.2,-0.11758299775325708,0.40920425952324124,0.2,0,
2.7287276607095228,0.7468240439904059,0.1778612515812225,0.2,-0.7806520124242691,0.5269283507765565,0.2,-1.2712027338724567,0.6113386411837896,0.2,-0.3642882191700064,0.7721219145769114,0.2,0.41130929366367464,0.38306442705702753,0.2,-0.11372898669723173,-0.10748225713989953,0.2,0,
2.7367297946118967,0.7462178635671739,0.1036492021307539,0.2,-0.7787159321352064,0.48445067321064433,0.2,-1.2665717062121358,0.3832398001157311,0.2,-0.3546959222627722,0.8366452779938853,0.2,0.4114280241477411,0.2327570696751928,0.2,-0.11930271386749547,-0.00833416243260169,0.2,0,
2.7447319285142706,0.748482431224498,0.05938313603325723,0.2,-0.7729008016528988,0.5130912564782416,0.2,-1.265070897070605,0.6789774383370722,0.2,-0.35090189472210426,0.5819271798268161,0.2,0.4150334067784777,0.058238344503070555,0.2,-0.11386233329615336,0.12398131076354293,0.2,0,
2.7527340624166445,0.747167993743706,0.28328285119536,0.2,-0.7705064720315545,0.1802565225855826,0.2,-1.2557080671987426,0.6868168346720049,0.2,-0.34538508738554313,0.6099379601226875,0.2,0.41235983765979023,-0.028081198617749964,0.2,-0.11731901289527878,-0.09620271321934652,0.2,0,
2.7607361963190185,0.7530149568436237,0.3253173301364029,0.2,-0.7700166972915294,0.30914685670565406,0.2,-1.254081827715853,0.6537984746034231,0.2,-0.34114288736014126,1.0208710691303364,0.2,0.4145841076005937,0.34457192309460605,0.2,-0.1154015767076629,0.09167553893737415,0.2,0,
2.7687383302213924,0.7523730710258885,0.35184318079040794,0.2,-0.7655601223242641,0.4937124356049413,0.2,-1.2452472916050878,0.8420856198804033,0.2,-0.32905115027945775,1.3367260792262956,0.2,0.4178729884293039,0.4099881697333524,0.2,-0.1158522042722808,-0.2836149072849986,0.2,0,
2.7767404641237667,0.7586444477362703,0.28916894758027056,0.2,-0.7621172983218504,0.4745552561522537,0.2,-1.2406084577977665,0.5314040287737187,0.2,-0.3197552700925205,1.01533906097772,0.2,0.42114391831632736,0.3741942041413405,0.2,-0.11993941522422288,0.09743433697593974,0.2,0,
2.7847425980261407,0.7569997741871728,-0.16551512986188316,0.2,-0.757967238225828,0.7116549359172316,0.2,-1.2367448271447083,0.6038545761375552,0.2,-0.31280572530381423,0.9852195212024621,0.2,0.4238600956955654,0.29051796035756483,0.2,-0.11429325488066576,0.6247828917209514,0.2,0,
2.7927447319285146,0.7559962056584801,0.06640666907117149,0.2,-0.7507308193471747,0.5788159393954745,0.2,-1.2309467845795656,1.0073557741401007,0.2,-0.30399175775328113,1.1202985689259501,0.2,0.4257922056820484,0.2086276077730327,0.2,-0.10994288895668766,-0.042211364289603155,0.2,0,
2.8007468658308885,0.7580622808923115,0.434157920136069,0.2,-0.7487061831955004,0.5076525134275686,0.2,-1.2206271347584667,0.8184973614170088,0.2,-0.294880948200999,1.1502045514961665,0.2,0.4271981374199339,0.11433956257038067,0.2,-0.11496863670929941,-0.09544355988036317,0.2,0,
