samirx20/RADAR/web/public/data/datasets/clean_01.csv
timestamp,actual_q_0,actual_qd_0,actual_current_0,actual_q_1,actual_qd_1,actual_current_1,actual_q_2,actual_qd_2,actual_current_2,actual_q_3,actual_qd_3,actual_current_3,actual_q_4,actual_qd_4,actual_current_4,actual_q_5,actual_qd_5,actual_current_5,protective_stop,fault_code
0.0,0.3017205200838708,0.479947896171444,0.2,-0.8001326591648874,1.0023684495319845,0.2,-1.1965330146879187,0.4003300168444468,0.2,-0.4972305465849594,0.10775226641445562,0.2,0.7966633908839211,0.009123849452175037,0.2,0.0009382319712918967,-0.23910096989843843,0.2,0,
0.008002133902373967,0.30556010325324234,0.5205213378647982,0.2,-0.7921137115686315,0.5646047259871209,0.2,-1.1933303745531632,0.9593282849318235,0.2,-0.49636852845364376,0.29949097448388196,0.2,0.7967363816795385,0.11196412777164655,0.2,-0.0009745757878956106,-0.16301111924032116,0.2,0,
0.016004267804747934,0.31004886148970756,0.45847363189100915,0.2,-0.7910989835490935,0.6538772752563218,0.2,-1.1811837621290096,1.2476138120182805,0.2,-0.4924386909932173,0.6312461136326851,0.2,0.7984548169282675,0.01883328042250748,0.2,-0.001669945936553242,0.11774044769047648,0.2,0,
0.0240064017071219,0.3128956813634985,0.31492507997303226,0.2,-0.7816516751645304,1.0409857419171262,0.2,-1.1733685535608707,0.9151180395753494,0.2,-0.4862685906355208,0.7040258038707864,0.2,0.7970377141662986,0.2770888527601767,0.2,0.0009092713751520131,0.0452061903563485,0.2,0,
0.03200853560949587,0.3150876627692761,0.6019484858526963,0.2,-0.7744432116784195,0.8371857724517456,0.2,-1.166541873495804,1.0966914240866654,0.2,-0.4811742781312847,0.5941689680543267,0.2,0.8028882385724303,0.27446705568175134,0.2,-0.000946646890851666,-0.21986747738223372,0.2,0,
0.04001066951186984,0.32252685713714163,0.5099817150704469,0.2,-0.7682567028053024,0.683327823903429,0.2,-1.155821490775484,1.1332013987262468,0.2,-0.4767618871466516,0.5184687574605225,0.2,0.8014291870572067,-0.11805974471279512,0.2,-0.002608608262963727,0.1250484634285654,0.2,0,
0.0480128034142438,0.32324737021040323,0.44538169000296957,0.2,-0.7635099664959646,0.7926428663097701,0.2,-1.148410651116184,0.9907227447260858,0.2,-0.47287877801191636,0.4518710414725055,0.2,0.8009992826570256,-0.04771219851094216,0.2,0.0010541285240053806,-0.03419060488788511,0.2,0,
0.05601493731661777,0.32965296417718915,0.5006675805610608,0.2,-0.7555744169443461,0.8211871159891637,0.2,-1.1399699268598666,0.9475669910151835,0.2,-0.4695319504830915,0.17994090271448993,0.2,0.8006657918810316,0.1276945957092504,0.2,-0.0031556579411698886,-0.059349364974254894,0.2,0,
0.06401707121899174,0.3312580514993802,0.42112174398697616,0.2,-0.750370972640138,0.8475740442171198,0.2,-1.133249579259941,0.9312089588277839,0.2,-0.4699997235684845,0.6104662269403593,0.2,0.8030423961883736,-0.028825155814510284,0.2,0.00010453868441730225,0.3173035919769139,0.2,0,
0.0720192051213657,0.33639091208098076,0.8099912078833593,0.2,-0.7420132322368722,0.5593886631129821,0.2,-1.125070583518622,0.8313367404849115,0.2,-0.45976449085204574,0.5262612937108543,0.2,0.8002045893879994,-0.029197518043456994,0.2,0.0019211995304607337,0.1560134316856937,0.2,0,
0.08002133902373967,0.34421791082551395,0.4853379366348588,0.2,-0.7414207540303303,0.7081172432511496,0.2,-1.1199481914121825,1.2082833218902689,0.2,-0.46157954286911085,0.40530973642527096,0.2,0.8025752358996783,-0.09336387991102507,0.2,0.0026007535913884017,-0.0022226466325530247,0.2,0,
0.08802347292611364,0.3441563190671385,0.3695541371721879,0.2,-0.7306833563448538,1.018847643194584,0.2,-1.1057380503683778,1.2025627264325434,0.2,-0.4532795350692414,0.7970029939273621,0.2,0.798710767309423,-0.13014469139339263,0.2,0.0018856371843398853,-0.16425129543758996,0.2,0,
0.0960256068284876,0.35013077702026896,0.8189788147885471,0.2,-0.7251191917392169,0.8257500397588421,0.2,-1.1007071877892618,0.8217165648864294,0.2,-0.44882749496627306,0.41128213996264457,0.2,0.800492920837384,0.13591186787915988,0.2,-2.7267135613037928e-05,-0.02018097948710709,0.2,0,
0.10402774073086157,0.35725998010375526,0.32915725412305946,0.2,-0.7174713557087123,0.8966005679942254,0.2,-1.092590585330195,0.9740418540662432,0.2,-0.4466990208298391,0.26316193490697953,0.2,0.8008853571954896,0.023340411781938575,0.2,0.0015627415125461718,-0.10991924324630056,0.2,0,
0.11202987463323553,0.3553972930862379,-0.00878550295161512,0.2,-0.7107735826513093,0.6573537328681683,0.2,-1.085122518124202,1.1560684446313,0.2,-0.4446169040077614,0.4274566307306722,0.2,0.800866367425895,0.01291880416368768,0.2,-0.001785975027553847,-0.12196085535518127,0.2,0,
0.12003200853560951,0.3571194120565294,0.6507060198783394,0.2,-0.7069536959828217,0.3794980188230601,0.2,-1.0740934902160941,1.064131463739945,0.2,-0.43985971473814833,0.5708890809613016,0.2,0.8010920580621086,-0.07753853936411786,0.2,-0.0003886321731367285,0.3711740372590466,0.2,0,
0.12803414243798347,0.36580858940429134,0.7696256229121866,0.2,-0.7047016143501403,0.6627798454395192,0.2,-1.0680964147043628,0.7073394362343416,0.2,-0.43548267871238056,0.4094184071444171,0.2,0.7996257507960691,-0.16269351735483106,0.2,0.004152809568590899,0.0374606845681738,0.2,0,
0.13603627634035745,0.3694334220231244,0.43689575132584146,0.2,-0.6963492184557893,1.0991461661815292,0.2,-1.0627760592363447,0.9694214738737578,0.2,-0.43330902022383766,0.7452271727585967,0.2,0.7984889617844313,0.04423748024381252,0.2,0.00021073877995405224,-0.21644881653974563,0.2,0,
0.1440384102427314,0.3727989214255048,0.34139890992566574,0.2,-0.6871152756912359,0.6785507599438995,0.2,-1.0525856711223827,1.0562994860822406,0.2,-0.423559043948243,0.69913393806207,0.2,0.8003335504799701,0.21394858271836514,0.2,0.0006896285039549688,0.031210241713631966,0.2,0,
0.15204054414510537,0.37489580458193505,0.6574709586890798,0.2,-0.685492406296687,0.7305047217458851,0.2,-1.0458752674590288,0.7747222705294654,0.2,-0.42212287721484454,0.44045387437668254,0.2,0.8019121391079251,0.04222261310949521,0.2,0.0007101026473721637,0.017434071704405592,0.2,0,
0.16004267804747935,0.3833184567645301,0.6683779825485819,0.2,-0.6754272001433017,0.9925777237836941,0.2,-1.0401901147939112,1.2405854348352812,0.2,-0.4165117819582161,0.38849211673498,0.2,0.801009112289722,-0.07550915301518524,0.2,0.0009685736512254582,-0.1596116233822873,0.2,0,
0.1680448119498533,0.38558985230271237,0.3063501098883696,0.2,-0.6696111627161478,0.663163450321122,0.2,-1.0260259005016643,1.2108027739274052,0.2,-0.41590700334708486,0.2850018983857928,0.2,0.8007039926596822,0.09369562972736528,0.2,-0.0018436833267444332,-0.03806939621170115,0.2,0,
0.17604694585222727,0.388220058522744,0.36239727427761836,0.2,-0.6648165849381638,0.5153917750315568,0.2,-1.0208172704110727,0.6056489867271725,0.2,-0.4119517515840434,0.6231865741039739,0.2,0.8025082423653599,-0.14005226799702897,0.2,0.0003594633118382398,0.2833744037601456,0.2,0,
0.18404907975460125,0.39138820869115426,0.5862538654766366,0.2,-0.6613648943156429,0.6854950586288668,0.2,-1.0163355167140296,0.9464994406428034,0.2,-0.4059360181614213,0.4757126868268034,0.2,0.7984631563717297,-0.21770244919808862,0.2,0.0026903071334178972,0.14804111801211836,0.2,0,
0.1920512136569752,0.3976001203703702,0.7163736829694858,0.2,-0.6538486640001019,0.7416137180837403,0.2,-1.0056732793607879,1.1880663160518876,0.2,-0.40434034859481455,0.21052388024972446,0.2,0.7990250031781905,0.14511728550635483,0.2,0.0027281212000321337,0.00032820690636870746,0.2,0,
0.20005334755934917,0.40285018761866603,0.45301948538290643,0.2,-0.6494990748263031,0.6059788734760415,0.2,-0.9973264556571994,0.6851497127316475,0.2,-0.4025676360774257,0.2887916209576638,0.2,0.8007850329398314,-0.030230773213159312,0.2,0.0026955584439197966,-0.18358636008950244,0.2,0,
0.20805548146172315,0.4048484321364967,0.29896087302281116,0.2,-0.6441530020244852,0.6230472519719032,0.2,-0.9947108839570815,0.49274005492684625,0.2,-0.3997196826594919,0.5297094581898226,0.2,0.7985413108067799,-0.10414812377455146,0.2,-0.0002092605613999055,-0.09658118025120019,0.2,0,
0.21605761536409712,0.407633561587031,0.4926669440183315,0.2,-0.6395303187947526,0.5327174260153084,0.2,-0.9894426147783698,1.1262315734769517,0.2,-0.3940922847463885,0.42104273277170784,0.2,0.7991186629594386,0.005425580801250718,0.2,0.0011502595599005936,0.1548453980599933,0.2,0,
0.22405974926647107,0.41273110324079,0.5351690323804267,0.2,-0.6356295232082403,0.7696362326911551,0.2,-0.9766911787814503,1.1506955980790656,0.2,-0.3929829989351446,0.4476584763092629,0.2,0.7986281200995999,0.09158577762713449,0.2,0.0022682658075599874,0.07907003355116986,0.2,0,
0.23206188316884505,0.41619626610511784,0.41467969286819795,0.2,-0.6272161390716942,0.4995252583246054,0.2,-0.9710314852091048,0.8556555028054121,0.2,-0.3869297491254403,0.6402071157214535,0.2,0.8005840354014727,-0.11137597305556357,0.2,0.0024153800967193113,0.006556826798172199,0.2,0,
0.24006401707121902,0.41936597832668115,0.32447451067775174,0.2,-0.6276371190750466,0.5199666563798777,0.2,-0.9630006907365637,0.6786893176725719,0.2,-0.38273968508360134,0.3823850394912044,0.2,0.7968461045307109,0.18715364341323482,0.2,0.0023731750363307426,-0.04688138560192017,0.2,0,
0.24806615097359297,0.42138785827596187,0.40999018392334774,0.2,-0.6188966725696161,0.8341959505259455,0.2,-0.9601724561263436,0.7225691734745604,0.2,-0.38081158849358104,0.4476334356813688,0.2,0.8035784936960845,0.08785426473435082,0.2,0.0016652779270885886,-0.04364333539973217,0.2,0,
0.25606828487596694,0.4259258212694547,0.4837020253386573,0.2,-0.6142899838666315,0.7377763387302546,0.2,-0.9514395839609707,0.6515025543857994,0.2,-0.37557755011269944,0.5757868155359391,0.2,0.7982517727664605,-0.20106841219213328,0.2,0.0016748816699350278,-0.08989382270000042,0.2,0,
0.2640704187783409,0.4291270906813804,0.2012039267369238,0.2,-0.607092251149932,0.7356724365651309,0.2,-0.9497484152561708,0.7591826603100745,0.2,-0.371598999445006,0.4993425175970102,0.2,0.8003613991010103,0.30959817704022397,0.2,0.00022697676388858175,-0.06709111467606328,0.2,0,
0.2720725526807149,0.4291450840972455,0.4139637822810939,0.2,-0.6025192248815894,0.528187988231378,0.2,-0.9392926613960095,1.19677743972154,0.2,-0.3675880698311473,0.2908917652794905,0.2,0.8032053435991041,0.16516110985487914,0.2,0.0006014238351180153,-0.14986640280537933,0.2,0,
0.28007468658308887,0.4357505111978779,0.6133225991316847,0.2,-0.59864124333823,0.4481136336416877,0.2,-0.9305999762206262,0.775409595365574,0.2,-0.36694473120053417,0.4174060187913629,0.2,0.8030039768586884,-0.3784688276120829,0.2,-0.0021708856809974876,-0.0771682158689464,0.2,0,
0.2880768204854628,0.43895824568335245,0.07595249488296166,0.2,-0.5953494067433224,0.4803984052116489,0.2,-0.9268861078701603,0.6162061002337738,0.2,-0.3609095735304855,0.6571446942691926,0.2,0.7971498423573108,-0.28495487313318774,0.2,-0.0006332676187851272,0.26837376076787245,0.2,0,
0.29607895438783677,0.4369657511160053,0.18825240244683267,0.2,-0.5909548688548436,0.8050049592805766,0.2,-0.9207406786168858,0.9890054611462958,0.2,-0.3564304160922271,0.5059615659082812,0.2,0.7984446988885574,0.24963699138199485,0.2,0.002123094491288471,0.15357115562455567,0.2,0,
0.30408108829021074,0.4419702841225018,0.49457532842669266,0.2,-0.5824693273948331,0.42676127625902727,0.2,-0.9110620204918196,0.5836171940829249,0.2,-0.352814188475953,0.2703397425024324,0.2,0.8011440342194227,0.17934651508088456,0.2,0.0018238708712077635,-0.08239889083047824,0.2,0,
0.3120832221925847,0.44487895637083236,0.5110181252520711,0.2,-0.5841266884346992,0.5187070094626391,0.2,-0.911402803511559,0.571917650861696,0.2,-0.35210498021218817,0.2046849698510607,0.2,0.8013142431298516,0.06231487698882959,0.2,0.0008047122380008192,-0.30198163870472283,0.2,0,
0.3200853560949587,0.4501465741265349,0.5106473375861494,0.2,-0.5741700152434309,0.7688842072369056,0.2,-0.9019113380780325,0.6414784623928471,0.2,-0.349539228958336,0.3867385740429011,0.2,0.802141072251244,-0.18478550707976688,0.2,-0.003007835348067802,-0.07478805956012685,0.2,0,
0.32808748999733267,0.45304931377221075,-0.09243586021667055,0.2,-0.5718245411189087,0.3659333590254679,0.2,-0.9011391481132734,0.7418485909870959,0.2,-0.34591716302750175,0.17353792186803815,0.2,0.7983576750165753,-0.2522963065902592,0.2,-0.0003918967149612105,0.17389682231465314,0.2,0,
0.3360896238997066,0.4486676003630682,0.3853306303149284,0.2,-0.5683150814990234,0.5087723167773034,0.2,-0.8900417606222389,1.1244269895266459,0.2,-0.3467626222084474,0.18063265936008044,0.2,0.7981043313457998,0.10917828376971056,0.2,-0.00022548619103335144,-0.16616841193200688,0.2,0,
0.34409175780208057,0.4592146038572496,0.813353459866592,0.2,-0.5636841840504718,0.4751886229966279,0.2,-0.8831483162808471,0.6318912644925762,0.2,-0.34302704047774046,0.5456666251542307,0.2,0.8001045275568907,0.05679048028139899,0.2,-0.0030505913058733207,-0.052036080471539035,0.2,0,
0.35209389170445454,0.46168125572093366,0.24878667965529816,0.2,-0.5607120635310774,0.706555732782721,0.2,-0.8799315003903577,0.4438228759209156,0.2,-0.3380319562059797,0.28470315767969295,0.2,0.7990129790303022,-0.10246663826785768,0.2,-0.001058063478577976,0.344299588798068,0.2,0,
0.3600960256068285,0.4631951907317344,0.042872530353180865,0.2,-0.5523792923259483,0.514497548074172,0.2,-0.8760471502661125,0.46295934399909894,0.2,-0.3384717899548654,0.2472928097070337,0.2,0.7984650613446049,0.07086606919253641,0.2,0.002458202114895767,0.12092417609822516,0.2,0,
0.3680981595092025,0.46236721620658455,0.2654379956594094,0.2,-0.5524801027618906,0.1589978571286954,0.2,-0.8725241508863721,0.6399187062867406,0.2,-0.33407527125066716,0.29366770882813253,0.2,0.8001468361373828,0.11565076557909504,0.2,0.0008767233389936266,-0.13590254008373795,0.2,0,
0.37610029341157647,0.4674421986622849,0.637534956432352,0.2,-0.5498353266118892,0.5494668991619863,0.2,-0.8658084509655246,0.6248387872291594,0.2,-0.33377310661361526,0.144796173727417,0.2,0.8003154735938705,-0.0925447034325344,0.2,0.0002837614735559596,-0.20022255271114336,0.2,0,
0.3841024273139504,0.4725677755095022,0.419002273107906,0.2,-0.5436886323752989,0.3926381367127599,0.2,-0.8625267302907056,0.6835094242487877,0.2,-0.3317585324710285,0.2275280405216462,0.2,0.7986661208824622,-0.09740829300150522,0.2,-0.0023268375043846673,0.13947965929987718,0.2,0,
0.39210456121632437,0.4741462350320114,0.17681609503893136,0.2,-0.543553116424485,0.38951039225218476,0.2,-0.854872300177544,0.5950402077388935,0.2,-0.3301326579652689,0.23266808074506873,0.2,0.7987569409058464,0.06992878665880442,0.2,0.0025154360223539948,0.16059691906015183,0.2,0,
0.40010669511869834,0.4753968330301251,0.06294617989454146,0.2,-0.5374564660992639,0.38990942973401305,0.2,-0.8530060869668833,0.4517510617717893,0.2,-0.3280358431791074,0.3012571559769042,0.2,0.7997849814690031,0.020834988403654886,0.2,0.00024271320057776233,-0.2608114833607604,0.2,0,
0.4081088290210723,0.4751533739103241,0.158106832400709,0.2,-0.5373145655487408,0.28592988056932306,0.2,-0.8476442831891954,0.5489842218456831,0.2,-0.32531254346963845,0.17530836147216025,0.2,0.7990903007203048,-0.01718375691507623,0.2,-0.0016575477114181714,-0.25404965711737676,0.2,0,
0.4161109629234463,0.47792654234853643,0.28395023385524226,0.2,-0.5328815880101547,0.38441146888609085,0.2,-0.8442223394173524,0.37578928944480283,0.2,-0.3252309093955528,0.3006467552248322,0.2,0.7995100413583619,-0.03535104434217867,0.2,-0.0038220813133002657,0.027197836709261885,0.2,0,
0.42411309682582027,0.47969657765200796,0.3680617704158832,0.2,-0.5311639820465633,0.3052185998213691,0.2,-0.8416316545580785,0.6565815337900432,0.2,-0.32050219538604113,0.7248650215876326,0.2,0.79852468401083,-0.012288598277808427,0.2,-0.0012223823240699813,0.31047119228325326,0.2,0,
0.43211523072819424,0.48381553067519056,0.28629803236800144,0.2,-0.5279980904130128,0.4239997778449911,0.2,-0.8337170348767117,0.4296021798705363,0.2,-0.3136330690501507,0.27853340991986286,0.2,0.799313423785917,-0.011540242795336775,0.2,0.0011454577632317867,0.10682751828335176,0.2,0,
0.44011736463056816,0.484277346169896,0.2468271391499778,0.2,-0.5243799856010435,0.18587287239364703,0.2,-0.83475801968015,0.22365112905234352,0.2,-0.3160456608273233,-0.1630684293877742,0.2,0.7983400401261046,0.0067291202405367345,0.2,0.0004868579684636467,0.17730565166248916,0.2,0,
0.44811949853294214,0.4877647649015902,0.2750806650353918,0.2,-0.5250241244547145,0.17368735888140946,0.2,-0.8301386168118742,0.3701742094256791,0.2,-0.3162421639203551,0.1637090016686736,0.2,0.7994210897097656,0.16451425950961968,0.2,0.003982348189831613,0.08927379464346955,0.2,0,
0.4561216324353161,0.48867863681046225,-0.12939378246368607,0.2,-0.5216009878589409,0.2960463169472058,0.2,-0.8288352323293391,0.1848911398606018,0.2,-0.31342631680062455,0.6427176833514424,0.2,0.8009722682782585,0.0028317644124795094,0.2,0.0019152386827591596,-0.11513856943158593,0.2,0,
0.4641237663376901,0.48569446438217123,-0.22430517188710627,0.2,-0.5202873833835592,0.3796996881454892,0.2,-0.8271803585741045,0.43537521957070363,0.2,-0.305958680986732,0.16949670572407108,0.2,0.7994663979403652,-0.23979919507172154,0.2,0.0021401310789262384,0.012149989406820478,0.2,0,
0.47212590024006407,0.48508975406026855,0.23145169455284637,0.2,-0.5155257928486131,0.37682264756558337,0.2,-0.8218692288162078,0.4769177358704274,0.2,-0.3107143695090394,-0.13617148825301878,0.2,0.797135481157111,-0.05876884759461326,0.2,0.0021096385132682873,0.001226732815249595,0.2,0,
0.48012803414243804,0.4893976914950168,0.46634004405624735,0.2,-0.5142582210225098,0.10053662439175187,0.2,-0.8195496748001777,0.2506828976202857,0.2,-0.3081374247987803,0.07813096126153135,0.2,0.7985260963788514,0.1060071303140217,0.2,0.002159758803970232,-0.11800483133254316,0.2,0,
0.48813016804481196,0.4925511947651685,0.14870210697177574,0.2,-0.5139172068583451,0.29199133736752814,0.2,-0.8178583024542833,0.17950669519924828,0.2,-0.3094642741288549,0.09838632448780013,0.2,0.7988315952421353,0.24893274024982703,0.2,0.0002215612119475968,-0.038414735212083204,0.2,0,
0.49613230194718594,0.4917769252065652,0.11467184668823016,0.2,-0.5095863596246294,0.463040906275608,0.2,-0.8166775676769897,0.19874684360375594,0.2,-0.3065632436069755,0.01457440202758467,0.2,0.8025090202228486,0.16494073886973853,0.2,0.0015451230405769006,-0.015925801200423993,0.2,0,
0.50413443584956,0.4943859443121802,0.2387897083789385,0.2,-0.5065085523579353,0.21273768192350134,0.2,-0.8146783529566232,0.30891431762217897,0.2,-0.30923108369641356,0.02598455004474906,0.2,0.8014706470640511,-0.20586790180341513,0.2,-3.325160725918712e-05,-0.24930136743102185,0.2,0,
0.5121365697519339,0.4955975605406282,0.25665911800053925,0.2,-0.5061825567138534,-0.14225730262407837,0.2,-0.8117349385950349,0.4216856058262067,0.2,-0.3061474908062595,0.36434869318183183,0.2,0.799215133793994,-0.36034589469743916,0.2,-0.0024436988383194497,0.1286048743924229,0.2,0,
0.5201387036543078,0.4984924902001888,0.17547972385864932,0.2,-0.5087846691999206,0.10277053305106365,0.2,-0.8079313832634039,0.24257829771171663,0.2,-0.30340150460550425,0.05018533863200211,0.2,0.7957051127488921,0.017711776027856674,0.2,0.0020244263830195793,0.026634459427325733,0.2,0,
0.5281408375566818,0.4984052361223666,-0.2461004322909452,0.2,-0.5045382281850364,0.0843844159306717,0.2,-0.8078536858316474,0.3754134505553411,0.2,-0.3053445253881475,0.17683666951271923,0.2,0.7994985222104397,0.13986303907397718,0.2,-0.002017547487482238,-0.24484799440704277,0.2,0,
0.5361429714590558,0.4945548832835337,0.06054093298572469,0.2,-0.5074345185450299,0.15668875397001347,0.2,-0.8019247680545184,0.16674167040271054,0.2,-0.30057211789330074,0.07331273079494091,0.2,0.7979429213740757,-0.17885218016514687,0.2,-0.0018931415274931048,-0.122448911686716,0.2,0,
0.5441451053614298,0.4993738910501382,0.42557214395581855,0.2,-0.5020312081215161,0.27215038577078215,0.2,-0.805185819105204,-0.3226250431432459,0.2,-0.30417152169542844,-0.14375038030488285,0.2,0.7966368873277974,0.05908450231749407,0.2,-0.003976730074469694,0.08607253472617768,0.2,0,
0.5521472392638037,0.5013640375868268,-0.22814256041487485,0.2,-0.5030801123726973,-0.10174575775834943,0.2,-0.8070867687448103,0.20843153646120383,0.2,-0.30287212397817886,0.1830382669950302,0.2,0.7988882734111556,0.15489120184274813,0.2,-0.0005159809718742619,0.019376266666951282,0.2,0,
0.5601493731661777,0.4957236100835002,-0.2848362815168967,0.2,-0.5036591402456497,0.1366028905987332,0.2,-0.8018509145218248,0.18756215588185826,0.2,-0.30124290942350795,0.1597205197677934,0.2,0.7991151465572813,0.03785071440474963,0.2,-0.0036667098077984733,0.11382866037389351,0.2,0,
0.5681515070685517,0.49680665708255645,0.2607106220953968,0.2,-0.5008944661231176,0.23294955195742387,0.2,-0.8040857742507006,-0.0542235433354174,0.2,-0.30031659566189417,0.19098522136368895,0.2,0.7994938848416316,-0.0002869223401438803,0.2,0.0013052775941080343,0.07034863286562058,0.2,0,
0.5761536409709256,0.49989498003702654,0.2798563676130114,0.2,-0.49993194741433095,0.12570756780112824,0.2,-0.8027184912151915,0.15774478350735754,0.2,-0.29818714588168893,0.2827182025188536,0.2,0.799110555799839,-0.09376032918051447,0.2,-0.002541131681948544,0.06719732059691023,0.2,0,
0.5841557748732996,0.5012843589643646,-0.1383603351474659,0.2,-0.49888314503829956,-0.1218866898722061,0.2,-0.8015618577145829,0.23645966322596856,0.2,-0.2957931044215925,-0.34892781392813554,0.2,0.7979937195747434,0.02909648538641091,0.2,0.002380434723658598,0.39474690397595313,0.2,0,
0.5921579087756735,0.4976812146746671,0.17348869890084634,0.2,-0.5018821344522862,-0.02206182355673353,0.2,-0.798935136603576,0.24985514739449266,0.2,-0.3037699909045391,-0.40565652022457943,0.2,0.7995760995660216,0.2372986429445001,0.2,0.0037748187816667063,-0.10834225142497059,0.2,0,
0.6001600426780476,0.5040601781467782,0.21401323070110306,0.2,-0.4992361342152073,0.27362168997054415,0.2,-0.797564175356271,0.05016662915828529,0.2,-0.3022836087451858,0.02090052778638482,0.2,0.8017904978618554,0.15496608411286888,0.2,0.0006469587008590687,-0.3052544075092087,0.2,0,
0.6081621765804215,0.5011054263658847,-0.05752407692524719,0.2,-0.49750418741275754,0.07672701172399196,0.2,-0.7981324705370434,0.00896723452845083,0.2,-0.30343558245995694,-0.14323621129830322,0.2,0.8020555569118275,-0.1445708282414443,0.2,-0.0011092517384806329,0.10461860993684105,0.2,0,
0.6161643104827954,0.5031397929159742,0.02948875018887742,0.2,-0.4980085020276234,-0.03636319289482964,0.2,-0.7974206996038158,-0.1948838711050352,0.2,-0.30457538812595863,0.2592060011200603,0.2,0.7994773646099923,0.11380105925031664,0.2,0.0023208564598485256,0.19766167061428286,0.2,0,
0.6241664443851694,0.5015772463689068,-0.18711378516001603,0.2,-0.4980859984990748,-0.23188995051647357,0.2,-0.801250612474724,-0.20466702465132824,0.2,-0.299288286442036,0.188053384655322,0.2,0.8038763738598326,-0.05129388328476564,0.2,0.002053334991347893,-0.1741805086915013,0.2,0,
0.6321685782875434,0.500145972353414,-0.0685820330737913,0.2,-0.501718741235887,-0.34028873992697145,0.2,-0.800695371998237,0.05804867557284571,0.2,-0.3015665339714735,-0.014895290515570814,0.2,0.798656662477436,-0.3724137022146634,0.2,-0.0004660316792154956,-0.23293255691858225,0.2,0,
0.6401707121899174,0.5004799338397261,-0.24776445463703736,0.2,-0.5035306183379064,-0.24591726249000717,0.2,-0.8003218336655584,0.02264155398708917,0.2,-0.2995266110902851,-0.09382120417251658,0.2,0.797917754624398,0.2059214828469061,0.2,-0.0016735859193494228,0.1294186321729404,0.2,0,
0.6481728460922913,0.49618174107922136,-0.10981455653374245,0.2,-0.5056534174357271,-0.23577479025965048,0.2,-0.8003331071344436,-0.08969168145198103,0.2,-0.30306767323823375,-0.009455020340880249,0.2,0.8019514062029865,0.04243118622908326,0.2,0.0016046664355515506,0.1752232731217716,0.2,0,
0.6561749799946653,0.49872290093518623,0.019555462731853795,0.2,-0.5073030149820608,0.21592199026451014,0.2,-0.8017569005687901,-0.2419427966869961,0.2,-0.2996778914157392,-0.07588709340656391,0.2,0.7985966536040633,-0.13150569880969465,0.2,0.001129986450598923,-0.10045472574617012,0.2,0,
0.6641771138970393,0.496494628482931,-0.1310464768980446,0.2,-0.502198665591495,-0.007409184740098107,0.2,-0.8042041918814355,-0.19233165435675326,0.2,-0.30428186673273877,-0.0780565819917152,0.2,0.7998473150220314,0.03187502081271332,0.2,-2.609176387171383e-06,0.23727600250251601,0.2,0,
0.6721792477994132,0.4966261573048175,0.17031900462277302,0.2,-0.5074215619379023,-0.3682687309081653,0.2,-0.8048342070384982,-0.23432400023612465,0.2,-0.30092679672760664,0.025021355591469535,0.2,0.7991066539370667,-0.06239482480414893,0.2,0.004926402490639179,-0.05853721706726091,0.2,0,
0.6801813817017872,0.4992197325568954,-0.3113346686320073,0.2,-0.5080909652860256,-0.08037009821671576,0.2,-0.8079533758852135,-0.580624692498824,0.2,-0.30388152504327526,-0.2524916012301599,0.2,0.798848997825165,0.09141752280325544,0.2,-0.0009392046494633459,-0.3260469121709332,0.2,0,
0.6881835156041611,0.4916448026067054,-0.3479519623920783,0.2,-0.5087074835093698,-0.01321010829706537,0.2,-0.8141242021184794,-0.03635162571687112,0.2,-0.3049666623472892,-0.028358367125405626,0.2,0.8005693343019188,0.037949418382914046,0.2,-0.0002903481040957517,0.2347375824091677,0.2,0,
0.6961856495065352,0.49365250115862214,0.06264975942450388,0.2,-0.5083023270187786,-0.05961538945803424,0.2,-0.8085350018966835,-0.04042268020142126,0.2,-0.30433525891728175,-0.19955479000376142,0.2,0.7994561885192917,-0.0311435411399566,0.2,0.0028165966690833375,0.1213991926923985,0.2,0,
0.7041877834089091,0.49264719875749746,-0.18558718574121502,0.2,-0.5096613297406983,-0.2403221442072931,0.2,-0.8147709650017021,-0.6590373843052346,0.2,-0.3081595389873494,-0.13229741805288048,0.2,0.8000710376436795,0.17604589809925436,0.2,0.0016520389789826243,-0.21797219891120517,0.2,0,
0.7121899173112831,0.4906831061867627,0.002634220848035662,0.2,-0.5121474813260953,-0.3108392407839694,0.2,-0.8190796000455672,-0.4650561057867181,0.2,-0.30645201760612784,0.013238685088290403,0.2,0.8022729228888797,0.14897086671957632,0.2,-0.0006709585134959452,-0.013116925272576536,0.2,0,
0.720192051213657,0.49268934629106603,-0.11563917421560446,0.2,-0.5146347575932418,-0.24726967568582114,0.2,-0.8222118626942896,-0.3462400226385623,0.2,-0.30794772002593673,-0.13076140886068843,0.2,0.8024545715111927,-0.11577797742646362,0.2,0.0014421681746213998,0.0021664466595830577,0.2,0,
0.728194185116031,0.488832879399313,-0.08509714586903139,0.2,-0.5161037961370685,-0.5486053482761377,0.2,-0.8246194404077842,-0.009452976990696749,0.2,-0.30854420014789885,-0.2045527590561931,0.2,0.8004204752500563,-0.15960213359865472,0.2,-0.0006362953669426163,-0.08592353812334479,0.2,0,
0.736196319018405,0.49132779195716153,-0.22890489018769986,0.2,-0.52341244316566,-0.27774445835833383,0.2,-0.8223631103261407,-0.20974764037026,0.2,-0.3112205641708358,-0.43790862705742406,0.2,0.7999009373736142,0.01203955032606091,0.2,6.739156464788313e-05,-0.19335658613992995,0.2,0,
0.7441984529207789,0.4851704011563098,-0.4143483388175696,0.2,-0.5205477074708018,0.043137001188436885,0.2,-0.8279754026537084,-0.43325234236017,0.2,-0.31555073818081764,-0.3648746309843007,0.2,0.8006131080552733,0.0217519571253863,0.2,-0.0037300007451814957,0.13123722893416637,0.2,0,
0.7522005868231529,0.4846982185360804,-0.21970435585496467,0.2,-0.5227222511466451,-0.39101116260641805,0.2,-0.8292951478039035,-0.23663517262189487,0.2,-0.31705855826658463,0.12898476284206942,0.2,0.8002489686876204,0.06415719002152848,0.2,0.002167187227594545,0.1628998160274168,0.2,0,
0.7602027207255269,0.4816551314626304,-0.13250576237261447,0.2,-0.5268038860725045,-0.5683203038145886,0.2,-0.8317615654156587,-0.4710083539230109,0.2,-0.3134869819753445,-0.28732876030656757,0.2,0.8016396230956178,-0.018594004904129435,0.2,-0.0011236036887428272,-0.07065661918633469,0.2,0,
0.7682048546279008,0.4825781263381186,-0.4196096118322147,0.2,-0.5318153760076785,-0.37943622904815927,0.2,-0.8368312814666716,-0.7340571796866576,0.2,-0.3216558184314897,-0.3884131008483893,0.2,0.7999514646091543,-0.056482964179281614,0.2,0.0010366813206131899,-0.06464123308018978,0.2,0,
0.7762069885302748,0.47494137767331496,-0.24764101839775884,0.2,-0.532874865737275,-0.17613401298553766,0.2,-0.8435064802906452,-0.48029636129677533,0.2,-0.31970159158891875,-0.01354596591296442,0.2,0.8007358956687493,0.2066538668394624,0.2,-0.002157863418025864,-0.12270156479583029,0.2,0,
0.7842091224326487,0.47861587004375444,0.08316877733386893,0.2,-0.5346335202154471,-0.3112870685878996,0.2,-0.84451602324742,-0.35880271718765483,0.2,-0.32187255388609715,-0.38324684425480177,0.2,0.8032579264785857,-0.17872310816740428,0.2,-0.0009265437161200948,0.06332046036966185,0.2,0,
0.7922112563350228,0.47627207811065686,-0.2854202238228333,0.2,-0.5378554588346814,-0.3877362545337687,0.2,-0.8492473237656477,-0.36278910278744053,0.2,-0.3258335410969956,-0.3406705650287403,0.2,0.7978763259380708,-0.14298114467026918,0.2,-0.0011447360521112742,0.20115305189845264,0.2,0,
0.8002133902373967,0.4740491464625891,-0.20972537895161056,0.2,-0.5408373002879874,-0.405283497999287,0.2,-0.8503206488920191,-0.3519224796987158,0.2,-0.327323282926557,-0.21448509063347332,0.2,0.8009702281638614,0.02677526680845005,0.2,0.0022919051142551478,0.01120551976096975,0.2,0,
0.8082155241397707,0.4729164720474311,-0.5350968726351678,0.2,-0.54433999480267,-0.4683770906851459,0.2,-0.8548780834408272,-0.6821216144549599,0.2,-0.32926530254713116,-0.33938598391017316,0.2,0.798304730207006,0.0855334820693901,0.2,-0.0009654477359357582,-0.11281770096949457,0.2,0,
0.8162176580421446,0.4654875965004264,-0.27410981947376467,0.2,-0.5483313337389497,-0.5551423204499528,0.2,-0.8612345947232984,-0.8432819415305006,0.2,-0.33275345866911976,-0.3383884967359078,0.2,0.8023387638769717,0.20405112688642174,0.2,0.00048682189874323453,0.13531043839227422,0.2,0,
0.8242197919445186,0.46853071493585086,-0.07971059090471772,0.2,-0.5532222719298693,-0.4807291116523532,0.2,-0.8683705945053152,-0.6325315547164589,0.2,-0.3346795184949057,-0.02050944757458345,0.2,0.8015695482371887,-0.40769914051927425,0.2,0.0011995192783406292,-0.005221292634188189,0.2,0,
0.8322219258468926,0.46421222704595094,-0.4147427660038845,0.2,-0.5560229995253874,-0.17346365529475466,0.2,-0.8713550995987618,-0.3192264038213294,0.2,-0.3330816098303131,-0.27059410510978443,0.2,0.7958155776286633,0.19671434944455723,0.2,0.0004032812165962235,-0.18452750584741362,0.2,0,
0.8402240597492665,0.4618948306797887,-0.20294923040474477,0.2,-0.5559976904145854,-0.441725944060313,0.2,-0.8734782169664564,-0.7261874734627096,0.2,-0.33900902417666223,-0.6667613342225022,0.2,0.8047169778283016,-0.07510489226132677,0.2,-0.001752920815217989,0.2911686233130768,0.2,0,
0.8482261936516405,0.460965039359475,-0.27318473012018923,0.2,-0.5630906146303524,-0.35335242118332555,0.2,-0.8829740991741651,-0.8459114317702909,0.2,-0.34374979117787313,-0.618629837291506,0.2,0.7946138993524821,-0.3432432616675696,0.2,0.005061979189605452,-0.021744997664364357,0.2,0,
0.8562283275540145,0.4575238749978657,-0.32128777260789426,0.2,-0.5616513291535186,-0.2747239422024525,0.2,-0.8870127998747811,-0.3676788907590253,0.2,-0.34890710157332633,-0.23245773077479673,0.2,0.7992250856416205,0.4430871360516786,0.2,-0.002100840777847819,-0.2902648403993656,0.2,0,
0.8642304614563885,0.4558244349977487,-0.3333170362596789,0.2,-0.5674861977055916,-0.5838797150786584,0.2,-0.8888569614263095,-0.3973181002316431,0.2,-0.3474691148702699,0.0009159230041806687,0.2,0.8017032935293089,-0.014626565878070319,0.2,0.00041774174321560224,0.18163645018719543,0.2,0,
0.8722325953587624,0.4521908024177108,-0.21883226966272484,0.2,-0.5709934045947771,-0.4290397963307366,0.2,-0.8933698894784874,-0.6573520967499136,0.2,-0.34889244680525944,-0.17163325253252357,0.2,0.7989910605875714,-0.06257269451821063,0.2,0.0008053424251473081,-0.01223233103262537,0.2,0,
0.8802347292611363,0.4523231186831451,-0.5164982671486233,0.2,-0.5743508344468834,-0.6368977554073313,0.2,-0.8993745949743082,-0.9870571095709768,0.2,-0.35021524691079026,-0.23209611203501082,0.2,0.8007021304170175,0.11402617040765645,0.2,0.0002220244466935963,-0.14504123084416076,0.2,0,
0.8882368631635104,0.44392683014333284,-0.6273356332078851,0.2,-0.5811837686812944,-0.6525029964651041,0.2,-0.909162803231623,-1.0498488386210951,0.2,-0.3526059845978196,-0.5729130201384998,0.2,0.8008154793140939,0.13090468885521706,0.2,-0.001515317268359264,0.03883262810461697,0.2,0,
0.8962389970658843,0.44228574855181896,-0.34705525938973775,0.2,-0.5847908823903251,-0.36116583036140126,0.2,-0.9161721763922457,-0.5643934057961499,0.2,-0.35938185523300625,-0.3627248938400905,0.2,0.802796605438701,-0.05347888735007106,0.2,0.0008433464963674678,0.1194165028258976,0.2,0,
0.9042411309682583,0.43837394599309704,-0.181561442945722,0.2,-0.5869624219670768,-0.5432137120748234,0.2,-0.9181930977243614,-0.7535814468036736,0.2,-0.35840958289926106,-0.16603697741091397,0.2,0.7999598171164928,-0.3728010884051225,0.2,0.0003953467768550975,0.019707738391655984,0.2,0,
0.9122432648706322,0.4393807654646874,-0.22004540122058658,0.2,-0.5934823017835222,-0.8216972693813052,0.2,-0.9282294795411045,-0.8859803923222248,0.2,-0.3620384468715809,-0.6779165790292107,0.2,0.7968317880242191,0.09854501947943739,0.2,0.0011586703106339635,0.03246221142487375,0.2,0,
0.9202453987730063,0.43485321957356765,-0.6128705959704064,0.2,-0.6001095782771777,-0.6122292436529994,0.2,-0.932368784001517,-0.6367537380848332,0.2,-0.36925624816372843,-0.7039160466040424,0.2,0.8015365374281638,0.41084900701728044,0.2,0.0009147421596530775,-0.07046879338171197,0.2,0,
0.9282475326753802,0.4295748359291609,-0.49631416078451185,0.2,-0.6032779696819702,-0.5027843275691446,0.2,-0.9384175393504618,-0.8078318144859389,0.2,-0.37330110361724556,-0.17099234993387877,0.2,0.8034053721364955,0.0371347703325281,0.2,3.116961652657195e-05,-0.08145248204832085,0.2,0,
0.9362496665777541,0.42691219300101546,-0.4760454770690557,0.2,-0.608154127518284,-0.7275449184730789,0.2,-0.945294093033292,-0.8407989120140791,0.2,-0.3719921257626705,-0.05838761927410771,0.2,0.8021306937534842,-0.2516040156321439,0.2,-0.00038849755312005634,0.17887025820706498,0.2,0,
0.9442518004801281,0.421958108296056,-0.472944132952631,0.2,-0.6149186883775395,-0.7567153436007015,0.2,-0.9518703219426871,-0.6130212252543066,0.2,-0.3742353055256313,-0.5693379811591917,0.2,0.7993797078863812,-0.13286056657128842,0.2,0.002893093747839612,0.069780610956807,0.2,0,
0.952253934382502,0.41934508687377336,-0.28420600391445766,0.2,-0.6202615730158952,-0.6073595180265262,0.2,-0.9551024326373609,-0.7421262359012595,0.2,-0.38110153346121756,-0.27397688674856213,0.2,0.8000049246883436,0.15812856484916094,0.2,0.0007279922221888559,-0.19267049297580108,0.2,0,
0.9602560682848761,0.4174108122334247,-0.5335186155404903,0.2,-0.6246364406659639,-0.2762482932788454,0.2,-0.9637443417171072,-0.9651711442030114,0.2,-0.3786189357136083,-0.2725127069911626,0.2,0.8019097649239678,0.07421032064011679,0.2,-0.00018963413977320545,-0.05398312398056573,0.2,0,
0.96825820218725,0.4108087890251255,-0.24745460151666746,0.2,-0.6246815457083568,-0.6392386636992348,0.2,-0.9705451709446091,-0.847654969106236,0.2,-0.38546173677307616,-0.531953123834479,0.2,0.8011922898185855,-0.1879396393096519,0.2,-0.0001357377615001958,0.20620455688524475,0.2,0,
0.9762603360896239,0.413451538609158,-0.20919241032041347,0.2,-0.6348642592851517,-1.234797762032981,0.2,-0.977306821222807,-0.8512807607046549,0.2,-0.38713018569495994,-0.5758265344067772,0.2,0.7989027306950134,-0.012956113772513711,0.2,0.003109638770390711,-0.07903876327411198,0.2,0,
0.984262469991998,0.4074617104599989,-0.7545384991989972,0.2,-0.6444383099008845,-0.8348806699812472,0.2,-0.9841656631158836,-1.082572085921149,0.2,-0.3946749613235846,-0.4048905052033667,0.2,0.8009849919982253,-0.05830157288450044,0.2,-0.0014003579738859873,-0.26535546620691663,0.2,0,
0.9922646038943719,0.40137892262197405,-0.35942438718230063,0.2,-0.6482223500048516,-0.4352170278807965,0.2,-0.9946279745975454,-1.059074179304391,0.2,-0.3936084337782138,-0.37480393613561686,0.2,0.7979699055288614,0.043457023205337175,0.2,-0.0011360486889199553,0.40501198946014966,0.2,0,
1.0002667377967458,0.4017109202650821,-0.2635231544800831,0.2,-0.6514017823469772,-0.6399213409051182,0.2,-1.0011108499847539,-0.728150681054078,0.2,-0.40067182430175446,-0.6081092815852056,0.2,0.8016803043695107,-0.12428784421078531,0.2,0.005079833857476407,-0.02343059513421667,0.2,0,
1.00826887169912,0.3971625521502927,-0.6516470595079072,0.2,-0.6584610914593335,-0.7732793003697932,0.2,-1.0062783854944106,-1.1290111626883481,0.2,-0.4033381822835771,-0.48822051184004356,0.2,0.7959813000214888,-0.13337659275294844,0.2,-0.001510938211067422,-0.375116667012962,0.2,0,
1.0162710056014939,0.3912845673129556,-0.3397914774554249,0.2,-0.6637742511528939,-0.6383158791263068,0.2,-1.0191750285877674,-0.9801766450577426,0.2,-0.40848335249119516,-0.492659748782754,0.2,0.7995462788854635,0.23034201033111934,0.2,-0.0009220328147309844,0.3877141380815159,0.2,0,
1.0242731395038678,0.3917258885110059,-0.44248868870526425,0.2,-0.6686741455253544,-0.44258503402258564,0.2,-1.0219612118153345,-0.6651849584729808,0.2,-0.41122073826410116,-0.4982884840561974,0.2,0.7996667721867867,0.09633033754094522,0.2,0.004692487998236832,0.18865578298938526,0.2,0,
1.0322752734062417,0.38420474829367135,-0.6375657539361111,0.2,-0.6708556116972553,-0.5562876903725047,0.2,-1.0298179879233351,-0.9760117524331424,0.2,-0.4164559682360943,-0.5076191719013342,0.2,0.8010875642861186,-0.12191084752914,0.2,0.0020964597130991797,-0.5374878945796888,0.2,0,
1.0402774073086156,0.38152483644802815,-0.24842658083065045,0.2,-0.6775747485713145,-0.7005581125113166,0.2,-1.0375773998542648,-0.7892791347081929,0.2,-0.4193426450145225,-0.46460257120354426,0.2,0.7977161986263205,-0.06370167339531801,0.2,-0.00390731831503819,-0.15665499509739342,0.2,0,
1.0482795412109898,0.38022992300038094,-0.311461715643932,0.2,-0.6820645414974363,-0.648392861861434,0.2,-1.0424464540786662,-1.1017393684253363,0.2,-0.42388960937535103,-0.521611160742369,0.2,0.8000683375117935,0.1407689045703972,0.2,-0.000410020208459115,0.3036097352463323,0.2,0,
1.0562816751133637,0.37654144899772524,-0.5485059203419358,0.2,-0.6879490343610974,-0.7598620416357434,0.2,-1.0552052297490702,-0.9755628096293628,0.2,-0.4276884235864004,-0.41465449733755,0.2,0.7999685010994468,-0.012297191423850384,0.2,0.0009504374489031266,-0.2002588430170858,0.2,0,
1.0642838090157376,0.37145382827490997,-0.7049794419700557,0.2,-0.6942223341636082,-0.955411692056117,0.2,-1.058055459032736,-0.8285443212681098,0.2,-0.43052408133275183,-0.42772378478196993,0.2,0.7998715824490119,-0.07733930629433283,0.2,-0.003614161696732488,-0.09524743950713706,0.2,0,
1.0722859429181115,0.36526177792620435,-0.2869197838139374,0.2,-0.7032356214339953,-0.9416121177253656,0.2,-1.06846193888936,-1.0400580473261671,0.2,-0.43453200414291193,-0.5382170161733618,0.2,0.7987310721987375,0.038745061730828534,0.2,-0.0005735215832110663,0.02415955337410619,0.2,0,
1.0802880768204854,0.36686311173388697,-0.29053131637265733,0.2,-0.7092881280472141,-0.6017857584048325,0.2,-1.0746963877899547,-0.9835296295976487,0.2,-0.4391355535915256,-0.49941987188256015,0.2,0.8004915034367052,0.010102294458733119,0.2,-0.003227608842746789,-0.1345389485363632,0.2,0,
1.0882902107228596,0.3606132768642418,-1.0327260852372664,0.2,-0.7128641935684726,-0.6190441911203339,0.2,-1.0841984129629223,-1.1507036851786527,0.2,-0.4425227220930329,-0.5282461397341578,0.2,0.7988927089100772,-0.13056091509967144,0.2,-0.0027261447597928773,0.14355924138876108,0.2,0,
1.0962923446252335,0.3503394943700907,-0.8760393616562174,0.2,-0.7191928351051394,-0.8663008979529485,0.2,-1.0931076467528131,-1.0650463677645132,0.2,-0.44758749182727214,-0.3244339510130971,0.2,0.7984025287951104,0.30043728270576914,0.2,-0.0009306609805266114,0.3323271120956703,0.2,0,
1.1042944785276074,0.34659664707774235,-0.2623417158305989,0.2,-0.7267250079357198,-0.6798357608323452,0.2,-1.1012391548471545,-0.7390207519074876,0.2,-0.44771366530924245,-0.4988267814246515,0.2,0.8036997054333695,-0.05580292695278599,0.2,0.002591089033737847,0.0033236618119820904,0.2,0,
1.1122966124299813,0.3461420269168011,-0.5162514894545105,0.2,-0.730070207278457,-0.5654758249888647,0.2,-1.104931978783333,-1.2553117419970283,0.2,-0.45556872033006657,-0.7812128440669412,0.2,0.7975096819638658,-0.18567571612760486,0.2,-0.000877482391534898,-0.38619261432638485,0.2,0,
1.1202987463323555,0.3383366232464702,-0.3800591219761465,0.2,-0.7357726211355416,-0.76817578892166,0.2,-1.121324142719107,-1.3206424291446055,0.2,-0.4602130708143135,-0.3492367949418998,0.2,0.8007288939753279,0.13850694021434046,0.2,-0.00358799279548431,-0.04139249599762867,0.2,0,
1.1283008802347294,0.3400610809651828,-0.23071532210327053,0.2,-0.7423610199012035,-0.8269614093802946,0.2,-1.1260622576496466,-0.804875129479396,0.2,-0.46115650904913696,-0.4345402960787212,0.2,0.7997257930072953,-0.19601638799807142,0.2,-0.0015397623274969567,0.49751798469349734,0.2,0,
1.1363030141371033,0.33464517809281785,-0.6517797217898136,0.2,-0.7490040036856264,-0.7120291889350718,0.2,-1.1342021447907773,-0.9175035461685549,0.2,-0.46716571555157305,-0.5129870701410868,0.2,0.7975926317673587,-0.09473884797320253,0.2,0.0043722949596116485,0.11414908804829298,0.2,0,
1.1443051480394772,0.32963260541654577,-0.7221325014776028,0.2,-0.7537534869241647,-1.007062707255632,0.2,-1.1407423143883435,-1.2090981468686617,0.2,-0.46936430217139435,-0.4190750540812513,0.2,0.798209971439724,0.023749055370121674,0.2,0.0002866230812757309,-0.25110758924585386,0.2,0,
1.1523072819418512,0.3230910580691762,-0.5540456767376862,0.2,-0.7651170070017165,-1.0585893821056167,0.2,-1.1535477151406759,-1.1592564843051072,0.2,-0.47387091641687307,-0.7961354288304329,0.2,0.7979726166532807,0.24865991006150362,0.2,0.00035457353167798686,-0.08318858135571248,0.2,0,
1.1603094158442253,0.3207678745887428,-0.48651568691209995,0.2,-0.7706909170378545,-0.6432867920028936,0.2,-1.1592904181372252,-0.7194556182433948,0.2,-0.4821024690326813,-0.5825388575787134,0.2,0.8021885300007081,0.3431458876174062,0.2,-0.001044394220415669,-0.1006437862590347,0.2,0,
1.1683115497465992,0.3153068070785826,-0.459375015521582,0.2,-0.7754095956737628,-0.8739883499304935,0.2,-1.1650590050325702,-0.8397341767130972,0.2,-0.4831915381381325,-0.18140846701592342,0.2,0.8034629508551592,-0.010336612429225067,0.2,-0.001255727048466568,0.12933769675547224,0.2,0,
1.1763136836489732,0.3134178743403975,-0.49199627455946693,0.2,-0.7846747306367424,-0.6073673301593904,0.2,-1.1727261649646348,-0.9956067159880705,0.2,-0.48500500450493605,-0.564907933200038,0.2,0.8020231442018405,-0.29976325102365475,0.2,0.0010250089276718868,0.1349716113672409,0.2,0,
1.184315817551347,0.30743486668563114,-0.441679437267882,0.2,-0.785127472956313,-0.6388713577445554,0.2,-1.1809887124883793,-1.0406295351375188,0.2,-0.4922300650693331,-0.7238727532369177,0.2,0.7986667388387807,-0.21067965176566755,0.2,0.0009038187334092863,-0.21768834719939248,0.2,0,
1.192317951453721,0.30635100334411136,-0.007062556753305305,0.2,-0.7948966723606553,-0.6971795207031534,0.2,-1.189376237526835,-0.5024641491627041,0.2,-0.49658696855672674,-0.22557560318398062,0.2,0.7986522697735898,0.16313132892470383,0.2,-0.002458004627518393,-0.026979079456576453,0.2,0,
1.2003200853560951,0.30732186577757825,-0.2808976707897731,0.2,-0.7962823452875635,0.14915351863523107,0.2,-1.1890281388749826,-0.10839017455954725,0.2,-0.4958392747202768,0.17665155925355308,0.2,0.801276840101576,-0.035303789257160045,0.2,0.0004721534621040631,-0.23346619122655632,0.2,0,
1.208322219258469,0.301856640611475,-0.04953287867716025,0.2,-0.7925102160624916,0.10382769356882121,0.2,-1.1911104803197878,-0.46881853813147967,0.2,-0.4937605436086699,-0.11699304004481742,0.2,0.7980874091454753,-0.11595679155187999,0.2,-0.006193463687143294,-0.014580371311109279,0.2,0,
1.216324353160843,0.3065293397187437,0.024612358249888333,0.2,-0.7946211021904623,-0.034291633643886155,0.2,-1.1965292354850863,-0.07468206700975144,0.2,-0.49771116336099386,-0.05413706798239326,0.2,0.7994215314367459,0.05047447801725252,0.2,0.0002388675211263146,0.2544493911812435,0.2,0,
1.224326487063217,0.3022504383434732,0.06783419956905151,0.2,-0.7930588822007938,0.004821711014027508,0.2,-1.1923053933919439,0.49056888147283595,0.2,-0.4946267366963882,-0.020545578965469602,0.2,0.7988950007937513,0.05626433768472772,0.2,-0.0021222734282433982,0.014184213145518676,0.2,0,
1.2323286209655908,0.3076146869118485,0.07367390763048445,0.2,-0.7945439548142379,-0.2230562439216599,0.2,-1.188680133381521,0.01097434147709353,0.2,-0.49803989262444137,0.06419403438978621,0.2,0.8003217608397015,0.24306826929769432,0.2,0.0004658149314546134,0.23237539634724041,0.2,0,
1.240330754867965,0.30342922086556096,-0.21515190734519574,0.2,-0.7966277821035403,0.10889893393588312,0.2,-1.1921298039283104,-0.34145026483740903,0.2,-0.4935996321461516,0.054450187464725325,0.2,0.8027840931025144,-0.09184696426008804,0.2,0.0015957329133124486,-0.20525154885695263,0.2,0,
1.2483328887703389,0.3041722563943254,0.24982758945157196,0.2,-0.7928015718712638,0.12356343738141595,0.2,-1.1941433376189194,0.06978909460085558,0.2,-0.49716868962500577,-0.08229473507820328,0.2,0.7988522094115401,-0.07714312695103476,0.2,-0.002818209850256629,-0.10321532279688206,0.2,0,
1.2563350226727128,0.3074264622967861,-0.07604071461133136,0.2,-0.7946507671054377,-0.12405260329328288,0.2,-1.1910131784146967,0.23025001374930854,0.2,-0.49491634790740285,-0.06618411232179114,0.2,0.8015498030712979,-0.13968158262677582,0.2,-5.571225143766445e-05,0.11718313069739213,0.2,0,
1.2643371565750867,0.3029556049605441,0.0038476130772915895,0.2,-0.7947864135239563,0.14677777667233133,0.2,-1.1904593373989305,-0.22834377581990029,0.2,-0.4982276354221544,-0.2775949634471059,0.2,0.7966173040895117,-0.11138339600956504,0.2,-0.0009432797590983548,0.003462515678296304,0.2,0,
1.2723392904774609,0.3074880241060228,0.24247206714834296,0.2,-0.7923023226786804,-0.0500878323542453,0.2,-1.194666678827815,-0.08057520054936818,0.2,-0.49935786732255655,0.3358315005617188,0.2,0.7997676687351448,0.016883123319225146,0.2,-3.120005849235894e-07,-0.05190346581354385,0.2,0,
1.2803414243798348,0.30683515803491757,-0.1571315007201958,0.2,-0.7955878188416242,0.0599740039790575,0.2,-1.1917485406077204,0.240366997489444,0.2,-0.4928543314131669,0.2301153432719208,0.2,0.7968874340626193,0.005091595078395017,0.2,-0.0017737352121150564,0.0043966910485642935,0.2,0,
1.2883435582822087,0.30497392009449964,-0.3198972127670153,0.2,-0.7913427386150155,0.09698000271383955,0.2,-1.190820806867984,0.15307805475940628,0.2,-0.4956760218302058,-0.038473698004557605,0.2,0.7998491342563991,0.28595853730486315,0.2,7.00350561921051e-05,0.08705864195442843,0.2,0,
1.2963456921845826,0.3017168026306453,-0.08717531135717452,0.2,-0.7940361387982028,-0.28742942764656276,0.2,-1.18929929173157,-0.15728302475184752,0.2,-0.49346991058123985,-0.05230665725164049,0.2,0.8014627706594971,0.005903289339741213,0.2,-0.0003807969408442014,-0.02789222166175958,0.2,0,
1.3043478260869565,0.30357911511278485,0.043024854135077784,0.2,-0.7959416094573605,0.07859888469399778,0.2,-1.1933373352640135,-0.26091133335542915,0.2,-0.49651292834623206,-0.015238043837444842,0.2,0.799943586885835,-0.06631569680947552,0.2,-0.00037624049039604817,0.04868126280487868,0.2,0,
1.3123499599893307,0.30240520029680656,-0.08152370546297624,0.2,-0.7927785566430988,0.13057533993156983,0.2,-1.1934738730652568,-0.14496471048938697,0.2,-0.49371371928263896,0.15930818619285664,0.2,0.8004017195105455,-0.12559985954151143,0.2,0.0003981032640338574,-0.04925788598180312,0.2,0,
1.3203520938917046,0.3022747358253772,0.16947152280596955,0.2,-0.7938524040184554,0.0693571753336425,0.2,-1.1956567706318437,0.022656318245772855,0.2,-0.49396399736714636,-0.24399614169242842,0.2,0.7979339891331708,-0.12804529127445619,0.2,-0.001164366666104898,0.11230065219401966,0.2,0,
1.3283542277940785,0.3051167446617021,0.11851989409045541,0.2,-0.7916688418377605,0.001654597054825957,0.2,-1.1931113719733244,0.24487887908855588,0.2,-0.4976176575497178,-0.2016304093804995,0.2,0.7983529948501542,0.09709102187858282,0.2,0.002194913699138172,0.27133404657898563,0.2,0,
1.3363563616964524,0.3041710541308245,0.0056216417539251,0.2,-0.7938259304655781,-0.16565035270073997,0.2,-1.1917387085664268,-0.18339753652237,0.2,-0.49719008391723435,0.12286849998707425,0.2,0.7994874454832281,0.18321436337581654,0.2,0.003176978079158872,-0.20836033446278698,0.2,0,
1.3443584955988264,0.3052066909297649,-0.0818702402683516,0.2,-0.7943192474809724,-0.1021842318280064,0.2,-1.1960457325576823,-0.29163457007869154,0.2,-0.49565176154992463,0.16617967041453532,0.2,0.8012844246641673,-0.16268216702881172,0.2,-0.00113885165226642,-0.1257651086976293,0.2,0,
1.3523606295012005,0.3028611302865309,-0.13719649776213969,0.2,-0.7954608781748262,-0.21369044822260735,0.2,-1.196404861687686,0.37137961560161636,0.2,-0.4945312091906018,0.17087561612136315,0.2,0.7968845308107672,0.007221014625836963,0.2,0.001164736339996803,0.10033872180345099,0.2,0,
1.3603627634035744,0.30301154696557064,-0.21182218589478954,0.2,-0.7977382946525341,0.1290064813264033,0.2,-1.1901036587080565,0.34650173463332545,0.2,-0.4929177516919828,-0.0955882584139714,0.2,0.8013999608981807,0.38794605982583885,0.2,0.0004665678965887958,-0.26070379196388827,0.2,0,
1.3683648973059483,0.29947197531221426,-0.033020438253348466,0.2,-0.7933967744736038,0.18859581331569925,0.2,-1.1908608339335527,-0.11774142109501062,0.2,-0.4960606213252253,-0.06401099089443224,0.2,0.8030916677679806,-0.09394098465054929,0.2,-0.0030065243314254093,0.04079629270883557,0.2,0,
1.3763670312083223,0.30248321995351707,0.3716753496017036,0.2,-0.7947207616394829,-0.08049160429794006,0.2,-1.1919875214455766,-0.0373612710319049,0.2,-0.49394192754629374,-0.028354950921728045,0.2,0.7998969051437719,-0.45316370275554074,0.2,0.001119308579930165,-0.04820254167081859,0.2,0,
1.3843691651106962,0.3054187809058415,0.040592727806855466,0.2,-0.7946846401423708,-0.09403742930078757,0.2,-1.1914586142700632,0.1814911634892835,0.2,-0.496514300539973,-0.1028065915378018,0.2,0.7958410485238919,0.11183028402637907,0.2,-0.0037777649981585067,-0.0471916461675269,0.2,0,
1.3923712990130703,0.30313270359842676,-0.09628728253175539,0.2,-0.7962253605082955,-0.1916688383692411,0.2,-1.189083662829748,-0.19705010932727363,0.2,-0.49558683301089856,0.00981369636526494,0.2,0.8016861896881939,0.18524846300787406,0.2,0.00036424224124973457,0.15884229029462696,0.2,0,
1.4003734329154442,0.3038781843853334,-0.019039789272142643,0.2,-0.7977513415562787,0.034417160715276285,0.2,-1.1946114160192995,-0.34413054939776144,0.2,-0.49635728139812874,-0.04565567223415931,0.2,0.7988050239320179,-0.04364286232329262,0.2,-0.0012362883534444754,-0.07271288373920592,0.2,0,
1.4083755668178182,0.3028280669700725,0.08565504869359475,0.2,-0.7956746859368511,0.06759204878944297,0.2,-1.1945897516201123,0.017489692457531292,0.2,-0.4963173237666451,0.008984379582820112,0.2,0.8009879038910213,0.15973553555252012,0.2,-0.0007991638985775602,-0.06825943017277358,0.2,0,
1.416377700720192,0.30524866516443094,0.15173628150632473,0.2,-0.7966698687756476,0.15581907480824442,0.2,-1.194331580939979,0.24370305353434152,0.2,-0.4962135313248036,0.1112891691982705,0.2,0.8013607925008582,0.1543034021662948,0.2,-0.0023284392362088527,-0.03938369680340165,0.2,0,
1.4243798346225662,0.30525584747417367,0.09380323498536444,0.2,-0.7931815807399192,0.32707083698408496,0.2,-1.1906905027635628,0.0828115719159056,0.2,-0.4945366970594728,0.027287656450641212,0.2,0.803456758325682,-0.06177425973123013,0.2,-0.0014293030474319865,0.20372080238488147,0.2,0,
1.4323819685249402,0.3067495169241968,-0.1230174459635712,0.2,-0.7914367353839022,-0.03417625862004586,0.2,-1.1930065957893246,0.036211361784041496,0.2,-0.49577692882159335,-0.29458370936366607,0.2,0.8003724043451586,-0.21898249324595054,0.2,0.0009310936019492508,0.2516395295101163,0.2,0,
1.440384102427314,0.30328756833875653,-0.1402044063050778,0.2,-0.7937284008778399,-0.3443296999764145,0.2,-1.1901111209750181,-0.08359123960463566,0.2,-0.49925003640929144,-0.08300913120390038,0.2,0.7999530384337468,0.18137731394791967,0.2,0.002596929424729874,0.121296073482431,0.2,0,
1.448386236329688,0.30450624642331553,-0.3730975162348632,0.2,-0.7969460105835249,0.01112255844326615,0.2,-1.1943440556229987,-0.08084978369843343,0.2,-0.49710507492085576,0.10968897823605481,0.2,0.8032744413683253,-0.048868570510070264,0.2,0.002871830777668147,-0.3514201907072814,0.2,0,
1.456388370232062,0.2973180080789987,-0.121488695582702,0.2,-0.7935504399427477,0.2175227679940897,0.2,-1.191404717514193,0.10797999081556264,0.2,-0.49749501275751457,0.09134365907478847,0.2,0.7991711413055856,-0.11289041011266349,0.2,-0.003025793626586629,-0.3763694757821235,0.2,0,
1.464390504134436,0.3025624272939923,0.42282531318909783,0.2,-0.7934656462956194,-0.12938820728047862,0.2,-1.1926163757699497,-0.15108564818011594,0.2,-0.49564357637565915,-0.011665352857920946,0.2,0.8014681948065226,0.03979827631311189,0.2,-0.0031500808348458287,0.2127426176000072,0.2,0,
1.47239263803681,0.3040832130900243,-0.003626159117212091,0.2,-0.7956206512592353,-0.10047928145578283,0.2,-1.193822087885075,0.25005396225297183,0.2,-0.4976816584032413,0.08956244734560637,0.2,0.7998079137265954,-0.17631821450884294,0.2,0.00037808825501348657,0.2410755371829682,0.2,0,
1.480394771939184,0.3025044087481169,0.17503395022946608,0.2,-0.795073314798912,-0.09099135442888762,0.2,-1.1886155123739022,-0.06323874434026322,0.2,-0.49421057721812944,0.2077647964783165,0.2,0.7986471033743812,-0.22629094285153695,0.2,0.0007071277600816626,0.05529210791256968,0.2,0,
1.4883969058415578,0.30688375629369574,0.26815986278728304,0.2,-0.7970765129300975,0.21000852732942776,0.2,-1.1948339077945191,-0.13936622070971627,0.2,-0.49435742165958824,0.05867746847287858,0.2,0.7961872586409708,-0.017284656645091823,0.2,0.0012627619816146015,0.17428860368437385,0.2,0,
1.4963990397439317,0.30679496655271343,-0.03600601263761133,0.2,-0.7917131783616411,0.48858331262843085,0.2,-1.1908453719052576,0.21287072070169666,0.2,-0.4932717377225634,-0.2512264143809846,0.2,0.7983705488680597,0.36055685489470163,0.2,0.003495745419031644,-0.060298115867762944,0.2,0,
1.5044011736463059,0.30630766009149396,-0.20752576349489238,0.2,-0.7892591799280426,-0.2912764558467909,0.2,-1.191427976263292,-0.0583399418928876,0.2,-0.498377044289684,-0.3110301558964454,0.2,0.8019561683192861,0.2701541613401581,0.2,0.0002979921277303944,-0.1931662479005728,0.2,0,
1.5124033075486798,0.30347455433679515,-0.08205071662825345,0.2,-0.7963736016551898,-0.4066285074228182,0.2,-1.1917788109755438,0.20509058357924548,0.2,-0.4982482202169065,-0.1316363741815374,0.2,0.8026930154495022,-0.08654015737563636,0.2,0.00040508545262247917,-0.2310694074926821,0.2,0,
1.5204054414510537,0.3049948486254419,0.264312709905061,0.2,-0.7957652360468077,0.21457855841663237,0.2,-1.188146526926024,0.3740803688737082,0.2,-0.5004832262765886,0.105192365740428,0.2,0.8005715258012759,-0.101499939045048,0.2,-0.0033991183921525192,0.1569889937341705,0.2,0,
1.5284075753534276,0.30770355769527613,0.15344534858484013,0.2,-0.7929403447205237,-0.018296072417399445,0.2,-1.1857935250735645,-0.029669216119312947,0.2,-0.49656514236505966,0.2573082654369896,0.2,0.8010690164247815,-0.022210870006485195,0.2,0.0029169093523692072,0.25900104866874346,0.2,0,
1.5364097092558016,0.30744997420279935,-0.0885999441618858,0.2,-0.7960579732054861,-0.029797654975419197,0.2,-1.188621234383933,-0.2408416912496325,0.2,-0.49636629402959676,0.1100287890690721,0.2,0.8002161518811721,0.1081895320234269,0.2,0.0007448983865473768,-0.26176441166785636,0.2,0,
1.5444118431581757,0.30628595858868596,-0.16572274682771782,0.2,-0.7934171072001304,0.008346836576841876,0.2,-1.1896469921335586,-0.085302702067927,0.2,-0.4948046817399545,0.00881525531614899,0.2,0.8028000489371563,0.10025459955994437,0.2,-0.0012713212343164948,-0.04512251293613852,0.2,0,
1.5524139770605496,0.30479841025355586,-0.12233876994154069,0.2,-0.7959244238202566,0.06687383580192968,0.2,-1.18998607761702,-0.1774985894396619,0.2,-0.49622524994453837,-0.1885679849180366,0.2,0.8018202254741312,-0.22869973802294025,0.2,2.293817956916058e-05,0.19650255348277326,0.2,0,
1.5604161109629235,0.3043285382696213,0.011951767413420633,0.2,-0.7923471258272995,0.1550839468305032,0.2,-1.1924869695645932,-0.09625949910734011,0.2,-0.4978217694986431,-0.08222740078366736,0.2,0.7991408531287892,-0.009158299683099946,0.2,0.0018727196214078775,0.0006634122154220232,0.2,0,
1.5684182448652975,0.3049896385321706,0.0008869907256181531,0.2,-0.7934430806709686,0.029481521117251386,0.2,-1.1915262296027374,0.019871255082307138,0.2,-0.49754088835707705,-0.01876365559894122,0.2,0.8016736926792016,0.17472746697479863,0.2,3.355277501591295e-05,-0.0070326230594925316,0.2,0,
1.5764203787676716,0.3043427301212312,-0.04291951172515074,0.2,-0.7918754214894235,-0.16106315245428826,0.2,-1.1921690294832763,-0.2597556664769157,0.2,-0.49812198798822616,0.11042318031675297,0.2,0.801936492600386,-0.1605156911544739,0.2,0.001760197652455997,-0.013039368048474163,0.2,0,
1.5844225126700455,0.3043029263445682,0.0838950919721769,0.2,-0.7960200911102372,0.02264050420827668,0.2,-1.195682320266368,0.156064661303551,0.2,-0.495774117472009,0.10074470977550903,0.2,0.79910544162073,0.06453040024638479,0.2,-0.00017507711375967368,-0.2194150316606724,0.2,0,
1.5924246465724194,0.30568505159278603,-0.1269833297181215,0.2,-0.791513173422091,0.10117253572968637,0.2,-1.1896719949024195,0.08578789266056042,0.2,-0.496510072631818,0.054400527804983334,0.2,0.8029689790043282,0.16548128378387345,0.2,-0.0017504428541147614,0.01950562984118423,0.2,0,
1.6004267804747934,0.30227119306907824,-0.10649918036125319,0.2,-0.7944013305385622,-0.12284893393419566,0.2,-1.194309713983799,-0.24406028392821855,0.2,-0.49490370902712927,0.028301180565463296,0.2,0.801753142161272,-0.3222152411552631,0.2,0.000137012963699274,0.3106654390777505,0.2,0,
1.6084289143771673,0.303981064707006,0.11039890471908204,0.2,-0.7934787563650382,0.061045728295162915,0.2,-1.193576959445271,0.2997991124330246,0.2,-0.4960572537427706,-0.08034709270887674,0.2,0.797813535145844,-0.0762508356055569,0.2,0.0032202041711292466,0.014502984861919258,0.2,0,
1.6164310482795414,0.30403757554458355,-0.05422850828023379,0.2,-0.7934245988858396,0.3219924153946077,0.2,-1.1895129281848706,0.17425827949713035,0.2,-0.4961892625104713,-0.08193463168194512,0.2,0.8005331287915831,0.031987766144457586,0.2,0.0003690607214899821,-0.17166437926547537,0.2,0,
1.6244331821819153,0.30311340857452224,-0.06055938224559451,0.2,-0.7883268777187245,-0.027268639962288455,0.2,-1.190788826973317,-0.36047445671089084,0.2,-0.4973682078496817,0.134110245531123,0.2,0.7983253394041553,-0.06058206287393175,0.2,0.0004735741028816406,0.05289696087468188,0.2,0,
1.6324353160842893,0.30306862542865404,0.05662095344339396,0.2,-0.7938608971252362,-0.6521417230228657,0.2,-1.195280519492245,-0.02849411493313636,0.2,-0.49404349858197333,0.19575621868305262,0.2,0.7995638157856002,0.253977592269132,0.2,0.0012154120954848923,0.09088594879235322,0.2,0,
1.6404374499866632,0.30401934382961654,0.02281532471137132,0.2,-0.7987611452870903,-0.12374475314476385,0.2,-1.191244732812247,0.29069614416055156,0.2,-0.4942361083507529,-0.1502194740029758,0.2,0.8023889808804614,-0.03252333705936611,0.2,0.001927749283559292,0.007116315344164753,0.2,0,
1.648439583889037,0.303433670624036,0.06316957775599416,0.2,-0.7958408131755524,0.43017426232573597,0.2,-1.190629381185676,-0.13398720706786493,0.2,-0.49644701016602094,-0.001243709231903839,0.2,0.7990434423926503,-0.1288432001044157,0.2,0.0013292731409915283,0.07029856906959261,0.2,0,
1.6564417177914113,0.30503005707371245,0.03710367424006322,0.2,-0.7918783570898785,0.07669942572210986,0.2,-1.193388528125333,-0.033383069527812004,0.2,-0.49425600769846334,-0.05604828719221397,0.2,0.8003274896787907,-0.10038918392484691,0.2,0.003052526388672774,-0.19034585694291603,0.2,0,
1.6644438516937852,0.304027329411877,0.0675920001248706,0.2,-0.7946136223639987,-0.014897224306864576,0.2,-1.191163510298121,0.20617095291247667,0.2,-0.49734378276109636,0.03943191806515811,0.2,0.7974372154498528,0.06911710436720286,0.2,-0.0017162605700951283,-0.1493760468931089,0.2,0,
1.672445985596159,0.3061115290757104,-0.07708991675933752,0.2,-0.7921167126787884,-0.001671520063473153,0.2,-1.1900897928787333,0.13537022901552453,0.2,-0.4936250970094208,0.25768031764016386,0.2,0.801433363348666,0.15260322385231978,0.2,0.0006625096383830315,0.1449936726212391,0.2,0,
1.680448119498533,0.3027938907437276,-0.05567600926985675,0.2,-0.7946403666850143,-0.2830293707893061,0.2,-1.1889975866338727,-0.2607109510755351,0.2,-0.49322089767885374,-0.09264009257614267,0.2,0.7998788670314899,-0.05048682992500608,0.2,0.0006036381918446976,-0.21209750520487589,0.2,0,
1.6884502534009072,0.30522071292739267,0.03830392444567968,0.2,-0.7966451826114173,0.12318756716653279,0.2,-1.1942611680959418,-0.38327525130195383,0.2,-0.4951073384906391,-0.22727370441692415,0.2,0.8006255740698659,-0.16833062572273877,0.2,-0.002731050444894983,0.0544708552270274,0.2,0,
1.696452387303281,0.30340675353485846,-0.04292245614316917,0.2,-0.7926693656103497,0.3684830182257015,0.2,-1.195129990654704,0.09524473915946408,0.2,-0.49685727694952453,-0.12833448611725487,0.2,0.7971855770199261,-0.10352745706692507,0.2,0.001475171875477136,0.32212526065271135,0.2,0,
1.704454521205655,0.30453395362910196,-0.04237166439751555,0.2,-0.790749454319806,-0.31038155889625413,0.2,-1.1927372522693904,0.22555400656375235,0.2,-0.49716069026851517,-0.1004654534088878,0.2,0.7989691347567951,0.11307726647432487,0.2,0.002422953725548399,-0.019445307382795367,0.2,0,
1.712456655108029,0.3027288069044982,0.09986022148819954,0.2,-0.7976354705526898,-0.41538491385201964,0.2,-1.191521126549684,-0.13331891429295417,0.2,-0.49846472420406673,0.07464616845700642,0.2,0.7989948132835153,0.14158764736518087,0.2,0.0011640469573524102,-0.29803771798649503,0.2,0,
1.7204587890104028,0.30613171717291315,-0.09069395899234667,0.2,-0.7973956129414383,0.24105002197991054,0.2,-1.1948703548980777,0.08099605266577437,0.2,-0.49596635157320307,0.11048879557038968,0.2,0.801234537114638,-0.21216583600085215,0.2,-0.002345649762235522,-0.046773046115101254,0.2,0,
1.728460922912777,0.30127770356062067,-0.056870261405543576,0.2,-0.7937786702010112,0.06661437125881492,0.2,-1.1902251897070315,0.010685161487944406,0.2,-0.4966969034749405,0.20875182605803455,0.2,0.7956001599075017,-0.07545606779676278,0.2,0.00041567821951079013,0.06999744167501236,0.2,0,
1.736463056815151,0.30522179299042446,0.04286888841971773,0.2,-0.7963297830012973,-0.2256456751237937,0.2,-1.1946993923142706,0.14754997034054085,0.2,-0.4926263223562745,-0.07653449289230646,0.2,0.8000272400298898,0.3052547955050555,0.2,-0.0012256906954353243,-0.04116926829723997,0.2,0,
1.7444651907175248,0.30196360577533615,-0.10264449777672158,0.2,-0.7973890010029919,0.33518806779794796,0.2,-1.1878643901815829,0.0649291682603137,0.2,-0.4979214553612174,-0.2920394966244924,0.2,0.8004842366355825,0.10349477618495223,0.2,-0.0002430300732450495,0.07979245640303377,0.2,0,
1.7524673246198987,0.3035794810259969,0.10214876872499667,0.2,-0.7909667739165301,0.3420222955698854,0.2,-1.1936605256221056,-0.44820933265349305,0.2,-0.4972989543022664,0.17284832434783653,0.2,0.801683156448849,-0.196780884642124,0.2,5.0988607013216046e-05,0.13927715905932042,0.2,0,
1.7604694585222727,0.3035979860749361,0.08392681784455056,0.2,-0.7919166442738738,-0.20002152566082898,0.2,-1.1950357395040387,0.038943383212614036,0.2,-0.495155882171652,0.160005196940545,0.2,0.7973357424813086,-0.08961994723544198,0.2,0.0019854044717040773,0.1353412732350369,0.2,0,
1.7684715924246468,0.3049223101115097,0.02690489590605541,0.2,-0.7941671183271034,-0.12416277833152828,0.2,-1.1930374314907037,0.13517918015984454,0.2,-0.4947388711512177,-0.13537414042742724,0.2,0.800249237293082,0.13392992217359928,0.2,0.0022164489787738066,-0.08339634203681436,0.2,0,
1.7764737263270207,0.304028464409433,0.06457415225652463,0.2,-0.7939032487271782,0.013298212093969253,0.2,-1.1928728726214812,0.15700424579910555,0.2,-0.49732186841849085,-0.2646247942038014,0.2,0.7994786212360862,-0.09384475080182614,0.2,0.0006510629991150476,-0.15785688835548797,0.2,0,
1.7844758602293946,0.3059554965476141,-0.013898786905264943,0.2,-0.7939543469335999,0.06874028664133336,0.2,-1.190525363557918,0.020788521389897285,0.2,-0.4989728678584785,0.01977570330265188,0.2,0.7987477212802527,0.025635379337266007,0.2,-0.0003092612349140009,-0.030750986493908325,0.2,0,
1.7924779941317686,0.30380608381894875,-0.25301825313938514,0.2,-0.7928034041409169,-0.14267656667234924,0.2,-1.1925402562792429,0.026085354453544984,0.2,-0.4970054571656484,0.0762705056990623,0.2,0.7998887873054824,-0.07234982685849767,0.2,0.0001590472152125144,-0.05631983139347994,0.2,0,
1.8004801280341425,0.30190720449738395,-0.1169150172405202,0.2,-0.7962371720003575,-0.13030369208033576,0.2,-1.1901079978866613,-0.26723629621297484,0.2,-0.4977525397672935,0.1184002073779944,0.2,0.7975901240505168,-0.020881467726933944,0.2,-0.00121037853720968,-0.08245673035286893,0.2,0,
1.8084822619365166,0.3019354435431004,-0.053235339430961204,0.2,-0.7948882632142023,0.05875358159413563,0.2,-1.1968160370186505,-0.2820199641473259,0.2,-0.4951110538476005,0.024260702031649733,0.2,0.7995546838218515,0.24677401844026142,0.2,-0.0011602604704333886,-0.002482561584285172,0.2,0,
1.8164843958388905,0.3010554390664886,0.3515799440278536,0.2,-0.7952971146948513,-0.1525732829859225,0.2,-1.1946203173130185,0.3341370827705942,0.2,-0.4973643685347871,-0.06536155050268153,0.2,0.801538508345561,0.12147078407006434,0.2,-0.0012500995225582427,-0.14051581520099163,0.2,0,
1.8244865297412645,0.3075607226475461,0.17279290519749135,0.2,-0.797329435741977,-0.1593611521803623,0.2,-1.191469843694321,0.1045947462016833,0.2,-0.4961568386556434,0.1422350572161321,0.2,0.8014982163669725,0.1000263899124873,0.2,-0.003408513513649255,0.11426519674339737,0.2,0,
1.8324886636436384,0.30382012554964843,-0.10422512195700645,0.2,-0.7978468931297371,0.31568019150639975,0.2,-1.1929468013737916,-0.09959642395636348,0.2,-0.495088607619329,0.10521828971964478,0.2,0.8031389305841607,-0.317637236404468,0.2,0.0005781436253361153,0.0893902436738972,0.2,0,
1.8404907975460125,0.305893120696234,-0.03783795004273435,0.2,-0.7922785526778746,-0.06033654315933806,0.2,-1.1930633864776228,-0.06306724334721736,0.2,-0.4944733460201291,-0.19845596796196074,0.2,0.796416020584501,-0.4041088242916907,0.2,-0.0019782696148668995,-0.09298274666842046,0.2,0,
1.8484929314483864,0.3032147183489647,-0.1201784429521735,0.2,-0.7988122778202865,-0.10525578752533515,0.2,-1.193955877267347,0.19219922839225356,0.2,-0.49826390310672036,-0.08239583639938972,0.2,0.7966731893954937,0.2163059483954663,0.2,-0.0009095803213586121,0.09850783625830795,0.2,0,
1.8564950653507604,0.3039702656089992,0.05134683807873214,0.2,-0.79396264527828,0.23771927589805175,0.2,-1.1899881988233467,0.07473411871343483,0.2,-0.49579167940251934,-0.10301504675203077,0.2,0.7998769157588285,0.21551272155995865,0.2,-0.0004021442347339723,0.19214599985780495,0.2,0,
1.8644971992531343,0.3040362677582244,0.06109510030797086,0.2,-0.7950087694059177,-0.1387941506875226,0.2,-1.1927601313679321,-0.10883303095740593,0.2,-0.49991214385475286,-0.18660808072262433,0.2,0.800121392940453,-0.06575887261120461,0.2,0.0021647556763662672,-0.036950370720041086,0.2,0,
1.8724993331555082,0.30494778721392674,0.10143596333924906,0.2,-0.7961833516892803,-0.17565133059607718,0.2,-1.1917295273186652,0.0768713456890946,0.2,-0.4987774086940813,0.259591467800007,0.2,0.7988247737970492,0.13480068212664426,0.2,-0.0009933501662546297,-0.37304621532242443,0.2,0,
1.8805014670578823,0.3056592431716524,0.03907510790107996,0.2,-0.7978191906954549,0.07941511457151829,0.2,-1.1915301898369066,-0.15326823827777059,0.2,-0.49575868036995274,0.25762576690593203,0.2,0.8022782038544793,-0.06759872143969475,0.2,-0.0038039837687925235,0.20642654123080578,0.2,0,
1.8885036009602563,0.305572988940344,-0.10425235000845537,0.2,-0.794912709856136,-0.1619427276567803,0.2,-1.1941818191311095,0.009034682928316107,0.2,-0.4946553964235864,0.21264599034017187,0.2,0.7977431942540141,-0.44877158170014697,0.2,0.0023094744934382626,0.25320635111353573,0.2,0,
1.8965057348626302,0.3039912055715171,-0.2998696670497465,0.2,-0.8004102743379634,0.335672044051355,0.2,-1.1913856349100536,-0.04525899918431109,0.2,-0.49235634452451,-0.08143884559531911,0.2,0.795097858547277,0.10468243387732473,0.2,0.00024731784902404843,-0.15800512126110683,0.2,0,
1.904507868765004,0.30077507426754807,-0.10435627012225432,0.2,-0.7895419571513144,0.29505390938616705,0.2,-1.1949059631180585,0.001733129478473372,0.2,-0.4959584179531115,-0.023778683471215728,0.2,0.7994181131960513,0.20778348671988273,0.2,-0.0002186074467394468,-0.11156941147934014,0.2,0,
1.912510002667378,0.30232150524956103,0.2383147204803593,0.2,-0.7956894117877847,-0.30485631851921713,0.2,-1.191357904838398,0.17753703995686265,0.2,-0.49273680346004944,0.10481526628557114,0.2,0.7984223943347951,0.052123477846791055,0.2,-0.0015377927346453938,0.07338354225525337,0.2,0,
1.9205121365697522,0.3045881097952338,0.1523201167507142,0.2,-0.7944196582476218,0.002369378643091169,0.2,-1.1920653704787487,-0.27515706988583133,0.2,-0.4942813736925424,-0.2904318538701801,0.2,0.8002520888415999,-0.04685258072703591,0.2,0.0009555292293446071,0.1767447281983347,0.2,0,
1.928514270472126,0.30475862711757246,-0.003575021883795576,0.2,-0.7956515017294953,-0.16378848165794768,0.2,-1.1957604179565713,0.2549873744759207,0.2,-0.4973837131219723,-0.11948217801581104,0.2,0.7976727530431625,-0.10654212653016248,0.2,0.0012901229165279615,-0.24748727690286923,0.2,0,
1.9365164043745,0.3045309094450931,-0.038650362878391714,0.2,-0.797040273954149,0.06741667066528789,0.2,-1.187985572487134,0.3849419284334965,0.2,-0.49619308854079536,0.06223318621925711,0.2,0.7985474148171173,0.14832751916048909,0.2,-0.003004267201101301,-0.16604245300049975,0.2,0,
1.944518538276874,0.3041402213115182,0.2074466066766395,0.2,-0.7945728349988507,0.32679656190216094,0.2,-1.1896013471016353,-0.12141547334523772,0.2,-0.4963879821424642,0.27484588046223707,0.2,0.8000459933497304,0.23090309094332684,0.2,-0.0013665563314800345,-0.011095164490056477,0.2,0,
1.9525206721792479,0.3078500551519193,0.029195452888913093,0.2,-0.7918115289637144,0.05186685013389841,0.2,-1.1899282200606578,-0.16100795970021287,0.2,-0.49179555445339956,-0.2948684803940997,0.2,0.8022418642722106,-0.19849113973416377,0.2,-0.0031817898329422048,-0.07840474552502964,0.2,0,
1.960522806081622,0.3046073485577408,-0.2423837187923647,0.2,-0.7937429653967083,-0.060171261662640696,0.2,-1.1921774744568387,-0.08633904128110825,0.2,-0.5011058778287698,-0.14542355598191198,0.2,0.7968701351139837,-0.45387230868810385,0.2,-0.0026210322598805087,0.28696569456005055,0.2,0,
1.968524939983996,0.3039719156512415,-0.051132421453180255,0.2,-0.7927742691503167,0.13801584620458385,0.2,-1.1913096447211555,0.02218561076479386,0.2,-0.49412233134911016,0.4623096066295254,0.2,0.7949799073332009,0.36237214917819033,0.2,0.0014096612800186042,0.2331024484929496,0.2,0,
1.9765270738863698,0.3037892298144899,0.1411065857701288,0.2,-0.791534711857435,-0.006278142024328248,0.2,-1.191822504684602,-0.08130034513605111,0.2,-0.4937089241226974,0.03179073259522783,0.2,0.8026680895008348,0.12295321248568386,0.2,0.001108606916006685,-0.04538134001849147,0.2,0,
1.9845292077887438,0.30622962102356355,0.08246898155181773,0.2770272850586143,-0.7928747194227059,0.038155687974002206,0.5599931530617007,-1.1926104502433323,-0.09872745813060968,0.4623504133694928,-0.4936136796275865,-0.07794785313489441,0.2,0.7969471587329718,-0.23675426757065188,0.2,0.0006835598397227407,-0.0035361876109175796,0.2,0,
1.992531341691118,0.305108733519319,12.103750596037923,0.6136690560002378,-0.7909242208498509,18.174797037535566,0.9310323202309452,-1.1934021440146918,24.549029946542117,1.2361380753505649,-0.4949560897728557,12.106437260693232,0.6100920640387514,0.7988800212197044,0.2780550983385588,0.2,0.0010520279142320038,-0.10073355276857063,0.2,0,
2.0005334755934916,0.49988963056017033,12.393519702913865,0.8926197126010653,-0.5020779668221369,17.832519588271673,1.4378379115744544,-0.7998259710986585,24.5910264116262,1.6749496783469553,-0.2999106834564948,12.27957484574637,0.7585151798698337,0.8013960403063888,0.06069007357589751,0.2,-0.0009281770045743895,0.3993879277074988,0.2,0,
2.0085356094958655,0.5034050487659408,0.36844074767212326,0.2,-0.5056039074375042,-0.2210078353533304,0.2,-0.7999457214286726,0.29580633448979265,0.2,-0.2984828922409138,0.5322703908362536,0.2,0.7998510623969187,-0.4260604228700851,0.2,0.007442234757551985,0.3928989883794958,0.2,0,
2.01653774339824,0.5057846825229243,0.4454262955175814,0.2,-0.5056140921877902,-0.5324339694831106,0.2,-0.7950930697468218,0.4474577415533934,0.2,-0.29139435720311474,0.3840441258462432,0.2,0.7945790735404674,-0.4483302680543741,0.2,0.0053582068094975436,-0.10701330834336548,0.2,0,
2.024539877300614,0.5105318694942221,0.5626321052225949,0.2,-0.5141228509492339,-0.45355531752987177,0.2,-0.7927863975638183,0.18034168795039857,0.2,-0.2923381862273739,0.2483278275118954,0.2,0.7926777781080487,-0.2560042846954727,0.2,0.005730021824058138,0.5593173169740049,0.2,0,
2.0325420112029877,0.5147867962064858,0.3070899152207429,0.2,-0.5128709772682681,-0.09767839278494728,0.2,-0.7922076027396154,0.2992337079626914,0.2,-0.2874211119629244,0.6230175657264171,0.2,0.7904830049853399,-0.07037189129717458,0.2,0.014307283881081623,0.7538187555457273,0.2,0,
2.0405441451053616,0.515445308137754,0.54750718248215,0.2,-0.5156857052337931,-0.5615878166120858,0.2,-0.7879986582364152,0.45141243133550724,0.2,-0.2823699051757512,0.5156522726996737,0.2,0.7915518278472939,-0.2932389724497608,0.2,0.017791121912789774,0.28403121880711263,0.2,0,
2.0485462790077356,0.5235469111262002,0.5151742118741434,0.2,-0.5218563823340615,-0.5340232021751253,0.2,-0.7849850038382473,0.09861006089663393,0.2,-0.27917067559972963,0.4954030185927022,0.2,0.7857911814261437,-0.18801605429862728,0.2,0.018851783381995425,0.3548364455682924,0.2,0,
2.0565484129101095,0.5236880955277403,0.2975405040284776,0.2,-0.5242300764685951,-0.23256840778951293,0.2,-0.7864208972620691,0.11220367383647789,0.2,-0.274443456878268,0.33440016893965596,0.2,0.7885435709785159,-0.32115578263770816,0.2,0.023468505041882453,0.4950173146294624,0.2,0,
2.0645505468124834,0.5283075591906559,0.3877384670332301,0.2,-0.5255774768586937,-0.07599769191986988,0.2,-0.7831897450568637,0.2656528698743929,0.2,-0.27382027289669514,0.36041233927568833,0.2,0.7806526889039404,-0.656688175728011,0.2,0.026772060416066824,0.5911841026379615,0.2,0,
2.0725526807148573,0.529891911000272,0.40783354762762014,0.2,-0.525446039539313,-0.596232828487607,0.2,-0.7821704513440788,0.31690499482260603,0.2,-0.268676859449857,0.5875296043639094,0.2,0.7780365601668677,-0.06524928408380842,0.2,0.03292745068408984,0.4290674993459927,0.2,0,
2.0805548146172312,0.5348328959526978,0.46936691121313157,0.2,-0.5351172021144954,-0.32390258224190144,0.2,-0.778119265139702,0.4825701423808726,0.2,-0.2644197992268726,0.5800622557212802,0.2,0.7796087003585994,0.008313014994265622,0.2,0.03363714040560271,0.19267128578806178,0.2,0,
2.0885569485196056,0.5374017815796821,0.42309951578457794,0.2,-0.5306284808551834,-0.26659928892968504,0.2,-0.7744493290659848,0.2873873460592438,0.2,-0.2593958633583165,0.3894891313677082,0.2,0.778169568406776,-0.11466617671249124,0.2,0.036010191256698826,0.4331350560229179,0.2,0,
2.0965590824219795,0.541602488205251,0.5102646521055256,0.2,-0.5393827907373704,-0.7832971824303439,0.2,-0.7735210676027541,-0.022939631842029684,0.2,-0.25818797312498926,0.20278792637126383,0.2,0.7777740415311996,-0.14336940193215852,0.2,0.040567301301969394,0.7017044075405088,0.2,0,
2.1045612163243534,0.5455660160133705,0.4190585617758688,0.2,-0.5431612357740689,-0.5945560077574366,0.2,-0.7748163631754573,0.06653761107860978,0.2,-0.25615125653637627,0.17169522933199732,0.2,0.7758756579758614,-0.47834869772356986,0.2,0.047237461777346966,0.4269341515142854,0.2,0,
2.1125633502267274,0.5483074251936649,0.2627275364295925,0.2,-0.5488956868614894,-0.3452449754512213,0.2,-0.7724564658254963,0.09128363257185357,0.2,-0.2554408494556773,0.4141157667565901,0.2,0.7701204623676224,-0.2860138521754707,0.2,0.04739824772619796,0.3939935934589335,0.2,0,
2.1205654841291013,0.549769656596244,0.466957224924007,0.2,-0.5486851553812885,-0.3170097253286652,0.2,-0.7733558250543077,0.3590555074118318,0.2,-0.24952540426827083,0.5392320100504645,0.2,0.7712994363410539,-0.29772846826469496,0.2,0.0535413592726899,0.3854602583009442,0.2,0,
2.128567618031475,0.555778740792449,0.4310114490096925,0.2,-0.553967842466748,-0.39684579259007674,0.2,-0.766711577706907,0.4736017252026936,0.2,-0.24681313729486987,0.45332711388698305,0.2,0.7653568068753873,-0.26610410664941464,0.2,0.05356561185901307,0.21659258281223231,0.2,0,
2.136569751933849,0.5566658397803991,0.22656399521539528,0.2,-0.5550346880627297,-0.25336100886615837,0.2,-0.7657781974510646,0.019992470349033953,0.2,-0.2422721704460791,0.5343273566551405,0.2,0.7670417706346633,-0.021595928326921532,0.2,0.05700684059768562,0.39910773162305696,0.2,0,
2.144571885836223,0.5594037647158954,0.46658261500716336,0.2,-0.5580216186086066,-0.4286358273784263,0.2,-0.7663916981813225,0.21283050612206506,0.2,-0.23826389958838762,0.414849099945205,0.2,0.7650112720221566,-0.402018583373083,0.2,0.05995133556498198,0.3577540682577784,0.2,0,
2.152574019738597,0.5641311616205137,0.34690031266920024,0.2,-0.5618928613007845,-0.6174441857290519,0.2,-0.7623729093531115,0.34279750114980106,0.2,-0.23563458484695582,0.20302429392124108,0.2,0.760609473300694,-0.5417998513745428,0.2,0.06273090568981007,0.48112565717363864,0.2,0,
2.160576153640971,0.5649541697186026,0.3584083517118933,0.2,-0.5679007255802714,-0.3056794318150591,0.2,-0.7609069381629257,0.14271744208507742,0.2,-0.23501551088564776,0.5626402159522783,0.2,0.7563424744001639,-0.27889073740093584,0.2,0.0676493460797602,0.5478896097709691,0.2,0,
2.1685782875433453,0.569865695247904,0.6401535788370244,0.2,-0.5667837322098255,-0.19407558052573354,0.2,-0.7600894302797503,0.10906176251820193,0.2,-0.22663234139171937,0.5021419061609304,0.2,0.756147221502279,0.0722806035047957,0.2,0.07149713944614558,0.40705092525573305,0.2,0,
2.176580421445719,0.575196626979995,0.42627951045598467,0.2,-0.5710059348686831,-0.3350832640530016,0.2,-0.7591619499626344,0.21615038067829967,0.2,-0.22698124038707287,0.16408860640806586,0.2,0.7574989640562406,-0.1422149189288166,0.2,0.07416216088385193,0.257125894585224,0.2,0,
2.184582555348093,0.5766861674151997,0.18540495724243128,0.2,-0.5721450644346735,-0.49092360867154794,0.2,-0.7566310241888975,0.3235671145925337,0.2,-0.2240069236891903,0.44659243863165965,0.2,0.7538717827994179,-0.2754504590140039,0.2,0.07561115375950916,0.5113953409377984,0.2,0,
2.192584689250467,0.5781631062958739,0.30182618309450293,0.2,-0.5788607126074279,-0.4666214650557998,0.2,-0.7539848761291539,0.6756761638143927,0.2,-0.21983576136896632,0.5237789198967376,0.2,0.7530917567120166,-0.4213359382514992,0.2,0.0823444863388567,0.4924809288842308,0.2,0,
2.200586823152841,0.5815153863447118,0.4721124192497289,0.2,-0.5796110078755663,-0.4565767289490402,0.2,-0.7458202055678672,0.4391509350639214,0.2,-0.2156264609708425,0.49264518710070115,0.2,0.7471304077873939,-0.3231549389958385,0.2,0.08349084862165686,0.29131142022495793,0.2,0,
2.208588957055215,0.5857169050038695,0.4780253802412343,0.2,-0.5861659402706125,-0.6602608229289222,0.2,-0.7469584611681311,-0.419675661671573,0.2,-0.2119534383753551,0.2887407501630454,0.2,0.7479212776880831,0.16867925860825778,0.2,0.08700546906245603,0.6037079256422532,0.2,0,
2.2165910909575888,0.5891637924285715,0.5780967818797208,0.2,-0.590175181042429,-0.4072949655477484,0.2,-0.7525350161546124,0.11840576907659606,0.2,-0.21100660896823378,0.43100688760642003,0.2,0.749829275925126,-0.08392369668824146,0.2,0.09315017543193291,0.45141494149715866,0.2,0,
2.2245932248599627,0.5949664535139451,0.40610116871709484,0.2,-0.5926826597193765,-0.34616568576219253,0.2,-0.7450639688629056,0.5544557285875329,0.2,-0.20505732817365238,0.48771449161571884,0.2,0.7465784985410713,-0.5630721295620741,0.2,0.09422810812641057,0.15607020563257207,0.2,0,
2.2325953587623366,0.595661411128045,0.16345261275282214,0.2,-0.5957138320146241,-0.33487901739349263,0.2,-0.7436637244972119,0.466642421939209,0.2,-0.20320317710238228,0.4790466939632379,0.2,0.7408201218521329,-0.2204928516104654,0.2,0.09564729872205406,0.31926001305256946,0.2,0,
2.240597492664711,0.5975816953179902,0.4037843369201141,0.2,-0.5980407239976724,-0.4779259330873267,0.2,-0.7375976901118783,0.25421769441383996,0.2,-0.19739258107024057,0.45709899967026624,0.2,0.7430506129153038,-0.15074859833889842,0.2,0.09933626833525168,0.5958586871438456,0.2,0,
2.248599626567085,0.6021219605187669,0.6114162848982613,0.2,-0.6033606469440214,-0.5894592565787934,0.2,-0.7395962413865904,-0.0937786183750483,0.2,-0.19588959310765802,0.1600573621420801,0.2,0.7384081442787105,-0.529968576289841,0.2,0.10518103771635559,0.41886376858444196,0.2,0,
2.256601760469459,0.6073643558763624,0.5191402836872833,0.2,-0.6074720721029331,-0.4563074697621003,0.2,-0.739098148005879,0.5227525708839039,0.2,-0.1948316632759673,0.28493548554486653,0.2,0.7345711156946664,-0.29601970434279395,0.2,0.10603808863260275,0.30381308510685906,0.2,0,
2.2646038943718327,0.6104282050577634,0.4397512125536296,0.2,-0.610661566460215,-0.30289374538219893,0.2,-0.731232200252448,0.42325971558205416,0.2,-0.19133062533894016,0.635725349391561,0.2,0.7336718290092258,-0.3497436177090363,0.2,0.11004204707806534,0.43729544285785876,0.2,0,
2.2726060282742067,0.6144003752772205,0.4097609828521004,0.2,-0.6123183720290483,-0.23188656151881815,0.2,-0.7323259925565662,0.303781134241253,0.2,-0.18466005768570232,0.4893597856281285,0.2,0.7289752178113218,-0.29842807962039697,0.2,0.11303481571832849,0.3808324567152821,0.2,0,
2.2806081621765806,0.616984380783397,0.5066995846823574,0.2,-0.6143717514445161,-0.42531455304818666,0.2,-0.7263717021045879,0.03919945663351937,0.2,-0.1835008687688901,0.2941674313202466,0.2,0.7288969797352994,-0.1589311527374765,0.2,0.11613536638550985,0.5621298382506891,0.2,0,
2.2886102960789545,0.6225075686321382,0.4509677160767431,0.2,-0.6191234048778193,-0.4164574943727739,0.2,-0.7316988012504299,-0.08684467663088585,0.2,-0.17995337878457837,0.3950208116934809,0.2,0.7264323193675222,-0.3587839232193149,0.2,0.12202889313033952,0.3673944121449701,0.2,0,
2.2966124299813284,0.6241998642406249,0.2531529273695418,0.2,-0.6210350713544804,-0.48897217405030613,0.2,-0.7277612169306821,0.5757201560600972,0.2,-0.1771805357817944,0.4220313854499547,0.2,0.7231564369637904,-0.10948919740657453,0.2,0.12201367697982937,0.25544939971193675,0.2,0,
2.3046145638837023,0.6265580154700509,0.346071062838231,0.2,-0.6269469596626241,-0.8133527792456643,0.2,-0.7224872787534683,0.27953023818460404,0.2,-0.1732008766173791,0.591256431832117,0.2,0.724680492209017,-0.20504314719814454,0.2,0.1261160835257305,0.37763833919337264,0.2,0,
2.3126166977860763,0.6297370012460366,0.5717372189958033,0.2,-0.6340487158224111,-0.4671259462257979,0.2,-0.7232887331197284,0.2612919564234581,0.2,-0.16772043287248053,0.5177263566875732,0.2,0.7198757466086201,-0.29701125461165795,0.2,0.12805589040692333,0.5681855320758007,0.2,0,
2.3206188316884506,0.6357058109739837,0.7019013457943146,0.2,-0.6344209748022369,-0.02275892811032243,0.2,-0.718306607450693,0.2943238986688468,0.2,-0.16491725491037793,0.24445813164904356,0.2,0.7199283121352305,0.04286526595992379,0.2,0.13520705203894332,0.2982399465840443,0.2,0,
2.3286209655908245,0.6409674227787456,0.12790397381003127,0.2,-0.6344128586721762,-0.28626009933614693,0.2,-0.7185795507410269,0.10701322902205435,0.2,-0.16380910276609584,0.11879893562716758,0.2,0.7205615908639789,-0.38582755181421763,0.2,0.13282772955226804,0.29580510036801566,0.2,0,
2.3366230994931985,0.6377522745549442,0.2689261301179052,0.2,-0.6390011363916153,-0.5272202222561736,0.2,-0.7165943957863401,0.2825437704522468,0.2,-0.16301647194034324,0.5861039912146392,0.2,0.713755071306203,-0.40691008955082153,0.2,0.13993993364483157,0.6364435809060702,0.2,0,
2.3446252333955724,0.6452702408606321,0.6864883175942901,0.2,-0.642848382228275,-0.5639733107369662,0.2,-0.7140588504137909,0.20024671954987222,0.2,-0.1544314389066616,0.722046867772469,0.2,0.7140510294311657,-0.07099410778999699,0.2,0.14301082684676517,0.3422776071109104,0.2,0,
2.3526273672979463,0.6487360876364529,0.3249764040373568,0.2,-0.6480247093634067,-0.39299934818010085,0.2,-0.7133904482735421,0.5805405867258042,0.2,-0.15146372205598374,0.10416745238033855,0.2,0.712619165581563,-0.2457472031455396,0.2,0.14541637535860613,0.5452286638998275,0.2,0,
2.3606295012003202,0.6504698633252298,0.44667229566171945,0.2,-0.6491363717991566,-0.2602964759001042,0.2,-0.704770201026178,0.19973233131102136,0.2,-0.1527647596685762,0.2518350700608466,0.2,0.7101190741808371,-0.2558852861960226,0.2,0.1517344854691624,0.7613781463729017,0.2,0,
2.368631635102694,0.6558828443670404,0.4057698758905756,0.2,-0.6521894529778084,-0.47339213318483425,0.2,-0.7101947309725658,-0.16600995481935027,0.2,-0.1474343609350102,0.402431284920797,0.2,0.7085250010024267,-0.3616839706147221,0.2,0.15759842570057256,0.1745681888569283,0.2,0,
2.376633769005068,0.656962181339479,0.30403434253347544,0.2,-0.656710645930114,-0.4972918913796198,0.2,-0.7074263603032876,0.5076893479179362,0.2,-0.14632585910984344,0.5735708388704859,0.2,0.7043321306510015,-0.2393375210516177,0.2,0.15452757649087326,0.33311975348566775,0.2,0,
2.384635902907442,0.660747393847576,0.2554386861285188,0.2,-0.6601461232398823,-0.5959356013897701,0.2,-0.7020717014058788,0.34782192882181623,0.2,-0.13825722751308242,0.7257080596925012,0.2,0.7046956006656008,0.04439117264990605,0.2,0.16292834175634324,0.578997474569215,0.2,0,
2.3926380368098163,0.6610492003175353,0.37163210296764504,0.2,-0.6662456155523503,-0.588774257381186,0.2,-0.7018612094421386,0.3147010970882061,0.2,-0.13471453015476342,0.37197704943771165,0.2,0.7050423894134,-0.5172898281408239,0.2,0.1637915360839807,0.17931706434089026,0.2,0,
2.4006401707121903,0.6666935074950583,0.6993530965837547,0.2,-0.6695665113579813,-0.4451736002850301,0.2,-0.6970364838524675,0.47801295467426314,0.2,-0.13230559472207903,0.3708553382455043,0.2,0.6964189634153476,-0.5142394144523262,0.2,0.1657974147857975,0.39908192932077563,0.2,0,
2.408642304614564,0.6722388498628754,0.2082915684184783,0.2,-0.6733683931569108,-0.13245475927839423,0.2,-0.6942130021673504,0.05407534148196835,0.2,-0.12878084474283535,0.16404685952983722,0.2,0.6968145587821628,-0.04978112842021071,0.2,0.1701768469531131,0.4351641063626808,0.2,0,
2.416644438516938,0.6700261725897539,0.29624553456431,0.2,-0.6716857875064356,0.040438928210449754,0.2,-0.696171278388756,-0.03750921638642074,0.2,-0.12968084496960164,0.5216250813957092,0.2,0.6956224653606242,-0.3032971538711182,0.2,0.17276004048760038,0.4630536519196586,0.2,0,
2.424646572419312,0.6769787784159044,0.5529611946648444,0.2,-0.6727213703055436,-0.2491445187677993,0.2,-0.6948131496295331,0.42098643871197466,0.2,-0.12043484344050401,0.5340181819007972,0.2,0.6919618043202249,-0.30798454021611216,0.2,0.17758570538382765,0.5538651575305846,0.2,0,
2.432648706321686,0.6788735517043915,0.43552490849401576,0.2,-0.6756720998067204,-0.7427518895817692,0.2,-0.6894354953693644,0.1623038591671358,0.2,-0.12113655405918888,0.17281467266970235,0.2,0.6906947127171664,-0.10561939889351668,0.2,0.18162188300808974,0.31401390498289433,0.2,0,
2.44065084022406,0.6839471769518086,0.4675502257779421,0.2,-0.6846054005388519,-0.9113144693459404,0.2,-0.6922162878828589,0.16779491345924463,0.2,-0.11766980867778877,0.4062154650999634,0.2,0.6902718939379286,-0.06109850723069049,0.2,0.18260992786355396,0.4214109338827616,0.2,0,
2.448652974126434,0.6863543553168385,0.4831096003122329,0.2,-0.6902531313162554,-0.32044641906284893,0.2,-0.6867507767540165,0.2749461127743852,0.2,-0.11463710661758947,0.5726684933292986,0.2,0.6897171366014754,-0.1706112084923911,0.2,0.18836445795021392,0.4659505526265102,0.2,0,
2.4566551080288077,0.6916769305568043,0.4478457388402274,0.2,-0.6897325432438575,0.03540165035553766,0.2,-0.6878171500784688,0.4394355235393596,0.2,-0.10850711278452,0.43846438558524814,0.2,0.6875421146020504,-0.49210367204718247,0.2,0.19006513670557812,0.4166611212722254,0.2,0,
2.4646572419311816,0.6935198871382822,0.3881441549776557,0.2,-0.6896867049105668,-0.3196146477977904,0.2,-0.6797198083773868,0.36601874125413714,0.2,-0.1076216764482255,0.2908038536096171,0.2,0.6818434778487205,-0.23262678224272165,0.2,0.19503103589056953,0.48773871806017527,0.2,0,
2.472659375833556,0.6978872370364468,0.31631030267333105,0.2,-0.6948463776086221,-0.6593188950640566,0.2,-0.6819608502184026,0.04991113024718774,0.2,-0.10385425112676612,0.4762867391703666,0.2,0.6838200860861668,-0.2079409985984923,0.2,0.19786895619454092,0.2968454499260847,0.2,0,
2.48066150973593,0.6985808519810555,0.5463167174736966,0.2,-0.7002358072315917,-0.6123055766754162,0.2,-0.6789212302934318,0.21162784243969335,0.2,-0.10000108862149963,0.37966656972345747,0.2,0.6785164218711446,-0.38222021348863905,0.2,0.19978056308938688,0.19262347968987056,0.2,0,
2.488663643638304,0.706628304516026,0.48423923219469145,0.2,-0.7046432668354288,-0.4275975238642732,0.2,-0.6785748047393675,0.1457694755702746,0.2,-0.0977795860111908,0.3704073537036407,0.2,0.6777045626703486,-0.164114577081223,0.2,0.20095093186957885,0.6161232047527995,0.2,0,
2.4966657775406778,0.7063286796961705,0.27773065835919736,0.2,-0.7070773676134201,-0.35627833116364666,0.2,-0.6765889186843074,0.3172099646810145,0.2,-0.09407457096224138,0.2181083873197733,0.2,0.675890588637845,-0.22316063156889443,0.2,0.20963853436543167,0.4735480459887413,0.2,0,
2.5046679114430517,0.7110719950497731,0.40405848494038527,0.2,-0.7103437201340471,-0.47476707105584964,0.2,-0.6734994453044713,0.2883105506121808,0.2,-0.09428985181407443,0.520748904191945,0.2,0.6741339925652463,-0.2985076616080981,0.2,0.2085277006053987,0.21827311464097526,0.2,0,
2.5126700453454256,0.7127936154552167,0.6287778206308589,0.2,-0.7146736407503137,-0.23865097380074834,0.2,-0.6719759498745125,0.11231194048107185,0.2,-0.08574258849517026,0.45872171504913667,0.2,0.6711144660521154,-0.23850978005524048,0.2,0.21313090419968728,0.41859773036382814,0.2,0,
2.5206721792477995,0.7211324401798669,0.5040252982648693,0.2,-0.7141621357148591,-0.30475188755209326,0.2,-0.6717024542567741,0.02741806223179044,0.2,-0.08695030437328824,0.3091215037194922,0.2,0.6703178360843625,0.0969150502897892,0.2,0.21522526429121996,0.34664337506853415,0.2,0,
2.5286743131501734,0.7208580202274546,0.29347651339767244,0.2,-0.7195496709511472,-0.4621852634464074,0.2,-0.6715372608788038,0.3325416925130664,0.2,-0.08079664443565839,0.6605959928435495,0.2,0.6726651068567521,-0.3303088539218721,0.2,0.21867719820078382,0.4545803615211112,0.2,0,
2.5366764470525474,0.7258280643942296,0.42266177694026685,0.2,-0.7215570999300016,-0.24972369790506738,0.2,-0.666381787176565,0.4790271348776298,0.2,-0.07638076848779145,0.4127045832808488,0.2,0.6650328944216125,-0.6873778593353349,0.2,0.22249855007555774,0.41122507887591914,0.2,0,
2.5446785809549217,0.7276206086584989,0.26897973832720745,0.2,-0.7235452501176283,-0.6100908551663065,0.2,-0.6638728267207618,0.3993364362180618,0.2,-0.0741933711031648,0.42937090315860355,0.2,0.6616670611073867,-0.33561811322960905,0.2,0.22525679946279853,0.40463165182237465,0.2,0,
2.5526807148572956,0.730131740207465,0.6387768301035074,0.2,-0.7313185536126625,-0.6819478486503258,0.2,-0.659992404197076,0.47273979598498606,0.2,-0.06951083403725379,0.3218317364711981,0.2,0.6596630046099388,0.03754188495741495,0.2,0.22897265650471574,0.35804464389206647,0.2,0,
2.5606828487596696,0.737841037940155,0.5862921440483934,0.2,-0.7344564156960335,-0.31641628704200814,0.2,-0.656308989985002,-0.025277208174204202,0.2,-0.06904406331962563,0.5152100193813952,0.2,0.6622677312667054,-0.22806213228224181,0.2,0.2309855137650716,0.5296237654694221,0.2,0,
2.5686849826620435,0.7395124145122393,0.1388473450252281,0.2,-0.7363812142053346,-0.5098725286726071,0.2,-0.6603968395278633,-0.15380158181042825,0.2,-0.06126747372715147,0.3446479332993137,0.2,0.6560140104934229,-0.31120877012077997,0.2,0.2374466367522265,0.5801336897239933,0.2,0,
2.5766871165644174,0.7400625954605586,0.4339940197522693,0.2,-0.7426143761547952,-0.2748338501368311,0.2,-0.6587698152939688,0.5277045744799813,0.2,-0.06352969638683661,0.34118750126317005,0.2,0.6572883909447729,-0.2242195379392048,0.2,0.24026765280065548,0.1754190109588393,0.2,0,
2.5846892504667913,0.7464563188282756,0.5701542638271647,0.2,-0.7407785558075239,-0.35458806359525,0.2,-0.6519535663361836,0.5061514739176584,0.2,-0.055808473706940746,0.7223342455028353,0.2,0.6524264978863956,-0.35465695738856606,0.2,0.24025334092756792,0.3241924523638331,0.2,0,
2.5926913843691652,0.7491850636817933,0.050829150317746596,0.2,-0.7482877851723192,-0.5339276437688542,0.2,-0.6506713917112863,0.16345744649531174,0.2,-0.05197234845879125,0.26913721850807104,0.2,0.6516138796265558,-0.36922402942875243,0.2,0.2454547320384768,0.7040141582437317,0.2,0,
2.600693518271539,0.7472695852333595,0.2476852400115359,0.2,-0.7493213981078256,-0.19117665010280616,0.2,-0.6493382471922586,0.12622143347635478,0.2,-0.05150227821081161,0.263221480706679,0.2,0.6465189134155356,-0.2408463753884177,0.2,0.25151756745946763,0.34986664415374674,0.2,0,
2.608695652173913,0.7531480275219778,0.6306415777328073,0.2,-0.7513466115739641,-0.5572546556857002,0.2,-0.6486518487756646,0.20067690751988249,0.2,-0.047760804767484386,0.6388426054671735,0.2,0.6477603376203411,-0.006621809052878569,0.2,0.25105259834493676,0.019333187892784515,0.2,0,
2.616697786076287,0.7573598504770844,0.3102253274798114,0.2,-0.7582374725987968,-0.42539576547839797,0.2,-0.6461274166719405,0.46253998655394757,0.2,-0.041280796523336834,0.5369369711882813,0.2,0.6464129644706895,-0.30426886106737355,0.2,0.2518268984657522,0.3665417189464837,0.2,0,
2.6246999199786614,0.7581116327616548,0.20269717166566947,0.2,-0.7581529438216185,-0.5645368761933097,0.2,-0.6412512089908015,0.2880569393887908,0.2,-0.039169813228471885,0.2738883839486931,0.2,0.6428920358432632,-0.2859003305898042,0.2,0.2569172658480805,0.7251837271863778,0.2,0,
2.6327020538810353,0.7606030052237351,0.3772122314299811,0.2,-0.7672700626178898,-0.5072659979208499,0.2,-0.6415185056417199,0.047996893961926856,0.2,-0.036898582380157745,0.25615259841010224,0.2,0.6418385591812527,-0.493966904379875,0.2,0.2634298381007342,0.5392638272462141,0.2,0,
2.640704187783409,0.7641470284645345,0.5926622626487993,0.2,-0.7662691997883521,-0.1853117855628375,0.2,-0.6404832586874106,0.03655474969649353,0.2,-0.03507137165391025,0.44641032564518307,0.2,0.6349885653731852,-0.30633657669585507,0.2,0.2655454870840199,0.3916254288983123,0.2,0,
2.648706321685783,0.7700856014261159,0.6786412252326387,0.2,-0.7702350511868952,-0.5784464458783445,0.2,-0.640933629646576,0.20322235764101,0.2,-0.029756017169834816,0.5538833373246086,0.2,0.636937173954119,0.2653486383969797,0.2,0.2696958449631072,0.5205257023629395,0.2,0,
2.656708455588157,0.7750052880682567,0.5647689981818221,0.2,-0.7755243429224056,-0.41768938644610315,0.2,-0.6372317009651545,0.45776900349260574,0.2,-0.026209238256716512,0.340390024047861,0.2,0.6392341435875368,-0.13334456459324073,0.2,0.27387389832182696,0.4044801902391391,0.2,0,
2.664710589490531,0.7791219053970251,0.3253372574458721,0.2,-0.7769180813700328,-0.14578973716615484,0.2,-0.6336093255906943,0.4525973558163199,0.2,-0.02430977678506904,0.3781273235634482,0.2,0.6348036609206271,-0.6633237680981826,0.2,0.27616752800693345,0.22424299891742397,0.2,0,
2.672712723392905,0.7802106841873907,0.2728059296234278,0.2,-0.777856978717064,-0.399230260319218,0.2,-0.6299901432720934,0.3370641618241979,0.2,-0.02015920107970134,0.6514616246463655,0.2,0.6286209632979659,-0.23617204849411128,0.2,0.27746178630450574,0.6006275201142046,0.2,0,
2.680714857295279,0.7834868002709999,0.41918111191528024,0.2,-0.7833057655351403,-0.44744178142104574,0.2,-0.6282162990015071,0.21233755294786105,0.2,-0.01388639079072719,0.443989969145102,0.2,0.6310249081447213,-0.01973501903877739,0.2,0.2857775683287607,0.6148493564226247,0.2,0,
2.6887169911976527,0.7869175819780352,0.6481347043493374,0.2,-0.7850160472198008,-0.42979716324761247,0.2,-0.6265927424249276,0.11975773444927035,0.2,-0.013055361573379708,-0.01801151976046195,0.2,0.6283052029933455,-0.279816076631155,0.2,0.28729937600726774,0.3472153393784226,0.2,0,
2.696719125100027,0.7938569555405893,0.621087980683846,0.2,-0.7901825201471021,-0.5965147892464939,0.2,-0.6263001752503188,0.2093569849952806,0.2,-0.014174575106894582,0.20994269335829174,0.2,0.6265478509186229,-0.4308956353915108,0.2,0.2913330137588155,0.46163604092561844,0.2,0,
2.704721259002401,0.7968549896689767,0.33819018567197295,0.2,-0.7945602838477447,-0.43275994088854547,0.2,-0.6232430306650031,0.1974240748274722,0.2,-0.00969627847964704,0.5135507743698494,0.2,0.6214108728270813,-0.38706975335715127,0.2,0.29468555266207763,0.15273955434759803,0.2,0,
2.712723392904775,0.7992679985113409,0.23884197849797367,0.2,-0.7971066792013188,-0.4226328069396948,0.2,-0.6231413900530792,0.3293946401297862,0.2,-0.005957762716976991,0.7777692195673724,0.2,0.6203547348649084,-0.1113100430430794,0.2,0.29377684662837705,0.3780191528135607,0.2,0,
2.720725526807149,0.8006764613249443,0.2731603035274824,0.2,-0.8013224087587798,-0.2413398748687609,0.2,-0.6179727164229265,0.19256462536360042,0.2,0.002748029033430919,0.5915954933144559,0.2,0.619629912138392,-0.026076079320105916,0.2,0.3007338591070946,0.7629495562278716,0.2,0,
2.7287276607095228,0.8036385633677806,0.5111227097603643,0.2,-0.800968117199219,-0.18099725181033866,0.2,-0.6200603560472616,0.30037677289004167,0.2,0.0035077651760543034,0.25557576721605496,0.2,0.6199375175957867,-0.10816750166906669,0.2,0.305984039528023,0.2448958564725892,0.2,0,
2.7367297946118967,0.8088544246811101,0.4515491455343301,0.2,-0.8042183647877452,-0.5667624285444552,0.2,-0.6131666880566858,0.40684440459409776,0.2,0.006837241308887799,0.5625386930310251,0.2,0.617899232111687,-0.2734869910890614,0.2,0.30465219281065603,0.2235147817107562,0.2,0,
2.7447319285142706,0.8108633496963299,0.3496389226714178,0.2,-0.8100363160559303,-0.5477986775893756,0.2,-0.613550845573756,0.15297632849457787,0.2,0.012508384264550705,0.4789463383219632,0.2,0.6155617257383618,-0.293330129971299,0.2,0.3095602760353951,1.0080856389272121,0.2,0,
2.7527340624166445,0.8144486474438528,0.22452162809137588,0.2,-0.8129831436291752,-0.4262251090268107,0.2,-0.6107190668007726,0.26409522549038916,0.2,0.01450038272203921,0.39340042032253125,0.2,0.6132059500321462,-0.27965303270600234,0.2,0.3207815630334914,0.46290838959463576,0.2,0,
2.7607361963190185,0.8144556957457919,0.28479904539984585,0.2,-0.8168559178003593,-0.48048467285235347,0.2,-0.6093253219659098,0.3501915934280772,0.2,0.018802790989711205,0.48738364012550683,0.2,0.6110872772150657,-0.32667310698179797,0.2,0.31696681026890927,0.06768922540334454,0.2,0,
2.7687383302213924,0.8190054321702503,0.43860337925431814,0.2,-0.8206708983948129,-0.3849958109858956,0.2,-0.6051160013059234,0.1833261489120816,0.2,0.02229852096404732,0.06486868264871863,0.2,0.6079791803204374,-0.3321032061391338,0.2,0.32186459063994494,0.3712685289069331,0.2,0,
2.7767404641237667,0.821473349813861,0.32236560451716356,0.2,-0.8230158507761336,-0.3698796985056596,0.2,-0.6063921035833165,0.0656628083670549,0.2,0.019840689912090703,0.2624254033810193,0.2,0.6057736259168396,-0.24438195500925408,0.2,0.3229071067314202,0.3719809886427658,0.2,0,
