samirx20/RADAR/web/public/data/datasets/clean_03.csv
timestamp,actual_q_0,actual_qd_0,actual_current_0,actual_q_1,actual_qd_1,actual_current_1,actual_q_2,actual_qd_2,actual_current_2,actual_q_3,actual_qd_3,actual_current_3,actual_q_4,actual_qd_4,actual_current_4,actual_q_5,actual_qd_5,actual_current_5,protective_stop,fault_code
0.0,0.0016076546166087127,0.33156346762528605,0.2,-0.8983643210127129,-0.10356206098616205,0.2,-1.4020149959328974,0.6991278171750714,0.2,-0.09921600454221405,0.35082787066553417,0.2,0.5980596362347038,0.20007785654775623,0.2,-0.0015477817157690523,0.7388170455937657,0.2,0,
0.008002133902373967,0.004260162357611001,0.41935778579459826,0.2,-0.8991928175006022,0.338493318546719,0.2,-1.3964219733954968,0.3782816923924015,0.2,-0.09640938157688977,0.16285404334883974,0.2,0.5996602590870859,0.5632339661726521,0.2,0.004362754648981074,0.2802565443357036,0.2,0,
0.016004267804747934,0.008317379189322285,0.39675331479731757,0.2,-0.8929484279159654,0.6492732215669372,0.2,-1.395962488854619,0.11573235278057592,0.2,-0.09661033984863261,-0.4405813004469839,0.2,0.6070713796934663,0.6246142170743679,0.2,0.0029363229936022043,0.06556217893351358,0.2,0,
0.0240064017071219,0.010608215394368082,0.533497199653957,0.2,-0.8888044459555312,0.43556645627437773,0.2,-1.3945702557510076,0.5437554822248641,0.2,-0.10345868238404152,-0.05388583686445365,0.2,0.6096540865602758,0.08275542377052941,0.2,0.005411749511917291,0.3739146115907091,0.2,0,
0.03200853560949587,0.016853334383785598,0.5589710285727809,0.2,-0.8859793646155754,0.6011935758337902,0.2,-1.387262401139021,0.39614510246636925,0.2,-0.09747251323846387,0.24819714445029928,0.2,0.6083954664737947,0.1198203521266053,0.2,0.00891895677905355,0.1358213674276744,0.2,0,
0.04001066951186984,0.019551751851532576,0.4641848876339792,0.2,-0.8791853487421906,0.7287877371420434,0.2,-1.3882319341115457,0.1628278941588207,0.2,-0.09948752807283673,-0.24434914123475007,0.2,0.6115712121943014,0.20003874286367296,0.2,0.007584891390760081,0.27676716760811276,0.2,0,
0.0480128034142438,0.024280292585929265,0.5757254452976356,0.2,-0.8743187608213027,0.3273611423121464,0.2,-1.38465715483248,0.5911979538799073,0.2,-0.10138209949821987,-0.05263924239224272,0.2,0.6115960863596135,0.028899550416919273,0.2,0.013347231460783354,0.2684407801754511,0.2,0,
0.05601493731661777,0.028763358976294746,0.3489090718268148,0.2,-0.8739475704651962,0.3911255583793627,0.2,-1.3787727668494671,0.5987433058907143,0.2,-0.10032975595111261,-0.08840980014552559,0.2,0.6120336050009721,0.18921263470759314,0.2,0.011879943873567299,-0.04254026757480452,0.2,0,
0.06401707121899174,0.029862837735158302,0.2521922110972298,0.2,-0.8680607518872329,0.5454309329674528,0.2,-1.3750772619382285,0.3235722559055826,0.2,-0.10279665630054828,-0.02368421891397847,0.2,0.614623488514935,0.2862514631694485,0.2,0.012666587179586481,0.22000895777028176,0.2,0,
0.0720192051213657,0.03279843435385042,0.6137466624499289,0.2,-0.865220675537717,0.42462302221962095,0.2,-1.3735956107549778,0.2563058884991476,0.2,-0.10070870345373627,0.016497187809664388,0.2,0.6166136284116833,0.3541206677318068,0.2,0.015400087197891807,0.4076384127693583,0.2,0,
0.08002133902373967,0.039682784334357166,0.7680555215288224,0.2,-0.8612667835317189,0.6572476508557856,0.2,-1.3709763677222422,0.5617284720361576,0.2,-0.10253270129559365,0.05004618567623631,0.2,0.6202894191986439,0.4635192890671755,0.2,0.019188801783896214,0.33719322403069824,0.2,0,
0.08802347292611364,0.04508732269831158,0.4619911937660346,0.2,-0.8547047131240244,0.4605409879697084,0.2,-1.3646079552023993,0.5292038179768865,0.2,-0.09990796448291649,0.04104808510364041,0.2,0.6240299370367581,0.32309001245377916,0.2,0.02079517878238298,0.3400534690258846,0.2,0,
0.0960256068284876,0.04707464343461372,0.4341218735991197,0.2,-0.8538981277242036,0.2895697966513733,0.2,-1.362509106634612,0.06877946594599504,0.2,-0.1018759319339354,-0.0702964201692224,0.2,0.6254588593979044,0.09152815599694497,0.2,0.024629657288310368,0.215734407497841,0.2,0,
0.10402774073086157,0.052033272675897496,0.6342384003684846,0.2,-0.8500715963776024,0.6657638845675856,0.2,-1.3635074837472634,0.34329572638037986,0.2,-0.10103270720562404,-0.27923321182645855,0.2,0.6254943875327093,0.021943478329206068,0.2,0.024246929302348435,0.17473727502032887,0.2,0,
0.11202987463323553,0.05722245784050947,0.41783120251385986,0.2,-0.8432459055711222,0.7868829602655988,0.2,-1.357016375012526,0.3965596746346861,0.2,-0.10634366332315874,-0.11215021622080525,0.2,0.6258099550511717,0.2963159466150972,0.2,0.02742545368863563,0.12863750645750116,0.2,0,
0.12003200853560951,0.058718571916119254,0.41575945674811926,0.2,-0.8374814690133529,0.2778777414495573,0.2,-1.3571625289531084,0.11557553712888968,0.2,-0.10282711066515693,0.07667521584434935,0.2,0.6302354426785508,0.46649062701752814,0.2,0.026305129405668454,0.1656227378847297,0.2,0,
0.12803414243798347,0.06387460914847938,0.4132233460708901,0.2,-0.8387998617079293,0.41206094968191526,0.2,-1.3551671664184637,0.2896729704511686,0.2,-0.10511685986964915,-0.11863560409137909,0.2,0.6332738050834521,0.22084022460485547,0.2,0.030075417494791305,0.5096233755629981,0.2,0,
0.13603627634035745,0.0653301454532535,0.5873075992726198,0.2,-0.8308884938184422,0.6675112126972512,0.2,-1.3525277614258897,0.4281143075402366,0.2,-0.104725280330619,0.09980900760423253,0.2,0.6337688862722285,0.28321202210788293,0.2,0.03445910341467642,0.2667162063333833,0.2,0,
0.1440384102427314,0.0732715307368413,0.7103477718007778,0.2,-0.8281196823047733,0.5194549761764963,0.2,-1.34831733749782,0.6018210727454371,0.2,-0.10351991574798143,-0.0538209207748639,0.2,0.6378051974371782,0.12563737684744697,0.2,0.03434287679612544,0.183331350721841,0.2,0,
0.15204054414510537,0.07669570980206594,0.35819418452307306,0.2,-0.8225772141996183,0.5986239717738275,0.2,-1.3428986242619627,0.3210010061929225,0.2,-0.10558641506301682,0.19649175744712588,0.2,0.6357790843017876,0.1541200024790801,0.2,0.03739240502622588,0.19724981193548718,0.2,0,
0.16004267804747935,0.07900263768921047,0.26780967741293554,0.2,-0.818541698756392,0.3959015097214427,0.2,-1.3431813213987331,0.2317896076263204,0.2,-0.10037604762882742,-0.36665899436100646,0.2,0.6402711174768435,0.31703386255248905,0.2,0.03749887378709323,0.15414616913704463,0.2,0,
0.1680448119498533,0.08098066464067291,0.4837084593324074,0.2,-0.8162427900440752,0.521982810125228,0.2,-1.3391899905399416,0.42486579184035367,0.2,-0.11145295897279292,-0.24798891727170844,0.2,0.6408516261026275,0.2548494399820453,0.2,0.03985874373241859,0.5478977471352429,0.2,0,
0.17604694585222727,0.08674197303852899,0.714131889025354,0.2,-0.8101899737943884,0.434248874885676,0.2,-1.3363834687292875,0.473628280759239,0.2,-0.10434387030517475,0.26629656645095306,0.2,0.6443487085165562,0.17382063358661187,0.2,0.04626523774125712,0.28496563840034894,0.2,0,
0.18404907975460125,0.09240677486507858,0.5719840428972918,0.2,-0.8092948080459044,0.4670942912264123,0.2,-1.3316119380477938,0.5303850629532619,0.2,-0.10719221390957767,-0.24232179017000255,0.2,0.6436327562400133,0.13361499543937394,0.2,0.044418193946824176,-0.20770779515265433,0.2,0,
0.1920512136569752,0.09589371772488565,0.4352917695446996,0.2,-0.8027164651347658,0.4916798237908637,0.2,-1.3278973077220353,0.33377176430569866,0.2,-0.10822101894789479,-0.3148494922909353,0.2,0.6464865484435862,0.43876177507898295,0.2,0.04294191301881465,0.19095834995496927,0.2,0,
0.20005334755934917,0.09937144317779377,0.5255463396563178,0.2,-0.8014279308652505,0.31392221185860825,0.2,-1.3262715898189026,0.5578695114533544,0.2,-0.11222980578623264,-0.06988204492828706,0.2,0.650652944641277,0.4871782352113274,0.2,0.047473527546103685,0.27317122137083094,0.2,0,
0.20805548146172315,0.10430245915938674,0.44151814964367,0.2,-0.7976937097450281,0.4710997896985106,0.2,-1.3189713955387816,0.4414550297840991,0.2,-0.10933913166674739,0.043635249237496294,0.2,0.6542814002069675,0.29624412996371446,0.2,0.047312652560747945,0.11015390394911347,0.2,0,
0.21605761536409712,0.10643573357209249,0.5080811864381805,0.2,-0.7938903342300744,0.4276155000369486,0.2,-1.319208309342357,0.17509105285080928,0.2,-0.1115316417984327,0.006654030846057514,0.2,0.6553928507206964,0.062049624519444624,0.2,0.0492359900092895,0.487656188530707,0.2,0,
0.22405974926647107,0.11243175814239763,0.6294209755228876,0.2,-0.7908518617444369,0.6188887164721365,0.2,-1.3161699386931687,0.26612243337996444,0.2,-0.10923266717321047,0.01275590765992176,0.2,0.6552741941992786,0.16480065219793422,0.2,0.05511515157723926,0.36606896671272615,0.2,0,
0.23206188316884505,0.11650646918045869,0.17550587826355504,0.2,-0.7839881147665202,0.7507325267468931,0.2,-1.3149503504082776,0.44714548654786745,0.2,-0.11132754727587395,-0.4657861225711261,0.2,0.6580296611558634,0.3005176383857541,0.2,0.05509309347669312,0.08247558095874187,0.2,0,
0.24006401707121902,0.11523985219461451,0.44732719888527017,0.2,-0.7788401413164866,0.4319187630593413,0.2,-1.3090156109084028,0.14329033894228127,0.2,-0.11668524513434848,-0.0937507087295595,0.2,0.6600824764134506,0.392183236271694,0.2,0.05643476087257913,0.1454288469501788,0.2,0,
0.24806615097359297,0.12366370436262301,0.8028914814325423,0.2,-0.7770774145575707,0.5089577313094686,0.2,-1.312657704985201,0.11889194318598362,0.2,-0.1128275586155469,-0.03449451737308224,0.2,0.6643045929362105,0.33186175259225514,0.2,0.05741995502789598,0.23693891805330297,0.2,0,
0.25606828487596694,0.12808611589753519,0.31990033268254353,0.2,-0.7706968176155351,0.2811322544797393,0.2,-1.307113339817427,0.5989317058450183,0.2,-0.1172371574123178,-0.1528552867847725,0.2,0.6653922644549267,0.16545408092524805,0.2,0.060225783561431975,0.3399863066822291,0.2,0,
0.2640704187783409,0.1287821096855437,-0.014155189063903492,0.2,-0.7725792984858949,0.02820481688135118,0.2,-1.3030747976916808,0.4890863381978028,0.2,-0.11527324320410326,-0.28476644060169715,0.2,0.6669518582310144,0.042169159701246905,0.2,0.06285973593481164,0.34347100320440954,0.2,0,
0.2720725526807149,0.12785963287251273,0.5795642240236966,0.2,-0.7702455405454335,0.6865218369650344,0.2,-1.2992879584062622,0.39196397753951673,0.2,-0.12179342046194495,-0.3406168697426158,0.2,0.6660669710101467,0.030954284441123137,0.2,0.06572131961270253,0.18841747848624082,0.2,0,
0.28007468658308887,0.13805513726992286,0.6841589309581984,0.2,-0.7615949490944544,0.7736667270726166,0.2,-1.2968033740510485,0.5626268045136606,0.2,-0.12072311311998511,0.21785658308553882,0.2,0.6674471267820724,0.3308741655983702,0.2,0.0658744155905915,-0.10318763883861592,0.2,0,
0.2880768204854628,0.1388061757678439,0.47028312553610946,0.2,-0.7578668729122716,0.576776500684252,0.2,-1.2902859295340436,0.2737281254101137,0.2,-0.11830771513257633,-0.1595550808391067,0.2,0.6713609576597206,0.2812877634673916,0.2,0.06407031739128467,0.012366678235274133,0.2,0,
0.29607895438783677,0.1455796672785006,0.8888022860028648,0.2,-0.7523665250835063,0.5644446988499197,0.2,-1.2924237240444867,-0.13613734043256553,0.2,-0.12327599441341082,-0.212697993816356,0.2,0.6719477309975507,0.12245693706876976,0.2,0.06607228244235588,0.2501931851512963,0.2,0,
0.30408108829021074,0.15302701234388974,0.5835611300485534,0.2,-0.7488357577306729,0.48467345459091843,0.2,-1.2924641269809647,0.1667854726082746,0.2,-0.12171088303363803,0.07304583463780666,0.2,0.6733202686528209,0.17016395764450631,0.2,0.06807340835370541,0.39449920158573204,0.2,0,
0.3120832221925847,0.15491664535927746,0.1899167915332938,0.2,-0.7446117498100516,0.3409984738515989,0.2,-1.2897551564827543,0.5032214745277902,0.2,-0.12210726105920591,0.168259872858228,0.2,0.6746703543198628,0.4084625263250513,0.2,0.0723842696677276,0.03247929326952604,0.2,0,
0.3200853560949587,0.15606568100842244,0.4632903346076626,0.2,-0.7433797821490473,0.04075721622869011,0.2,-1.28441258338852,0.6233769405305511,0.2,-0.11901872506790638,-0.053243888137178945,0.2,0.6798556690740217,0.3248990992946732,0.2,0.06859307704601783,0.00725100731433035,0.2,0,
0.32808748999733267,0.16232929071300006,0.42274840524350943,0.2,-0.7439596343503926,0.5493824485335377,0.2,-1.2797811254342655,0.6002768071832892,0.2,-0.12295916326940078,-0.6158515948039385,0.2,0.6798687399085775,0.20268603534484564,0.2,0.07250028578475688,0.396057515853661,0.2,0,
0.3360896238997066,0.1628296554923186,0.3967001952398883,0.2,-0.7345896629725107,0.7882714497500221,0.2,-1.2748081544735874,0.25313801754515974,0.2,-0.1288723505847694,-0.14297068732105084,0.2,0.6830986456395393,0.26744351384645065,0.2,0.0749299972996764,0.23608826643719583,0.2,0,
0.34409175780208057,0.16867649383683828,0.48103534964870526,0.2,-0.7313472911543922,0.3759199689590195,0.2,-1.275730917153543,0.1513555320699217,0.2,-0.1252466942665376,0.15141038488263556,0.2,0.6841478361301208,-0.04941332784282049,0.2,0.07627769804775202,0.08707332034389552,0.2,0,
0.35209389170445454,0.17052622108669788,0.38919392719042983,0.2,-0.7285749434691664,0.3427491415921302,0.2,-1.2723864659604687,0.471290078506853,0.2,-0.12644978442664723,-0.4166388091628951,0.2,0.6823080323940541,0.34317604674035523,0.2,0.07632317042517874,0.15799279832180627,0.2,0,
0.3600960256068285,0.17490359667188515,0.34028602297223737,0.2,-0.7258633048889181,0.3671759695642318,0.2,-1.2681902758974333,0.3737006868852616,0.2,-0.1319129152131439,-0.36611121318286427,0.2,0.6896386528779664,0.5696628362856643,0.2,0.07880558282090092,0.1476079967841805,0.2,0,
0.3680981595092025,0.17597079745425367,0.3080715035538428,0.2,-0.7227001279561387,0.47503807507166124,0.2,-1.2664072549703045,0.46029526542952504,0.2,-0.13230756383757306,0.02596248228146046,0.2,0.6914226377746248,0.03571611766838706,0.2,0.07868489837372562,0.30124382163462976,0.2,0,
0.37610029341157647,0.17983274072874664,0.6406365378880188,0.2,-0.7182626956877716,0.5773839357929924,0.2,-1.2608255516505609,0.5455480602517271,0.2,-0.13149751549664054,-0.020695514714558563,0.2,0.6902101107606606,0.04316120924073574,0.2,0.08362548396705499,0.03259475708378666,0.2,0,
0.3841024273139504,0.18622098206046198,0.5133027061964418,0.2,-0.7134619849834508,0.5534975975828373,0.2,-1.2576784860062769,0.2837889610017297,0.2,-0.132638692073006,-0.03252981888922715,0.2,0.6921132171224765,0.19240794868626704,0.2,0.07920641448706621,-0.10735112441317886,0.2,0,
0.39210456121632437,0.1880455840278897,0.3571042790286409,0.2,-0.7094067341264462,0.556452107514295,0.2,-1.2562849282745332,0.07266108496908896,0.2,-0.13201799259886818,-0.33649142319370007,0.2,0.6932886379396409,0.12901270020704292,0.2,0.08190786597644413,0.3565942703156414,0.2,0,
0.40010669511869834,0.19193465052492023,0.4105246952943384,0.2,-0.7045587512632221,0.2938370301603238,0.2,-1.2565159086467714,0.4500070627461161,0.2,-0.1380225548441052,-0.37725297539461905,0.2,0.6941774203257892,0.3603211694052644,0.2,0.08491192281211647,0.3794740224735485,0.2,0,
0.4081088290210723,0.19461397915259912,0.6606069304800344,0.2,-0.704705341643881,0.16199351627902564,0.2,-1.2490848152705953,0.3900063530033887,0.2,-0.13805404020518208,-0.1407754844499412,0.2,0.6990537766501251,0.31094163331318175,0.2,0.0879794503360209,0.27204714136186064,0.2,0,
0.4161109629234463,0.20250436141260078,0.5281016491273244,0.2,-0.7019668550027577,0.5927287059585631,0.2,-1.2502758069987172,0.08601423905019168,0.2,-0.14027496259530425,-0.1446819632589507,0.2,0.6991524864588001,0.09826511083334266,0.2,0.08926467707390624,-0.1552826167654335,0.2,0,
0.42411309682582027,0.2030636055386363,0.11268270574222097,0.2,-0.695221682348544,0.532832570791078,0.2,-1.2477085874457923,0.3403155850306844,0.2,-0.1403689516173253,-0.17685776625000169,0.2,0.7006260184234586,0.33912533675682643,0.2,0.08549492846777397,-0.08692366290789268,0.2,0,
0.43211523072819424,0.20430728470447632,0.4556731938902304,0.2,-0.6934415338701004,0.20348600766714048,0.2,-1.2448307576382263,0.4442717188344186,0.2,-0.14310468685530428,-0.2826079854697065,0.2,0.7045784918469093,0.27264417198191726,0.2,0.08787389846737996,0.17036477105758768,0.2,0,
0.44011736463056816,0.21035437664088,0.6986007767093276,0.2,-0.6919659062258697,0.3745668286239748,0.2,-1.2406002399444416,0.37811819863593776,0.2,-0.1448906793848406,0.05125174280695699,0.2,0.7049883251751693,0.21975228416071246,0.2,0.08822076480469537,0.10957387078181727,0.2,0,
0.44811949853294214,0.21548489713182556,0.31625355955663437,0.2,-0.6874484646121168,0.5007627823542734,0.2,-1.2387808664600513,0.19871279136622622,0.2,-0.14228465897039297,0.0041771259715918385,0.2,0.7080945283934807,0.18648186789826937,0.2,0.08962708039988904,0.28675908080719703,0.2,0,
0.4561216324353161,0.21541443359378615,0.4402389625810313,0.2,-0.6839537017082014,0.5191990854645917,0.2,-1.237420835282582,0.466768644128715,0.2,-0.14482384536929513,-0.4329856417464254,0.2,0.7079720350615416,0.02923169052883312,0.2,0.09280891009761053,0.18210095857302405,0.2,0,
0.4641237663376901,0.22252872053312206,0.5831373419544674,0.2,-0.6791412792446834,0.4950740869163403,0.2,-1.2313125681539918,0.16962013913064677,0.2,-0.14921242923833578,-0.5047233879543096,0.2,0.7085622354419421,0.27257193774589406,0.2,0.09254069573705742,-0.04755335927542851,0.2,0,
0.47212590024006407,0.22474463106505763,0.27885011462394466,0.2,-0.6760325163175399,0.22767358207322758,0.2,-1.2347069130564916,0.21007047047363892,0.2,-0.15289941957656408,-0.20820627676268985,0.2,0.7123331860654759,0.273427224725932,0.2,0.09204805634920367,0.08856260750753855,0.2,0,
0.48012803414243804,0.22699032236710517,0.4051298955622274,0.2,-0.6754985019315117,0.40230818863156576,0.2,-1.2279514406264136,0.5729357040519661,0.2,-0.1525437296665388,-0.05132190102830926,0.2,0.712937071037557,0.07477989399519436,0.2,0.09395769745717804,0.033444562219702746,0.2,0,
0.48813016804481196,0.23122670939405326,0.3670750331243519,0.2,-0.6695955852994349,0.6055340367571923,0.2,-1.2255399417916601,0.3123250863498461,0.2,-0.15372056999301703,-0.2828227273038962,0.2,0.713529664369399,0.36008562753239715,0.2,0.09258316934471891,0.15858034618596636,0.2,0,
0.49613230194718594,0.2328635228970948,0.2774587812999687,0.2,-0.6658099573433967,0.46341741602963504,0.2,-1.222954239244816,0.023757683584313405,0.2,-0.15706889330340115,-0.36947829249536596,0.2,0.7186984410780753,0.256545661675614,0.2,0.0964949829961535,0.06619642143597132,0.2,0,
0.50413443584956,0.23566604989485276,0.35754163533260364,0.2,-0.6621809066429607,0.31405732185781077,0.2,-1.2251598188543111,0.14012369275309688,0.2,-0.1596322226729429,-0.3494327524561878,0.2,0.7176343949562088,0.270642210682584,0.2,0.09364231208769445,0.07956218645565043,0.2,0,
0.5121365697519339,0.23858418906241646,0.4736525090824964,0.2,-0.6607850401936717,0.25100870343815196,0.2,-1.2207122601607665,0.36031658797729127,0.2,-0.16265981734270016,-0.0785270585829008,0.2,0.7230287164489967,0.351962683877792,0.2,0.0977679779794439,0.27714996276392756,0.2,0,
0.5201387036543078,0.2432444900401727,0.7434482111237823,0.2,-0.6581647673879503,0.38883326903339094,0.2,-1.2193947534466745,0.5288006577061494,0.2,-0.1608886556102693,0.11030732660675946,0.2,0.7232657978982535,0.05457497788295684,0.2,0.0980767114919173,0.21096941575466255,0.2,0,
0.5281408375566818,0.250479360440397,0.29380228561039395,0.2,-0.6545637078891374,0.6090140902869842,0.2,-1.2122514496374681,0.4562585762140775,0.2,-0.160894900116992,-0.45318637734931105,0.2,0.723901916095124,0.17042470403074578,0.2,0.10114348863151851,0.048799852503060744,0.2,0,
0.5361429714590558,0.247945326609939,0.22294170343158462,0.2,-0.6484205419433585,0.44213900053263755,0.2,-1.2120946162272492,0.017021797146507534,0.2,-0.16813963764785828,-0.3631186710940492,0.2,0.7259925931627454,0.281159650705895,0.2,0.09885750913196627,-0.14861675700864313,0.2,0,
0.5441451053614298,0.25404642769530233,0.6252895404074248,0.2,-0.6474894838806152,-0.0031136280487370493,0.2,-1.211979100883124,0.2496937089077611,0.2,-0.1667047988544968,0.1421904937370412,0.2,0.7284004705064183,0.35902442559632847,0.2,0.09876562051938022,0.08595871442191282,0.2,0,
0.5521472392638037,0.2579499592564578,0.22578018627641278,0.2,-0.6484703599921383,0.4929773322307762,0.2,-1.208099516884725,0.3515294636914218,0.2,-0.16586458974806562,-0.2373795123911549,0.2,0.7317369839722867,-0.048860972418927895,0.2,0.10023284856271687,-0.07109151630197048,0.2,0,
0.5601493731661777,0.25765891067572494,0.3279625674839671,0.2,-0.6396018465649228,0.6306832127111264,0.2,-1.2063546294640612,0.12217307243465869,0.2,-0.17050287105275527,-0.3280728020362885,0.2,0.7276186949477155,-0.16583315447336183,0.2,0.09762815625854869,0.0811635010644707,0.2,0,
0.5681515070685517,0.2631973603362013,0.32866389478488495,0.2,-0.6383794285887603,0.2912273356431225,0.2,-1.2061447477257705,0.4392704947966397,0.2,-0.17111375458064623,-0.3504551120293697,0.2,0.7290836535007129,0.22932899953620467,0.2,0.1015314645797484,0.030367694922967155,0.2,0,
0.5761536409709256,0.2629175329922831,0.2545617386717561,0.2,-0.6349422091946328,0.48779104656179045,0.2,-1.199326301547315,0.5075453064028596,0.2,-0.1761101528452252,-0.2982721875068837,0.2,0.7312879589402947,0.45654541809884985,0.2,0.09811403937731616,-0.10640479764043985,0.2,0,
0.5841557748732996,0.2672703481549494,0.7011604873167383,0.2,-0.6305747718437716,0.37702244035480587,0.2,-1.1980240228233248,0.07449100134296338,0.2,-0.17588610958075637,-0.2106853541224106,0.2,0.7363883801902945,0.33427531984107917,0.2,0.09982898781750137,0.1437476786616907,0.2,0,
0.5921579087756735,0.2741361007893509,0.6744599697157821,0.2,-0.628909850148956,0.16804667461636086,0.2,-1.1981344455258276,0.1645955669416499,0.2,-0.17948111851118376,-0.42885093040075095,0.2,0.736636364057752,0.29478789841363984,0.2,0.10041400223590322,-0.023984896404090177,0.2,0,
0.6001600426780476,0.2780617076704019,0.05411826706944872,0.2,-0.6278860250499099,0.5000243598450582,0.2,-1.1953904937522584,0.2647160107165508,0.2,-0.1827477244671684,-0.0450377793532776,0.2,0.7411049865649127,0.2203948027618835,0.2,0.09944522947503592,0.04253449792948876,0.2,0,
0.6081621765804215,0.2750019930624621,-0.12105555186598532,0.2,-0.620909460391435,0.4357570714497577,0.2,-1.1938989893543628,0.3727017413039796,0.2,-0.1802017229808362,-0.1619793707379573,0.2,0.7401626809019421,-0.1292982973588805,0.2,0.10109455420277504,-0.016401027193297182,0.2,0,
0.6161643104827954,0.2761248188405461,0.4354852579095611,0.2,-0.6209139119067137,0.19138091628366494,0.2,-1.1894272658913947,0.28020360094817287,0.2,-0.1853393943989757,-0.2957445015514849,0.2,0.7390362138071707,0.05135139588523241,0.2,0.09918281303994317,-0.010981555044599876,0.2,0,
0.6241664443851694,0.28196975718901507,0.8184742589544651,0.2,-0.6178473657308964,0.4739979961937771,0.2,-1.189415731739192,0.39790291928321064,0.2,-0.18493363500565996,-0.29545466225984474,0.2,0.7409843032361059,0.29691766963882427,0.2,0.10091884932206144,-0.20613834370263734,0.2,0,
0.6321685782875434,0.28922040698381757,0.4011825044762905,0.2,-0.6133299439676133,0.3939348701881215,0.2,-1.1830608191828633,0.4229299116632057,0.2,-0.19006666899513322,-0.36201382312507285,0.2,0.7437868965213918,0.34008998223195724,0.2,0.09588459954070097,-0.09407572572433467,0.2,0,
0.6401707121899174,0.2883886772606357,0.35629863813264884,0.2,-0.6115444078078864,0.1819246518178011,0.2,-1.1826488531525807,0.07597879133187935,0.2,-0.19072585617566112,-0.2474183982475557,0.2,0.7464257429518172,0.14299134483490572,0.2,0.09941363771047208,0.204948973520077,0.2,0,
0.6481728460922913,0.29492118519393995,0.193306279688589,0.2,-0.6104191495385285,0.31661075406145406,0.2,-1.1818451585215533,0.37558193466716294,0.2,-0.1940253633670941,-0.4159444105317489,0.2,0.7460747580387503,-0.03253680741902715,0.2,0.0991637831170222,-0.19788480064563113,0.2,0,
0.6561749799946653,0.29148157773565314,0.1395190013968109,0.2,-0.6064786357429032,0.23101041254043608,0.2,-1.1766395421979061,0.30296926118417167,0.2,-0.1973809667441691,-0.29403023675753265,0.2,0.7459051540331127,0.18569006072808453,0.2,0.09624748090014199,-0.10450232080852755,0.2,0,
0.6641771138970393,0.2971534892162889,0.7256365766649953,0.2,-0.6067229829378815,0.44859436547987214,0.2,-1.1769976503426065,-0.10128238675166656,0.2,-0.19872984715521463,-0.17916824585016353,0.2,0.7490457990103997,0.30905157832433056,0.2,0.09749174598408576,0.16153000853934024,0.2,0,
0.6721792477994132,0.30309176296229307,0.18359150791130707,0.2,-0.5993011258952252,0.5772161792676269,0.2,-1.1782600603859328,0.2700715694238659,0.2,-0.20024765867777172,-0.46379710267294494,0.2,0.750849979286302,0.32855892808607984,0.2,0.09883196103677143,-0.07246170811264513,0.2,0,
0.6801813817017872,0.30009095334286984,0.1299532070240597,0.2,-0.5974875240695995,0.3223486184421795,0.2,-1.1726765052318247,0.16849979175904972,0.2,-0.20615060079798175,-0.25154050518545396,0.2,0.754302741859777,0.18528449792692275,0.2,0.09633235865428344,0.016848099518276295,0.2,0,
0.6881835156041611,0.305171014274678,0.3223426662207485,0.2,-0.5941435480001503,0.2342410957348398,0.2,-1.175564063717788,0.14342194067309966,0.2,-0.204272306760739,-0.014515363645960233,0.2,0.7538145312531328,-0.1376159585270917,0.2,0.09910153062906385,-0.04397648246039915,0.2,0,
0.6961856495065352,0.3052484360024018,0.15198073541734455,0.2,-0.593739666537842,0.16915774653260274,0.2,-1.170381754181055,0.34221689450998627,0.2,-0.20638284661631712,-0.45711331894615626,0.2,0.7521008865233435,-0.11746385394274111,0.2,0.09562873493491705,-0.22033034317463923,0.2,0,
0.7041877834089091,0.30760270604135553,0.4710727057939748,0.2,-0.5914370240556287,0.2955365368360746,0.2,-1.1700885934056282,0.15995000651573832,0.2,-0.2115861198638775,-0.4468332297954455,0.2,0.751935109590049,0.300073316226418,0.2,0.09557624513826962,0.023625359896453126,0.2,0,
0.7121899173112831,0.3127855992951054,0.2728963774625767,0.2,-0.5890110819484649,0.48810351082533704,0.2,-1.1678225540768032,0.22383330360081777,0.2,-0.21353217829304424,-0.14651569285394592,0.2,0.7569020595829662,0.2383052675806463,0.2,0.0960067406932603,0.2086233715792871,0.2,0,
0.720192051213657,0.31196904808075676,0.4875482596745674,0.2,-0.5836273678824233,0.3365529056371455,0.2,-1.1665072605480151,0.3901213778419038,0.2,-0.21393037094954062,-0.3080779090526842,0.2,0.7557479938713393,-0.21627744625490192,0.2,0.09891421908353822,0.02912719806304892,0.2,0,
0.728194185116031,0.3205863714498985,0.3948530299323592,0.2,-0.5836262354582705,0.18421080694570185,0.2,-1.1615806120313328,0.3686280960881472,0.2,-0.2184614248378872,-0.13123132222503733,0.2,0.7534416204428878,0.38369377778632585,0.2,0.09647277586226909,-0.2722252858616504,0.2,0,
0.736196319018405,0.3182866965596745,-0.16198330146948575,0.2,-0.5806799949712921,0.41637741916603077,0.2,-1.1606092110106048,0.4419206525792252,0.2,-0.21603007210514122,-0.17926240903673799,0.2,0.7618870943159205,0.2534525607365487,0.2,0.09455861450975181,0.011292157571395588,0.2,0,
0.7441984529207789,0.3179946386263867,0.37843634919602215,0.2,-0.576964196751614,0.4150574294844306,0.2,-1.1545098815900652,0.14159192129721554,0.2,-0.221329623382475,-0.43219139535238815,0.2,0.7574968614146725,-0.14259120787252916,0.2,0.09665345038341142,0.04019719412930948,0.2,0,
0.7522005868231529,0.32434167814681086,0.4360408086540521,0.2,-0.5740390760995412,0.1502873107783395,0.2,-1.1583437402698493,-0.23810036947578828,0.2,-0.22294513443077943,-0.463234918709669,0.2,0.75960563498996,0.3704978133193537,0.2,0.09520176961582076,-0.32824142067689516,0.2,0,
0.7602027207255269,0.32497129156485155,0.4599155419056783,0.2,-0.5745595997791606,0.4087801036588498,0.2,-1.1583194875016778,0.11948879735691753,0.2,-0.2287413820818297,-0.4188562456659082,0.2,0.7634248264277822,0.4036966910146017,0.2,0.09140158765258109,-0.17555435220960314,0.2,0,
0.7682048546279008,0.3317003268173017,0.5056277470930314,0.2,-0.5674985944409996,0.38280732535979356,0.2,-1.1564319195121386,0.3827044938858881,0.2,-0.22964683436143396,-0.28430404224106043,0.2,0.7660647820461937,0.23548723265694876,0.2,0.09239289998046711,0.12786928027441224,0.2,0,
0.7762069885302748,0.33306133551834005,0.3415519435898545,0.2,-0.5684346825734039,-0.04592095188857975,0.2,-1.1521962155995036,0.3091320859122948,0.2,-0.23329024675768667,-0.09640963476742481,0.2,0.7671926221502934,-0.17272785274055624,0.2,0.09344749613697169,0.17854861774734346,0.2,0,
0.7842091224326487,0.3371651579147394,0.3105809675227576,0.2,-0.5682333296712169,0.14200627568133894,0.2,-1.151485806137542,0.3030972464077436,0.2,-0.23118938851771276,-0.25910796035985906,0.2,0.7633011364023448,0.08832004260012072,0.2,0.0952496778644246,-0.25949481047716355,0.2,0,
0.7922112563350228,0.3380306309987042,0.03442336606403196,0.2,-0.5661625821625025,0.5965039138012412,0.2,-1.1473466596569797,0.2516258312956904,0.2,-0.23743597412344442,-0.5092329660346065,0.2,0.7686057428318953,0.11996926645875539,0.2,0.08929557916933707,-0.23917225598230235,0.2,0,
0.8002133902373967,0.3377159317717639,0.058328895040291734,0.2,-0.558689267050397,0.23545361429127415,0.2,-1.1474597928368109,0.021859197631396432,0.2,-0.23933711597426646,-0.37936076975597294,0.2,0.7652206446656848,0.0765687866974285,0.2,0.09142292176870777,-0.028937916854467928,0.2,0,
0.8082155241397707,0.33896389331934884,0.48622024442328615,0.2,-0.5623953243338421,0.04913966118488822,0.2,-1.1469969124948773,0.3267331812779606,0.2,-0.24350574643953998,-0.3106010799316834,0.2,0.7698308434190542,0.39849199242638494,0.2,0.08883257249966559,-0.4120165404629247,0.2,0,
0.8162176580421446,0.3454954556825365,0.3391662239903212,0.2,-0.5579030324714388,0.44526018490326225,0.2,-1.1422320619363635,0.3461019551287553,0.2,-0.2443067332531734,0.19894468914333044,0.2,0.771596516544507,0.15397630109850735,0.2,0.08483065712130097,0.07233763246698721,0.2,0,
0.8242197919445186,0.344390552903194,0.10108473615122113,0.2,-0.5552711613753899,0.15803032112219478,0.2,-1.1414592812128173,0.18675743302278003,0.2,-0.2403226314132467,-0.3263397983235949,0.2,0.7722944642366303,0.14123716750066156,0.2,0.08998997461913738,-0.42682516083986877,0.2,0,
0.8322219258468926,0.347112811460956,0.17704861247369238,0.2,-0.5553745473334837,0.2628066613496044,0.2,-1.139243943007999,0.16117926626119106,0.2,-0.24952817002635092,-0.6741001413369928,0.2,0.7738563112245176,-0.07887449438889055,0.2,0.07800145454786307,-0.33081308065072057,0.2,0,
0.8402240597492665,0.34722333070277306,0.21818846160066158,0.2,-0.5510662547937962,0.5585604093206811,0.2,-1.1388804129526382,-0.08708954657793422,0.2,-0.2511082336746386,-0.3965611272948241,0.2,0.771032472326408,0.22585229437300375,0.2,0.08469696532872585,0.27706985306799514,0.2,0,
0.8482261936516405,0.3506038268465666,0.42757917952851443,0.2,-0.5464375807843528,0.17040538315670622,0.2,-1.140637375753246,0.15839864662198222,0.2,-0.2558731480630681,-0.5549010822120323,0.2,0.7774699479344857,0.3150127371033262,0.2,0.082434572196951,0.081379942725281,0.2,0,
0.8562283275540145,0.3540645975752293,0.27146350144220327,0.2,-0.5483397686632889,0.033778795124041194,0.2,-1.1363460346066865,0.44042296468516096,0.2,-0.2599866509900311,-0.3194502576196606,0.2,0.7760726761200613,-0.2267551192427983,0.2,0.08599904441233035,0.0855718800085595,0.2,0,
0.8642304614563885,0.35494724286964185,0.2376950853200492,0.2,-0.5458971200623681,0.4387497884158556,0.2,-1.1335906083182834,0.36105797612516477,0.2,-0.26098435218498267,-0.24952264117933387,0.2,0.7738418660266009,0.05103644811888658,0.2,0.08380372227708795,-0.4497922893090273,0.2,0,
0.8722325953587624,0.3578677189403501,0.1700013324658356,0.2,-0.5413197720486352,0.22215900417053153,0.2,-1.1305691069886838,0.013877343085125227,0.2,-0.26397901324890044,-0.07542528716599634,0.2,0.7768892592899634,0.34684248647248034,0.2,0.07880236778338591,-0.18486417072686478,0.2,0,
0.8802347292611363,0.3576672641890952,-0.02431900385710742,0.2,-0.5423425759956396,0.17659109466042905,0.2,-1.1333685708289214,0.08147451741212508,0.2,-0.2621911567796386,-0.27984602336370357,0.2,0.7793913458101606,0.11849442629636997,0.2,0.08084589554545811,-0.1622534980011206,0.2,0,
0.8882368631635104,0.35747861487863636,0.010271352860812683,0.2,-0.5384943145340684,0.31000163430104644,0.2,-1.1292655147100898,0.28819527743666196,0.2,-0.2684565496227197,-0.8358859036771172,0.2,0.7787851701107054,-0.02567482897068013,0.2,0.07620631181536798,-0.1203316800541072,0.2,0,
0.8962389970658843,0.3578316058348682,0.5207103337911064,0.2,-0.5373825498468229,0.2169694382031448,0.2,-1.1287574463899348,0.12386575657771792,0.2,-0.2755653312384725,-0.2542349511120874,0.2,0.7789805485466297,0.03548589438760741,0.2,0.0789205886645924,0.02858269040584109,0.2,0,
0.9042411309682583,0.36580998021929406,0.36419958779778866,0.2,-0.5350228035228181,0.1664122049330266,0.2,-1.1272836626048464,0.07599354256372648,0.2,-0.2725243088405131,-0.031049125777064118,0.2,0.7793529444209071,0.11226626537261253,0.2,0.07666363486186144,-0.14717892890712178,0.2,0,
0.9122432648706322,0.36365879923963285,0.08426016422533392,0.2,-0.5347199545678945,0.19395314021516952,0.2,-1.1275415497089152,0.1267375633838691,0.2,-0.2760621172509055,-0.35768928937212824,0.2,0.7807768087925915,0.2517236838773529,0.2,0.07656572580207845,-0.11941044982630503,0.2,0,
0.9202453987730063,0.3671581428468994,0.2645276521119691,0.2,-0.5319195532793753,0.19433251525356743,0.2,-1.1252558615907045,0.29873410995751026,0.2,-0.27824733747046715,-0.29163975919274315,0.2,0.7833805233629447,0.3070026201784301,0.2,0.07475306766464056,-0.4545230582928359,0.2,0,
0.9282475326753802,0.36789124167342435,0.0744750208053549,0.2,-0.5316106343238374,-0.076441546994023,0.2,-1.122761803949595,0.1507465380180817,0.2,-0.2807283533979894,-0.5443526095753499,0.2,0.7856888507154464,-0.01648656089209971,0.2,0.06929335686939307,-0.24774142172735453,0.2,0,
0.9362496665777541,0.3683497431797851,0.17349915827541765,0.2,-0.5331426180312797,0.004481129626268676,0.2,-1.1228439169824151,-0.010174216406241832,0.2,-0.28695697922367275,-0.587320308841302,0.2,0.7831167383886711,0.06852984466212964,0.2,0.07078920491700288,0.05663707875658373,0.2,0,
0.9442518004801281,0.37066722820583103,0.3741795628488635,0.2,-0.5315389362498171,0.14987769158582298,0.2,-1.1229245914120949,0.2428097738905316,0.2,-0.29012547833945024,-0.3253174282142508,0.2,0.7867853282300404,0.18678478360940887,0.2,0.07019955012949841,0.0777675686271153,0.2,0,
0.952253934382502,0.3743366161853669,-0.0665284126428814,0.2,-0.5307445749659065,0.3722076669184782,0.2,-1.1189589606001666,0.09127689705805409,0.2,-0.29216205807510076,-0.20494729445911727,0.2,0.7861052949264217,0.11813663795751106,0.2,0.07203348601503673,-0.09541347518770248,0.2,0,
0.9602560682848761,0.36960277360354493,0.013998088743125137,0.2,-0.5255836135791214,0.28329376184227373,0.2,-1.121464161059166,0.32751156654878266,0.2,-0.2934046350507961,-0.17835174255723465,0.2,0.7886755144373606,-0.18469760527150408,0.2,0.06867293452649517,-0.31293931095900324,0.2,0,
0.96825820218725,0.3745605856052569,0.37345642361454046,0.2,-0.5262118747764302,0.12738356038431015,0.2,-1.1137187755353861,0.3748304650603995,0.2,-0.2950156859560165,-0.23034245306885817,0.2,0.7831501332420776,-0.03618027504911914,0.2,0.06702645703969268,-0.3739859773295145,0.2,0,
0.9762603360896239,0.3755780763813776,0.18913637070497313,0.2,-0.5235454766129725,0.16330643310460274,0.2,-1.1154668736181996,-0.32463070562469,0.2,-0.29709011429989785,-0.5483253734757387,0.2,0.7880966300365747,0.2683492972470475,0.2,0.06268915888922294,-0.39867580586531615,0.2,0,
0.984262469991998,0.37758676753653647,0.10503650623414074,0.2,-0.5235989718467565,0.33500966725403397,0.2,-1.1189128668253812,0.028389325874580984,0.2,-0.30378889193162834,-0.3202004896354256,0.2,0.7874437219980304,0.05722815889619426,0.2,0.06064764414584762,-0.3547348275139651,0.2,0,
0.9922646038943719,0.37725866048112383,0.2104979934629131,0.2,-0.5181853219369079,0.29080800787535666,0.2,-1.1150126444042063,0.09012621417994748,0.2,-0.30221332213406465,-0.29999906269239857,0.2,0.7890122805789138,0.008041765186997396,0.2,0.0570134016489995,-0.059716957368121,0.2,0,
1.0002667377967458,0.3809547354319431,0.13761424560098517,0.2,-0.5189460437207508,-0.39930642746635603,0.2,-1.117470847398502,0.19079984573024122,0.2,-0.3085888769347067,-0.5778271560374741,0.2,0.7875723902410223,0.09298301185753366,0.2,0.05969217282795768,0.28479956519068683,0.2,0,
1.00826887169912,0.3794604884107396,0.059320678313493774,0.2,-0.5245742247763696,0.11905199758107526,0.2,-1.1119598468725225,0.41464981854028027,0.2,-0.31145855663066424,-0.31898262270364797,0.2,0.7905000087686344,0.20305520319766762,0.2,0.06157019469205049,-0.21965056609411476,0.2,0,
1.0162710056014939,0.381903866284959,0.40156185887699897,0.2,-0.5170412117594536,0.4902175588096108,0.2,-1.1108364503018575,-0.14460937799212759,0.2,-0.3136925988979651,-0.167970783934452,0.2,0.790821273492185,0.2658988245431218,0.2,0.05617776377045185,-0.5847560406462378,0.2,0,
1.0242731395038678,0.3858854781527716,0.2594497751716579,0.2,-0.5167307438354158,0.27792235039505314,0.2,-1.1142735969203965,-0.23804382821922265,0.2,-0.3141460891736155,-0.3048872576241236,0.2,0.7947543899613243,0.1377649521089111,0.2,0.052214098041710684,-0.18962779691143694,0.2,0,
1.0322752734062417,0.3860550626877055,0.08098859020384472,0.2,-0.5125944541531328,0.14538103908539463,0.2,-1.114645151553365,0.2992263513790644,0.2,-0.31857079501995106,-0.4377491850444601,0.2,0.7930255127259276,-0.0858499189781009,0.2,0.053143719019868856,-0.15971138680229796,0.2,0,
1.0402774073086156,0.3871812955960331,0.20158464554063601,0.2,-0.5144046472100495,0.21938494108281886,0.2,-1.1094859752983315,0.3866473359445399,0.2,-0.32115007613432683,-0.34033654473252306,0.2,0.7933807912576747,0.03176069228227191,0.2,0.049658715852873916,-0.40645500280642566,0.2,0,
1.0482795412109898,0.3892804170163557,0.107241958764423,0.2,-0.5090842950958077,-0.037598183500124616,0.2,-1.1084587941782524,-0.07946998829769236,0.2,-0.32401617973567143,-0.4335110408104012,0.2,0.7935336838024439,0.10515513714163399,0.2,0.046640438974966045,-0.33271564235846407,0.2,0,
1.0562816751133637,0.38889716693626386,-0.05492354628514051,0.2,-0.5150062181460515,-0.19537061740713957,0.2,-1.1107574951110946,0.033820291541517,0.2,-0.32808625278729325,-0.4852023286907071,0.2,0.7950632734519408,-0.14278782830010744,0.2,0.04433526557513849,-0.18883724854491843,0.2,0,
1.0642838090157376,0.38840164027579344,0.0035014520967449614,0.2,-0.5122102249743219,0.370937479549964,0.2,-1.1079176695135882,0.01450676952965968,0.2,-0.33177941699472274,-0.32189636581180997,0.2,0.7912490785496422,0.07820738779025505,0.2,0.04361904299824735,-0.08688782863305443,0.2,0,
1.0722859429181115,0.3889531901698118,0.25376649289940084,0.2,-0.5090712184732521,-0.06424969439165068,0.2,-1.11052538679862,0.2531864485022378,0.2,-0.3332365946402822,-0.21723233539811676,0.2,0.7963145916565849,0.17077353134406503,0.2,0.04294506031700962,-0.16675996290567993,0.2,0,
1.0802880768204854,0.39246190416218385,0.2818096435532741,0.2,-0.5132382200845883,0.12120148789927093,0.2,-1.1038666863375524,0.3960262070756698,0.2,-0.3352551343610926,-0.517102698299618,0.2,0.7939814550511473,0.1776026459853544,0.2,0.04095088359175647,-0.13872524115657098,0.2,0,
1.0882902107228596,0.39346214446666417,0.06259057901994783,0.2,-0.5071319946668638,0.21554504638125055,0.2,-1.1041889674854093,-0.2112135180434016,0.2,-0.3415102378130761,-0.3878012892849329,0.2,0.7991562339923506,0.3540075499329637,0.2,0.040725456458504485,-0.17647383618938284,0.2,0,
1.0962923446252335,0.393463353426503,-0.05210753242830546,0.2,-0.5097894993424883,-0.011220075438814203,0.2,-1.1072461026262468,-0.2595698940760366,0.2,-0.34145995498965154,-0.13825762547536868,0.2,0.7996455758500747,-0.357945532636246,0.2,0.038127302212726345,0.016903920874232307,0.2,0,
1.1042944785276074,0.3926284239478113,0.19974722254226251,0.2,-0.5073115158738848,0.08605497444724719,0.2,-1.1083420857906259,-0.02900624476873115,0.2,-0.343722359820682,-0.2920609369708622,0.2,0.7934291054701706,-0.12610231032458147,0.2,0.0409959191924922,-0.24457638356847367,0.2,0,
1.1122966124299813,0.3966593089871792,0.2711315550791016,0.2,-0.5084126197513323,-0.15339758200600545,0.2,-1.1077102025425465,0.29955488267945085,0.2,-0.34613292998118533,-0.6496684230563217,0.2,0.7976279388848814,0.06308624600105672,0.2,0.034214080075630766,-0.15185081589580646,0.2,0,
1.1202987463323555,0.3969665288290769,-0.21314832689635702,0.2,-0.5097658771859809,0.21054138516019005,0.2,-1.1035492076677547,0.40681377534815266,0.2,-0.35411705458958315,-0.4292090090577613,0.2,0.7944384854061876,-0.12431600779003182,0.2,0.0385663061381593,-0.30366721258328155,0.2,0,
1.1283008802347294,0.3932489357568375,-0.09436409064488005,0.2,-0.5050439575887693,0.275667862764388,0.2,-1.101201182136976,0.0005587863694533901,0.2,-0.3530002741261095,-0.2223470611879795,0.2,0.7956388827602409,0.35270032588578804,0.2,0.02935540467429826,-0.7499655419741834,0.2,0,
1.1363030141371033,0.3954567033787588,0.1786525866069276,0.2,-0.5053551913817507,0.07898261395125616,0.2,-1.1035402670858434,-0.24945653132003864,0.2,-0.3576746075685908,-0.3150624406054146,0.2,0.8000816906203602,0.017370561350302238,0.2,0.026566857466572363,-0.11055402608526124,0.2,0,
1.1443051480394772,0.39610737714254834,0.032732984058314596,0.2,-0.5037802357655492,0.12338047118216205,0.2,-1.1051924866380967,0.1088859838985351,0.2,-0.35804127317579615,-0.4361247411982863,0.2,0.7959168117418457,-0.22524750152098233,0.2,0.02758654025693408,-0.038373628790567105,0.2,0,
1.1523072819418512,0.39598043112369186,0.19360743920075058,0.2,-0.5033811038428361,-0.10696222537807942,0.2,-1.1017980913434668,0.1581796259419177,0.2,-0.3646526034277634,-0.21301511500521064,0.2,0.7964777305960244,0.24150706153468204,0.2,0.02595287940592329,-0.5171575133281511,0.2,0,
1.1603094158442253,0.39920509616976035,0.32290608828023853,0.2,-0.5054916313715985,-0.12188579536887706,0.2,-1.102661612623026,-0.047066560507777466,0.2,-0.3614495150158795,-0.36206733411904557,0.2,0.7997809247264006,0.3591299369297002,0.2,0.019312020043683664,-0.4548543216578145,0.2,0,
1.1683115497465992,0.4011469285361757,-0.1461371357723354,0.2,-0.5053312765687381,0.09228802791655388,0.2,-1.1025511563115913,-0.12171346755134038,0.2,-0.37044568077366813,-0.8635269720115129,0.2,0.8022238095868996,-0.08234819043394237,0.2,0.018675210259398257,0.009370769457133074,0.2,0,
1.1763136836489732,0.396866901997403,-0.35435853512011045,0.2,-0.5040150229249336,0.2612842604153634,0.2,-1.1046090281038474,0.09278270021527424,0.2,-0.3752659465680637,-0.39093438958336113,0.2,0.7984633536794575,-0.502917200453909,0.2,0.019461952354997793,-0.06005677377583698,0.2,0,
1.184315817551347,0.3954771919742539,0.2373950359240741,0.2,-0.5011507284020923,0.11696639335129211,0.2,-1.101066633108147,0.20499380941788048,0.2,-0.3767006310070019,-0.1341985674702395,0.2,0.7941771343796371,0.044690544980567626,0.2,0.017714301878984866,-0.38325256459953416,0.2,0,
1.192317951453721,0.4006652225721882,-0.019257969622613058,0.2,-0.5021435606313129,0.08763857046444751,0.2,-1.1013291271531613,0.09664415391327785,0.2,-0.37741312364758756,-0.0076293756992758255,0.2,0.7991784023991466,0.5303823292829787,0.2,0.013329911321405246,-0.5437644693953033,0.2,0,
1.2003200853560951,0.3951690644602921,-0.14368263823003394,0.2,-0.49974851127466113,0.15161171696073325,0.2,-1.0995203266455345,-0.048919746492667726,0.2,-0.3768227010181903,-0.41322978977113495,0.2,0.8026632516481648,0.010303851754080162,0.2,0.009014070368660013,-0.19858002969362565,0.2,0,
1.208322219258469,0.39836630036050763,0.3007102399160098,0.2,-0.4997177731599412,-0.1321344086205392,0.2,-1.102111843097044,-0.04805159337371856,0.2,-0.3840248002839257,-0.7070695177459687,0.2,0.7993432640272119,-0.24617781333736988,0.2,0.010152630846307235,-0.2909420422013778,0.2,0,
1.216324353160843,0.39998042829894825,0.136349975801784,0.2,-0.5018626618125898,-0.13912249959585274,0.2,-1.100289152139514,0.08084473639510814,0.2,-0.3881358133021258,-0.4143511091230893,0.2,0.7987244066347668,0.09595795855874695,0.2,0.0043589976934379675,-0.4896334600354424,0.2,0,
1.224326487063217,0.4005478999733362,-0.18376319029893978,0.2,-0.5019437331534748,0.1656933797740262,0.2,-1.1008183273147223,-0.2403471934862289,0.2,-0.39065441802989515,-0.2954483621979871,0.2,0.8008785913641518,-0.039431974923113955,0.2,0.0023184954857401567,-0.053133967643479635,0.2,0,
1.2323286209655908,0.3970402172541652,-0.20707107836967498,0.2,-0.49921156773620534,0.28621607292726375,0.2,-1.1041347072352936,0.026545520556531255,0.2,-0.3928629870972936,-0.19927381873971473,0.2,0.798093495035997,-0.26450313622610605,0.2,0.0035088542111422934,-0.025854544568771152,0.2,0,
1.240330754867965,0.3972347627194214,0.28043587086125016,0.2,-0.4973642759866386,-0.2740418987715529,0.2,-1.1003935989858178,0.4264599692106741,0.2,-0.3938427991297306,-0.5110981480912005,0.2,0.7966465411845342,-0.0036673609644169436,0.2,0.0019048227726398183,-0.1921337414130697,0.2,0,
1.2483328887703389,0.4015271911879452,0.12881002306820363,0.2,-0.5035962381165502,-0.09420394324716197,0.2,-1.0973113477279228,0.16561518847385548,0.2,-0.4010405574667528,-0.526328721850336,0.2,0.7980348172605664,0.2674499702803451,0.2,0.00043471434853317834,-0.010116784425634524,0.2,0,
1.2563350226727128,0.39929572308851263,-0.10932379972418416,0.2,-0.4988715390785932,0.25218591126564477,0.2,-1.097743755970236,-0.07337486363259704,0.2,-0.40226405867933596,0.000514255895880944,0.2,0.8009257407090197,-0.241424892525835,0.2,0.0017429542218296659,-0.5931490124658252,0.2,0,
1.2643371565750867,0.3997780103923583,0.06146643842055294,0.2,-0.49956126353629987,-0.072869895967307,0.2,-1.0984853455460444,-0.05666231884961237,0.2,-0.4010323293724187,-0.3979819466830257,0.2,0.794172018980153,-0.28430126282393,0.2,-0.009055669850920024,-0.6462142073635921,0.2,0,
1.2723392904774609,0.4002791861032415,-0.02291613005222029,0.2,-0.5000374574140701,-0.08199729596714347,0.2,-1.09865035307183,-0.11200141018841148,0.2,-0.40863176982626437,-0.6349513722745392,0.2,0.7963769205038368,0.42954306209268267,0.2,-0.008596473095987808,-0.001754680621757058,0.2,0,
1.2803414243798348,0.39941135231152275,-0.21859353506927665,0.2,-0.5008732202717742,0.04942738450158454,0.2,-1.100277368109059,-0.15740417889299751,0.2,-0.41119155132881136,-0.5060287856168723,0.2,0.8010447079736359,0.19614911086052872,0.2,-0.009083744740868137,-0.006855599023257919,0.2,0,
1.2883435582822087,0.39678168954213305,0.048837932652649046,0.2,-0.4992466192620448,-0.14082343711936673,0.2,-1.1011688199341179,0.2225304822262436,0.2,-0.4167282303961343,-0.29289639917942645,0.2,0.7995153062776053,-0.20590821291758404,0.2,-0.008706162680359935,0.07650191919624795,0.2,0,
1.2963456921845826,0.40019275923396513,0.09383117136563951,0.2,-0.503126395265684,-0.07610866506012684,0.2,-1.096716880393439,-0.24542795632191694,0.2,-0.4158778937156822,-0.0761974435627144,0.2,0.7977501765669546,0.06721554359397086,0.2,-0.00785971403372817,-0.31196179951006375,0.2,0,
1.3043478260869565,0.3982829882839833,-0.09919882100336078,0.2,-0.5004643579030068,0.0940916336477915,0.2,-1.1050956672352685,-0.21491334712565868,0.2,-0.41794738949313776,-0.5328119161653911,0.2,0.8005907549751088,0.3064885472603626,0.2,-0.013697551472520955,-0.7482416796539789,0.2,0,
1.3123499599893307,0.39860557809791136,0.045582534521981105,0.2,-0.5016209291273194,-0.18984120020702766,0.2,-1.1001554939474496,0.41690693973617243,0.2,-0.42440288437432844,-0.5149879337223058,0.2,0.8026539933231204,-0.014587855772463243,0.2,-0.019831580908191832,-0.18924445515351673,0.2,0,
1.3203520938917046,0.399012308836335,-0.005837236252945882,0.2,-0.5035018171063192,0.08201049617728023,0.2,-1.0984251561994898,-0.006324278306060749,0.2,-0.42618719643269465,-0.2914735170705188,0.2,0.8003573492827494,-0.025259675799610415,0.2,-0.016725462754977223,0.19372289308678456,0.2,0,
1.3283542277940785,0.3985121823178642,0.0009448179876941909,0.2,-0.5003087611884829,0.1739574985183956,0.2,-1.1002566824003466,-0.08004577107842414,0.2,-0.42906646064745674,-0.25107575487885725,0.2,0.8022498385103266,-0.25173291115603014,0.2,-0.01673201461880328,-0.5147530364311182,0.2,0,
1.3363563616964524,0.3990274259241381,0.004600265573535822,0.2,-0.5007184971300249,-0.0837504218717533,0.2,-1.0997058885367446,-0.1274040933092191,0.2,-0.43020440851075636,-0.38511209151338016,0.2,0.7963296227042529,-0.31484724350279436,0.2,-0.024961511337875116,-0.40329820350325274,0.2,0,
1.3443584955988264,0.3985857865670408,-0.2660970434521029,0.2,-0.5016487679384309,-0.027534572334009244,0.2,-1.102295147893294,0.13517924231998268,0.2,-0.4352282541116708,-0.48004738824340004,0.2,0.7972122826142819,0.09332036564499435,0.2,-0.023184785874855323,-0.09248329759644096,0.2,0,
1.3523606295012005,0.39476987322890444,-0.31242173663110356,0.2,-0.5011590502873691,0.026790661914737057,0.2,-1.0975430206596248,-0.1588998374625339,0.2,-0.43788516672265076,-0.46796829183188765,0.2,0.7978227485545728,0.2302817725473999,0.2,-0.02644124409941817,-0.384925391206543,0.2,0,
1.3603627634035744,0.39358703878094314,0.03695294897772608,0.2,-0.5012201173477951,-0.2586820624728911,0.2,-1.1048375452926946,-0.3642208441095862,0.2,-0.442715746780981,-0.24456171941618365,0.2,0.8008967909750403,0.11928948734156453,0.2,-0.02934359213416001,-0.1166356456173876,0.2,0,
1.3683648973059483,0.39536112041254806,0.15390588857645826,0.2,-0.5052979632869353,-0.054155465460219154,0.2,-1.1033705541653782,-0.1909423110704883,0.2,-0.4417981542333097,-0.36781950904142546,0.2,0.7997313803520378,-0.2827108432473316,0.2,-0.028307414429296372,-0.31805057414097937,0.2,0,
1.3763670312083223,0.3960495329981665,-0.1681925485750753,0.2,-0.5020866047951587,0.06313898720504418,0.2,-1.1078926222698224,0.11032521862729128,0.2,-0.44860085892564383,-0.7096892393886299,0.2,0.796373417483083,-0.1058073309581839,0.2,-0.03443240132041568,-0.2149080485584747,0.2,0,
1.3843691651106962,0.39267003963534686,-0.28747779244939903,0.2,-0.5042877394916546,-0.41228444685657145,0.2,-1.1016053506673416,0.11468286294089025,0.2,-0.4531531820635278,-0.35306557228270696,0.2,0.7980384630567069,0.013310058476628805,0.2,-0.03174594320623197,-0.0544844794312686,0.2,0,
1.3923712990130703,0.3914498883189761,0.014878956472248045,0.2,-0.5086831559448638,-0.14920951993301068,0.2,-1.1060576964627682,-0.13449418007718816,0.2,-0.45424990808216714,0.03535770069350991,0.2,0.796586378418709,-0.01678151415963197,0.2,-0.03530415299131598,-0.29375628227179235,0.2,0,
1.4003734329154442,0.3929081029389028,0.0503307301813645,0.2,-0.5066750918105828,0.03485576741935059,0.2,-1.1037572575485766,0.005985098039049119,0.2,-0.4525874588524316,-0.42394591468042014,0.2,0.7977699588301528,-0.22261940290903282,0.2,-0.036446043722580646,-0.45319059076073026,0.2,0,
1.4083755668178182,0.3922551800018779,-0.0875537872496654,0.2,-0.5081254636661542,-0.3880115331348494,0.2,-1.1059619348941434,-0.25445616397187787,0.2,-0.46103304271705386,-0.6730208170576332,0.2,0.7930244679721645,-0.36164671046218233,0.2,-0.042555202443487664,-0.2643575471066198,0.2,0,
1.416377700720192,0.3915072423429082,-0.1936080649570654,0.2,-0.5128832763407404,-0.02707821854302378,0.2,-1.1078285561721266,0.009581363666869014,0.2,-0.46335579192535375,-0.3780488552529368,0.2,0.7919836114627579,0.024824648083170142,0.2,-0.04067576447628656,0.11188699427529258,0.2,0,
1.4243798346225662,0.3891574509625649,-0.06573139670975475,0.2,-0.5085587151628426,0.1588526401856069,0.2,-1.1058086330754735,0.17193172057396178,0.2,-0.46708182440110085,-0.2624970744348615,0.2,0.7934216623414952,0.2770087295318191,0.2,-0.04076501053508298,-0.2523368158364489,0.2,0,
1.4323819685249402,0.3904555399955521,-0.11854752345634781,0.2,-0.5103416340977707,-0.20296620142921246,0.2,-1.1050776486429432,-0.29087431844358747,0.2,-0.46755574511631154,-0.16648886366905924,0.2,0.796415751135267,-0.030030557331771346,0.2,-0.044713153529669744,-0.16983611781713065,0.2,0,
1.440384102427314,0.3872606905872633,-0.3966829008828672,0.2,-0.51180617438571,-0.21423208593628756,0.2,-1.110462622170571,-0.1505312308879153,0.2,-0.4697456462198058,-0.07919256296128052,0.2,0.7929411734241869,-0.06172829783345629,0.2,-0.04348238842015707,-0.27922947851037994,0.2,0,
1.448386236329688,0.38410861358142623,0.01031782928400879,0.2,-0.5137693474727513,-0.26906103974093376,0.2,-1.1074861483371499,0.1655542865777876,0.2,-0.468822826123692,-0.47848373635203667,0.2,0.7954280983699317,0.007020425872875102,0.2,-0.04918082518583582,-0.42114650559932354,0.2,0,
1.456388370232062,0.38742577585580745,0.06551537649808481,0.2,-0.5161111510215649,-0.07298306657976816,0.2,-1.1078137535853263,-0.23094964863816514,0.2,-0.4774013860014384,-0.6420741428343757,0.2,0.7930535002381529,-0.2406790680544446,0.2,-0.05022073250974625,0.1401041358649541,0.2,0,
1.464390504134436,0.3851568596053956,-0.08015809453595577,0.2,-0.5149370765380276,0.11096690340769294,0.2,-1.1111813427153605,-0.09272325541746784,0.2,-0.47909601240904204,-0.39509166361282805,0.2,0.7915772332810606,0.21980819408420893,0.2,-0.04693915901199656,-0.22776558977267383,0.2,0,
1.47239263803681,0.38614324634323216,-0.2721909333717291,0.2,-0.5143356805670418,0.005179125483270597,0.2,-1.1092973256720058,0.07286008748612349,0.2,-0.48372285261924364,-0.5601361318772132,0.2,0.7965704313435003,0.051321769519774296,0.2,-0.05386498194610903,-0.41762332078567255,0.2,0,
1.480394771939184,0.3808018046714479,-0.47422049027066177,0.2,-0.5148542105302952,-0.4140704150768851,0.2,-1.1100155813155825,-0.36435983278870765,0.2,-0.48805819051907745,-0.14864376758613046,0.2,0.7923983815933769,-0.25366205183560003,0.2,-0.05362113214456732,-0.19351218200241646,0.2,0,
1.4883969058415578,0.37855571849890157,0.12429691500664974,0.2,-0.520960807208272,-0.2539970897794813,0.2,-1.115127082996625,-0.24745832772428422,0.2,-0.4861011529006217,-0.25097882078381484,0.2,0.7925118385141307,-0.06717323036633388,0.2,-0.056961176858147694,-0.23752228795537092,0.2,0,
1.4963990397439317,0.3827905553115543,-0.08348252915680102,0.2,-0.5189181639667669,0.12679248998741927,0.2,-1.113974914559171,-0.06392014720263406,0.2,-0.4920738516516185,-0.6939816650231023,0.2,0.7913236099075156,-0.1764665802546847,0.2,-0.05742148875185325,-0.33792466764135654,0.2,0,
1.5044011736463059,0.37721999803239276,-0.2934535618764264,0.2,-0.5189321273684733,-0.020697052356445644,0.2,-1.1161498053518673,-0.07141960951791149,0.2,-0.49720485954099136,-0.4550688378826828,0.2,0.7896883732300557,-0.3405392028891993,0.2,-0.0623679715404094,-0.16752456619405307,0.2,0,
1.5124033075486798,0.3780952983215315,0.25062706967405796,0.2,-0.5192493168044701,-0.3978356957980225,0.2,-1.1151176283114577,-0.05635155464499275,0.2,-0.4993549530577414,-0.26346980813989757,0.2,0.7858749826612884,-0.13097657602585688,0.2,-0.0601018818109581,0.03878889570110453,0.2,0,
1.5204054414510537,0.3812300311471777,-0.2666805438543036,0.2,-0.5252974985012416,-0.3993573409246526,0.2,-1.1170514302261871,-0.1716470386842195,0.2,-0.5014203764712297,-0.1607175707175508,0.2,0.787592748013642,0.03439877518435219,0.2,-0.061747349209191726,-0.29973867746052596,0.2,0,
1.5284075753534276,0.37382840961986263,-0.33603604689650884,0.2,-0.5256390342592645,-0.16357027279672448,0.2,-1.1178639809304052,-0.21795152746613422,0.2,-0.5019264341892222,-0.24405188667744881,0.2,0.786425363064238,-0.2076885549114199,0.2,-0.06489770065032652,-0.3961897191593752,0.2,0,
1.5364097092558016,0.37585345439683354,-0.14616292478209295,0.2,-0.5279146228659892,-0.018883782882464506,0.2,-1.1205386546656453,-0.19437497782150148,0.2,-0.5053252066580689,-0.29241408179165457,0.2,0.7842697311350593,0.16908770970913006,0.2,-0.06808638471574173,-0.2682323583122646,0.2,0,
1.5444118431581757,0.37148980282334915,-0.30241313223056815,0.2,-0.5259411747853839,-0.10511040046418119,0.2,-1.1209739805755492,-0.16877921185715072,0.2,-0.5066050594978887,-0.4899731371501778,0.2,0.7891307664195841,0.016345355225912128,0.2,-0.06918941838332275,-0.056748447826466576,0.2,0,
1.5524139770605496,0.37101484428114445,-0.19457746994742606,0.2,-0.5295963892734161,-0.011278328349691169,0.2,-1.1232391220553597,-0.11208953070392103,0.2,-0.5131647768524717,-0.43588067899568567,0.2,0.7845312568186739,-0.12890113634560219,0.2,-0.0689943598809652,-0.050693295741737615,0.2,0,
1.5604161109629235,0.36837656330419033,-0.1291615551689898,0.2,-0.526121628038979,-0.39106310910488884,0.2,-1.122767413066812,-0.25139293209495983,0.2,-0.5135791503618197,-0.13253635674921604,0.2,0.7870683482380545,-0.15844405860459404,0.2,-0.07000051111519055,-0.07429036590229486,0.2,0,
1.5684182448652975,0.3689482593984406,-0.08790004511198546,0.2,-0.5358533990190943,-0.1925951276152485,0.2,-1.127261408968879,-0.12910138903311774,0.2,-0.5152853585604592,-0.33619463939680433,0.2,0.7819961518810004,-0.24974590180724954,0.2,-0.07018300573540191,-0.24473779011767882,0.2,0,
1.5764203787676716,0.36697016258239856,-0.21155779526835922,0.2,-0.529203150080823,0.21078349652169787,0.2,-1.1248330352913418,-0.019531078382414857,0.2,-0.5189582645921685,-0.43995193575518954,0.2,0.7830724138091385,0.003617958582148584,0.2,-0.07391631575707341,-0.22120163668341852,0.2,0,
1.5844225126700455,0.36556333467414687,-0.3647243863257286,0.2,-0.5324808630747472,-0.571862850242022,0.2,-1.1275739062229977,0.0029298574471120498,0.2,-0.5223245895325422,-0.33229643766544137,0.2,0.7820540392183147,-0.20518501560145425,0.2,-0.07372223192233661,-0.2577010488120984,0.2,0,
1.5924246465724194,0.3611345724011869,-0.39749530820740175,0.2,-0.5383529556846953,-0.39746052636050605,0.2,-1.124786157572188,-0.3104945173279944,0.2,-0.5242750075948156,-0.3700826412128058,0.2,0.7797894535595152,-0.09224925404145712,0.2,-0.07803953253806699,-0.20497448078995312,0.2,0,
1.6004267804747934,0.35920340974282844,0.15747207052426923,0.2,-0.5388402314965153,-0.036683151450514484,0.2,-1.1325418185002456,-0.23484925713838922,0.2,-0.5282459117919471,-0.29197470130417486,0.2,0.7805780511536514,0.17643164151911334,0.2,-0.07700182361497586,0.22081688179196884,0.2,0,
1.6084289143771673,0.3636541255295752,-0.07732704619451553,0.2,-0.5389398861079036,-0.04979225561971973,0.2,-1.1285437456864023,0.1811274873725066,0.2,-0.5289466028156824,-0.4169903736381056,0.2,0.782612359823821,0.006230579045383988,0.2,-0.07450646242939549,-0.2592693627552732,0.2,0,
1.6164310482795414,0.3579661770037162,-0.25650111150198746,0.2,-0.5396369075864308,-0.2606860401499003,0.2,-1.1296437787022855,-0.19855781948892315,0.2,-0.5349177577701568,-0.6378292124685075,0.2,0.7806777404183776,-0.2412547237290244,0.2,-0.08115013341906023,-0.54702325948517,0.2,0,
1.6244331821819153,0.3595501077455434,-0.17571255648939424,0.2,-0.543110862750302,-0.35948100832988716,0.2,-1.131720670798225,-0.2692022128438637,0.2,-0.5391518702151785,-0.08706287708927507,0.2,0.7787522842441567,-0.12700904976290645,0.2,-0.08325883458115821,0.003936494170038614,0.2,0,
1.6324353160842893,0.3551547760998859,-0.48915112064985833,0.2,-0.545388603719709,-0.11637471959433099,0.2,-1.1339510141077873,-0.40017629474702054,0.2,-0.5363107638035852,-0.10062673203207334,0.2,0.7786455956221711,-0.1152289511847926,0.2,-0.08108714951233961,0.10864745583884834,0.2,0,
1.6404374499866632,0.3517236898151457,-0.5352342679019357,0.2,-0.5449728582638113,-0.2958080721887288,0.2,-1.1381234915141774,-0.21551840943456746,0.2,-0.5407618979276917,-0.433286842655832,0.2,0.7769086210252,-0.05748946578826297,0.2,-0.08152047528773664,-0.32200491263930514,0.2,0,
1.648439583889037,0.3465910278134549,-0.27529411557516287,0.2,-0.5501215328747286,-0.5230823841193624,0.2,-1.1373993086587404,-0.18798255057339563,0.2,-0.5432433532860785,-0.522004200386339,0.2,0.7777257641695589,-0.1680930549993881,0.2,-0.0862392281145685,-0.3481494248224713,0.2,0,
1.6564417177914113,0.3473189839659431,0.12225132346247239,0.2,-0.553342176409721,-0.09463958979416542,0.2,-1.1411312123233517,-0.06647947842844393,0.2,-0.5491139651338731,-0.24996615573894682,0.2,0.7742191321452098,-0.3628232839557738,0.2,-0.08709086608489618,0.1922489745115252,0.2,0,
1.6644438516937852,0.34854704898885447,-0.0752317583031896,0.2,-0.5516357663114353,-0.04619643704290716,0.2,-1.1384629803135955,-0.022278089831170855,0.2,-0.5472428117779017,-0.15932808576189783,0.2,0.7719205916262665,-0.05293937673940541,0.2,-0.08316324452238409,-0.15534451232551444,0.2,0,
1.672445985596159,0.34611527583309204,-0.2554606149337696,0.2,-0.5540813194024076,-0.27119968786056686,0.2,-1.1414876617606504,-0.2671338764951847,0.2,-0.5516632145060635,-0.4677295463709971,0.2,0.7733721021173793,-0.18619659636225083,0.2,-0.08957637828210441,-0.19036594772558948,0.2,0,
1.680448119498533,0.34445967914991416,-0.5730428470416826,0.2,-0.5559749613172044,-0.15422987084389578,0.2,-1.1427371223375185,-0.2274907152633454,0.2,-0.5547264845198376,-0.34620116716840843,0.2,0.7689414460844705,-0.2902549176742944,0.2,-0.08620909968599352,-0.01974979600940629,0.2,0,
1.6884502534009072,0.3369465902804251,-0.422842464535271,0.2,-0.5565489973359099,-0.28676188886921083,0.2,-1.145127513204864,-0.3069527587053894,0.2,-0.557202433180758,-0.44421833590511245,0.2,0.7687280234345906,-0.10043228897829021,0.2,-0.08989237501825491,-0.1506542359955539,0.2,0,
1.696452387303281,0.3376941997173498,-0.15464824148497813,0.2,-0.5605631515391117,-0.5296524134045105,0.2,-1.1476483664768047,0.00864647081601222,0.2,-0.5618339778943194,-0.3767736560897558,0.2,0.7673345294608178,0.05021947261423659,0.2,-0.08861956746192239,0.1258375108314563,0.2,0,
1.704454521205655,0.33447221841666547,-0.1859814473494266,0.2,-0.5650234359503821,-0.5134586161054735,0.2,-1.1449891696718077,-0.08620180112448028,0.2,-0.5632308116781941,-0.05680097016852459,0.2,0.7695315349964184,0.04615844750384401,0.2,-0.08787897484495161,-0.13710826128133027,0.2,0,
1.712456655108029,0.334718496559759,-0.2416587702450644,0.2,-0.5687784893967993,0.055747463376012996,0.2,-1.1490275952947964,-0.2110359704683984,0.2,-0.5627427934170158,-0.4284400537609076,0.2,0.7680730646208793,-0.4335518789872414,0.2,-0.09081329964242367,-0.20448160086419634,0.2,0,
1.7204587890104028,0.33060567809274444,-0.35483362372901867,0.2,-0.5641314765363659,-0.0932194106171777,0.2,-1.1483657451993021,-0.22614051300000326,0.2,-0.5700858525383686,-0.34543303308112727,0.2,0.7625947049326225,-0.18160757926877907,0.2,-0.09115068045877875,-0.20355098044113132,0.2,0,
1.728460922912777,0.3290411585800947,-0.285991953631038,0.2,-0.5702699999666742,-0.3908878112897918,0.2,-1.1526458435027964,-0.4079374932311197,0.2,-0.5682697219463139,-0.10950138019559519,0.2,0.7651673433525789,0.264301690975792,0.2,-0.09407011532948177,-0.08243411447022946,0.2,0,
1.736463056815151,0.32602980683464783,-0.2308235094436728,0.2,-0.5703856815170025,-0.13820268024919424,0.2,-1.154892745091,-0.29923446390578423,0.2,-0.5718378746214982,-0.11976924236958841,0.2,0.7668235319882352,-0.1700896958805806,0.2,-0.09246962629030242,-0.02689576387582271,0.2,0,
1.7444651907175248,0.32534798242899593,-0.1275802189899082,0.2,-0.5724812428506613,-0.40126916752118713,0.2,-1.157433594925289,-0.07971675581269766,0.2,-0.5701860298242273,-0.18157008219092663,0.2,0.7624459082184896,-0.45223305368564254,0.2,-0.09450044755149493,-0.05065313968933595,0.2,0,
1.7524673246198987,0.3239885233308093,-0.21745421611489568,0.2,-0.5768059881973415,-0.3474917618507059,0.2,-1.1561682131840032,-0.09081533638753692,0.2,-0.574742995936553,-0.6889826104688884,0.2,0.7595878031292649,-0.2087533056122845,0.2,-0.0932800765253318,0.13099997595083113,0.2,0,
1.7604694585222727,0.3218687149711576,-0.149640169634261,0.2,-0.5780411110402726,-0.40976874352591924,0.2,-1.1588866403074896,-0.35881087008479695,0.2,-0.5812097515917295,-0.4920218351295372,0.2,0.759105855328693,0.10596024509616775,0.2,-0.09240444793628164,-0.1390885694951844,0.2,0,
1.7684715924246468,0.3215942806166611,-0.3528169054519553,0.2,-0.5833622880937562,-0.3999284915042131,0.2,-1.16190918710536,-0.15116958483021858,0.2,-0.5826153452986256,-0.3780967398530899,0.2,0.7612831670508036,-0.14349008270945346,0.2,-0.09550549363725475,-0.31740753041265957,0.2,0,
1.7764737263270207,0.3162236444839263,-0.32102974758928954,0.2,-0.58443996690434,-0.1933083561348331,0.2,-1.161305353664773,-0.0013042007980523795,0.2,-0.5872592994293789,-0.27178236350259427,0.2,0.7568100140053418,-0.1549180827958574,0.2,-0.09748296842288419,-0.06189684077593117,0.2,0,
1.7844758602293946,0.3164578046552325,-0.4521787656569104,0.2,-0.5864552217919136,-0.398768019183815,0.2,-1.1619300543181288,-0.34345873810834315,0.2,-0.5869638631146671,-0.1961895592918761,0.2,0.7588044777260698,-0.2621599261319191,0.2,-0.09649584308966964,0.09185139085619246,0.2,0,
1.7924779941317686,0.30898878423341575,-0.30899770312482755,0.2,-0.590820255211281,-0.24517858217349559,0.2,-1.1668006934745065,-0.25223354563921885,0.2,-0.590398332378049,-0.08021489144539179,0.2,0.752615455187231,-0.2435128595295391,0.2,-0.09601334616918511,-0.22517269306682358,0.2,0,
1.8004801280341425,0.31151384140523525,-0.12086806344356604,0.2,-0.5903780791066895,-0.14599959060279666,0.2,-1.1659657910483563,-0.1639148069537827,0.2,-0.5882473013777934,-0.0904343386090925,0.2,0.7549082719735972,-0.02320283543588708,0.2,-0.10009860617873882,-0.2320981925880757,0.2,0,
1.8084822619365166,0.3070548952183187,-0.43814224173940525,0.2,-0.5931562486609258,-0.21167560870980623,0.2,-1.169423330385767,-0.4071894657317887,0.2,-0.5918452817957944,-0.2879444603344841,0.2,0.7522442098202569,-0.05721719491608157,0.2,-0.09972691725059432,0.191857423201474,0.2,0,
1.8164843958388905,0.30450356553740476,-0.5955191814147539,0.2,-0.5937648888460464,-0.30527863415480416,0.2,-1.172480822500065,-0.38791701889520636,0.2,-0.5928544127431451,-0.41029978611930445,0.2,0.7539927968549399,-0.19809542643161454,0.2,-0.09702888740751524,0.1891952049400975,0.2,0,
1.8244865297412645,0.2975265883156826,-0.3642016888887496,0.2,-0.5980407068074026,-0.7301960602644971,0.2,-1.1756300026880904,-0.3647602719736853,0.2,-0.5984100783737033,-0.4119818182461987,0.2,0.749074682997351,-0.33190342594387884,0.2,-0.09669979397155276,-0.3064740989683016,0.2,0,
1.8324886636436384,0.29867633851518477,-0.15243361111334786,0.2,-0.6054480258102783,-0.4793664024476535,0.2,-1.1783169868516439,-0.30494158963821627,0.2,-0.5994461218350843,-0.20189386599182152,0.2,0.7486823420398379,-0.21600986610860462,0.2,-0.10193247299100806,-0.02305785034532014,0.2,0,
1.8404907975460125,0.29508765053786906,-0.3712578437591006,0.2,-0.6057105692465651,-0.2131693457231923,0.2,-1.1805090681223018,-0.014595640121115028,0.2,-0.6016403802295724,-0.12371628788600264,0.2,0.7456185251396134,-0.07798987520142575,0.2,-0.09706871957707788,0.01756557520380536,0.2,0,
1.8484929314483864,0.29273621301503916,-0.30376953249184113,0.2,-0.6088587353418494,-0.1766713450462032,0.2,-1.1785505170935817,-0.24009067138559825,0.2,-0.6014255824412603,-0.4622012338568876,0.2,0.747434504036615,-0.3242327109603399,0.2,-0.10165142378774718,-0.22249485679230047,0.2,0,
1.8564950653507604,0.2902273380179996,-0.23907027802375427,0.2,-0.6085373107673043,-0.30108332741181354,0.2,-1.1843505188644714,-0.45809905289136144,0.2,-0.6090355999712826,-0.28339073414990895,0.2,0.7404308017642479,-0.5891865887135208,0.2,-0.10062863728575469,0.056910903592766876,0.2,0,
1.8644971992531343,0.2889110885666591,-0.4121771778977552,0.2,-0.6136760685804384,-0.4448033683291039,0.2,-1.1858801019398435,-0.4102328556214452,0.2,-0.6059598341876589,-0.2185040606269839,0.2,0.7380075186171987,0.11752253570480875,0.2,-0.10074084933026291,-0.04375708402592094,0.2,0,
1.8724993331555082,0.2836325031716355,-0.7318398527747898,0.2,-0.61565416466057,-0.07268172427270236,0.2,-1.1909142445544145,-0.20755724298804346,0.2,-0.6125316649413144,-0.6341439380286098,0.2,0.7423111623355249,0.008661257020162183,0.2,-0.10132875063016943,-0.04393630620746179,0.2,0,
1.8805014670578823,0.27720165092226245,-0.3748727204765066,0.2,-0.6148389761688017,-0.3512484467066909,0.2,-1.1892010178276522,0.07784975993654908,0.2,-0.6161061371961166,-0.22635913660761647,0.2,0.7381460987295213,-0.3767611994002426,0.2,-0.1014438302295823,0.08295259932344055,0.2,0,
1.8885036009602563,0.2776345396440114,0.11397724504865273,0.2,-0.621274139807877,-0.5442892546626207,0.2,-1.1896686483954297,-0.054069194727238146,0.2,-0.6161534111270363,-0.03431927652264993,0.2,0.736282983145121,-0.04049930447683897,0.2,-0.10000150904099438,-0.09659922875366547,0.2,0,
1.8965057348626302,0.2790252868430409,-0.3032052640465389,0.2,-0.6235476042434036,-0.6141191201039647,0.2,-1.190066124943288,-0.28021102218621363,0.2,-0.616655245620479,-0.30069858663619303,0.2,0.7374981098578919,0.03135650455644151,0.2,-0.10298941788964094,-0.0400726389850857,0.2,0,
1.904507868765004,0.2727832554192668,-0.5517477757222937,0.2,-0.6311000457295405,-0.5231240326532757,0.2,-1.1941520247504092,-0.4961760330467885,0.2,-0.6209645885132153,-0.39914160137611426,0.2,0.736784687218024,-0.0071598897233154934,0.2,-0.10064267126475575,0.5150754753003454,0.2,0,
1.912510002667378,0.2701973224314842,-0.365755468716835,0.2,-0.631917588765856,-0.10445564545227132,0.2,-1.1980049414720366,-0.22969844997515476,0.2,-0.6230415112424968,-0.31014606555541946,0.2,0.7373835516223188,-0.22443373983234427,0.2,-0.09474821028483542,-0.0005477398999382405,0.2,0,
1.9205121365697522,0.26693116791979743,-0.5048898318863251,0.2,-0.6327713360567768,-0.5226816472508818,0.2,-1.1978271999500116,-0.3337903968940181,0.2,-0.625926925562102,0.019973432623186793,0.2,0.7331937473807065,-0.1824446900177204,0.2,-0.10065143510315476,-0.3541177827855995,0.2,0,
1.928514270472126,0.262119085121303,-0.2650956410011965,0.2,-0.6402804951218701,-0.6092559966117475,0.2,-1.203345587822341,-0.3962429937252876,0.2,-0.6227219363205259,0.00873904263224562,0.2,0.7344644365820353,-0.02920517959795199,0.2,-0.10041409480940501,0.05522111982560543,0.2,0,
1.9365164043745,0.2626896376637783,-0.3514119475151317,0.2,-0.6425194320025648,-0.337955047265269,0.2,-1.2041670878496162,-0.3652229849079036,0.2,-0.6257871008799861,-0.344973634175863,0.2,0.7327264645071393,-0.3912758302677538,0.2,-0.09976789718594507,0.42492664008811004,0.2,0,
1.944518538276874,0.2564964939610609,-0.46999181441488913,0.2,-0.6456877758781144,-0.26462460165654206,0.2,-1.2091891555808674,-0.15123682015742712,0.2,-0.6282415144673397,-0.3336775619894178,0.2,0.7282040232977512,-0.26671063939016915,0.2,-0.09361526856799525,-0.14032479686528798,0.2,0,
1.9525206721792479,0.25516976863314006,-0.20586651379231324,0.2,-0.6467534256290695,-0.16176498846013493,0.2,-1.206586876972135,-0.2568720220758325,0.2,-0.6311259418718168,-0.2698894877183125,0.2,0.7284590942768966,-0.07339611404895419,0.2,-0.10201309393578968,-0.4352682310631989,0.2,0,
1.960522806081622,0.2532026297403839,-0.4732848514135499,0.2,-0.6482760156934766,-0.3896289545695583,0.2,-1.2132991079340807,-0.6658892908133762,0.2,-0.6325597462708327,-0.156610316739976,0.2,0.727029685472968,-0.09500055656987139,0.2,-0.10057956026500643,0.26220938062225096,0.2,0,
1.968524939983996,0.24759721101052326,-0.6209289610368436,0.2,-0.6529874889021824,-0.5132423364878763,0.2,-1.217241105625149,-0.15928640688232798,0.2,-0.6336317069396564,-0.17847951520585936,0.2,0.7269390853717786,-0.2835870713927338,0.2,-0.09781774384583367,0.22788862828076237,0.2,0,
1.9765270738863698,0.24326776636379438,-0.33934870218077157,0.2,-0.6564878930772826,-0.35051940640039303,0.2,-1.215847690444198,0.06989698847213732,0.2,-0.6354154185141264,-0.5516176461720714,0.2,0.7224922923306842,-0.17175461151738153,0.2,-0.09693334221251423,0.1062586120318459,0.2,0,
1.9845292077887438,0.24216763177563091,-0.3929024699534361,0.2,-0.6585957994045887,-0.4539039577391782,0.2,-1.216122753809595,-0.17297617776385055,0.2,-0.6424575892784096,-0.2518963352478726,0.2,0.7241910115875005,-0.11973567559674103,0.2,-0.09611760605332413,0.2168899824793709,0.2,0,
1.992531341691118,0.2369813268445394,-0.5629300490537139,0.2,-0.6637503564011095,-0.4776103291113387,0.2,-1.2186153092884195,-0.4899873761585044,0.2,-0.6394457598780924,-0.2060164519179855,0.2,0.7205765215211364,-0.5254519285651238,0.2,-0.0934631024928443,0.1845958931117964,0.2,0,
2.0005334755934916,0.2331607509907715,-0.18157863097190488,0.2,-0.6662375646703701,-0.15178302553650602,0.2,-1.223962551828131,-0.4582200185069829,0.2,-0.6457538525090973,-0.32061789998397844,0.2,0.7157837807304586,-0.3231010074206883,0.2,-0.09316407176353539,0.1730872202516751,0.2,0,
2.0085356094958655,0.23407606874898892,-0.3969432397221747,0.2,-0.6661788848096936,-0.33982180955981905,0.2,-1.2259468295845313,-0.3800931719760564,0.2,-0.644575646277836,-0.01807482844625591,0.2,0.7154069054024054,-0.18603043447844997,0.2,-0.0906937069688175,0.018988724835131317,0.2,0,
2.01653774339824,0.2268096591552167,-0.689276525072299,0.2,-0.6716747136233272,-0.7781514192808855,0.2,-1.2300440425797479,-0.2270010522728988,0.2,-0.6460430497642374,-0.23941018659819763,0.2,0.7128072937788034,-0.19702162979753218,0.2,-0.09286025216617329,-0.2549904371868007,0.2,0,
2.024539877300614,0.22304764434783214,-0.5238047242538575,0.2,-0.6786293075181877,-0.2543473310016586,0.2,-1.2295788464208977,-0.26208660157317487,0.2,-0.6484062092634072,-0.09091246251165253,0.2,0.7122545593256449,-0.42151529690188927,0.2,-0.09477355396380631,-0.11655494527500546,0.2,0,
2.0325420112029877,0.21842878356715498,-0.35144169041963386,0.2,-0.6757442709193537,-0.2691878883976928,0.2,-1.2342374282049187,-0.405479772843248,0.2,-0.6474976491644239,-0.11714444583416778,0.2,0.7060630490283731,-0.06982161624950745,0.2,-0.09472513129057337,0.037409608221566394,0.2,0,
2.0405441451053616,0.217424577301118,-0.3316780708942316,0.2,-0.6829363137325508,-0.5706547736629292,0.2,-1.2360665227863896,-0.19373193468746885,0.2,-0.6502805203967539,-0.15272237492560542,0.2,0.7111374134656527,-0.014765365708678535,0.2,-0.09417500023226125,0.49374314488553284,0.2,0,
2.0485462790077356,0.21312193443284727,-0.43426945443689363,0.2,-0.6848747472979606,-0.11231674659701457,0.2,-1.2373371391599182,-0.3633788999184151,0.2,-0.6499412071632336,-0.5257025950980917,0.2,0.7058268031770343,-0.3130744506929656,0.2,-0.08682524097240485,0.34268815913670975,0.2,0,
2.0565484129101095,0.2104762660301277,-0.3444267668477833,0.2,-0.684733381678103,-0.4236665533881509,0.2,-1.2418805851850843,-0.455001763318974,0.2,-0.6586917619183233,-0.39086485943126,0.2,0.7061282222545653,-0.18920469834048104,0.2,-0.08869198968607389,-0.10681051970841664,0.2,0,
2.0645505468124834,0.20761110616328274,-0.47756351555771137,0.2,-0.691653412152171,-0.7783534997297322,0.2,-1.2446171673730217,-0.2821329677211992,0.2,-0.6561950449141337,0.04843862903883278,0.2,0.7027995280035866,0.006251284245563371,0.2,-0.08853420928773952,0.05026486127863647,0.2,0,
2.0725526807148573,0.20283524978120432,-0.37065121103191206,0.2,-0.6971870376737788,-0.4098439617072208,0.2,-1.2463947126686235,-0.29707699579786806,0.2,-0.657916743853702,-0.19974676363908317,0.2,0.7062282428024943,-0.029827702493170904,0.2,-0.08788775190561571,0.2933067119058703,0.2,0,
2.0805548146172312,0.20168068678677215,-0.3295018585834572,0.2,-0.6982109155394866,-0.13032751001148396,0.2,-1.2493703993057876,-0.16776002680363167,0.2,-0.659390993132359,-0.19566773940789262,0.2,0.7023222847636958,-0.38647046796787266,0.2,-0.08384130189724559,0.029629760004660534,0.2,0,
2.0885569485196056,0.197563220043869,-0.4426618010545044,0.2,-0.6992722778339625,-0.4856153780446043,0.2,-1.2490788730974816,-0.43410098218729654,0.2,-0.6610474276842283,-0.13005785438259532,0.2,0.7000447153150083,-0.29509458380167636,0.2,-0.08741367574554114,0.036709435250079255,0.2,0,
2.0965590824219795,0.19459809796990007,-0.6475155570247592,0.2,-0.7059807615882002,-0.5236005923094644,0.2,-1.2563160150207844,-0.6160827595889928,0.2,-0.6614719188024806,0.03901523474381802,0.2,0.697600771422869,-0.4194524819389617,0.2,-0.08325395093324432,0.20653798946328963,0.2,0,
2.1045612163243534,0.18720297113147286,-0.43463108384250193,0.2,-0.7076498873109139,-0.32643343028077726,0.2,-1.2589361972509054,-0.14747110749001313,0.2,-0.6604231839283272,-0.28855743596881145,0.2,0.693333475603985,-0.2106694693668476,0.2,-0.0841090679141285,0.06322097716151588,0.2,0,
2.1125633502267274,0.18764400062842004,-0.03046650944864629,0.2,-0.7112036964726927,-0.6881613054693438,0.2,-1.2586755527406246,-0.2519372244671747,0.2,-0.6660888377779816,-0.3160081750815877,0.2,0.6942300599129995,0.02130565338120255,0.2,-0.08224241529866007,0.18880270609841418,0.2,0,
2.1205654841291013,0.18671550698029452,-0.3924583582360971,0.2,-0.7186604681984234,-0.42938283488907353,0.2,-1.2629671928423802,-0.3913864848329174,0.2,-0.6654793147296326,-0.44066193334039994,0.2,0.6936743660580842,-0.3675750827496563,0.2,-0.08108822461655388,0.0568303362684236,0.2,0,
2.128567618031475,0.1813646668966425,-0.6937362143202823,0.2,-0.7180738218309178,-0.11840308095365654,0.2,-1.2649377364979513,-0.24428783021827882,0.2,-0.673139428711428,-0.24989784269825732,0.2,0.688348858589005,-0.22650578369409063,0.2,-0.08133312991836529,0.17674336889911788,0.2,0,
2.136569751933849,0.17561572755117,-0.6409628929470723,0.2,-0.720554917493682,-0.36717324402051055,0.2,-1.2668757981258727,-0.1835334839744851,0.2,-0.6694776802128047,0.21947103220955333,0.2,0.6900502735189787,-0.14603429365568632,0.2,-0.07826033071416799,0.1965841104373074,0.2,0,
2.144571885836223,0.17110926060948933,-0.2787054543811791,0.2,-0.723948593735246,-0.669977362184479,0.2,-1.267874272241543,-0.404434671424328,0.2,-0.6696278921960751,-0.2172507143243657,0.2,0.686012309890514,-0.27077211647647675,0.2,-0.07818778415136837,0.12488562272955361,0.2,0,
2.152574019738597,0.17115644028107113,-0.399617518182873,0.2,-0.7312745552886336,-0.6776452654868176,0.2,-1.273346752868662,-0.5436517828254772,0.2,-0.6729536916419946,-0.06437152657935707,0.2,0.6857179196553551,-0.39354253857508403,0.2,-0.07626216075049513,0.3688290107114701,0.2,0,
2.160576153640971,0.16471538031856336,-0.4875242809303567,0.2,-0.7347909179830351,-0.45863962969652783,0.2,-1.2765727007667507,-0.21366469136124833,0.2,-0.6706578366213448,-0.2281430688722344,0.2,0.6797156292733126,-0.38133525786020195,0.2,-0.07228651997998485,-0.10968517211737329,0.2,0,
2.1685782875433453,0.16335605178618542,-0.3472857795514643,0.2,-0.738612789363778,-0.4957694338161289,0.2,-1.276765387930442,-0.33939754913812903,0.2,-0.6766039807439503,-0.40017997473402317,0.2,0.6796165555295919,0.029948857267814155,0.2,-0.0780171235043731,-0.16477277701044524,0.2,0,
2.176580421445719,0.15915880784573994,-0.570562193293574,0.2,-0.7427232289240931,-0.36066237349089564,0.2,-1.2820030615529607,-0.6670631032189706,0.2,-0.6770607162170892,-0.2531670589678986,0.2,0.6801948109895977,-0.08325727500140684,0.2,-0.07492288441215197,0.5920139408719235,0.2,0,
2.184582555348093,0.15422705669348824,-0.4821570071149705,0.2,-0.7443833873396324,-0.31840199151655924,0.2,-1.2874383975819454,-0.32632005532941266,0.2,-0.6806546536874367,-0.1686767469399747,0.2,0.6782844391295694,-0.26298302968561643,0.2,-0.06854490045042233,0.26513556182139375,0.2,0,
2.192584689250467,0.1514442957319004,-0.3536746780619521,0.2,-0.7478176607883581,-0.5705863890121399,0.2,-1.2872241824382313,-0.2160799270490149,0.2,-0.6797595441681288,0.02836009519045085,0.2,0.6759870825146278,-0.2005032127229897,0.2,-0.07068071542300967,0.07696314707811985,0.2,0,
2.200586823152841,0.148568261844497,-0.25825193214688846,0.2,-0.7535127695638266,-0.6441257908042508,0.2,-1.2908956764147297,-0.22580137183537963,0.2,-0.6802008921643895,-0.19789033185039356,0.2,0.6750763877260015,-0.2822096816852415,0.2,-0.06731349009717241,0.37795234608445705,0.2,0,
2.208588957055215,0.1473122648175502,-0.5397891061443213,0.2,-0.7581236734412261,-0.3427515019295696,0.2,-1.2908370043875974,-0.4097808337391179,0.2,-0.6829257894777351,-0.04653969524184842,0.2,0.6714717276076639,-0.35621454851748197,0.2,-0.06463347788565836,0.10515579810035663,0.2,0,
2.2165910909575888,0.13993163614618787,-0.515147318833677,0.2,-0.7589967935946997,-0.5300503121979452,0.2,-1.2974521697545556,-0.5031728717727613,0.2,-0.6809455272882591,0.13437756969456038,0.2,0.6693769549497218,-0.19396009782120943,0.2,-0.0656309973275667,0.015743291922562866,0.2,0,
2.2245932248599627,0.13906990771621136,-0.39259655331263904,0.2,-0.7666044784363932,-0.5566385245977731,0.2,-1.2988877703359616,-0.15276592233101627,0.2,-0.6807757483626221,-0.18631792218753995,0.2,0.6683683660425246,0.0750536346426009,0.2,-0.06438158521489735,0.13425640248074158,0.2,0,
2.2325953587623366,0.13365009129318564,-0.5983024846656533,0.2,-0.7679030099882641,-0.34726455439286485,0.2,-1.2998964245118518,-0.4666035883675035,0.2,-0.6839266140432597,-0.25103953220168007,0.2,0.6705778131040034,-0.18997588485218653,0.2,-0.06348289488787484,0.2862287488075866,0.2,0,
2.240597492664711,0.1294970679615609,-0.7916583277846664,0.2,-0.7721607113066791,-0.30403834472642055,0.2,-1.3063534277498416,-0.29046123692581804,0.2,-0.684792380877849,-0.2049568053849038,0.2,0.6653287518848896,-0.5276592070631997,0.2,-0.05980192523397597,0.3394724615837386,0.2,0,
2.248599626567085,0.12098355804863098,-0.45017683864130226,0.2,-0.7727676235038868,-0.349112385550146,0.2,-1.304543804302665,-0.25939549817804997,0.2,-0.6872059229294182,-0.00252635016942393,0.2,0.6621352657909922,-0.16943098926580635,0.2,-0.05805133550253502,0.030084975738433727,0.2,0,
2.256601760469459,0.12229423854330007,-0.40396412330120574,0.2,-0.7777465094754814,-0.8483120797704787,0.2,-1.3105037557206904,-0.4397410624067677,0.2,-0.6848328024805598,-0.06500434389929144,0.2,0.6626178560566367,-0.1404453085084717,0.2,-0.05932056562216103,0.12628040934254672,0.2,0,
2.2646038943718327,0.11452013207581169,-0.6555502570371714,0.2,-0.7863406167802145,-0.45469081935450156,0.2,-1.3115796613011732,-0.4499581311927514,0.2,-0.6882459924318068,-0.18242464584142248,0.2,0.6598881408548567,-0.3320180935732567,0.2,-0.056030848953054276,0.39348268900343947,0.2,0,
2.2726060282742067,0.11180543443070533,-0.033207265564897705,0.2,-0.7850215625851534,-0.23193067436690085,0.2,-1.3177030858197745,-0.3531397089147348,0.2,-0.6877515968140225,-0.014037071934466794,0.2,0.6573055665594646,-0.4579027072087877,0.2,-0.053024842598106,0.13824700456331085,0.2,0,
2.2806081621765806,0.11398881582677332,-0.40800254916258627,0.2,-0.7900515075700849,-0.6621440727371669,0.2,-1.317229896643809,-0.23897700905814445,0.2,-0.6884705855827583,-0.1687740535075144,0.2,0.6525616975395161,-0.2180917909726035,0.2,-0.0538188968800413,0.25233826773083873,0.2,0,
2.2886102960789545,0.10527739364410395,-0.8227949273207106,0.2,-0.7956158677489481,-0.5023851820585845,0.2,-1.3215267179647048,-0.5490998193273811,0.2,-0.6904519816701428,-0.09941522762825505,0.2,0.6538160979039029,0.03292217122781438,0.2,-0.04898743031441258,0.31533123331711893,0.2,0,
2.2966124299813284,0.10082409698964195,-0.524069892314797,0.2,-0.7980896704830223,-0.35878441837092906,0.2,-1.326015493753047,-0.6124981027524068,0.2,-0.6900612292248104,-0.25824161036114984,0.2,0.6530884522791611,-0.35756778197641725,0.2,-0.0487735971469674,0.11681483180379362,0.2,0,
2.3046145638837023,0.0968922753670672,-0.4109634050281138,0.2,-0.801356418442883,-0.5650455956673835,0.2,-1.3313266876087433,-0.1824135368078128,0.2,-0.6945838474359212,-0.018743108864134606,0.2,0.6480950133922803,-0.44038426599490865,0.2,-0.04711839300555188,0.1768180128995274,0.2,0,
2.3126166977860763,0.09424868250919213,-0.44518764021512364,0.2,-0.8071304000137004,-0.5118759645669907,0.2,-1.328934110341972,-0.11037439103211977,0.2,-0.6903611189666365,0.1811425363516736,0.2,0.6460423040232426,-0.15903604342053235,0.2,-0.04594450894057496,0.04547859649835185,0.2,0,
2.3206188316884506,0.08976927312362522,-0.5262392453816807,0.2,-0.8095464338759548,-0.5217178000757674,0.2,-1.3330926778652572,-0.405240753084013,0.2,-0.6916855668542944,0.030761946910443094,0.2,0.6455504366975517,-0.3348344917651902,0.2,-0.04639073546157825,0.5306442173804229,0.2,0,
2.3286209655908245,0.08582885458308524,-0.6247985991117379,0.2,-0.8154778848149127,-0.37328615835765383,0.2,-1.3354179623913163,-0.27359144125643775,0.2,-0.6898689278160695,-0.17635975253293967,0.2,0.6406849521549995,-0.34745185829337943,0.2,-0.03745420146248819,0.15707707472618035,0.2,0,
2.3366230994931985,0.07977249553783741,-0.5921272580261304,0.2,-0.8155190124096773,-0.23699998981967924,0.2,-1.3374701409253602,-0.46946287264580666,0.2,-0.6945073228948214,-0.28332022266354395,0.2,0.6399912069648577,0.029756387100274284,0.2,-0.043877502265959364,0.10321482136023581,0.2,0,
2.3446252333955724,0.07635481845466716,-0.3496759212043548,0.2,-0.8192698846520275,-0.5462618168033742,0.2,-1.3429293683536492,-0.4375573073725214,0.2,-0.6944020513786862,-0.07311185443704266,0.2,0.6411610543486039,-0.27735326268128746,0.2,-0.03580276432072442,0.11231869735430551,0.2,0,
2.3526273672979463,0.07417768079856774,-0.4960182908387749,0.2,-0.8242592014785313,-0.7014512856768698,0.2,-1.3444710578433205,-0.20878677489742647,0.2,-0.6956771125658141,-0.012453182848842781,0.2,0.6355535547619571,-0.46078250898450024,0.2,-0.042080403108290476,0.07645911026599823,0.2,0,
2.3606295012003202,0.06841852580124676,-0.3688896824789187,0.2,-0.8304931052228575,-0.663835955539975,0.2,-1.346269956752008,-0.3574025334228542,0.2,-0.6946013023042676,-0.08021148061848615,0.2,0.6337885342048519,-0.22060994020856733,0.2,-0.03457941855646845,0.6014275120303655,0.2,0,
2.368631635102694,0.06827544587890504,-0.4452179006638841,0.2,-0.8348805767671709,-0.3231411765790698,0.2,-1.3501894983780862,-0.25695544731492437,0.2,-0.6969604962557099,-0.37027662812155054,0.2,0.63202379571862,-0.018920189782223318,0.2,-0.03245756291580463,0.1910717185869054,0.2,0,
2.376633769005068,0.06129503939062461,-0.6304148667652144,0.2,-0.8356633640481226,-0.5011757999456856,0.2,-1.3503812439090468,-0.4806194166370181,0.2,-0.7005257283542125,0.17156750686921768,0.2,0.6334858111683364,0.03129632612792338,0.2,-0.03152227105907796,0.08313472538696849,0.2,0,
2.384635902907442,0.058188808010661605,-0.3672169141508731,0.2,-0.8428993895663018,-0.718854412860452,0.2,-1.3578794090442785,-0.7065477802916109,0.2,-0.6942154161458024,0.46003653195377664,0.2,0.6325245369366668,-0.5185046191979805,0.2,-0.031127407309613133,0.3522007138496627,0.2,0,
2.3926380368098163,0.05541956876421064,-0.5995702117681163,0.2,-0.8471650346538898,-0.2595816232971726,0.2,-1.3616860083937126,-0.41743245912945204,0.2,-0.693165143842952,-0.10716849481159918,0.2,0.6251897372611687,-0.3277641093717282,0.2,-0.025887059637483358,0.4860090968477307,0.2,0,
2.4006401707121903,0.048595684622371745,-0.49179590211615104,0.2,-0.8470526955390566,-0.5188065834118363,0.2,-1.3645583283903497,-0.16106325221466877,0.2,-0.695930112062788,-0.34443723806903276,0.2,0.6272803111867191,-0.12689047590160735,0.2,-0.02335126176004944,0.14907596320211922,0.2,0,
2.408642304614564,0.047550834330352225,-0.31434285539196344,0.2,-0.8554659399884792,-0.6635022520472961,0.2,-1.3642630204291473,-0.1487491841567351,0.2,-0.6986761396520565,-0.17736922205280337,0.2,0.623159489646743,-0.6015184948218455,0.2,-0.02350184422624945,0.0657295758733458,0.2,0,
2.416644438516938,0.04356619893610033,-0.6756140906789658,0.2,-0.8576687315718133,-0.5276238198845747,0.2,-1.3669383153368575,-0.14629907413866994,0.2,-0.6987680196156328,-0.0964824533821046,0.2,0.6176560152695696,-0.37401985484910444,0.2,-0.02229958854607591,0.36923491302020495,0.2,0,
2.424646572419312,0.03674100887948877,-0.756996467463981,0.2,-0.8639079211066324,-0.5899234051185628,0.2,-1.366603805615366,-0.4154937621449889,0.2,-0.7002198589061702,0.0832350936770046,0.2,0.6171751719691573,0.13160532521053203,0.2,-0.01759408561792617,0.3069727658257335,0.2,0,
2.432648706321686,0.031454255456676634,-0.43831369417558425,0.2,-0.8671075060537103,-0.5303399220549995,0.2,-1.3735862155311773,-0.5665728966448846,0.2,-0.6974362581168008,0.19573352272145988,0.2,0.6197617004729381,-0.21008478067262304,0.2,-0.017388024292864172,0.15752290012338035,0.2,0,
2.44065084022406,0.029727989772679424,-0.27868383821641646,0.2,-0.8723933598595124,-0.343224436786152,0.2,-1.3756689719616841,-0.6924450373425595,0.2,-0.6970881225426269,-0.16406020761901285,0.2,0.6138138154783953,-0.4934200525187754,0.2,-0.015073719215952085,0.43697224498306053,0.2,0,
2.448652974126434,0.02699531404521397,-0.40259696000127687,0.2,-0.8725990970422888,-0.4421808257525292,0.2,-1.3846653361286583,-0.3998252160978544,0.2,-0.700061221438705,-0.1547681171949547,0.2,0.6118669796326377,-0.20771005298134138,0.2,-0.010396468373135204,0.30091687058558725,0.2,0,
2.4566551080288077,0.023286438412658993,-0.5059163494810063,0.2,-0.8794682530715529,-0.4416077796750434,0.2,-1.3820661754192498,-0.3236916226383446,0.2,-0.6995644124177461,-0.007941608353677354,0.2,0.6104904546306938,-0.47441740372609204,0.2,-0.010259049286582689,0.08870272225447537,0.2,0,
2.4646572419311816,0.01890065245351787,-0.6630780067337492,0.2,-0.8796648215170895,-0.38071848193640956,0.2,-1.3898444020908718,-0.3872599564928858,0.2,-0.7001882871723638,0.15083718668756213,0.2,0.6042763011730202,-0.06205084848722592,0.2,-0.008977224817063598,-0.001801686675038613,0.2,0,
2.472659375833556,0.012677190304919006,-0.7823784294153003,0.2,-0.8855597487825354,-0.85756262063192,0.2,-1.388262334723136,0.0024929304147935927,0.2,-0.6971510174307451,0.2523751235203042,0.2,0.6094976410548982,0.1173723289251416,0.2,-0.010287876273383307,0.040232505428998096,0.2,0,
2.48066150973593,0.006382597582873064,-0.3954370602543392,0.2,-0.8933858234472002,-0.4338842086486841,0.2,-1.389804515204235,-0.5263341431863966,0.2,-0.6961502851960389,-0.22499712023291152,0.2,0.6061542584358225,-0.3132568674316383,0.2,-0.008333504730199628,0.5516712552201826,0.2,0,
2.488663643638304,0.006350197340849579,-0.20026884035890144,0.2,-0.8925018961209144,-0.14202763886832226,0.2,-1.3966836810141183,-0.8379255101640948,0.2,-0.7007509713544717,-0.180369125387346,0.2,0.604485531175992,-0.6217359493572022,0.2,-0.0014611361898603853,0.32716169828550473,0.2,0,
2.4966657775406778,0.003178296137130641,-0.6216380472199888,0.2,-0.8956582656690933,-0.7461281338464256,0.2,-1.4032113233668606,-0.12418459986530961,0.2,-0.6990361912022365,0.10090872523099703,0.2,0.5962064832461073,-0.3681121467128401,0.2,-0.0030989175576315526,0.34569261661137873,0.2,0,
2.5046679114430517,-0.0035960114146702422,-0.5204686805105967,0.2,-0.9044399462624572,-0.7853657980892089,0.2,-1.3986706346119633,-0.14796264445400553,0.2,-0.6991364317507758,-0.027250964452905924,0.2,0.5985957368285866,-0.12712225736063315,0.2,0.004069945675921675,0.38911091908340034,0.2,0,
2.5126700453454256,-0.005149202751038907,-0.4204915406430334,0.2,-0.9082241184385207,-0.35876131782017207,0.2,-1.4055787256781247,-0.6635342302223207,0.2,-0.699472206633483,-0.11718238578165702,0.2,0.5941725271283371,-0.1295685099416896,0.2,0.003126857147702853,0.15035811362733714,0.2,0,
2.5206721792477995,-0.010323876064958777,-0.5536658841108657,0.2,-0.9101801273475799,-0.42000516750003575,0.2,-1.4092871822955204,-0.20106862565412442,0.2,-0.7010113499232823,-0.0910867085133632,0.2,0.5965226406695195,0.1282676164443275,0.2,0.006475675493959069,0.29459400177451367,0.2,0,
2.5286743131501734,-0.014007856896812759,-0.4027924694277585,0.2,-0.9149442011185213,-0.42816938272009775,0.2,-1.4087958236885907,-0.15813493029147307,0.2,-0.7009295939696968,0.07419347946149846,0.2,0.5962248089914464,-0.507117987535749,0.2,0.007840361176095071,0.2601581107000714,0.2,0,
2.5366764470525474,-0.016768555575802913,-0.6242157140990091,0.2,-0.9170308374711015,-0.2347260090467193,0.2,-1.411817341180184,-0.45778412213408337,0.2,-0.6998242542518983,-0.04453858228672253,0.2,0.5884087528689476,-0.529511155835452,0.2,0.010638205265160211,0.24437336964889525,0.2,0,
2.5446785809549217,-0.023995308322396904,-0.790875379101669,0.2,-0.9186998172632688,-0.6374199090434864,0.2,-1.416120369642736,-0.2653767031586679,0.2,-0.7016422112862843,-0.11354789733903498,0.2,0.5877526304980791,0.06913136452554869,0.2,0.011750335090477395,0.20143730766886267,0.2,0,
2.5526807148572956,-0.029422561641429618,-0.38505409852771955,0.2,-0.9272295560157973,-0.5828729125528509,0.2,-1.4160633684307227,-0.296222811408009,0.2,-0.7016410206093229,0.2208008191475,0.2,0.5895148547013563,-0.08175542190598517,0.2,0.013861202187862014,0.2679845137898742,0.2,0,
2.5606828487596696,-0.030156173898840417,-0.4835781986120011,0.2,-0.9280257838641144,-0.33132791075279194,0.2,-1.4208599346252642,-0.748209271046199,0.2,-0.6981093981799243,0.29217899140820264,0.2,0.5864445437475834,-0.4051876907851873,0.2,0.016038087311115383,-0.0912194200686407,0.2,0,
2.5686849826620435,-0.037159812819221635,-0.530915837304122,0.2,-0.9325308025878419,-0.5531102578778049,0.2,-1.4280347167674619,-0.6379369845783411,0.2,-0.6969661567467916,0.0642387359115898,0.2,0.5830318516487933,-0.5613764803281546,0.2,0.012401691466763762,0.09391095991524559,0.2,0,
2.5766871165644174,-0.03865082729570637,-0.5657871870618364,0.2,-0.9368755479901593,-0.6102960070248215,0.2,-1.4310669263785176,-0.270038591177274,0.2,-0.6970815784053389,-0.05528386162360899,0.2,0.5774625200623329,-0.29414892410719456,0.2,0.017540662669759313,0.42818436943603716,0.2,0,
2.5846892504667913,-0.04621240781221102,-0.5933435713819821,0.2,-0.9422955387002391,-0.5017023653713578,0.2,-1.4323553342262982,-0.14274321990377647,0.2,-0.6978506985327694,0.05034198783314403,0.2,0.5783254688630782,-0.09516043807306779,0.2,0.019252641377740357,0.4576117859817878,0.2,0,
2.5926913843691652,-0.04814432443781808,-0.2954031262703588,0.2,-0.944902785836101,-0.46563816554636567,0.2,-1.433350817896978,-0.36000665760564654,0.2,-0.6962761066000086,0.23084224615369658,0.2,0.5759399530531638,-0.19253817818038615,0.2,0.024862451245467918,0.44539407629505945,0.2,0,
2.600693518271539,-0.05093885783253676,-0.2899294204968417,0.2,-0.9497457493489809,-0.7325735946372632,0.2,-1.4381154407479886,-0.44223527730014034,0.2,-0.6941572225943102,-0.10707385125318519,0.2,0.575244858012192,-0.2550160994601314,0.2,0.02637894659846131,0.24293206520350574,0.2,0,
2.608695652173913,-0.05278319516576755,-0.45905343019541495,0.2,-0.9566239633502972,-0.753527141351823,0.2,-1.4404265823337803,-0.7010358555458868,0.2,-0.6979892882200596,-0.0037525062401636,0.2,0.5718596954618017,-0.0071462498865623725,0.2,0.02874936428872401,0.15394149859145467,0.2,0,
2.616697786076287,-0.0582837127156634,-0.6626875623415465,0.2,-0.9618021836106101,-0.2473043030491867,0.2,-1.4493320144367228,-0.5071932257029871,0.2,-0.6942172626941528,-0.004201052487134982,0.2,0.575130518014007,-0.35691045852202785,0.2,0.028842010575924584,0.2344632642499681,0.2,0,
2.6246999199786614,-0.0633861961632323,-0.3488536745279223,0.2,-0.9605808321990842,-0.16598030245180279,0.2,-1.448541673945028,0.06673194419551387,0.2,-0.6980565050598537,0.07210375301939381,0.2,0.5661491281254493,-0.5160302507965994,0.2,0.0325007765167235,0.24886013562563902,0.2,0,
2.6327020538810353,-0.06386537150811016,-0.6533226473555056,0.2,-0.9644578684498389,-0.6787087232643026,0.2,-1.4482643033295945,-0.19870623793021014,0.2,-0.6930636026458425,0.24219941982973892,0.2,0.5668740340012615,-0.028625101162839395,0.2,0.03282377274593481,0.29450862719595333,0.2,0,
2.640704187783409,-0.07383935852092038,-0.7659285528718706,0.2,-0.971440171771313,-0.5440568899482342,0.2,-1.4517209737519114,-0.523508442972373,0.2,-0.6941813143425779,0.049368624634504865,0.2,0.5656911265068438,-0.2665510298347634,0.2,0.03721291455185875,0.10727833825722749,0.2,0,
2.648706321685783,-0.07612022835406008,-0.2580314900348232,0.2,-0.9731627786890107,-0.4620264673076552,0.2,-1.4566404384171525,-0.6039098275412436,0.2,-0.6922737046516905,-0.04224495445033505,0.2,0.5626092175239052,-0.2775997362796795,0.2,0.03454022615805045,0.3064595841465768,0.2,0,
2.656708455588157,-0.07796786236147756,-0.56038656460391,0.2,-0.9788325952482355,-0.44551145628350663,0.2,-1.4613835309925713,-0.43634960903962683,0.2,-0.6948572336137833,0.07173188083738069,0.2,0.561249530726369,-0.1492553479202699,0.2,0.04211626789820398,0.2025280529250593,0.2,0,
2.664710589490531,-0.08508641338772265,-0.4669141419201481,0.2,-0.9802909619895468,-0.45702143374703325,0.2,-1.4636220321617865,-0.3414575063617753,0.2,-0.6911259945582924,-0.16904407291515322,0.2,0.5602211319571809,-0.4511568097261484,0.2,0.0377806750048514,-0.026739037661415235,0.2,0,
2.672712723392905,-0.08543848863219992,-0.2932920970501714,0.2,-0.986144938188188,-0.4257190963072796,0.2,-1.4668468510943597,-0.7182114953477314,0.2,-0.6975619387804257,0.26072412070253514,0.2,0.5540310217707506,-0.471760631953283,0.2,0.04168844329562134,0.22626189611117847,0.2,0,
2.680714857295279,-0.08977908694052539,-0.7300262881619239,0.2,-0.9871024675304633,-0.512540241590545,0.2,-1.4751134160873502,-0.23415827959424873,0.2,-0.6869544086270518,0.3922237358095562,0.2,0.5526729618459284,0.04385626285118016,0.2,0.04140086534263025,0.1433102811071881,0.2,0,
2.6887169911976527,-0.09711890924279071,-0.4137247597337263,0.2,-0.9943455820536368,-0.6166257653364704,0.2,-1.4705933835678677,0.13946168365383538,0.2,-0.6912863590074728,-0.18858341121352068,0.2,0.5547327219763695,-0.19198103458321208,0.2,0.04398140779333635,0.5488610606535641,0.2,0,
2.696719125100027,-0.09639868309626501,-0.4265983984762071,0.2,-0.9969684797758468,-0.44406164561824196,0.2,-1.4728820291488889,-0.28334608993912935,0.2,-0.6899717432064681,-0.02086398207781781,0.2,0.549601265292597,-0.5054101270230149,0.2,0.05018264231308728,0.39621482250182855,0.2,0,
2.704721259002401,-0.10394448361841002,-0.7323977057173301,0.2,-1.0014505683835286,-0.45031655862764336,0.2,-1.4751269210068938,-0.32700807123062225,0.2,-0.6916201827207179,0.13968783347204777,0.2,0.5466461599440012,-0.1606391195955667,0.2,0.050320844953365605,-0.19822886310815954,0.2,0,
2.712723392904775,-0.10811704638774229,-0.3294197488268244,0.2,-1.004173544713889,-0.6231417691469898,0.2,-1.4781141582885788,-0.27145311919735127,0.2,-0.6877367378709154,0.27913723903101595,0.2,0.5470310393790679,-0.24343367255813542,0.2,0.047010980503356725,-0.016249064795720736,0.2,0,
2.720725526807149,-0.10921519959963921,-0.29277146574734936,0.2,-1.0114208366898805,-0.6795952582716314,0.2,-1.4794701709140514,-0.24359941537173413,0.2,-0.6871539868962216,-0.12497829789669818,0.2,0.5427512211830711,-0.2846041843325292,0.2,0.05006085991663407,0.525653098080846,0.2,0,
2.7287276607095228,-0.11280138983969988,-0.6773727297204558,0.2,-1.0150470688462352,-0.26334038702027773,0.2,-1.4820117489345266,-0.44435170171476523,0.2,-0.6897363906372626,-0.011910527703481999,0.2,0.5424773724297475,-0.04813808133839054,0.2,0.05542143007265026,0.22056710990067066,0.2,0,
2.7367297946118967,-0.1200531632751665,-0.5071666217275451,0.2,-1.015634282882205,-0.2599674292370763,0.2,-1.4865797981414877,-0.45883708589299077,0.2,-0.6873445553394774,0.25122710800019876,0.2,0.5419810118816568,-0.3336285988942908,0.2,0.053589933675044804,-0.08104581977032851,0.2,0,
2.7447319285142706,-0.1209160557873406,-0.5694597357069108,0.2,-1.0192065477140284,-0.7652491257866684,0.2,-1.4893531423088144,-0.43485157948368325,0.2,-0.6857167569092594,-0.06377996355041299,0.2,0.5371393148474388,-0.5274953683450656,0.2,0.054124696956325005,0.3831512042746601,0.2,0,
2.7527340624166445,-0.12916451904647708,-0.3252875923167222,0.2,-1.0278782688947916,-0.6019907283339454,0.2,-1.4935374234132266,-0.49982665055886555,0.2,-0.688365034756284,0.29116613097531635,0.2,0.5335410859881358,0.10136417396171271,0.2,0.059720352943439366,0.5310666296627162,0.2,0,
2.7607361963190185,-0.12612065726440816,-0.1412390992010775,0.2,-1.0288383993673715,-0.10548810165933453,0.2,-1.4973503687177563,-0.2934111319881083,0.2,-0.6810580988136543,0.1098450005379975,0.2,0.5387611416308262,0.07316745337403868,0.2,0.06262176303092847,0.07156760390500437,0.2,0,
2.7687383302213924,-0.13142434463369432,-0.839948348606366,0.2,-1.029566078521341,-0.4359153598532811,0.2,-1.4982320015250363,-0.41138784389435634,0.2,-0.686607514747676,-0.10837058185461657,0.2,0.5347117652421204,-0.7074693734702222,0.2,0.060865434605919436,0.024504069399826876,0.2,0,
2.7767404641237667,-0.13955983084211002,-0.5086884262738965,0.2,-1.035813045125024,-0.6111911012035426,0.2,-1.503932574220066,-0.19137007394538774,0.2,-0.6827920281233282,0.2604673897171339,0.2,0.5274416316553027,-0.3855029830429485,0.2,0.0630138281413257,0.2990589821494664,0.2,0,
