samirx20/RADAR/web/public/data/datasets/heating_j3_mid.csv
timestamp,actual_q_0,actual_qd_0,actual_current_0,actual_q_1,actual_qd_1,actual_current_1,actual_q_2,actual_qd_2,actual_current_2,actual_q_3,actual_qd_3,actual_current_3,actual_q_4,actual_qd_4,actual_current_4,actual_q_5,actual_qd_5,actual_current_5,protective_stop,fault_code
0.0,0.30001411519372595,0.7440540676759838,0.6784528717183058,-0.8026982882162346,1.1502639372410888,1.2426451553669835,-1.2001163471829615,0.9486692848355294,0.5,-0.49573249249290785,0.6348797435144354,0.5,0.7989743449832915,0.23498218675585547,0.5,0.002205992230428554,-0.6577592765620448,0.5,0,
0.008002133902373967,0.3059665477351338,0.37902319588392974,0.5,-0.7934961767183059,0.8987280527162008,1.1385001970970843,-1.1925269929042772,1.0523960940270054,0.5,-0.49065345454479237,0.39013246057173834,0.5,0.8008542024773383,0.1173187087648575,0.5,-0.0030560819820678042,-0.19433985526150346,0.5,0,
0.016004267804747934,0.3060784863278688,0.32641757128124005,0.5,-0.7883186393727754,0.6547984796157064,0.5,-1.1832780096785294,1.0158794956275778,0.5,-0.48949037312376004,0.23958738639617838,0.5,0.8008514443235292,-0.07099203627619621,0.5,-0.0009034454537555012,0.11991195645561069,0.5,0,
0.0240064017071219,0.31118922887563366,0.43083580357276136,0.5,-0.7830194010444546,0.560294585226391,1.5892355130996962,-1.176272920974236,1.1347589549257768,0.5,-0.4868200563624535,0.5473359395775264,0.5,0.7997183298969192,-0.2809606933388345,0.5,-0.0011374906787780332,-0.03824683101911317,0.5,0,
0.03200853560949587,0.312971859185033,0.630449492244372,0.5,-0.7793539260091531,0.928294970520771,0.8057465885898273,-1.165121866399717,1.0463194616252418,0.5,-0.4807329980905196,0.43916238328256874,0.5,0.7963560732301078,0.25938929697334745,0.5,-0.0015153947500613119,-0.20266856452944482,0.5,0,
0.04001066951186984,0.3212764207515436,0.8054601563893781,0.9161343389748275,-0.7681666815161222,1.0561754537797494,1.9223695524780708,-1.159531809588232,0.824871601779853,0.5,-0.4797934582299324,0.3469095062984262,0.5,0.8038685586484927,0.10214167528858203,0.5,-0.0043801877112491505,0.1458466293967847,0.5,0,
0.0480128034142438,0.32585922168726306,0.3723358476038427,0.5,-0.7624551187486771,0.6532627238620137,1.1241246257365394,-1.1519239207712393,1.0484471212113127,0.5,-0.4751824459897448,0.5873267580211762,0.5,0.7979903400347251,-0.1510686345263662,0.5,0.0008181513202872435,0.06639723314218564,0.5,0,
0.05601493731661777,0.3272337943132051,0.4873969078431732,0.5,-0.75771447793433,0.42335037816979004,1.8261647939094106,-1.142756655648851,1.2292188484967908,0.5,-0.4703962301015936,0.5910979407418131,0.5,0.8014514604960709,0.09574131677449887,0.5,-0.00331783198097418,0.17288193239578414,0.5,0,
0.06401707121899174,0.33365757221275383,0.4503924840267709,0.5,-0.7556815126979605,0.844180717740825,2.276448228183295,-1.1322564191952906,1.0268165653743166,0.5,-0.4657248789378758,0.31955111994098545,0.5,0.7995222011031171,-0.1097218051553106,0.5,0.0035842622386197897,0.1299700030567149,0.5,0,
0.0720192051213657,0.33444007405763343,0.27770012166343155,0.5,-0.7442075864504768,1.3386538125969432,1.87019525180553,-1.126327590602862,1.1994397363119385,0.5,-0.4652834121825378,0.7621210400057775,0.5,0.7996959116135859,0.05677591300290441,0.5,-0.0012383119320667415,-0.020361430378988108,0.5,0,
0.08002133902373967,0.33810077415936873,0.5204318362706795,0.5,-0.7342630516964094,0.9601038434237236,1.3282092365806568,-1.1130653834142996,1.2216479191120426,0.5195405497287874,-0.45353094229778335,0.8291060076795302,0.5,0.8004306157111636,0.058412090866308275,0.5,0.00325847935255598,0.10917011106250482,0.5,0,
0.08802347292611364,0.3427669834379643,0.6834741324783441,0.5,-0.7288459249556972,0.7009216938914653,0.5417467580240523,-1.1067812238970693,0.9954718206672125,0.5,-0.45201771605966534,0.14217924545815303,0.5,0.8006305050674468,0.15962412532034148,0.5,0.0005084098449333358,-0.20339561991350324,0.5,0,
0.0960256068284876,0.34903636027902224,0.37985963891913954,0.95306577287046,-0.7230483045941459,0.632461088186341,0.5,-1.0971378342836242,1.1461823094852386,0.5,-0.4512560743704529,0.6091768190409526,0.5,0.802984601716289,-0.0934464609724378,0.5,4.1494339399281855e-06,0.11700732861466522,0.5,0,
0.10402774073086157,0.34884473766067053,0.8672569081863181,0.5,-0.7187265475447158,0.6957170724281453,0.882674196269869,-1.0884423069453055,0.9033048822893047,0.5,-0.4422708869550101,0.5662727125413901,0.5,0.7991353616918878,-0.17221575368741443,0.5,0.0023805271027679794,0.0717749596440106,0.5,0,
0.11202987463323553,0.36291247081000333,0.863486806783574,0.5541154916495634,-0.7119168314352956,0.8721720736837787,0.9969508650338084,-1.0826849561669953,0.7403670949113761,0.5,-0.44219571096979066,0.43682662018398527,0.5,0.8002291496572904,0.07675428593136024,0.5,0.0011525487882440978,0.052072848699700726,0.5,0,
0.12003200853560951,0.3626605265692077,0.5833724982790417,0.7891922685200619,-0.7047717943657753,0.6847921148139119,0.8611239566692014,-1.0765964334267235,0.889959215555236,0.5,-0.43528166103206634,0.448793481983803,0.5,0.8003634302667896,-0.3209969846376462,0.5,0.003213692681963191,0.16614058584807573,0.5,0,
0.12803414243798347,0.372246430782468,0.21759874587717193,0.6112110455785404,-0.700960157598273,0.5210353266975332,0.5,-1.0684456087181116,1.0568884162754781,0.5,-0.4350150152580498,0.3889778067743613,0.5,0.7950931979030881,0.01725282066245004,0.5,0.0038107981618133095,-0.05925257467483799,0.5,0,
0.13603627634035745,0.36614210650324247,-0.06227794403733389,1.5428048779970787,-0.6964352291386148,0.48212921696086375,1.9088614902013177,-1.0596862187663159,0.9694596793551336,0.5,-0.42905801612367656,0.6362084814824156,0.5,0.8006394753973888,0.2524573482375822,0.5,0.002265651487165783,-0.05172764272515088,0.5,0,
0.1440384102427314,0.37124998367787065,0.7664050532497323,0.5,-0.6932460901268992,0.9106861980952354,0.5,-1.0529342538484294,1.1080071114153434,0.5,-0.42483567955433116,0.3889593409735978,0.5,0.7991325154748894,-0.04807872835408539,0.5,0.0029831558782108954,0.1271644391593305,0.5,0,
0.15204054414510537,0.3784045873552382,0.773996618478403,0.6637759637615795,-0.681864249969091,0.9385979227065633,1.1345769974767357,-1.0419581049836704,1.170606502257504,0.686878826682695,-0.422834666668099,0.6570127071226645,0.5,0.7998702157437234,0.0655363840137424,0.5,0.004300282513715071,-0.12172352153661559,0.5,0,
0.16004267804747935,0.3836339295735251,0.48867184623646587,0.5,-0.6782285233635942,0.7180539304251706,1.0522285305382308,-1.0342045498123094,0.7118504279783749,0.5,-0.4143234762403685,0.6128151468536465,0.5,0.8001810976191093,-0.08900568752299998,0.5,0.001035579533625046,-0.20851421903931655,0.5,0,
0.1680448119498533,0.38622333689502164,0.30873291768272054,0.5,-0.6703753870822883,0.9160136613795417,1.6110674618826002,-1.0305684981360164,0.8232522654765262,0.5,-0.41302962431844065,0.08343794830183854,0.5,0.7984461247433554,-0.0834206948023622,0.5,0.0009640550090860062,0.17621979538628063,0.5,0,
0.17604694585222727,0.38857365625644863,0.38569037553832713,0.5,-0.6635723047815215,0.5731898399240695,0.5,-1.021032513564685,1.03406132366049,0.5,-0.4129884690675391,0.24524275143172208,0.5,0.7988463665022715,0.07328342427869589,0.5,0.003855096259805536,-0.034718540603575446,0.5,0,
0.18404907975460125,0.3923943829036349,0.5666748384329651,0.5,-0.6612043496435032,0.6514945182555589,0.7641611118813885,-1.0140235169574485,0.7933881111130969,0.6706970209996408,-0.4091057402955331,0.6354094450891773,0.5,0.7996186595318145,0.1306792883924851,0.5,0.000408558359428799,-0.43041922352435735,0.5,0,
0.1920512136569752,0.39764045367137607,0.35180609722188294,0.5,-0.6531483924894326,0.7930954378737726,0.7907867614813822,-1.0083383037868754,1.2115740147034537,0.5739182540532121,-0.4028219179461123,0.5498645746247616,0.5,0.8009372351165512,-0.11548418150968132,0.5,-0.0030316113165841816,0.03767087637205568,0.5,0,
0.20005334755934917,0.398023280459185,0.5907990269585633,0.5,-0.6485148226375228,0.6507136239698244,0.6637516944446359,-0.9946383327221933,0.8925390989334355,0.6524175720766082,-0.4003079071015369,0.35546785669104963,0.5,0.7977709126276596,-0.066674233922287,0.5,0.00101129238138169,-0.017113751647078398,0.5,0,
0.20805548146172315,0.4070932381027131,0.6694554672213998,0.8126495573063234,-0.6427369745059154,0.5364854765777318,0.5,-0.9940576782039404,0.5533287741174148,0.5,-0.3971344322390555,0.550355542429444,0.5,0.7998704473737946,0.15679385658617234,0.5,-0.003305431342937436,-0.2069108116173672,0.5,0,
0.21605761536409712,0.4087345679347274,0.2961304117442033,0.5552567180381882,-0.6399310550122791,0.5044045311836456,1.2585664893788076,-0.9857850723363146,0.8800838591541127,0.5,-0.3915022184226658,0.41716764749291296,0.5,0.8002796143330384,0.06973946467900977,0.5,-0.002299280604496185,0.12830152584027907,0.5,0,
0.22405974926647107,0.41183132469062034,0.6102118233099751,0.5,-0.634666502006977,0.7500847266434726,0.5,-0.9799763364574746,0.7372506942678464,0.5088500341606085,-0.39045974987916887,0.21484227850502094,0.5,0.8009862788086588,0.038009043686622335,0.5,-0.001252606929492971,0.2803623377720298,0.5,0,
0.23206188316884505,0.418497957107687,0.5502437505644532,1.1201802447007145,-0.6279296993859835,0.7752718964756169,1.159268936418558,-0.9739890612280291,1.054194031128254,0.5,-0.38806474196658547,0.5568030860738371,0.5,0.8008877590320244,0.025521122156924037,0.5,0.002186516799856291,0.19450033039384385,0.5,0,
0.24006401707121902,0.4206352246996516,-0.038389958761347875,0.5540180608146756,-0.6222621516633672,0.5472254412351093,0.5,-0.9631092319594226,1.0916700576782055,0.8223778686033621,-0.3815509005019875,0.4319956030981037,0.5,0.8013946167631696,-0.12950665866053035,0.5,0.0018593983568085308,-0.21188026070952692,0.5,0,
0.24806615097359297,0.41788371776750544,0.24938243218678227,0.5,-0.6191740923262218,0.5966217777313084,0.5758205027830013,-0.9565223403051778,0.5429593120133969,0.5364402597123056,-0.3811528123170158,0.4770221528222762,0.5,0.7988156524934559,-0.19012485013979868,0.5,-0.0012035673714961398,-0.11233878413570467,0.5,0,
0.25606828487596694,0.4246253436146401,0.4475296976805612,0.5,-0.6127162032196662,0.6816925295697953,0.6252772205876864,-0.9544218829672082,0.8753083719104243,0.5,-0.37391854605683106,0.5725879756899449,0.5,0.7983526191609328,0.16683766506084968,0.5,6.197781063725602e-05,0.004597803694691741,0.5,0,
0.2640704187783409,0.4250441929303944,0.6741606116093604,0.5,-0.608267011853105,0.5647391994613449,0.6335955652725738,-0.942517406354611,0.9730195407537875,0.743938720103003,-0.3719914047059767,0.40157852263355065,0.5,0.8014850551344295,0.07681157184501186,0.5,-0.001130002512381072,-0.03520561428791115,0.5,0,
0.2720725526807149,0.43541191340038987,0.6915453091566777,1.3643308740542297,-0.6036803760282847,0.43733340832474016,0.5,-0.9388535703151476,0.5217507841671145,0.6762656243310831,-0.36749328969469425,0.44290536084921545,0.5,0.799581604310453,-0.20504009061599743,0.5,-0.0005013120179693224,0.027068056219697583,0.5,0,
0.28007468658308887,0.43610891787690126,-0.012971917369389296,0.6757185632813435,-0.6012696773199092,0.42665617404894635,1.7208171464575224,-0.9341693938079372,0.9046130417408523,0.5,-0.36490491893238924,0.27368809645745074,0.5,0.7982044136845735,0.09883998777761305,0.5,-0.0006969136128659106,-0.17361017209536045,0.5,0,
0.2880768204854628,0.43520436272247964,0.3143708432434278,0.5464930943066607,-0.5968538772435016,0.7900754863308587,0.5,-0.924379761647294,1.0842647821513243,0.6773814786620116,-0.36311428015137504,0.0896406208547515,0.5,0.8011630441148948,0.09594915695436412,0.5,-0.00327907477149509,0.02959417617891466,0.5,0,
0.29607895438783677,0.4411388513687961,0.5848323358213815,0.9023794121018437,-0.5886284695386155,0.8326548252188328,2.208048927852954,-0.916821157293516,0.6638803802950163,0.5,-0.3634706689987132,0.31285891207877625,0.5,0.7997396001958433,-0.18518063921234285,0.5,-0.00022340679400327605,0.1789652168412691,0.5,0,
0.30408108829021074,0.44456168009562175,0.15366847342056927,0.5,-0.5835314000400003,0.3532417023216633,0.5,-0.9137576755625737,0.48161716000422183,0.5721381095630733,-0.3581085375581146,0.5554827769196808,0.5,0.7982001538874973,0.05307416104011892,0.5,-0.00041563130203478435,-0.08823533893499673,0.5,0,
0.3120832221925847,0.4435975469435252,0.2595519881257585,0.5981480130209519,-0.5829766023014689,0.38737244058998505,0.9614587454272102,-0.9091152827334484,0.8191004758682576,0.5,-0.3545829445679983,0.32421986287573673,0.5,0.8005887867724852,-0.015566929258581386,0.5,-0.0016351722169632237,-0.09780894598678552,0.5,0,
0.3200853560949587,0.4487145119056339,0.6048363587707328,0.5,-0.5773334409905605,0.5804333131111533,0.5,-0.9006520679486816,0.9125139060442017,0.5,-0.3529210197521028,0.4604340608210314,0.5,0.79795108301936,-0.10930923417147576,0.5,-0.001980574437823353,0.23206088269681363,0.5,0,
0.32808748999733267,0.45327492868385694,0.5310752745828172,0.9879268108023599,-0.5736896692916904,0.5525977909162718,0.5082447874441403,-0.8945150602367412,0.6859747837026988,0.6720710323164872,-0.3472159995948618,0.49687608632032265,0.5,0.7988398390257416,0.11460693730241944,0.5,0.0020778019061857946,0.19693025573378778,0.5,0,
0.3360896238997066,0.45721171629895896,0.07153646432663668,0.5,-0.5684918763359001,0.6257990361586002,1.0241632312931521,-0.8896764714094384,0.2746400026862675,0.5582891195567302,-0.34497100237097766,0.09230473785652726,0.5,0.7997847940161987,0.10064885349903019,0.5,0.0011703096539172513,-0.44812324224576017,0.5,0,
0.34409175780208057,0.4544195121130831,0.060259000163799536,0.7699243613694454,-0.5636768847131528,0.43269977202603505,0.5,-0.8901208201937609,0.6033720951559574,0.5,-0.3457391237891574,0.31824575539169186,0.5,0.8004502206817261,0.05420150949155683,0.5,-0.005092169969746368,-0.07959941276293347,0.5,0,
0.35209389170445454,0.45817586030157975,0.4889338289095352,0.5641772900951552,-0.5615686799834836,0.36840524613715453,1.0742384036480919,-0.8800225178869431,0.9068152031466992,0.6743820677799227,-0.3398790702847106,0.5700175983267621,0.5,0.8006520181680636,0.21224230299939084,0.5,-0.00010328095028968437,0.32844827563227785,0.5,0,
0.3600960256068285,0.4622424533756357,0.2209781872827797,0.5,-0.5577824007749583,0.5731193957695598,0.9015359161858568,-0.8756117769434137,0.5085187742144212,0.5,-0.3366188422159292,0.17511336763342822,0.5,0.8038460975297164,-0.23502414528635968,0.5,0.00016300244037007752,-0.1527409778580193,0.5,0,
0.3680981595092025,0.4617115112981042,0.35171684698510547,0.5,-0.5523987696511706,0.371826484713067,0.5,-0.8718862174995123,0.497040259244394,0.5,-0.33707725640257574,0.21442678670920493,0.5,0.7968916318434819,-0.10513528057314037,0.5,-0.0025471365960179934,-0.2801119949979626,0.5,0,
0.37610029341157647,0.4678699229273974,0.3672951192913096,0.577337185343625,-0.5518331770195493,0.4190785676366632,1.1018798535951833,-0.8676591327955034,0.6986578449099945,0.5,-0.3331880136285819,0.28303528917127463,0.5,0.8021639330405461,0.17715131375450888,0.5,-0.004318789479597324,-0.06567660819722437,0.5,0,
0.3841024273139504,0.4675882332067652,0.04333754350151209,0.6767871151913384,-0.545693512568984,0.6677864773990683,0.6760295623765118,-0.8607076919809524,0.5391922450848143,0.5,-0.33254869177583535,0.5841379662149988,0.5,0.799726052863554,-0.13885074957208782,0.5,-0.0035979623271735835,0.20542450679763494,0.5,0,
0.39210456121632437,0.46856332362342157,0.3951025711803266,0.5,-0.5411485933811642,0.534524646020676,1.8112905815898614,-0.8590320568741464,0.32635408141729744,0.511176224114488,-0.32384180616914193,0.10811324255921573,0.5,0.7999423210473927,-0.009846619706072035,0.5,-0.0010319973708351642,-0.003477446161596269,0.5,0,
0.40010669511869834,0.4739098743456504,0.3006507613068435,0.5,-0.5371411182326532,0.12313153274009364,0.6232963277436561,-0.8554860266782757,0.6825030380532976,0.5,-0.3308188798948879,-0.04827858217934175,0.5,0.7995685069482569,0.07449537764143976,0.5,-0.003653601465759124,-0.026370525736352016,0.5,0,
0.4081088290210723,0.47337373580433106,0.2618639546753537,0.5605127183199227,-0.5391784888573227,0.0065372699375385035,1.824763556310331,-0.8481120082652936,0.7189588590093484,0.5291202359049751,-0.3246142634840114,0.41414394954797373,0.5,0.8011342470896557,0.11408480790218306,0.5,-0.0014539257826167965,0.17175114553354945,0.5,0,
0.4161109629234463,0.47809969762045607,0.6012408082255727,0.5,-0.5370365219136526,0.41702457838094925,1.2560666084173286,-0.8439826849341261,0.4480098784696643,0.5,-0.3241925767021203,0.2220824276435232,0.5,0.8013938638746918,-0.20573903880712757,0.5,-0.0009055831372223327,0.20264127827815642,0.5,0,
0.42411309682582027,0.4829935887359402,0.32601062512488743,0.968200817535265,-0.5325060956032275,0.6489372150087699,0.9633181531145385,-0.840943850209779,0.39646078628932657,0.5,-0.32106094464171503,0.4486080450027824,0.5,0.7978424224687417,0.2831383114969624,0.5,0.0017883346698337062,-0.0768842997339535,0.5,0,
0.43211523072819424,0.48331586762245426,-0.17349269224072733,0.7542297518716721,-0.5266535264735123,0.4529362727297634,0.8828652958075589,-0.8376393123534969,0.5454721744577729,0.5,-0.3170148479820758,0.20766210693055898,0.5,0.8059240768586432,0.2878145717152905,0.5,-0.0021357319329655886,0.018137366727131864,0.5,0,
0.44011736463056816,0.4802177056600886,0.26561825759183894,0.5,-0.5252591152395513,0.26942865020634227,0.5,-0.8322162954184547,0.3056653506339699,0.5,-0.3177383509308261,-0.040129602350780225,0.5,0.8024474556161864,-0.44796258584282184,0.5,0.002078532537467816,0.24136378522079688,0.5,0,
0.44811949853294214,0.4875657597439237,0.22554232068875205,0.5,-0.5223426680702108,0.2723818934412328,0.5,-0.8327486667433533,0.1957866152955054,0.6502857220201508,-0.3176569216196883,0.30596666815262474,0.5,0.798756675485158,-0.19424249822084377,0.5,0.0017260886305671616,-0.3296423473008275,0.5,0,
0.4561216324353161,0.4838263827911086,0.04639672247127788,0.6955810966960848,-0.5209010049444915,0.2673711365763845,0.6172781726425473,-0.8290837095737266,0.6192096740478478,0.5,-0.3128428842403841,0.14943362980259292,0.5,0.7993395756446529,0.13319740412535974,0.5,-0.0031957450193454235,0.04385155889659748,0.5,0,
0.4641237663376901,0.48830810730346413,0.3798013897246544,0.5,-0.5180647298849886,0.36180670632125767,0.5,-0.8228413119585878,0.44498997042247135,0.6274377357249009,-0.3152659835428468,0.1521882914026669,0.5,0.8008878339511638,0.10704090657014803,0.5,0.0024277135729127214,0.15546386015030964,0.5,0,
0.47212590024006407,0.4899032050267031,0.29006023135782,0.5,-0.5151120976433514,0.33567987353973205,0.5009806589786951,-0.821963870046967,-0.013192019645807962,0.5,-0.3104078715779414,0.25974387009288985,0.5,0.8010522301497752,-0.160671199618323,0.5,-0.0007083232569404691,-0.3930402993115679,0.5,0,
0.48012803414243804,0.49294907100518925,0.15676518223033467,0.5,-0.5126938519083529,0.24105382193496255,0.5,-0.8230523842729207,0.27180088992637824,0.7853788482722549,-0.31111008162136056,0.34804988291049777,0.5,0.7983170947572706,-0.3478159582020468,0.5,-0.003860931216072366,0.054345524173617536,0.5,0,
0.48813016804481196,0.49241144794238845,0.06107870126004569,0.5,-0.511255236492392,0.2508340680429308,0.5,-0.817615055808145,0.798430921315589,0.9393975405462685,-0.30483907345137345,0.2271727326797479,0.5,0.7954871748185425,0.3394445531732307,0.5,0.0001612051298374116,0.1068249290107074,0.5,0,
0.49613230194718594,0.49392633022535,0.3076397206492193,0.5,-0.508680506819666,0.28894823684840615,1.805919421081808,-0.8102774895318713,0.2385322225124109,0.5,-0.3074753178984846,-0.3039116826123629,0.5,0.8037482076080423,0.4311668285564285,0.5,-0.0021517323519010473,0.059316343911131435,0.5,1,C153B7
0.50413443584956,0.49733368347277596,0.05936366306366625,0.5,-0.5066320647028175,-0.11111045123432528,0.5,-0.8137985402479464,0.16410693208514932,0.5,-0.30970166037317126,0.2462290694035009,0.5120967741935484,0.8023858440754453,-0.2300153352906703,0.5,0.0011102666324155146,0.1980039526294799,0.5,1,C153B7
0.5121365697519339,0.49487614883436865,0.0014798640526857143,0.5,-0.5104582740394152,-0.05591779238053873,1.8054291044953996,-0.8076517786185089,0.18349458982151734,0.5,-0.3035356527880286,0.36015168631388716,0.5241935483870968,0.8000679622433916,-0.15373148430279648,0.5,0.0010163308901706308,-0.07640938280818958,0.5,1,C153B7
0.5201387036543078,0.4973573612976189,-0.07286725078620507,0.5371543715747313,-0.5075267493809061,0.3711224214372477,1.4140653642531733,-0.8108626268108021,-0.01801206163196123,0.5,-0.30393923339214907,-0.186409425998426,0.5362903225806451,0.7999261403266006,0.04390231876783002,0.5,-0.00011228349251551876,-0.138002600941186,0.5,1,C153B7
0.5281408375566818,0.49371027282178936,0.19592775391469655,0.5,-0.5045203152964193,0.049302886247749866,0.5,-0.8079399716046203,0.3432087607270484,0.5,-0.3065182036040034,0.29326073451604523,0.5483870967741935,0.8007703993436769,-0.020156384688517492,0.5,-0.0011917107248883452,-0.29410066930125034,0.5,1,C153B7
0.5361429714590558,0.5004922053602541,0.21565233243103776,0.6638642800403045,-0.5067379032009421,0.11885188288447007,0.9253699903020048,-0.8053712866391693,0.21963912265966085,0.5,-0.29924706163989234,0.2797562177084545,0.560483870967742,0.7996036381715843,-0.11659195557940649,0.5,-0.004817894201335524,-0.06502717706235583,0.5,1,C153B7
0.5441451053614298,0.49716071014068597,-0.15743685281821573,0.5308385294878103,-0.5026186851702678,0.3225055800045104,1.130701463331142,-0.8044257456420657,0.13571827487189603,0.5,-0.3020421041206681,-0.1481601379572893,0.5725806451612903,0.7989049280544064,-0.11668569263174888,0.5,-0.0022321455578860386,0.4983468329120531,0.5,1,C153B7
0.5521472392638037,0.4979732157151626,0.11504362254878553,0.5,-0.50157781392087,0.08466401088417369,0.901033681157027,-0.803199794241219,0.22328120993632405,0.5,-0.30161762384720897,0.36426708816001196,0.5846774193548387,0.7977366670894763,0.15462556746256156,0.5,0.0031556551252573265,-0.18287765047878574,0.5,1,C153B7
0.5601493731661777,0.49900140810146654,0.0997274915708439,0.5,-0.501264060996121,-0.12479907830033332,1.4079260785826109,-0.8008532462830845,-0.11861107831051543,0.5,-0.29621383071010793,-0.1615997402724563,0.5967741935483871,0.8013789371338074,0.1949561682822315,0.5,-0.00515818796554661,-0.19627111992896276,0.5,1,C153B7
0.5681515070685517,0.4995688555802961,0.11688478190510776,0.5,-0.5035745991736753,0.17575235801452552,0.5,-0.8050975714941873,-0.20494121467239806,0.6846839174535115,-0.30420321969156827,-0.16341037172984754,0.6088709677419355,0.800855965781992,-0.2359794868045037,0.5,1.5317206393922124e-05,0.28072081912719804,0.5,1,C153B7
0.5761536409709256,0.5008715646119483,0.04536644031344003,0.507492347305246,-0.49845202326788857,0.24951642710611954,1.919826998907586,-0.8041323057178429,0.32778656816648266,0.5,-0.2988283966577855,0.2635443594628146,0.6209677419354839,0.7976032653449353,-0.01998844341822431,0.5,-0.000666654859511441,0.1282436258473253,0.5,1,C153B7
0.5841557748732996,0.5002947186253112,-0.2421202174853372,0.5,-0.4995823363399774,-0.18685590828889168,1.214863296423697,-0.7998529864035235,0.16760667072474034,0.5,-0.29998650994016324,-0.02306762675794577,0.6330645161290323,0.8005361506873004,0.1678054611049945,0.5,0.002067215219951127,-0.08945767912554109,0.5,1,C153B7
0.5921579087756735,0.49699764113218287,-0.19511896489883898,0.5139336305230731,-0.5014417178005108,0.06025457706908266,0.5,-0.801450598986247,-0.09586589937052997,0.5,-0.2991974786859126,0.04000365751109097,0.6451612903225806,0.8002881527226152,-0.09000013423154929,0.5,-0.0020979777255200984,-0.2594067513798083,0.5,1,C153B7
0.6001600426780476,0.49717281518692974,0.03953097634081318,0.5196636209022015,-0.4986182631068721,0.08985217270189583,1.4213786898036787,-0.801386840793452,-0.014922030471348213,0.5,-0.2993464514199858,-0.11980133224307951,0.657258064516129,0.7990961485395957,0.06160508491825922,0.5,-0.0020832928021258055,0.10176300388948152,0.5,1,C153B7
0.6081621765804215,0.4976301367536359,0.3111942938134847,0.5,-0.5000040830372805,-0.2186194376615977,0.9089001153159576,-0.8016893514737886,-0.04766623925091945,0.5,-0.3011143000018019,0.03975033058303476,0.6693548387096774,0.8012738340813074,-0.02898723268086878,0.5,-0.0004697696632883941,0.24757216741626903,0.5,1,C153B7
0.6161643104827954,0.5021519238879455,0.34310336640550054,0.9737751398367634,-0.5021161741094576,-0.013598040502355024,0.5,-0.8021495006214667,-0.04928981156230444,0.5,-0.2987104461306572,0.0018098989470749505,0.6814516129032258,0.7986323528167018,-0.18657602238879994,0.5,0.0018778618765344997,-0.06714212868657982,0.5,1,C153B7
0.6241664443851694,0.5031197906161239,-0.12048100142722507,0.5,-0.5002216516853182,0.02154174920615537,1.7143720199036574,-0.8024779884587855,-0.039910070616405724,0.5,-0.3010853416186487,-0.29110395994181787,0.6935483870967742,0.7982886177230866,0.16058005420564736,0.5,-0.0015440437222736711,-0.15198448142594734,0.5,1,C153B7
0.6321685782875434,0.5002242278651099,-0.3115463521963027,0.5911814407386029,-0.5017715061221591,-0.35215839462247184,1.7340451894561888,-0.8027880617513292,-0.05225499963035923,0.5,-0.3033681094897263,0.042938829071106216,0.7056451612903225,0.8012016336839921,0.11181175890753736,0.5,-0.0005538898262806576,-0.08738747017701079,0.5,1,C153B7
0.6401707121899174,0.49813504898098304,-0.0373936202029794,0.5,-0.5058561859992777,0.013381680530416551,0.9723380233320511,-0.8033140684528712,-0.0883458256865921,0.5,-0.300398320353511,0.22446435390691133,0.717741935483871,0.8000776058656072,-0.02183538610434771,0.5,-0.002942243245105844,-0.17660640527579227,0.5,1,C153B7
0.6481728460922913,0.4996259299418622,-0.19303494096570978,0.5,-0.5015573992336725,0.21048368924998784,1.3370493035459836,-0.8042015949623147,-0.1595840413881125,0.5,-0.29977667982721573,-0.10266143971335642,0.7298387096774194,0.8008522675063225,-0.039820356828812464,0.5,-0.003379592310693334,0.3455308656503522,0.5,1,C153B7
0.6561749799946653,0.4950464899255317,-0.3865975258577174,0.5,-0.5024884469712779,-0.09745445497776756,0.7580044260302943,-0.805867413115081,-0.10751217975444455,0.5,-0.3020409033889247,-0.16775463558119444,0.7419354838709677,0.7994404801563462,-0.0755960445131959,0.5,0.0025862506052997916,0.058621927882956115,0.5,1,C153B7
0.6641771138970393,0.49344036952813874,-0.22793811915315307,0.5,-0.5031166705133168,-0.2470667599583018,0.5,-0.8059217898383858,-0.23145354487568576,0.5,-0.30246075399651484,-0.017225760012951064,0.7540322580645161,0.7996427307941114,-0.18641186575641538,0.5,-0.0024416414645660363,-0.02264736510869183,0.5,1,C153B7
0.6721792477994132,0.49139948001908124,-0.08194884447645934,0.5037316171026097,-0.5064415151306108,-0.24400508576523372,0.5312410980197204,-0.809570669833092,-0.25886475889089905,0.5510187480824489,-0.3023165155491319,-0.1424865049067664,0.7661290322580645,0.7964578903042435,-0.0038160670727815926,0.5,0.0022238927635607223,0.12394193845786657,0.5,1,C153B7
0.6801813817017872,0.4921291880165154,0.212254391063732,0.5,-0.5070207518855605,-0.3331400691515621,0.7706821148365789,-0.8100636259806402,0.13407489564245395,0.5,-0.3047405380750231,-0.11048547616602025,0.7782258064516129,0.7995816737209469,0.2166239498885142,0.5,-0.00045857044924017115,-0.2841403562549118,0.5,1,C153B7
0.6881835156041611,0.49479555027610095,0.2697262012527693,0.693325644077517,-0.5117717562370357,-0.18488677415363225,0.5,-0.8074254715028127,-0.13589452087349463,0.5,-0.30408428316778824,-0.26921399692575104,0.7903225806451613,0.7999238735024597,-0.28348635035814473,0.5,-0.0023223529365178665,-0.13095146276276243,0.5,1,C153B7
0.6961856495065352,0.4964448072365597,-0.13395828578756028,0.5,-0.5099789402720186,-0.11548453468530201,0.5,-0.8122379383146161,-0.44870981656253833,0.5,-0.3090479620258351,-0.046673824842632244,0.8024193548387096,0.7950458921152166,0.001400862345658782,0.5,-0.0025537938534443702,0.04357935924507327,0.5,1,C153B7
0.7041877834089091,0.4926522177035,-0.1654249229058359,0.5,-0.5136195087920006,-0.11499265084423393,0.5660324308445285,-0.8146048285678134,-0.5730778488715546,0.6439730244226131,-0.30483106436527035,0.0855584508035051,0.814516129032258,0.7999462872999903,0.3907742762835134,0.5,-0.001625083188596694,0.023315437253857214,0.5,1,C153B7
0.7121899173112831,0.49379800847006633,-0.10058826799731052,0.6090996436536352,-0.5118188226855264,-0.014923210818133803,0.5,-0.821407183896561,-0.2130099249225484,0.5,-0.30767902681297904,-0.3023931165054075,0.8266129032258065,0.8012982805357528,0.0076801201646659045,0.5,-0.002180746857382655,0.16678134656938798,0.5,1,C153B7
0.720192051213657,0.491042805415543,-0.42239000389250947,0.5,-0.5138582801650907,-0.04546682542496544,1.040858308060794,-0.8180129873665741,-0.06325455869968938,0.6921069504318361,-0.3096693542293569,-0.201744683963688,0.8387096774193548,0.8000691692226249,0.04347321445872382,0.5,0.0010434183565135135,0.3243991145211336,0.5,1,C153B7
0.728194185116031,0.4870397684077862,-0.20230850391163985,0.5,-0.5125462918923258,-0.2721146316517001,1.046103692046635,-0.822419256835756,-0.5309685296861905,0.5,-0.31090694175639805,-0.34592497163536334,0.8508064516129032,0.8019938519670924,0.05114891821105666,0.5,0.0030096389749554838,-0.15441990201432076,0.5,1,C153B7
0.736196319018405,0.4878058693529568,-0.13914961641855322,0.5,-0.5182121142715179,-0.5018739451196352,0.7863587190037495,-0.8265084838415532,-0.20347996827639603,0.5,-0.3152041537755227,-0.2672364953910933,0.8629032258064516,0.8008875519140018,0.047128253638409334,0.5,-0.001427300075715619,0.03077775251449636,0.5,1,C153B7
0.7441984529207789,0.4848133745450893,-0.20341880129899625,0.5,-0.52057627501424,-0.35765382934557777,0.5,-0.8256749363281783,-0.07186945449196014,0.662404458322607,-0.31518272568265554,-0.07992706817191997,0.875,0.8027479040253069,0.05622324398707468,0.5,0.0035020830151874256,0.14350491780323266,0.5,1,C153B7
0.7522005868231529,0.48455116853217284,-0.277284669771026,0.5,-0.5239345755410472,-0.30955825932584,0.7139036067659916,-0.8276583951134245,-0.5920722391114797,0.5,-0.3164829868662734,-0.05526555775115655,0.8870967741935484,0.801787123817795,-0.20838503230203448,0.5,0.0008687786091361036,-0.2788367145788828,0.5,1,C153B7
0.7602027207255269,0.4803768198287529,-0.1038625402532932,0.5,-0.5255292071634534,-0.17042030942023695,1.400874602852689,-0.835148092153962,-0.7798920919254715,0.5,-0.31606697460667404,-0.31791152811442774,0.8991935483870968,0.7994137435084744,-0.3632578191906724,0.5,-0.0009593044180746994,-0.1642516619370582,0.5,1,C153B7
0.7682048546279008,0.48288936788812015,0.14918560839183997,0.8612410607211449,-0.526661300491771,-0.4762317225222301,0.5910371754614705,-0.8401366685842321,-0.5141639314276899,0.5,-0.32156957131610425,-0.22263853783686602,0.9112903225806451,0.7959749987107443,0.005709606603940265,0.5,-0.0017592479818568276,0.11684182750017202,0.5,1,C153B7
0.7762069885302748,0.48276378956302235,-0.29368136584845966,0.5610449217496103,-0.5331489147238091,-0.3528446468506474,0.7428234657061257,-0.8433747150568051,-0.2009379035487202,0.5,-0.3196291912120639,-0.15999650019688297,0.9233870967741936,0.7995050972141374,0.13533998931885421,0.5,0.0009101648219280528,0.09591283251873857,0.5,1,C153B7
0.7842091224326487,0.4781904660345448,-0.571259405124664,0.5,-0.5323068148413813,-0.21604764314948205,1.3329640545069286,-0.8433516750410116,-0.43571357830603924,0.5,-0.3241295153192544,-0.06172198952333549,0.935483870967742,0.798140438539846,-0.06279510089263196,0.5,-0.00022464266155701042,-0.07570458253734665,0.5,1,C153B7
0.7922112563350228,0.4736236390810277,-0.4467392506984566,1.2018422683916339,-0.5366056770142008,-0.5107790219716426,0.6158909615913657,-0.8503461323097017,-0.6493555822849675,0.5,-0.32061674304443727,0.016823486841427426,0.9475806451612904,0.7985003755998553,0.42388716896254314,0.5,-0.00030110849866949347,-0.046545678334560456,0.5,1,C153B7
0.8002133902373967,0.4710426380233695,0.21474994142376205,0.5291671495445234,-0.5404792791929276,-0.3995881016969835,0.5525174334447821,-0.8537413643575711,-0.40233848804101247,0.5,-0.32386033952979154,-0.17543709131122298,0.9596774193548387,0.8049226332432466,0.16502977992972206,0.5,-0.0009693735149099777,-0.28171969240234845,0.5,1,C153B7
0.8082155241397707,0.4770596381438079,-0.05565516681857452,1.1228945594820816,-0.5429990866413525,-0.48572104043807796,0.7633349323711016,-0.8567835481183579,-0.694588345955531,0.5,-0.32342373650541684,-0.43293399562714663,0.9717741935483871,0.8011408520787309,-0.3568803092737216,0.5,-0.0048086235771070684,-0.048943618261585706,0.5,1,C153B7
0.8162176580421446,0.4701521553542723,-0.6255089251807067,0.5470965519447398,-0.5482508158399368,-0.34235747793905785,0.6934449906151587,-0.8648547778928596,-0.5125165943970014,0.5,-0.3307872834598259,-0.629918559487061,0.9838709677419355,0.7992125482948671,-0.01386884566158264,0.5,-0.001752471407095349,0.33628415344025775,0.5,1,C153B7
0.8242197919445186,0.4670514953409166,-0.35290317587788333,0.5,-0.5484768062883775,-0.20496331358910852,1.826047552808891,-0.8649838136287099,-0.27136407125192413,0.5,-0.3335024334572098,-0.38797959522761033,0.9959677419354839,0.8009189505481455,0.0014418555101397557,0.5,0.0005719228779370553,0.23089253416889566,0.5,1,C153B7
0.8322219258468926,0.46450570454022616,-0.33004095487809,0.5,-0.5515302288573626,-0.5992561084844916,0.5,-0.8691966030328904,-0.6411303198125897,0.5,-0.33699495698346765,-0.3928044260831168,1.0080645161290323,0.7992356179830293,-0.03663602113155445,0.5,0.0019418091396069816,-0.21637420850989617,0.5,1,C153B7
0.8402240597492665,0.46177084006286717,-0.3233309441845848,0.5,-0.5580649040241293,-0.5499109488646611,1.1849488825410002,-0.8752418987457113,-0.7667701739608248,0.5,-0.3397873042745397,-0.3373627612418793,1.0201612903225807,0.8003327742100407,0.08088320389480069,0.5,-0.0028900644582212833,-0.09395692382977207,0.5,1,C153B7
0.8482261936516405,0.4593324094332728,-0.294253687709408,0.5,-0.5603288040391972,-0.31967085737062695,0.7675615870749534,-0.8814649258162636,-0.8405800042265849,0.5,-0.3423927611633377,-0.16568045400828027,1.032258064516129,0.8005297492453461,-0.2148334842156513,0.5,0.0004384983583306285,0.30283264393598186,0.5,1,C153B7
0.8562283275540145,0.45706278105951664,-0.2696213992897274,0.5,-0.5631796377420594,-0.44992251188079313,0.6313583851932827,-0.8886911788133367,-0.5363080657261182,0.5,-0.34243819153867217,-0.12795166185401372,1.0443548387096775,0.7968954384625903,-0.1163466996691731,0.5,0.0019552578447544267,0.17099917500307196,0.5,1,C153B7
0.8642304614563885,0.45501846704463716,-0.42745637528412983,0.5,-0.5675275642292898,-0.5646201707257616,0.5728561969763378,-0.8900458548678815,-0.6791300821151203,0.5,-0.34443998775300194,-0.4320427540273723,1.0564516129032258,0.7986682020506394,0.24426469427921843,0.5,0.00317448515837978,-0.17986897058747767,0.5,1,C153B7
0.8722325953587624,0.45022347905497057,-0.4168326046142881,0.5,-0.5722135604736716,-0.6667550437190056,0.5160155774840345,-0.8995572601271786,-0.8459856963726059,0.5,-0.3493508756031101,-0.5088947641156416,1.0685483870967742,0.8008036735710578,0.33725124210073204,0.5,-0.0009226456846452162,-0.22806588358925206,0.5,1,C153B7
0.8802347292611363,0.44834914537080856,-0.3601575534706268,0.5,-0.5781956449287939,-0.5933727130755101,0.5,-0.9035816260098432,-0.672324574591078,0.5,-0.3525823039788522,-0.3256513816980444,1.0806451612903225,0.8040642219242511,-0.20750882143906468,0.5,-0.0004745689790482528,0.18953531719385402,0.5,1,C153B7
0.8882368631635104,0.44446095819944054,-0.3434518001005533,0.5,-0.5817075238828797,-0.6599422545339392,0.6758041990098314,-0.9103144533206359,-0.8818621202491828,0.5,-0.35456129771027883,-0.2261584704829865,1.092741935483871,0.7974835324280327,-0.4531683317715862,0.5,0.0021099193904564485,0.21033551503162942,0.5,1,C153B7
0.8962389970658843,0.4428539165691997,-0.3822804978005391,0.5,-0.588754721001337,-0.5412863029086931,0.5687334349795027,-0.9176914199338301,-0.6068018098128388,0.5,-0.35620083950658,-0.48007407768016486,1.1048387096774193,0.7968135286159057,-0.04519465954548607,0.5,0.002890799261457818,-0.2593713159339461,0.5,1,C153B7
0.9042411309682583,0.4383444702346319,-0.4860030328710622,0.6596079087544304,-0.5903681047294188,-0.6559415006972754,0.547505026087219,-0.9200232822776413,-0.4272365579953835,0.794168438879358,-0.36224248295316147,-0.6551099381973402,1.1169354838709677,0.7967604178753049,0.13736929046718332,0.5,-0.0020400216644866887,-0.31509795327400225,0.5,1,C153B7
0.9122432648706322,0.4350778680432627,-0.20065517544121808,0.5,-0.5992497850124934,-0.738784968881398,2.1106188878342604,-0.9245272048617562,-1.0077277623377414,0.5,-0.36668259851773743,-0.2742741396938482,1.129032258064516,0.7990114372633806,0.2786734988106804,0.5,-0.002150767990926218,-0.09175981121356963,0.5,1,C153B7
0.9202453987730063,0.4351339874275724,-0.2182085548502674,0.5279273882731689,-0.6021886642315212,-0.26998995221551303,1.2804169673539012,-0.9361469264750452,-1.0155967202492566,0.6888216941611355,-0.36663086918826304,-0.3310769210568068,1.1411290322580645,0.8012191938562758,0.17523075087755996,0.5,-0.003508178643903803,0.054785189687509186,0.5,1,C153B7
0.9282475326753802,0.4315865311656584,-0.5156466266877414,0.5,-0.6035696242479416,-0.5629469049510046,1.2415285945417653,-0.9407767523857443,-0.5912958496948963,0.5,-0.37197982925464634,-0.18761879402191123,1.153225806451613,0.8018151292774216,-0.04475544376417867,0.5,-0.0012742049559260709,0.042127508155828594,0.5,1,C153B7
0.9362496665777541,0.42688364140056856,-0.5127325583077942,0.5780205811371362,-0.6111958147107373,-0.8312885464208316,1.210762410747878,-0.9456076600701635,-0.7366466239396713,0.5,-0.3696327698926136,-0.41093452893532084,1.1653225806451613,0.800503106756049,0.006251628171610735,0.5,-0.0028341385134105453,-0.08578961277416987,0.5,1,C153B7
0.9442518004801281,0.4233828102327337,-0.1668967647587699,0.5,-0.6168702409906749,-0.6001766170943625,0.9235664840406986,-0.9525630983687791,-0.9339085642384171,0.5,-0.3785547817176115,-0.4419486751362986,1.1774193548387095,0.8019151553281674,0.15514340748270378,0.5,-0.0026468387603127887,0.012888593542161833,0.5,1,C153B7
0.952253934382502,0.42421329316442824,-0.40445323375701975,1.1547468810878065,-0.620798640584247,-0.4100749111162344,0.5,-0.9605501970979782,-0.7527588523035186,0.5,-0.3767039486947944,-0.3215360750021268,1.189516129032258,0.8029854012757722,0.00347908892032317,0.5,-0.002627921016735956,0.12434321652202707,0.5,1,C153B7
0.9602560682848761,0.4169115584926214,-0.9765610041807433,1.1195395300011282,-0.6234314395685346,-0.39160871873449715,1.5563146421402185,-0.9646072400056354,-0.6281171955389505,0.5785139679027467,-0.3836993589176455,-0.576712602422022,1.2016129032258065,0.8019708207508925,-0.39227388685982717,0.5,-0.0006573472959603557,0.054491322431728696,0.5,1,C153B7
0.96825820218725,0.40858831709753635,-0.45418875400687897,0.8848090460269211,-0.627064380083999,-0.7431274118516531,0.7875681742099104,-0.9706000722266014,-0.9756187191605966,0.5,-0.38593135033354675,-0.4255917196226387,1.213709677419355,0.796709019086015,-0.12418380103282334,0.5,-0.0017560598578282968,0.01758506748832702,0.5,1,C153B7
0.9762603360896239,0.40964453842851134,0.020237436222491495,0.9950939496216479,-0.6353214781581611,-0.8769784875671468,1.809983323337466,-0.9802171395122049,-0.9666410761491884,0.5,-0.3905088264316077,-0.390416752885727,1.2258064516129032,0.7999838799343674,0.0972160280548473,0.5,-0.00037598621614712334,0.14840402157976126,0.5,1,C153B7
0.984262469991998,0.4089121160770962,-0.5159335922276866,0.5,-0.6410960358850734,-0.48037628193042803,0.8344866233015298,-0.9860663294449884,-0.8828816874270825,0.5,-0.3921780183797184,-0.32041496359287713,1.2379032258064515,0.7982644755348925,-0.1103288151859394,0.5,0.0006184044874478834,-0.1893299286976986,0.5,1,C153B7
0.9922646038943719,0.40138960095286835,-0.3781280864846546,0.5,-0.6430074986690479,-0.6338516808582564,0.5,-0.9943432465110382,-0.7257954120621148,0.5,-0.39563546584909376,-0.6749023040694934,0.5,0.7982186188913923,0.1730798717008014,0.5,-0.0034052650753103007,0.11112263639700545,0.5,0,
1.0002667377967458,0.40286206669334174,-0.1920309968460321,0.6666470153125867,-0.6512376627788055,-0.6889701631711195,0.5,-0.9976790560379822,-0.8516450196039138,0.5054947355984277,-0.4029764552448303,-0.4032131738198816,0.5,0.8010337534821054,0.1475173470702959,0.5,0.0023963666697999707,0.523452327434587,0.5,0,
1.00826887169912,0.39831710500333184,-0.5841069955256628,0.5,-0.6540310212797859,-0.7391718820607407,1.0056490456339555,-1.0079695668247008,-1.102209231481438,0.5,-0.40208687663021186,-0.319556468764276,0.5,0.8005788964445171,-0.012462458053690006,0.5,0.004969972163643092,-0.09003853537634739,0.5,0,
1.0162710056014939,0.39351635476493113,-0.42323947696220815,0.5,-0.6630644128917773,-0.9504370978224985,2.475137712924775,-1.0153144037416852,-0.883530773831187,0.5,-0.4080893587450587,-0.6019144950339984,0.5,0.8008343541532463,-0.06437239340823658,0.5,0.0009557501037784125,-0.4476439229645111,0.5,0,
1.0242731395038678,0.3915452733719365,-0.5874429518461892,0.5,-0.6692380148449458,-0.43498374766313963,0.7876582767738451,-1.0221060592059998,-1.0055672654446928,0.5,-0.41171750855075584,-0.29135047555647536,0.5,0.7995489381499853,0.16582517670213348,0.5,-0.0021923306037890866,-0.018224070240628696,0.5,0,
1.0322752734062417,0.3841172675353921,-0.5572893103438469,0.5,-0.6700241528543875,-0.5961001816222194,0.9306593579376536,-1.0314034799888003,-0.9712637778927502,0.5,-0.4127509663539623,-0.5423136179184412,0.5,0.8034875569804805,0.12497281413319239,0.5,0.0006641649799283534,0.1631038898515332,0.5,0,
1.0402774073086156,0.38262864440643496,-0.40732525687173227,0.5,-0.6787756177509013,-0.7982137283446891,0.9536129623823306,-1.0376462796522838,-0.7857027525104282,0.5,-0.4203945264374509,-0.7088614104521669,0.5,0.8015485031761164,-0.1052797020629076,0.5,0.0004173316338354447,-0.12211029499278363,0.5,0,
1.0482795412109898,0.3776000634254444,-0.41638136368739653,0.5,-0.6827955725079026,-0.6120378515257554,0.953758709164056,-1.0439747240289672,-1.0052958983791105,0.5,-0.42409274892119697,-0.22874025910046142,0.5,0.801803081747474,0.031069336423307503,0.5,-0.0012895997399561846,-0.17004454143980305,0.5,0,
1.0562816751133637,0.3759665425874366,-0.4724731486852006,0.5,-0.6885682233753134,-0.8145176349535834,0.5,-1.0537310140263496,-1.1473582559463484,0.5,-0.4240543705830583,-0.29012544740138896,0.5,0.8020456125588893,-0.129163706658518,0.5,-0.002303381029201404,-0.001755002295484887,0.5,0,
1.0642838090157376,0.3700404930464812,-0.5708600259065472,0.5,-0.6958278546671599,-0.8398968382112848,0.7733970813421175,-1.0623324561241088,-1.0306847656914586,0.5,-0.4287347560796192,-0.5743504251742095,0.5,0.7997364624409377,-0.11963535709313272,0.5,-0.0013176797766839428,0.31954733524225354,0.5,0,
1.0722859429181115,0.36683278217293186,-0.5462372988164071,0.5,-0.702006572786694,-0.7011201670901884,0.8315459633414597,-1.070221970277413,-1.0121606502677127,0.5,-0.43324397738584564,-0.4004631225739373,0.5,0.8001314468453992,0.014126892384579148,0.5,0.0028093763346746523,0.13724977495371538,0.5,0,
1.0802880768204854,0.36130069626541866,-0.7239420725396253,0.8657258653619327,-0.7070457773406029,-0.8682347366470305,1.1390716731125654,-1.0785270265283922,-0.9116254092788323,0.5,-0.4351421660408022,-0.6091001779821997,0.5,0.7999624927190909,-0.14293412619355295,0.5,0.0008783166225755032,-0.14465128322232249,0.5,0,
1.0882902107228596,0.35524970901229785,-0.26004899583426455,0.5,-0.7158983285730465,-0.6553950869154085,0.5,-1.0848079768258743,-0.717008497781918,0.5,-0.44298958023356083,-0.881075732852038,0.5,0.7978445008263023,0.07687113688558539,0.5,0.0004949558031174926,-0.05635209189427323,0.5,0,
1.0962923446252335,0.35713991233207043,-0.460880470497603,0.8796364578382673,-0.7175320987312495,-0.7275390228611567,1.5705465218094448,-1.0899991624929029,-0.6112394043276681,0.8232855537552813,-0.4492393777664348,-0.4864033075533264,0.5,0.8011924309092603,0.10457223600446319,0.5,-2.331684773286859e-05,0.08453374980000578,0.5,0,
1.1042944785276074,0.3478756214843362,-0.9200884558317398,1.4258440440168318,-0.727538952938825,-1.057089191604306,1.5900052520319747,-1.094587807295117,-1.178243047401717,0.5,-0.45077203315441405,-0.28709069876009863,0.5,0.7995176566023737,-0.2259036598653008,0.5,0.0018474957999175849,-0.10773783205018574,0.5,0,
1.1122966124299813,0.3424184970387626,-0.20800216134083532,0.5,-0.7344455257969184,-0.7323719619303087,0.5,-1.1088510512513303,-1.2411772187514296,0.500843931885395,-0.4538328289465964,-0.6288968333768574,0.5,0.7975779723514155,0.025331166397669913,0.5,-0.0017471221605358403,-0.2736328319232231,0.5,0,
1.1202987463323555,0.34454758690288284,-0.234470847446603,0.8076249825673604,-0.7392569043297099,-0.6935568277829165,0.534986009446457,-1.1144466427951398,-1.0087957257416262,0.5,-0.4608343824884438,-0.4429201750008639,0.5,0.7999229552647364,0.2003938215696041,0.5,-0.0025306295108539845,0.2966033892338757,0.5,0,
1.1283008802347294,0.33866696347961694,-0.6286719103378475,0.5,-0.745542435041445,-0.5945728762469584,0.5,-1.1249917828631963,-1.1484898295170132,0.5,-0.4609195517466102,-0.16791449975868747,0.5,0.8007842734965291,0.006082435715343282,0.5,0.002998532067206171,-0.06158890534699212,0.5,0,
1.1363030141371033,0.3344888363374773,-0.5075465383885154,0.5,-0.7487700703496613,-0.63495829077298,0.9677426538651444,-1.132822480067412,-1.2737102036720764,0.5628927894809803,-0.46352101448458277,-0.5991289651933289,0.5,0.8000202742361819,-0.008158129674105952,0.5,-0.0035160519964058585,-0.12141112643679661,0.5,0,
1.1443051480394772,0.3305462188654007,-0.5485005675507082,0.5,-0.7557017676938127,-0.8023457693333846,0.5,-1.1453711461219496,-0.9976715108415135,0.5,-0.47050561518970346,-0.8732152643987044,0.5,0.8006537434217434,0.09258816292214561,0.5,0.0010559540442174253,0.13590018463627204,0.5,0,
1.1523072819418512,0.32571282725666595,-0.475711373220139,0.5,-0.7616076026589954,-0.7898281086978487,1.2600028549888198,-1.1487852242408763,-0.9095179279487164,0.5,-0.47749245871496204,-0.540707235226083,0.5,0.8015016848429363,-0.04092568196632784,0.5,-0.0013416490422255057,-0.16978935514070873,0.5,0,
1.1603094158442253,0.3229348368938785,-0.5562086541013277,0.5,-0.7683390174329783,-1.0309148863541089,0.5,-1.159923432969129,-1.0003584434947477,0.5,-0.4791569309533208,-0.4036032565169004,0.5,0.7999989325102822,-0.07271945093758475,0.5,-0.0016606756380339145,0.20355036059695458,0.5,0,
1.1683115497465992,0.3168134887910447,-0.5096339362334403,0.5,-0.7781022408406612,-0.9496178992524431,1.5164390623805675,-1.1647909593367922,-0.9684966435927339,0.5440838086056625,-0.48395011081923245,-0.49386542910567416,0.5,0.8003381736279349,0.060058269563748046,0.5,0.0019151567273257672,0.27468059163019815,0.5,0,
1.1763136836489732,0.31478069391414343,-0.5281372798020406,0.5,-0.7835329038210174,-0.6321677664066702,0.8591986098940388,-1.1754193792666128,-1.2408732780923997,0.5026049851466227,-0.4870587778190116,-0.37038460272798346,0.5,0.8009598648233022,0.1452054949436371,0.5,0.0027342138280492556,0.004681644892446171,0.5,0,
1.184315817551347,0.30836329231421206,-0.7142844902597832,0.7278311965669708,-0.7882169251031679,-0.4591081583287526,0.6372905076367993,-1.1846449317862706,-0.9560083142240439,0.6361969067278791,-0.4898762644628802,-0.5705617643167356,0.5,0.8026614615470331,-0.12585797245093233,0.5,0.001990063045604906,-0.02915494977745903,0.5,0,
1.192317951453721,0.3033521420699869,-0.36842704766726003,0.5,-0.7908786343542774,-0.34172228904502666,1.1788757967383101,-1.1907155122941975,-0.5334743597913971,0.9395286962841949,-0.49618776604807935,-0.3690358244883458,0.5,0.7989461372640873,-0.13701633677519476,0.5,0.002267734631609911,-0.07117069281579205,0.5,0,
1.2003200853560951,0.3024684595515359,-0.11710112728929856,0.5,-0.7936844817278883,-0.08058583015640997,0.9692396305807115,-1.193180521542933,0.19673334999241454,0.528845944257399,-0.4957808376546937,-0.04823013022006717,0.5,0.80046920015863,0.030185030266305368,0.5,0.0008513319605522332,-0.004683412570980535,0.5,0,
1.208322219258469,0.3014785240333581,0.15171343585674082,0.5,-0.79216800763678,0.11751839771018124,1.6040699282233888,-1.1875677786943188,-0.12625013993089462,0.5,-0.4969594481316004,0.018297891852748355,0.5,0.7994290977483481,0.10077600103907541,0.5,0.0021928000304742225,-0.11367602479584658,0.5,0,
1.216324353160843,0.30489587452524375,0.2517421713114677,0.5,-0.7918041873645254,-0.24300073119754712,0.7988234670147178,-1.1952005237818273,-0.2722823606317454,0.7677544362491199,-0.49548807138504974,0.029109809603904135,0.5,0.8020816161752552,0.1205439091850613,0.5,-0.0009674844361813121,-0.08076997584243556,0.5,0,
1.224326487063217,0.3055063987743416,0.08677310681229691,0.7084991879109164,-0.7960560193359407,-0.100034157960803,0.6228610977137358,-1.1919242964644268,0.2839852367632484,0.5017121792349634,-0.49649369117793796,-0.15462924358214739,0.5,0.8013578002953091,0.01088273952097596,0.5,0.0009004804169952536,-0.016145193664581965,0.5,0,
1.2323286209655908,0.3062842442342405,-0.2595099517544233,0.5312793890999361,-0.7934047338918983,-0.2218829501989955,0.890007505215809,-1.1906567599936153,-0.012461019747611601,0.5,-0.4979621392823641,-0.03399685740607117,0.5,0.8022557400075908,-0.15886373260726866,0.5,-0.0012258075348146236,-0.006780994746587517,0.5,0,
1.240330754867965,0.30135423954627083,-0.006975413199574593,0.5,-0.7996061465391247,-0.03968515105881587,1.7346600793692288,-1.1921236727803886,-0.23820036437799397,0.5,-0.4970376408964351,0.14909941095530427,0.5,0.7988159805735928,-0.27692047033737316,0.5,0.0007919845010498533,-0.07826297386262161,0.5,0,
1.2483328887703389,0.3061726376230473,0.23186671552712784,0.5052674333173173,-0.7940396963088393,0.355594952681261,1.8475808675666099,-1.1944679658236632,-0.016816275427711247,0.5,-0.49557654870707923,0.05059602405087932,0.5,0.7978250124821928,-0.13722589704762145,0.5,-0.0024780151166165693,0.00565449195144327,0.5,0,
1.2563350226727128,0.3050641069947049,-0.06283212114907913,0.5,-0.7939166272962245,-0.04912758066132061,0.5,-1.192392733187232,0.10590106534040522,0.5,-0.496228104511621,0.1435849607816092,0.5,0.7966203662208309,0.09125649953029696,0.5,0.0008824563722729456,-0.04592279521155001,0.5,0,
1.2643371565750867,0.30516732368466204,0.004347183425148365,0.5,-0.7948257375994204,-0.04214142626381839,1.5122973760891407,-1.1927735487782167,-0.02221046813505323,0.5,-0.4932791893345735,0.07685400948772084,0.5,0.7992851164746776,0.12247939446369954,0.5,-0.0032127798400013695,-0.016983870974149346,0.5,0,
1.2723392904774609,0.30513366192950725,-0.17683062198647556,0.5,-0.7945908901164456,0.2817655700751709,1.2985274716951638,-1.1927481006773928,0.059461814785666256,0.5,-0.4949984403598175,0.032286859239095966,0.5,0.7985800365322501,0.11497285246518663,0.5,0.0006107144366865561,0.2166140514016545,0.5,0,
1.2803414243798348,0.30233803373287843,-0.05291856067309031,0.5,-0.7903174884782177,0.021309294497597053,1.1311119062889254,-1.191822159741646,-0.040994785783760035,0.5,-0.49276259958674795,-0.07056420815677172,0.5,0.8011246821141206,0.11294718519890695,0.5,0.00025304498242510206,-0.13932068840070766,0.5,0,
1.2883435582822087,0.3042869649587378,0.2386062843075555,0.5,-0.794249941404484,-0.2219227557215056,1.3425505298200957,-1.193404017249933,-0.05604632699021672,0.5,-0.49612746769032584,-0.3533014526058177,0.5,0.8003871914954326,-0.12823966431126793,0.5,-0.0016184165777247666,-0.0004939028497183916,0.5,0,
1.2963456921845826,0.3061557342817993,0.09182587057775596,0.5,-0.7938682525697618,0.07261938433870269,0.5,-1.1927189009734895,-0.0970627193262602,0.5,-0.49841542282844103,-0.010380781108002002,0.5,0.7990728474851403,-0.08627055993060823,0.5,0.0002451425368296078,0.2867170296335424,0.5,0,
1.3043478260869565,0.3057561788879819,0.0999168131570645,0.5091539629318261,-0.7930880312550648,0.04246870314057044,1.3546088502749987,-1.194957020759153,0.07173291843200202,0.5,-0.4962935601880539,0.05513006203375706,0.5,0.7990068625365429,0.00905534350913867,0.5,0.002969055896411912,-0.18639719794046736,0.5,0,
1.3123499599893307,0.30775440329231235,-0.1597667411590252,0.5333231480265329,-0.7931887533195127,-0.2662219716814615,1.8053487698635742,-1.1915711742785775,0.3499106152861087,0.6141998394578867,-0.4975333418359009,0.14285665667226194,0.5,0.7992177329812865,0.06799270257504958,0.5,-0.00273721263021787,0.018083935748809853,0.5,0,
1.3203520938917046,0.3031999110294375,-0.3864415300599173,1.135640369747229,-0.7973475828019682,0.13631935037951293,1.271122708535783,-1.1893584509145754,-0.09732363935212318,0.5,-0.4940078536812977,-0.027484592749954517,0.5,0.8000947457777436,0.10482001800444368,0.5,0.00325839886839287,0.08474455342017895,0.5,0,
1.3283542277940785,0.3015713388113537,0.29196422437805997,0.5,-0.7910076437134405,0.4095586219399344,1.7219592016836858,-1.1931283525082115,-0.016946651937549406,0.5,-0.4979730953199002,-0.2617911911182644,0.5,0.8008948532693576,0.05399746200938221,0.5,-0.0013812997754950066,0.020285557221287897,0.5,0,
1.3363563616964524,0.30787133861948646,0.2727506237242272,1.1055819307920758,-0.7907946448509292,0.029086915582329786,2.1381419156994332,-1.1896295973455762,0.08724138885882193,0.5,-0.4981965127391899,0.24591388017379187,0.5,0.8009587051698938,-0.2102803200940348,0.5,0.003582967783933476,0.024321609436855636,0.5,0,
1.3443584955988264,0.3059353487909413,-0.27170632335202227,0.550637169170944,-0.7905422530641232,-0.4478199820763043,0.887841788761612,-1.1917324902864703,-0.05167690375167122,0.5,-0.4940384732371195,0.052659243207579115,0.5,0.797530368147853,-0.11060548283675642,0.5,-0.0009921540245053165,-0.2692978175562837,0.5,0,
1.3523606295012005,0.3035240374458541,-0.04697988136634704,0.5,-0.7979597645641501,-0.24773068779858354,1.7008401065525434,-1.190456427805603,0.02126430068574714,0.5,-0.49735396484786865,-0.101230907644273,0.5,0.7991890174445057,0.15572384049421933,0.5,-0.0007257972969670628,-0.027425687678406314,0.5,0,
1.3603627634035744,0.30518367068907976,0.016559022126608897,0.5,-0.7945059440689005,0.14731429291196807,0.5,-1.1913922614754984,-0.29659771413546865,0.547410778517637,-0.4956581677594279,0.2243747807041327,0.5,0.8000219495957606,-0.13936460840578702,0.5,-0.0014309650273598175,0.03472787980697593,0.5,0,
1.3683648973059483,0.30378898179987984,0.14536974733768415,0.5,-0.7956027358775586,0.18253733556016644,0.5,-1.1952019912317704,0.013266589600241518,0.5569410106217193,-0.4937639683566025,0.14753073736875968,0.5,0.7969591837100131,-0.03554121098956614,0.5,-0.0001701512200554481,0.0976738114144354,0.5,0,
1.3763670312083223,0.3075095866464827,0.11132738035705622,0.9242112922274449,-0.7915853466999379,0.20884114371205742,1.614879766116333,-1.1911799960418945,0.40005527355571613,0.6421374605091719,-0.49329767596152774,-0.2622511882704424,0.5,0.7994532902199275,0.18805720848853041,0.5,0.00013181595527114907,-0.04769165925890773,0.5,0,
1.3843691651106962,0.30557021988559274,-0.3763836143502834,0.789819855358624,-0.7922612775781657,-0.15656953805967544,0.9721122765992465,-1.188801106854879,-0.016340185760882475,0.5,-0.4979599873689296,-0.30891003817308177,0.5,0.7999680990458296,-0.12901291906858292,0.5,-0.0009332177681979719,-0.15850978524721968,0.5,0,
1.3923712990130703,0.30148744881687817,0.04284396934212814,0.5,-0.7940904593088927,0.07411823215820734,0.5628682112606113,-1.1914414390140686,-0.15741865176101266,0.5,-0.49824023657229705,-0.12251314610102135,0.5,0.7973890835148302,-0.026120715342019263,0.5,-0.002404340608684366,0.14665322164485683,0.5,0,
1.4003734329154442,0.3062557233950668,0.07555182433406638,0.5,-0.7910753858636344,-0.032426632460551275,0.9735500145187357,-1.1913198052830551,0.1135236466986711,0.5,-0.49992019770654594,0.17616470144115812,0.5,0.7995501676003572,0.0012799660165721538,0.5,0.0014132337781197373,0.23926480150181506,0.5,0,
1.4083755668178182,0.30269627800622323,-0.09132763789439224,0.5,-0.7946092854282615,0.17453285412483838,0.7199140042382589,-1.1896250606668899,-0.027319834856556757,0.5,-0.4954216013492385,0.40642595628692657,0.5,0.7974095629710953,-0.024980169500123106,0.5,0.0014238962153446753,-0.033878438304837166,0.5,0,
1.416377700720192,0.3047944811887565,0.00909900137413891,0.5,-0.7882828601976369,0.03178460764668295,1.1893262408771492,-1.19175692264076,-0.2942827032004769,0.5649616833014744,-0.4934173824059551,0.019702625629919313,0.5,0.7991504848883553,0.26128993657618255,0.5,0.0008711787652423427,0.17568474830820185,0.5,0,
1.4243798346225662,0.30284186202820945,-0.03489064787917662,0.5,-0.7941007317059146,-0.24120598302608542,1.4610387057362781,-1.1943335839180975,0.09804912950435452,0.5,-0.4951063593391598,-0.3971130209166583,0.5,0.8015902019563143,-0.029616283724456793,0.5,0.004234852188275905,-0.2145264458241893,0.5,0,
1.4323819685249402,0.3042362308226897,-0.002881324563056703,0.5,-0.7921421559260543,0.0859582699641731,2.1250278237544293,-1.1901881365686904,0.13304429317916033,0.5,-0.49977119074062165,-0.06867785018554312,0.5,0.798676624348764,-0.19152458612224643,0.5,-0.0025612443679446863,-0.2800394557570974,0.5,0,
1.440384102427314,0.30279576083520054,0.10652068031903952,0.5,-0.7927253993864878,-0.3806339062813052,0.5,-1.192204875227231,-0.05562998292350796,0.5,-0.4962052049421285,0.22138077413354912,0.5,0.7985258085783583,-0.04608486129850653,0.5,-0.0002457791038376529,0.1752771309032654,0.5,0,
1.448386236329688,0.3059405617077943,0.21842823595005778,0.7411080570193469,-0.7982322984265552,-0.3876394250572207,2.4095816061626825,-1.1910782162954665,-0.006370670573643822,0.5,-0.49622909835448487,0.11766986093677753,0.5,0.7979392665679879,0.21097795102055505,0.5,0.00024318972650756046,0.13980103300978722,0.5,0,
1.456388370232062,0.30629061261040147,-0.18144188192341718,0.5,-0.7989276301874033,0.14737420272610546,0.855767103713164,-1.1923068059564093,-0.2124831091689927,0.5,-0.49432248716714006,0.13529772054219485,0.5,0.8019014557946872,0.36870952787500244,0.5,0.0019910374243189426,-0.12767151496629633,0.5,0,
1.464390504134436,0.30303749159701965,-0.19903824025475567,0.5,-0.7958743111829375,0.30806842110601973,1.4349657494528862,-1.1944779460421704,0.02046567784186326,0.5,-0.49406433482580975,-0.422339161991591,0.5,0.8038386190139879,-0.19745055428157382,0.5,-0.001799554512953181,-0.13371508298146972,0.5,0,
1.47239263803681,0.3031060007663254,-0.0028976617187127796,0.5,-0.793998535449707,0.013252056945668722,0.5,-1.1919793551109394,0.24076180666739166,0.558867199931973,-0.5010799137590055,-0.06700063913185617,0.5,0.798742246926182,-0.24373708188416,0.5,-0.0001484039033845728,-0.014161967184105038,0.5,0,
1.480394771939184,0.30299112900952024,-0.014166314316891443,0.5,-0.7956622782718068,0.01096106545245279,0.5,-1.1906257571354921,-0.13365973922102592,0.5,-0.49513634505191945,0.3691777001055725,0.5,0.7999388257038413,-0.07949803794502636,0.5,-0.0020261459878988617,-0.16026376569959325,0.5,0,
1.4883969058415578,0.3028793397372551,0.16991729276010295,0.5,-0.7938231584024678,-0.010944312889567265,0.9361948748436377,-1.1941179109384759,-0.011965152812890012,0.5,-0.49517307055731635,-0.08152827616762781,0.5,0.7974702783190616,0.0689534622525037,0.5,-0.002712624154578065,0.0020435246393699187,0.5,0,
1.4963990397439317,0.3057098056936819,0.256549629751468,0.5,-0.7958373872780399,0.1932827356956046,0.5,-1.1908171995804984,-0.009583180498068389,0.5963637855463763,-0.4964407974706015,0.029582000540113312,0.5,0.8010420810998814,-0.002084835277221808,0.5,-0.001993449593668943,0.10803646960016987,0.5,0,
1.5044011736463059,0.3069841338132786,0.06023865378953011,0.5,-0.7907306346313381,0.2131803718698269,2.403123293697957,-1.194271241826445,-0.45933708131752626,0.806924759201695,-0.49469975854867454,0.08069825300033653,0.5,0.797436920954626,-0.14460158636508263,0.5,-0.000984040640975347,0.10381940753160064,0.5,0,
1.5124033075486798,0.3066736241543144,-0.18570554196897793,0.5,-0.7924265013281226,-0.3135852956341195,0.9352014503653329,-1.1981665928815788,0.16459935893947675,0.5,-0.4951496254225961,-0.0417082991568396,0.5,0.7987284557180401,0.1513504871714158,0.5,-0.0003323390731633327,0.2997256357835618,0.5,0,
1.5204054414510537,0.30401284514177496,-0.1331730620672232,0.5,-0.795747999361484,-0.09939125920838815,1.1347078980407563,-1.1916376520834133,0.46164281462075796,0.7607209527769124,-0.495367091335184,-0.0830207229169655,0.5,0.7998585287493687,-0.029873072137392986,0.5,0.0038115695315616423,0.012243457871725792,0.5,0,
1.5284075753534276,0.3045428551612388,-0.08812484356486919,0.5,-0.7940167614754569,0.1319049560602817,0.7848220262457724,-1.1907803078476467,-0.12240120176772173,0.5,-0.49647795698926755,-0.05255780995542386,0.5,0.7982504865638418,0.20114180342184484,0.5,-0.00013644374721572005,-0.4060188703251878,0.5,0,
1.5364097092558016,0.30260284764473705,0.13487094866881585,0.5,-0.7936375200645195,-0.026310509420299222,0.6015591220611117,-1.1935960713116969,-0.1582720054127129,0.5,-0.49620801629447076,0.15085215392263499,0.5,0.8030767976041182,0.15417007014886797,0.5,-0.0026847323936413626,0.15823204713255995,0.5,0,
1.5444118431581757,0.30670079033993985,-0.011416740768148415,0.5,-0.7944377296261816,-0.16260115302661748,0.5,-1.19331265993425,-0.1139304881520864,0.5,-0.4940643225265054,0.030874777251280877,0.5,0.8007172076862237,-0.1966998034162934,0.5,0.0023952690069052396,0.31927798409212044,0.5,0,
1.5524139770605496,0.3024201797924467,-0.058801167802522564,0.5,-0.7962391385129454,-0.11212171909840557,0.7983213067821049,-1.1954189591221303,-0.06900946587792833,0.5372533661261739,-0.49571401985845026,-0.05346583129955951,0.5,0.7999296007494575,-0.18459103565832136,0.5,0.0024237153518325643,-0.06220089573104821,0.5,0,
1.5604161109629235,0.3057599716550995,0.14137391166887253,0.6993881046432916,-0.7962316771317561,0.07830070730709127,0.5,-1.194416811388297,0.3174321114754741,0.5,-0.49491977582729835,-0.036564201605991664,0.5,0.7977637511156905,-0.026948467302799484,0.5,0.0014000546752084683,-0.19354271574332008,0.5,0,
1.5684182448652975,0.30468216237914864,-0.18006135892666836,0.5,-0.7949863271960319,0.12392468772605414,0.5,-1.1903400453385227,0.07531217744047303,0.5,-0.4962990470841461,-0.16122611617486182,0.5,0.7994984252726127,0.3115085318162736,0.5,-0.0006729681000605572,-0.17305720825887091,0.5,0,
1.5764203787676716,0.3028789899122728,0.050954177864503264,0.5,-0.7942488821281393,0.11820211011859261,0.5,-1.1932118165492493,-0.05166530752376275,0.5,-0.49749939368609614,0.011061739248550972,0.5,0.8027478876247509,0.13493827714970708,0.5,-0.0013688606569334663,0.10280161971650244,0.5,0,
1.5844225126700455,0.3054974292249807,-0.0973986683207688,0.5,-0.7930950934341344,0.08201717833509342,0.5,-1.1911666902589029,0.22690748525024118,0.5,-0.4961220592561693,0.22791233155561308,0.5,0.801657437707008,-0.08426444708622971,0.5,0.0009718578154034821,0.22877306518594295,0.5,0,
1.5924246465724194,0.3013206112191405,-0.07329603414044789,0.8528073723647429,-0.7929366072747778,0.05949612740589749,1.3267017337974423,-1.1895812967852455,0.13685422742953923,0.5,-0.4938527963812063,0.18797521721503757,0.5,0.8013996564713712,-0.08413874719034181,0.5,0.002291508386041621,0.00898539853353147,0.5,0,
1.6004267804747934,0.3043246926787335,0.35575294343149694,0.8656264977775989,-0.7921431553956401,-0.2411185017247297,0.6406944917301771,-1.1889770226200302,-0.14366345346635,0.5,-0.4931144557807287,-0.2031191876362727,0.5,0.8003112177519626,-0.06686827931437489,0.5,0.0011156241919399856,-0.046430605316819716,0.5,0,
1.6084289143771673,0.30701265831404445,-0.10213507741594838,0.5,-0.7967945033023734,-0.12907520848282755,1.2558270144482195,-1.191879912040707,-0.3161396877287559,0.5696013021688907,-0.4971027033833867,-0.23843241719002928,0.5,0.8003297640023412,-0.13452671575707453,0.5,0.0015486187009725054,0.01196853581771472,0.5,0,
1.6164310482795414,0.30269053144007835,-0.13819312878448134,0.5,-0.7942083587313653,0.14014926874741235,0.5962810889152187,-1.1940352576236903,0.12922841715748423,0.5,-0.4969293744557692,-0.12952999311751853,0.5,0.7981587902998494,0.023027732851441107,0.5,0.001307120765023421,-0.044932975459426636,0.5,0,
1.6244331821819153,0.30480156825349275,-0.03178522641416465,0.5,-0.7945521150024148,0.04641454380015925,0.6062996977826212,-1.1898122573661873,0.213057210585621,0.7098205231382066,-0.499175183273267,0.172818430498118,0.5,0.8006982077279643,0.10487237256656678,0.5,0.0008296910936216792,-0.171142561375852,0.5,0,
1.6324353160842893,0.3021819678174517,-0.008911640307994462,0.5,-0.7934657260305628,0.1653038523677791,0.5,-1.1906263422543204,-0.32064055372106604,0.5336355044108649,-0.4941642795677993,0.135841103114636,0.5,0.7998367482609144,-0.18959092475892558,0.5,-0.001431160216990211,-0.11126052902667488,0.5,0,
1.6404374499866632,0.30465898200856484,0.13747206466322576,0.5,-0.7919072533645304,0.1432957326326506,2.0657207304705474,-1.1949425062257244,0.007264196019610147,0.5,-0.4970017256234328,0.05498946549663264,0.5,0.7976647529318215,0.08885280191134326,0.5,-0.0009504773708051191,-0.05460612018515032,0.5,0,
1.648439583889037,0.3043815208520633,-0.11204735635454363,0.5899802912546857,-0.7911729943084403,-0.32623813433130255,1.4625867872935312,-1.1905101151180066,0.03854943270496791,0.5,-0.49328444811985317,0.07694174421356281,0.5,0.8012583930914959,0.06110014237068612,0.5,-0.0023048581399526162,0.07391655867571037,0.5,0,
1.6564417177914113,0.30286622430689214,0.230300453366427,0.5,-0.7971270635138312,0.004906680573957267,0.8617689581524481,-1.194325715302445,-0.07104607589637768,0.5,-0.4957706577160158,-0.0609670156983301,0.5,0.7986423552097525,0.1311658804772145,0.5,0.00023218756800624695,0.1941410151237495,0.5,0,
1.6644438516937852,0.30806632810592616,0.04283287413161044,0.5,-0.791094487419257,0.17723904731550139,1.7396896998806313,-1.1916468523323487,0.24629970002974788,0.5,-0.49425992037102645,0.037455026429152743,0.5,0.8033570471791314,0.04443046083767166,0.5,0.000801398102027376,0.11294193404353174,0.5,0,
1.672445985596159,0.3035515502929979,-0.16660018881349895,0.5,-0.7942912387567832,-0.21586086585007047,0.5,-1.190384920101969,0.15030524708926907,0.5,-0.49517137729314936,0.007560142137555403,0.5,0.7993532425831552,-0.3046870564289775,0.5,0.0020392585127027548,-0.046190812363272084,0.5,0,
1.680448119498533,0.3054007250849102,0.027928368669834225,0.5,-0.7945482612728582,-0.2267965456462101,0.9342342520216558,-1.1892419683789204,-0.15271019893441096,0.5,-0.49413895809682556,0.0667497871634122,0.5,0.7984820542762677,-0.1816886070570775,0.5,6.23451042150226e-05,-0.17904319642587435,0.5,0,
1.6884502534009072,0.30399840419171525,-0.054473657016721605,0.5,-0.7979199834871226,-0.015246456663051133,0.601294423054714,-1.1928282832849195,-0.2723731912706029,0.7313057040217884,-0.49410338069853477,-0.17947340567833758,0.5,0.796446224870242,0.16542239979993462,0.5,-0.0008254326301112352,-0.13975595189880394,0.5,0,
1.696452387303281,0.30452914657264263,-0.14827729597946884,0.5,-0.794792204579467,0.0785548923261728,0.6446054177723807,-1.19359993943925,0.17057186028975047,0.5,-0.49701053258767897,-0.20939124467449222,0.5,0.8011288126730667,0.32532909548801947,0.5,-0.0021737501261658403,-0.15549609879763335,0.5,0,
1.704454521205655,0.30162596745604375,-0.15786504105832003,0.5,-0.7966631052099038,-0.04211723288276292,0.9395598136908708,-1.1900991335202835,0.04040173821998061,0.5,-0.49745364061332664,0.1363400811066201,0.5,0.8016514903980503,-0.08371474524534323,0.5,-0.0033133702108733686,0.09657852756669096,0.5,0,
1.712456655108029,0.3020033059157095,-0.016349368085071675,0.5,-0.7954660803055912,0.15138110253808124,0.8937404767183427,-1.1929535116277303,-0.21396121267218404,0.524119322497271,-0.49482909128997304,0.1356880388068242,0.5,0.7997893767491412,0.03592378751914732,0.5,-0.0006284936850987848,0.17539997015497205,0.5,0,
1.7204587890104028,0.3013643775666826,-0.07315031017926521,0.6881024472772208,-0.7942410075692945,-0.05250682762686365,1.4673486757520573,-1.1935225129230385,0.10842699745328144,0.5,-0.49528263199241745,-0.10519472579861161,0.5,0.8022262709983566,0.06843662542427298,0.5,-0.0005069706883938155,0.1813574182347009,0.5,0,
1.728460922912777,0.30083290095284126,0.3152233060544594,0.5,-0.796306189547621,0.2877555906989071,0.8345281190466485,-1.1912186796684778,0.10566731615911651,0.5,-0.49651220690275083,-0.11836621861020802,0.5,0.8008843627559296,-0.09881832180162753,0.5,0.0022732250066564296,0.21880036834897232,0.5,0,
1.736463056815151,0.30640795046355396,0.2604373073080389,0.9198471560821503,-0.789636918118112,0.10492767876537495,1.4400566521517808,-1.1918318358644926,-0.06380302165925889,0.5,-0.4971764914901808,0.1370915598733688,0.5,0.8006451778495306,-0.3215897726670733,0.5,0.0029938352051897413,-0.03509093025712928,0.5,0,
1.7444651907175248,0.3049998978697699,-0.2539985633304882,0.5,-0.794627346687375,-0.23832416069102108,0.683550088099821,-1.192239528015026,0.09879005404465901,0.5,-0.49431874194477693,0.18491854263693805,0.5,0.7957389263932564,0.030974848896782314,0.5,0.001711770122542361,-0.3275189495058259,0.5,0,
1.7524673246198987,0.30234397345026615,-0.17548898100175,0.5,-0.7934501046891683,-0.11694260256367439,0.5402283379632441,-1.190251194999778,-0.059646909365496104,0.5,-0.4942177948079898,0.08266726546427364,0.5,0.8011407754318791,0.345442094278961,0.5,-0.002246467986903473,0.1336745914583349,0.5,0,
1.7604694585222727,0.3021920741737419,0.0898427592489412,0.5,-0.7964984283283938,-0.004042218445271528,0.5872629654219518,-1.193193878564874,-0.10135123585765238,0.5,-0.49299606569734855,-0.11723316208063148,0.5,0.8012659999017198,0.022996452202675433,0.5,0.00385056358587572,0.35285486058689625,0.5,0,
1.7684715924246468,0.3037814575982492,0.045348503860041106,0.5,-0.7935147801842927,0.11802346873194397,0.5,-1.1918728147735005,-0.025569269369529746,0.5,-0.4960935254012799,-0.11276155700230134,0.5,0.8015087186671219,-0.16203550701386626,0.5,0.0033992097824868664,-0.356159943884684,0.5,0,
1.7764737263270207,0.30291765023550254,0.09995688648907139,0.5,-0.7946100528286827,0.05617417147079501,1.0302470630328833,-1.1936029868747864,0.0441342348683621,0.5,-0.4948002506093854,-0.1058706084161587,0.5,0.7986734317894979,-0.021476240921899925,0.5,-0.001847995516279225,-0.11792344281160808,0.5,0,
1.7844758602293946,0.30538076778207435,-0.05246097749344106,0.5,-0.79261599344076,-0.1671794150780309,0.747092972170555,-1.1911666670156067,0.2124746973629632,0.6817813073385542,-0.4977874551359384,-0.22777140396481807,0.5,0.8011650988123715,0.002885849174849575,0.5,0.0015124346975011371,-0.0969803400716201,0.5,0,
1.7924779941317686,0.3020782745956075,-0.15534688727004628,0.6731320768929271,-0.7972849234699312,-0.026071120469844944,1.2821256837242865,-1.190203391716979,-0.30655053049685743,0.5,-0.49844459307282246,-0.03292022837906097,0.5,0.7987196053762955,0.23154320100118864,0.5,-0.0033996809574251465,-0.2490513811450139,0.5,0,
1.8004801280341425,0.3028952175857536,0.16631850220766298,0.5,-0.7930331313682775,0.26476832408223877,2.055279990765659,-1.1960714755035564,-0.013578835135114042,0.5,-0.4983141787900034,0.22361513925937132,0.5,0.8048697900283905,0.13202823993778423,0.5,-0.0024723874008190853,0.3032261603666696,0.5,0,
1.8084822619365166,0.3047393706309301,-0.013526904067376333,0.5,-0.7930486302846154,-0.18767682053533186,1.1063740801005975,-1.1904206530791408,0.13831348555454204,0.5,-0.4948667508446725,0.17577223158054406,0.5,0.8008320572153,-0.22323903120072264,0.5,0.0014519376084415675,0.3246440822098632,0.5,0,
1.8164843958388905,0.3026787871206756,-0.1943320456548464,0.5,-0.7960359604968428,0.05537865519612828,0.5,-1.1938584597346837,-0.002326157690080155,0.5,-0.4955018230847147,0.053700655767121436,0.5,0.801297965529179,0.13248786002609952,0.5,0.002721917914538726,-0.06313336940354589,0.5,0,
1.8244865297412645,0.30163005790045255,-0.13088805110132717,0.6432599243000221,-0.7921625718014773,0.02109574161274913,0.5,-1.190457871602182,0.2910564646566999,0.7208722153414587,-0.4940075403523986,0.008282190184828037,0.5,0.8029518629757176,-0.24314400311119255,0.5,0.0004418036979848333,0.024800971589517044,0.5,0,
1.8324886636436384,0.30058457830305435,0.21189560066416438,0.5,-0.7956984286310388,-0.07102471950239109,0.567498875598854,-1.1892015563001765,-0.16646349863652654,0.5,-0.49536930804175744,-0.35982173857625893,0.5,0.7974076614793999,-0.275850591018742,0.5,0.0031187334599709986,0.08334150431823895,0.5,0,
1.8404907975460125,0.3050203875110792,0.3152961122395992,1.0567807941878522,-0.7932989673135156,0.029026718924858586,0.5,-1.1931212875803665,-0.2490653089973205,0.5,-0.4997646881696187,-0.06594675963004712,0.5,0.7985382535194178,0.010359216068997479,0.5,0.0017752677670766564,-0.11284918941494063,0.5,0,
1.8484929314483864,0.30562931609888794,-0.2568786092048761,0.5,-0.795234001128241,-0.053698035606369876,0.5,-1.1931866012441337,-0.10984802388666615,0.5,-0.4964244561958382,0.4050577685086563,0.5,0.7975734089365039,0.023840886452845822,0.5,0.0013131464293319485,-0.10442375529738263,0.5,0,
1.8564950653507604,0.30091032976380117,-0.05595528590047333,0.5578424332696664,-0.7941581358832175,0.001778217305507812,1.3271225621097915,-1.1948788559625532,0.07637490544430692,0.5,-0.4932837638734802,-0.20124009002523216,0.5,0.7989197077026633,0.1320804801243844,0.5,0.00010448768231853426,-0.01494103255932983,0.5,0,
1.8644971992531343,0.30473403152448036,0.2512820154200214,0.9284835800986602,-0.7952055496513529,0.2930148322884754,2.0140433173518946,-1.1919646027570248,0.2194866164296344,0.5,-0.4996442976362419,-0.27729570858054525,0.5,0.799686696618494,-0.08610186251595958,0.5,0.0010740899083826712,0.05754973155831349,0.5,0,
1.8724993331555082,0.3049308420105215,-0.28219425938721954,0.5,-0.7894698985666019,-0.16994546515406578,0.9919896780163275,-1.191367070099679,0.02707433528331693,0.5,-0.49772049521076894,0.07570525292378144,0.5,0.7975420779024079,0.1751725853831737,0.5,0.0010252833872515502,-0.0705500503064046,0.5,0,
1.8805014670578823,0.30021892337428485,-0.17224238958259488,0.6907845500394513,-0.797924677093818,-0.37016849406590335,2.7029197584556597,-1.1915314133924917,0.05637098873899349,0.5,-0.4984330135894614,-0.018883147071730583,0.5,0.8024894579846248,0.40651858488069403,0.5,-5.4710896519802314e-05,0.023446433414049162,0.5,0,
1.8885036009602563,0.3021749637772,0.20000306596596948,0.5,-0.7953925944716563,0.23779856977129699,0.5,-1.1904651342798551,-0.16882944865008465,0.5,-0.49802262556391663,0.35916363371280013,0.5,0.804046375260499,-0.04230482858216117,0.5,0.0014004263218763368,-0.16048957910926437,0.5,0,
1.8965057348626302,0.30341897242974036,0.16978539514845778,0.5,-0.7941198999774772,0.31429304750380666,1.2059774811413564,-1.194232684570893,-0.14982799732365937,0.5,-0.4926863954500566,0.08898341605453886,0.5,0.8018125807273102,-0.2927463196977717,0.5,-0.0026225441622680324,-0.25686417253040594,0.5,0,
1.904507868765004,0.3048915300995753,0.011156805527070407,0.5,-0.7903639057115954,0.06307578920940887,1.2524887949008077,-1.1928623822370337,-0.12841868749409457,0.5,-0.496598890907044,-0.04569388029191865,0.5,0.7993624341453347,0.03835232672980138,0.5,-0.0027094004386101584,-0.06574017184962191,0.5,0,
1.912510002667378,0.3035974813181735,0.21950810150237268,0.5670612350582153,-0.7931106873501267,-0.22970629300861356,1.912004167003226,-1.1962873835707986,-0.025270113191769306,0.5515266613085067,-0.4934174975347273,-0.025377362870712683,0.5,0.802426217954987,0.055429519022029416,0.5,-0.003674386911861983,0.04653957259936721,0.5,0,
1.9205121365697522,0.3084036597236133,-0.07297463095684922,0.5388383358276341,-0.7940392063997332,0.16831516608228902,0.6934233284679019,-1.193266704048102,0.32734509683828017,0.5,-0.4970049287129754,-0.08216524928211094,0.5,0.8002493064496872,-0.3622058130372252,0.5,-0.001964767277020283,0.4812273909297343,0.5,0,
1.928514270472126,0.3024298872228639,-0.4014208398469866,0.8258976005160853,-0.7904176446928101,0.01757875887208049,0.9004631522688867,-1.191049862021386,0.2095850697106244,0.5,-0.4947321415232411,0.3017500477453562,0.5,0.7966309249463914,-0.2686434827214451,0.5,0.004025251343013766,0.09910977299374266,0.5,0,
1.9365164043745,0.3019809262860615,0.002315370328746097,0.5,-0.79375794625778,-0.18514494775097312,0.5,-1.189913342932732,-0.07696923575327419,0.5,-0.4921769279490497,-0.21630193029837513,0.5,0.795951010726144,0.30800137241067393,0.5,-0.0003790109091204007,-0.22111296036549102,0.5,0,
1.944518538276874,0.30246693314812384,0.25750535904405997,0.5,-0.7933799638568256,-0.11912803535425731,0.9394236474859968,-1.1922813697934385,-0.1036533528040312,0.5,-0.4981929724080151,-0.2142427312976404,0.5,0.8015589469049622,0.20680806178586392,0.5,0.0004874439771659099,0.20093607651179068,0.5,0,
1.9525206721792479,0.30610101203076645,0.06378299777004201,0.5,-0.7956639948234481,0.06793113427756847,0.5,-1.1915717965775965,0.04763762936428606,0.5,-0.49560481164981196,0.26953351520979035,0.5,0.7992599397147179,-0.1493345702198931,0.5,0.0028359663150682502,0.15195983082802897,0.5,0,
1.960522806081622,0.3034874611124445,0.01996410199429921,0.5,-0.7922930657083845,0.08736245693125727,1.5614503104149802,-1.1915191677236099,-0.05621481364302683,0.5,-0.49388043616465843,-0.08390595696636596,0.5,0.7991695937814439,0.002217115330972741,0.5,0.0029188012704143736,-0.026500880481148868,0.5,0,
1.968524939983996,0.30642043766267524,-0.00489961366701222,0.5436899906017467,-0.794266195512548,-0.2680686601690546,2.079391515287493,-1.192471233595885,-0.002842346229145476,0.5,-0.4969473069612738,-0.16654770163772314,0.5,0.7992954135600134,0.03009219520897638,0.5,0.0024119522273698684,-0.25266618737987595,0.5,0,
1.9765270738863698,0.3034090672937723,-0.2530717055030107,0.5342674086568703,-0.7965821642710894,0.21221425577903213,1.0143464638021995,-1.1915646452632762,-0.1375400297877749,0.5,-0.496545199390862,0.09829934839665835,0.5,0.7996510689047875,-0.1517962699087022,0.5,-0.001123857727663642,-0.1664004044379899,0.5,0,
1.9845292077887438,0.30237129037462707,0.043011102068810786,22.504814899430702,-0.7908707674200834,0.011430661368022621,76.78936572140549,-1.1946718740724893,-6.630380881833542e-05,27.811416385825858,-0.4953745173869273,-0.17122473573769753,7.502700277921582,0.7968666732414742,-0.07478847675713995,0.5,-0.00025045424363797026,0.0025858661718050737,0.5,0,
1.992531341691118,0.3040972449268733,12.229110096412168,1.7245859356544915,-0.796399273689201,18.287688050591218,2.2355381569987287,-1.1915657061242173,24.39282989892043,3.0718512849767983,-0.49928479516266516,12.146616509385067,1.4993097669747053,0.7984544532766733,0.19408083839130008,0.5,-0.0010824838689147609,-0.1321377899146455,0.5,0,
2.0005334755934916,0.49803705191722175,12.513521478743295,23.307075093025205,-0.49826775861062395,18.35104752105137,81.30308549660737,-0.8043865956897625,24.871910062715738,30.266665476115396,-0.3010286532367662,12.61736105014206,8.706751227003798,0.799971966655735,-0.25015251728031235,0.5,-0.0023646588822722986,0.40568316205246124,0.5,0,
2.0085356094958655,0.504313588586766,0.5782623515294717,0.7174058529592102,-0.5027825133523791,-0.5682228696285256,1.0361114788554222,-0.7936151451207655,0.5594533912497909,0.8656984921112539,-0.2974070183603922,0.4125203294747283,0.5,0.7944520130001883,-0.345324985119487,0.5,0.005408446723924619,0.5300666018632391,0.5,0,
2.01653774339824,0.5072892495416933,0.2465250069679792,0.5,-0.5073593245246804,-0.36326893067901295,0.5,-0.7954353414297658,-0.0806303538341685,0.5,-0.29442832796517054,0.6945053970019467,0.5,0.7944467668938232,-0.20270685182754294,0.5,0.006116406747539527,0.05583999012959129,0.5,0,
2.024539877300614,0.5082579886982537,0.526587023269201,0.5,-0.5085948162432433,-0.30635131879376554,1.1435671347779468,-0.7949052307821122,0.21210000869677226,0.5,-0.28629493200836104,0.4417685008935891,0.5,0.7912087033709476,-0.3172659955897883,0.5,0.00630188656599808,0.6606593005081315,0.5,0,
2.0325420112029877,0.5157146419140005,0.3745621741890262,0.5431609751938475,-0.5122609456253806,-0.5449004776827068,0.9332955890012663,-0.7920417412906174,0.273419251660037,0.5,-0.2873600319508731,0.36119871789845603,0.5,0.7893705109643866,-0.09548966363052275,0.5,0.01668695555566963,0.7586821176196538,0.5,0,
2.0405441451053616,0.5142509834852781,0.0842881948820845,0.8723785451111472,-0.5173132238861666,-0.32020444485857114,0.595326523190245,-0.7905305227555516,0.2608358072688638,0.5,-0.28051575252198574,0.4132862208849862,0.5,0.7896808687528593,-0.14422287216610263,0.5,0.01844080044791254,0.05845044258963989,0.5,0,
2.0485462790077356,0.5170632530321139,0.5047701405359108,0.5,-0.5173842167431177,-0.41690407926697065,1.6529052157904396,-0.7878683683743156,0.18524447324159282,0.5,-0.28074745241671334,0.3431439989762461,0.5,0.787062945009729,-0.1268974714289453,0.5,0.01762216263710387,0.22319147462169087,0.5,0,
2.0565484129101095,0.5223273057338527,0.6713466229658973,0.5,-0.5239836891544382,-0.7757321070289702,1.02887803726577,-0.7875666111836861,0.3427885298177627,0.5,-0.2750254485383658,0.5040628545193923,0.5,0.7876505092099961,-0.18612939424261787,0.5,0.022011864041859595,0.5353616317613977,0.5,0,
2.0645505468124834,0.5278047989995682,0.46710961469711293,0.5,-0.5297959304555813,-0.5455461359405791,0.5,-0.7823837518972314,0.4598362557969582,0.5548368299564328,-0.27268244674440306,0.5494250960279209,0.5,0.7840848747018471,-0.3407470667220469,0.5,0.026187948745286235,0.6073683694501235,0.5,0,
2.0725526807148573,0.5298010595690065,0.34053156738240997,0.5,-0.5327124273294874,-0.4829219530030904,1.842118903632221,-0.7802092310909348,0.15415702772260398,0.5,-0.26623464700191907,0.29796028710279626,0.5,0.7821985561424434,-0.2603149533068269,0.5,0.03172975795306157,0.48370046805024686,0.5,0,
2.0805548146172312,0.5332533040776868,0.4470914760781666,0.5,-0.5375226817036307,-0.09072065431472293,1.1211617490470775,-0.7799172394536698,0.16478091280443946,0.5,-0.2679150821507583,0.20961354823387582,0.5,0.7799198354489378,-0.3001527872057014,0.5,0.033927156234090185,0.5424239191882049,0.5,0,
2.0885569485196056,0.5369545231862571,0.5400110593201043,0.5,-0.534163957798523,-0.33693538224786185,0.5,-0.7775727364860637,0.2568639796725822,0.5,-0.26288083023017705,0.6301283308176898,0.5,0.7773961115471522,-0.46440204146521585,0.5,0.04040854066007285,0.4949997269388124,0.5,0,
2.0965590824219795,0.5418934810268085,0.36487845376358824,0.5,-0.5429136478195965,-0.3284149702685313,1.126069719215277,-0.7758074157789084,0.17175703629698086,0.5,-0.2578330288576753,0.16445219252130341,0.5,0.7724894027854944,-0.450313802911842,0.5,0.04184715186511118,0.34372734367450447,0.5,0,
2.1045612163243534,0.5427925784464745,0.15441011765349177,0.8236456373105789,-0.5394185973228195,-0.10487866640807725,2.960258284066394,-0.774824623905312,0.214892185833003,0.5,-0.2602495951498362,0.17032906151232333,0.5,0.7701910907005627,-0.025577060423699616,0.5,0.04590817815886492,0.2080968347514078,0.5,0,
2.1125633502267274,0.5443640429092643,0.6275502479538148,0.7013747559139037,-0.5445917064821257,-0.7869054785115889,0.9663646264075784,-0.7723691408055804,0.2824627552028905,0.5,-0.2551077638734781,0.74854713805389,0.5,0.7720801698187152,-0.05245545706736299,0.5,0.04517670122113371,0.3181187434335682,0.5,0,
2.1205654841291013,0.5528333824137356,0.31188189994321713,0.5,-0.5520090849790049,-0.6125462220920516,2.0895046158644535,-0.7703052198220658,0.3354951674153714,0.5,-0.24827284094097396,0.3992410164773974,0.5,0.7693518033874849,-0.18913320539174633,0.5,0.050998078053802014,0.4757049203206729,0.5,0,
2.128567618031475,0.5493541533083558,0.18615507907943085,1.0200974422166464,-0.5543924460355986,-0.1358139357338986,1.2804686329746071,-0.7670012181269344,0.23092461978676398,0.5,-0.24871990760983975,0.37963990871792486,0.5,0.7690540385324472,-0.40331937718819655,0.5,0.052787979946264475,0.5775287795525066,0.5,0,
2.136569751933849,0.5558118636790065,0.7541590021212587,0.5,-0.5541821079507473,-0.4279601651898668,1.1983298491735,-0.7666104259054776,0.12035146138435204,0.5,-0.24219860240148716,0.8325931136422375,0.5,0.7628986933524737,-0.4485451548912403,0.5,0.06023853852664212,0.5185364362104944,0.5,0,
2.144571885836223,0.5614206973422959,0.5012955390671509,0.5,-0.5612398086786364,-0.6851064617004534,2.392002227994839,-0.7650755947447848,0.3499531505800485,0.5,-0.23539841779156395,0.5566160033868509,0.5,0.7618773160541874,0.09839475391255903,0.5,0.061084562925632385,0.17475527303316982,0.5,0,
2.152574019738597,0.5638325923040809,0.3531275722083588,0.5,-0.5651438113379545,-0.1546429186235973,1.5387048527265235,-0.7610111754961968,0.20145579067646496,0.5,-0.23329274634729755,0.1274323981987988,0.5,0.7644730094150747,-0.20680213202730474,0.5,0.06303462289517284,0.4903201379524323,0.5,0,
2.160576153640971,0.5670707384976297,0.39123066030239545,0.5,-0.563714095376614,-0.5009308477742225,0.9754968277736835,-0.7618523020939614,0.20114840726494915,0.5,-0.23335949942038317,0.3712037351936651,0.5,0.7585684819417505,-0.2665313693501342,0.5,0.0689296851328713,0.48005092444919,0.5,0,
2.1685782875433453,0.5700922828689192,0.29350491759942005,0.5,-0.5731587049023421,-0.30290263262473804,0.8255362638781408,-0.7577928009799576,0.3537750865860029,0.5,-0.2273534865841989,0.43059316127824765,0.5,0.7602085075054725,-0.1822446166562519,0.5,0.07071543768635988,-0.01660774876160835,0.5,0,
2.176580421445719,0.5717668171792204,0.46492327130113337,0.5,-0.5685605374986098,-0.4669980795281997,1.9929410392427183,-0.7561919007085853,0.27892862264704277,0.5,-0.2264700088399312,0.3222149123809515,0.5,0.7556525680752505,-0.1917405830672153,0.5,0.06866396115268557,0.4348821927982107,0.5,0,
2.184582555348093,0.5775310552097374,0.5867002683492758,0.5,-0.5806306741747933,-0.9060913171671098,2.4236516113887143,-0.7533299430176049,0.2725035851197377,0.5,-0.22219804798610368,0.42029978969222725,0.5,0.7571406581763971,-0.2257524663875493,0.5,0.07767355277113125,0.8109338692488046,0.5,0,
2.192584689250467,0.5811540214728088,0.39980582915390833,0.5,-0.5830579985732836,-0.37370985553396296,0.5538324244396181,-0.7518318433466695,0.18406214579973212,0.5,-0.21974521220485557,0.4756993073824246,0.5,0.7520405286130497,-0.3678075686602833,0.5,0.08163890306066644,0.4174400907178662,0.5,0,
2.200586823152841,0.5839279484761999,0.3684075843834386,0.5,-0.5866100318633367,-0.2754334599652658,0.5,-0.7503849486848092,0.2714113010919422,0.5,-0.2145868590679849,0.32367319910016346,0.5,0.7512557370778326,-0.38806843382045014,0.5,0.08435259422261711,0.4395479136407197,0.5,0,
2.208588957055215,0.5870485428229438,0.4415873689896793,0.5,-0.5874649339327278,-0.18651874793311485,0.7923572690510574,-0.7474892625291985,0.28396521072673875,0.5,-0.21456644101925296,0.22209341271117386,0.5,0.7458314336719225,-0.4551837238773379,0.5,0.08867166967891796,0.32395641822478577,0.5,0,
2.2165910909575888,0.5909933463800348,0.48682367086230055,0.5,-0.5895943318302665,-0.3464541371046431,0.8359604103136662,-0.7458415053131814,0.23758574058428683,0.5,-0.2110333644646061,0.43954662030534425,0.5,0.7439727974957951,-0.25547451448816594,0.5,0.08953589691421368,0.4920217991514616,0.5,0,
2.2245932248599627,0.5948377215567406,0.40701064896616485,0.6217362714915852,-0.5930082001264021,-0.5022780072357277,0.7023796608398633,-0.7436878906798499,0.23818898984555303,0.5,-0.20753369509436745,0.5092989033857378,0.5,0.7417438414401119,0.0045744858514495945,0.5,0.09654401846534134,0.5778550042351048,0.5,0,
2.2325953587623366,0.5975055167634934,0.12320220842725743,0.619702107092947,-0.5976307799460382,-0.36816016830894943,0.7946664291490494,-0.7420304814756525,0.1876334226740689,0.5,-0.2028845820104343,0.44150461623014386,0.5,0.7440459892694183,-0.32232525812797563,0.5,0.09878157698197536,0.06345818764447435,0.5,0,
2.240597492664711,0.5968089568915768,0.45892201321296594,0.5,-0.5988987628193453,-0.5317834796427917,1.2089173748868154,-0.7406857559170648,0.28970415413070993,0.5,-0.20046962123468515,0.4248091617896181,0.5,0.7365866373100642,-0.459745288539766,0.5,0.09755934946765293,0.21465537075046529,0.5,0,
2.248599626567085,0.6048482689749008,0.6501100854661365,0.6076800908083483,-0.6061393156203229,-0.7740889836613529,1.6892787862890544,-0.7373952150095612,0.20193158199049294,0.5,-0.1960876354218004,0.5313585727481467,0.5,0.7366900646527821,-0.14063015980140398,0.5,0.1022160629139828,0.5279204745976627,0.5,0,
2.256601760469459,0.6072107182590349,0.34953532608079235,0.5,-0.6112841865579269,-0.4346161063831372,0.9201723564585391,-0.7374548506052169,0.29910331222712805,0.5,-0.1919678840707148,0.38853965537268,0.5,0.7343365547532418,-0.2998129033412525,0.5,0.10600607706121554,0.3963388864296124,0.5,0,
2.2646038943718327,0.6104408341921935,0.5170799427772071,0.5380579699033783,-0.6130931733224531,-0.25922754846043755,0.531395940936175,-0.7326095620139271,0.3441061402112769,0.5,-0.18987100093583753,0.3781056097348443,0.5,0.731893058199322,-0.1414493959801394,0.5,0.1085574850968566,0.6033789521887202,0.5,0,
2.2726060282742067,0.6154839973434703,0.281000920440172,0.5,-0.6154318273332939,-0.35074106620150425,0.5,-0.7319491523618364,0.13100388889229764,0.5994377439154792,-0.1859181943149573,0.6087066902852184,0.5,0.7320733644175595,-0.16052753984277524,0.5,0.11566014029623506,0.645541122987296,0.5,0,
2.2806081621765806,0.6149368489192363,0.41973683557717384,0.6126326461630349,-0.6187050303816771,-0.30000551120583363,0.5,-0.7305134997916504,0.5869852454771785,0.5,-0.18013169389127404,0.2588750864784325,0.5,0.7293246175618376,-0.32962387114903596,0.5,0.11888614306465334,0.38235453339631637,0.5,0,
2.2886102960789545,0.622199786712705,0.6976265214859584,0.6077389688751815,-0.6202319155125873,-0.3328325920559788,0.7570218817806971,-0.7225573884342016,0.30113549746450113,0.6679768518099383,-0.18177619293130237,0.07095235174940477,0.5,0.726799382479175,-0.15105268636304153,0.5,0.12177781283057612,0.09930564253036143,0.5,0,
2.2966124299813284,0.6260988732630116,0.4011108018582357,0.5,-0.6240303518545728,-0.47094538984680107,0.5,-0.7256953318322183,-0.20283263906690358,0.5720057629703209,-0.17899645626328356,0.3683144137942452,0.5,0.726907774580029,-0.254233129226171,0.5,0.12047503334513912,0.3744647592340278,0.5,0,
2.3046145638837023,0.6286175595424368,0.2802100623182438,0.5,-0.6277670417501361,-0.5167937438370629,0.9512327949053643,-0.725802710659272,0.2364096251531861,0.5,-0.17588316231059445,0.45850325163886846,0.5,0.7227316524115562,-0.3840787747144206,0.5,0.12776924897832057,0.5944669849824273,0.5,0,
2.3126166977860763,0.6305822342601035,0.452530935910557,0.5,-0.6322990517559658,-0.3110365692875691,0.5,-0.7219127778297674,0.36925822876498343,0.5,-0.17166040423706166,0.5662126653893755,0.5,0.7207625141845982,-0.4399791419933338,0.5,0.12998650510485796,0.4635241273514678,0.5,0,
2.3206188316884506,0.6358580545170057,0.34274674384050796,0.5,-0.6327436268587372,-0.35747361056755883,1.1253854911443988,-0.7198945789990323,0.2855357394816391,0.5,-0.16682375966436444,0.6283205109567369,0.5,0.7156919861396629,-0.17314175533022363,0.5,0.13518563501594405,0.46085632065797144,0.5,0,
2.3286209655908245,0.6360661821615516,0.22345413640592615,0.5750716746568209,-0.6380186295250467,-0.604956488094055,1.048970878762932,-0.7173442059980611,0.22717367987482723,0.5,-0.16160727606175387,0.6501367475226887,0.5,0.7179922460993147,0.334517026840328,0.5,0.1373602062353855,0.388544636112419,0.5,0,
2.3366230994931985,0.6394333206995005,0.47919139375030007,0.5,-0.6424229306682421,-0.379764831491429,1.0859048834013314,-0.7162598001210351,0.18046729766321712,0.5,-0.15642157170400142,0.3781675480120355,0.5,0.7210442585691081,-0.28440017571172704,0.5,0.14140234919374275,0.4338580361114598,0.5,0,
2.3446252333955724,0.6437332444615564,0.4462852789397162,0.5,-0.6440948668289096,-0.15964026990770985,0.6127996797590677,-0.7144567292354497,0.49629212887444124,0.5,-0.1555565952935613,0.13729031655966908,0.5,0.713441843287927,-0.46659655850428416,0.5,0.14430193481316886,0.4380794350615641,0.5,0,
2.3526273672979463,0.646573885162536,0.3766500077235571,0.5,-0.6449771749867654,-0.28329449736620715,1.3275931699503973,-0.708319126059044,0.3742159543512827,0.7204978928687441,-0.15422492663904672,0.38601124029784617,0.5,0.7135787136330396,-0.23369454994031508,0.5,0.14841162015472778,0.38859269509286876,0.5,0,
2.3606295012003202,0.6497596445851334,0.45249731518890585,0.5,-0.6486275787867689,-0.587138310535959,0.5,-0.7084692739658291,-0.13824891710869508,0.5,-0.14938041544879577,0.4897300247861513,0.5,0.709702730488882,-0.43803452796457865,0.5,0.15051941793465476,0.36982686544192317,0.5,0,
2.368631635102694,0.6538138422055585,0.39823885824696176,0.5,-0.6543713879553408,-0.5216504884928141,0.5538839773697727,-0.7105311087327831,0.12856768523834827,0.5,-0.1463892462424683,0.4619623955366744,0.5,0.7065701611856063,-0.3892092568920716,0.5,0.15432885000179855,0.3777672783893508,0.5,0,
2.376633769005068,0.6561314663170847,0.22213888622234917,0.5,-0.6569739866026539,-0.41734394310324885,0.5,-0.7064121910020156,0.4327393047755951,0.5,-0.14198901712020898,0.26373330452177624,0.5,0.7034753823786088,-0.4602135125993667,0.5,0.15656369438888437,0.28016155070435117,0.5,0,
2.384635902907442,0.6573680643851161,0.3496487445351776,0.5,-0.6610488910449928,-0.48012432982859343,0.7040576411539531,-0.7036072798563736,0.2114433615408376,0.5,-0.14216951337011988,0.18831784980980099,0.5,0.6992067449840165,-0.20422885677168212,0.5,0.15881143481306817,0.39484458941928086,0.5,0,
2.3926380368098163,0.6617258462296476,0.4302253525253902,0.5,-0.6646559758799114,-0.33041253354415545,0.7801777733000999,-0.7030290972173622,0.22933015636888987,0.5,-0.13897593152325216,0.3254049777186088,0.5,0.7002077206702619,0.2425941769763837,0.5,0.16288120781959287,0.409047029481871,0.5,0,
2.4006401707121903,0.6642516700255223,0.5395694011330887,0.5,-0.6663354915816992,-0.509004539434546,1.3536503137549656,-0.6999379973544714,0.4522763206065983,0.6168435679608263,-0.13696303372662214,0.5168458025682187,0.5,0.7030882518156386,-0.14875733971683736,0.5,0.1653561872847781,0.2956236614568286,0.5,0,
2.408642304614564,0.670358956647777,0.7272184811178417,0.9539321882756369,-0.6728000485108642,-0.22479138875552973,0.9810738726178234,-0.6957926760876566,0.01611284154503373,0.5,-0.13070639868216066,0.517881304141845,0.5,0.6978276032347925,-0.4791428802167416,0.5,0.16761118640290212,0.2915308546685303,0.5,0,
2.416644438516938,0.6758871657234078,0.23307106025684948,0.5,-0.6699321538017877,-0.40789335476631994,1.3846572829504589,-0.6996801918897508,0.1128534261934655,0.5,-0.12867693286035262,0.39284699427382525,0.5,0.6954219657321707,-0.38387035248139273,0.5,0.1700206809594746,0.38337970355017265,0.5,0,
2.424646572419312,0.6740880936118866,0.2405556593890537,0.5,-0.6793263421871253,-0.6869060623793735,2.0030914255760606,-0.6939870212685612,0.47038964337883793,0.566044987672952,-0.12442084677377946,0.6329659311538304,0.5,0.6916856775950903,-0.444544483202948,0.5,0.17374526165970489,0.76716890546304,0.5,0,
2.432648706321686,0.6797360562736326,0.47501841006163115,0.5,-0.6809226507998577,-0.2303736230156242,0.7681778541880384,-0.6921539575956894,0.18210518570487,0.5,-0.11854947796189133,0.5781329868943599,0.5,0.6883092540009236,-0.047564090543225634,0.5,0.18229538344688323,0.6996070834023332,0.5,0,
2.44065084022406,0.6816883881728727,0.5595071079889657,0.5,-0.6830123201553753,-0.39582837746327676,0.5,-0.6910733382972832,0.21552817036380595,0.5,-0.1151707189834697,0.1964376065109472,0.5,0.6909246521463986,0.07222468508764901,0.5,0.18493897499414222,0.17939869159632957,0.5,0,
2.448652974126434,0.6886881700014561,0.5984022666147073,0.6931262564136539,-0.6872559048392701,-0.44070793815131903,0.7494807492462253,-0.6887055068698685,0.24812134981785222,0.5,-0.11540647625771618,0.34153762974306523,0.5,0.689464848962326,-0.24844603064504145,0.5,0.1851657625124245,0.30011325011861795,0.5,0,
2.4566551080288077,0.691262824438708,0.24551449214062215,0.5,-0.6900636471657964,-0.5813078626424883,1.103209910673834,-0.6871033967001976,0.35050250370537855,0.5,-0.10970611690758066,0.7502911647590581,0.5,0.686949515656078,-0.27642490471687514,0.5,0.1897407869960401,0.5092771232569505,0.5,0,
2.4646572419311816,0.6926164018757061,0.3982034594168793,0.5,-0.6965568306415499,-0.34729046147566334,0.5,-0.6830974668105825,0.48754919823102566,0.5,-0.10340181762157125,0.5271932149888223,0.5,0.685042050486856,-0.1673476453888656,0.5,0.1933141964845357,0.47925565339769494,0.5,0,
2.472659375833556,0.6976340797893781,0.5831574157100644,1.1068806694328346,-0.695620294549407,-0.42957550337240774,0.7517086952250125,-0.6793026095285012,0.20946038846555992,0.5,-0.1012710254677595,0.27117462394219033,0.5,0.6842719533298561,-0.2805253201671465,0.5,0.19740887745040323,0.41957037129163566,0.5,0,
2.48066150973593,0.7019469205270671,0.05422558911752362,0.5,-0.7034300386955085,-0.5698699732107001,1.4911296207407538,-0.6797461005951335,-0.03477893036071822,0.5,-0.0990630236384962,0.2960659501828047,0.5,0.6805536453641816,-0.2633923331735802,0.5,0.20002732242520188,0.5524263791299219,0.5,0,
2.488663643638304,0.6985016892152585,0.2523510679970642,0.8877419052895293,-0.7047382141207782,-0.2615065773815539,0.5,-0.6798590724142727,0.27331863294360187,0.5,-0.09653397026483462,0.3159072312228844,0.5,0.6800576759990788,-0.45017549220131153,0.5,0.20624769951648197,0.26469673029322,0.5,0,
2.4966657775406778,0.7059845376150201,0.7270320139722564,0.5,-0.7076141439336133,-0.34561634345411235,0.5,-0.6753730024680359,0.2441322555735495,0.5,-0.09400850793893005,0.5334431440960655,0.5,0.6733508374889606,-0.4385746114682412,0.5,0.2042624701098934,0.18046376135076764,0.5,0,
2.5046679114430517,0.7101342014388146,0.5089462732590019,0.5,-0.710268075616044,-0.43739973737217525,1.4243895329458856,-0.6759529563250959,-0.034612478262127655,0.5249911809293006,-0.08799887995929757,0.3708290385212951,0.5,0.673040482215587,0.07925270740024443,0.5,0.20913511969809426,0.7722710354330763,0.5,0,
2.5126700453454256,0.7141276779871641,0.5936824094278231,0.5,-0.7146125397315681,-0.7311536160607354,2.827109111812104,-0.6759268021202299,0.4173825528661565,0.5,-0.08807524332258933,0.3350591731842625,0.5,0.6746188808073645,-0.16242195780480362,0.5,0.21661880667682262,0.6236231638908161,0.5,0,
2.5206721792477995,0.7196331199896597,0.3479922143539496,0.5,-0.7219665334730158,-0.09780449227270865,0.5,-0.6692748354792374,0.6148738494662422,0.5759593139620034,-0.08263793318834937,0.7198088988910819,0.5,0.6704417308907101,-0.39066463993846917,0.5,0.21911309032034731,0.0387539250898232,0.5,0,
2.5286743131501734,0.7196955534168273,0.27373552471379736,0.5,-0.7161774116079315,-0.12015447930050632,2.691856890459957,-0.66608882052877,0.3142711080126731,0.5,-0.07655830094033202,0.4604840647136092,0.5,0.668368246568349,-0.3145060701307892,0.5,0.2172388694782598,0.27417205477919643,0.5,0,
2.5366764470525474,0.7240128883850805,0.49667258205916137,0.5,-0.7238890051418239,-0.7293064326717308,1.6615496644716146,-0.6642464977510346,0.14378213538635692,0.5,-0.07527018815293163,0.3458442356355411,0.5,0.6654096337686175,-0.04680416238914825,0.5,0.22349984319681446,0.7568434896519822,0.5,0,
2.5446785809549217,0.7276423147297739,0.3358945530625296,0.5,-0.7278463145306792,-0.36457661150157,0.7898185237772897,-0.6637883063625883,0.3008588183121691,0.5,-0.07102479317016336,0.4010807656324869,0.5,0.6676193799701227,-0.42947875039220373,0.5,0.2293483653126915,0.2993933732336699,0.5,0,
2.5526807148572956,0.729387201234081,0.5625156957168378,0.5,-0.729722230925849,-0.21669376561892634,0.5,-0.6594327566580399,0.2898057231787779,0.5,-0.06885289590281184,0.16587309310093795,0.5,0.6585379737623422,-0.45383335131118224,0.5,0.22829013716855318,0.45561500792305754,0.5,0,
2.5606828487596696,0.7366425658612433,0.6604170788578195,0.9309158724807577,-0.731313414780582,-0.26022918937387146,1.335434719264684,-0.6591514147917279,0.12017949133524136,0.5,-0.06837082368054835,0.5383749874624412,0.5,0.6603580463491437,-0.09712462374106279,0.5,0.23663820543946043,0.6829798141413257,0.5,0,
2.5686849826620435,0.7399538744958061,0.2372259239086169,0.5,-0.7338858979558309,-0.5502308834945887,0.5,-0.657509884796676,0.24040412302202274,0.5,-0.06023889610341278,0.5515637148681535,0.5,0.6569839797824852,-0.2026941802962534,0.5,0.2392178141948144,0.2266687631659759,0.5,0,
