samirx20/RADAR/web/public/data/datasets/overcurrent_j4_70.csv
timestamp,actual_q_0,actual_qd_0,actual_current_0,actual_q_1,actual_qd_1,actual_current_1,actual_q_2,actual_qd_2,actual_current_2,actual_q_3,actual_qd_3,actual_current_3,actual_q_4,actual_qd_4,actual_current_4,actual_q_5,actual_qd_5,actual_current_5,protective_stop,fault_code
0.0,0.20148615832764766,-0.004780067730896648,0.5,-0.5970549161113192,0.7378623966194514,0.5,-0.9978126412292505,0.876353871516522,0.5,0.0026520381884940734,1.6018364773796363,0.5,0.5011652925320648,0.48085020484762986,0.5,-0.29603364021675227,-0.4268582152113856,0.5,0,
0.008002133902373967,0.20144791778580048,-0.006153000758013505,0.5,-0.5911520169383636,0.7120432123724554,0.7239830008081573,-0.9908018102571183,1.1482517984202911,0.5,0.015466730007531165,1.4949190314118908,0.5,0.5050120941708458,0.17733310553835757,0.5,-0.29944850593844335,-0.13193612451636513,0.5,0,
0.016004267804747934,0.20138771031551944,0.1856605972830848,0.5,-0.5856622247133599,0.5885472693861401,1.2990999533260306,-0.9794406124545258,1.0732363132250482,0.5,0.026570742691084327,1.28863473386726,0.5,0.5040026222206785,0.36610709321444057,0.5,-0.2981446182090141,0.12761080044815937,0.5,0,
0.0240064017071219,0.20441848734232984,0.11975414426532681,0.5,-0.5817352606281854,0.8595044212538274,0.5092341723034093,-0.9736300292455176,1.1730566166577165,0.5,0.036084885749407325,1.7434083994019403,0.5,0.5108698076622769,0.45092814798641107,0.5,-0.2974067331312728,0.07040627032420602,0.5,0,
0.03200853560949587,0.20330377662376467,0.30759178806917875,0.5,-0.5719101539732987,0.9276018323169307,1.0133951725148356,-0.9606717065880024,1.418818944410004,0.5,0.05446527708151537,2.0514970440237734,0.5,0.5112174725884611,0.3409739578396978,0.5,-0.2970181178838268,0.040987892373823415,0.5,0,
0.04001066951186984,0.2093399559514367,0.4677732807020791,0.5,-0.5668936313111145,0.7201680574970906,0.6611291512067802,-0.9509289261349575,1.4006461631626208,0.5830153601364889,0.0689088384537877,1.6871987800082524,0.5,0.516325390987712,0.4509310368834285,0.5,-0.29675092685329163,-0.04358206563110159,0.5,0,
0.0480128034142438,0.21078814911499794,0.22452462872552328,0.5,-0.5603874650533452,0.8476212273595546,0.6570504111273895,-0.9382613679774005,1.0416366042459644,0.5,0.08146045756164741,1.5051799815968452,0.5,0.5184323691785959,0.18329170774230436,0.5,-0.29771543093392444,-0.03069502155356174,0.5,0,
0.05601493731661777,0.21293235001104507,0.24397478687039273,0.5,-0.5533316916733616,0.9677615189048472,1.7340672110245072,-0.9342627404670221,1.0252579062266092,0.5,0.09299171815933722,1.4419581178968408,0.5,0.5192580583115889,0.3625226051592531,0.5,-0.2972420471981486,0.32883159960019753,0.5,0,
0.06401707121899174,0.21469174570492422,0.04645285557527794,0.5,-0.5449032807508677,0.5890578928352055,1.0118224513055512,-0.9218572414777747,1.308272036512327,0.506313624811392,0.10453178744799686,1.7428693946323262,0.5,0.524232730861144,0.6695278357325002,0.5,-0.2924541253403213,0.07646839377154976,0.5,0,
0.0720192051213657,0.21367559570024952,0.1254429216460736,0.5,-0.5439067653879983,0.7757463845783005,1.527777222442586,-0.9133303878828248,1.0844449213081864,0.5,0.12087762847345444,1.768094853629107,0.5,0.5299705036833089,0.3727603674030522,0.5,-0.2960185528978038,-0.03571427727448728,0.5,0,
0.08002133902373967,0.2166988324512614,0.22912486699000825,0.5,-0.5324913385976149,1.097760133453668,1.8243487319420757,-0.9045061227368437,1.2841068741435633,0.5,0.13282130510606258,1.4850551385844823,0.5,0.5301968967395928,0.26371367395842255,0.5,-0.2930255537767131,0.08459853554356606,0.5,0,
0.08802347292611364,0.21734159357208965,0.32891042603131954,0.8143029934679703,-0.5263426032527396,0.728929065860244,0.5,-0.8927846778965278,1.4072135468095812,0.5,0.14463851069080616,1.7103803559428108,0.5,0.5341899224666437,0.36997517110404915,0.5,-0.29466497632910676,-0.262450313255877,0.5,0,
0.0960256068284876,0.2219613992677625,-0.10194308487835278,0.6968544210082896,-0.520828473543851,0.7448376837308063,0.7234761398851062,-0.8819907059878904,1.2092071346571365,0.5,0.16018739080114755,1.3782860330942195,0.5,0.5361164994772576,0.4539230607408448,0.5,-0.2972247587888071,-0.11444777181544852,0.5,0,
0.10402774073086157,0.215710504214036,0.27268268955429537,0.5,-0.5144252003130467,0.610939583387364,0.5,-0.8734373637420136,1.0742245365071705,0.5,0.16669108722031367,1.05081879257269,0.5,0.5414526914384972,0.5514413989627861,0.5,-0.29649614067815394,0.23108979975155,0.5,0,
0.11202987463323553,0.22632432230063124,0.3825577634406271,0.6720165460076027,-0.5110534402096532,0.5827809910638609,1.0595501025433516,-0.8648031134037757,1.1685097360530916,0.5,0.1770004914823106,1.5751820725085508,0.5,0.5449395618606622,0.5117866948464652,0.5,-0.2935273219927823,0.13547723676662557,0.5,0,
0.12003200853560951,0.22183142842908604,0.06669842591931242,0.5,-0.505100704456025,0.7836201832594585,0.5,-0.8547412079651642,1.2850982534038726,0.6831668491198141,0.19189400038045049,1.8251445220296685,0.5,0.5496412785560406,0.249474744074836,0.5,-0.29432850488988793,0.10066762807851848,0.5,0,
0.12803414243798347,0.22739149711534024,0.2964765908234895,0.5580223523404897,-0.4985155172775018,0.8078784584768135,0.5,-0.8442415413493137,0.9302111698792705,0.5,0.2062028038347853,1.423674109179011,0.5,0.5489311577658595,0.2057057543759233,0.5,-0.291916639943526,0.022428694962918494,0.5,0,
0.13603627634035745,0.22657505388226187,0.010739064973565651,0.5,-0.49217464912039594,0.8214920489260681,1.2638573476102266,-0.8398578292470958,0.8864815167226383,0.5,0.21467278612731466,1.1238204447915103,0.5,0.5529325706260554,0.4927119225168683,0.5,-0.29396964577048124,0.1559964424629398,0.5,0,
0.1440384102427314,0.22756332215491729,0.17046275233695804,0.5481896658860599,-0.48537164449468473,0.5735231577275735,1.3943977014114017,-0.8300578370817515,1.135663822117501,0.5,0.22418393095144945,1.5260458736383857,0.5,0.5568145485261294,0.5746955418815536,0.5,-0.289420696864119,0.20699823219807317,0.5,0,
0.15204054414510537,0.2293024579196532,0.45314100353843406,0.645325533180986,-0.48299827859675476,0.8622888369174304,1.0160200595897466,-0.8216872080932158,0.9376776115631799,0.5,0.23908952010552884,1.5115614591618003,0.5,0.5621276992961602,0.4987075450296474,0.5,-0.29065767405531207,-0.14525675537668467,0.5,0,
0.16004267804747935,0.23481357821153223,0.11461741335247987,0.5146267793006025,-0.47157502310400584,0.6670909836112189,1.3851613469272805,-0.8150549952967406,0.9582588356395679,0.5,0.24836891429803826,1.3662147454552558,0.5,0.5647938692466038,0.1366172398551066,0.5,-0.29174480495014593,0.14246867595527415,0.5,0,
0.1680448119498533,0.23113633653329288,-0.1128240336595223,1.0506983742683091,-0.47232482285897526,0.39566872344256804,2.1845436436525763,-0.8063550667229827,1.0696278350159905,0.5,0.26094895603281293,1.3003966946982526,0.5,0.564313575133842,0.046451015517388894,0.5,-0.2883781752400277,0.2790698347182492,0.5,0,
0.17604694585222727,0.23300839367297987,0.4315389617319427,0.5,-0.46524432352892475,0.8954100218907419,1.6615345161865407,-0.7979409499364848,1.1341871939410664,0.5,0.2691752614132103,1.008260961680031,0.5,0.565537085494882,0.4908004728211429,0.5,-0.28727968759465394,0.04813910941267943,0.5,0,
0.18404907975460125,0.23804095992100396,0.186075816644227,0.5,-0.4579982625087234,0.5260640322499246,0.5824378796163998,-0.7882080716199257,0.9286689993717318,0.5,0.2770811314196934,1.2235026737472363,0.5,0.5721663826989802,0.4889759228804552,0.5,-0.2876079494894248,0.03057421158224327,0.5,0,
0.1920512136569752,0.2359856067392875,0.0045726056537350596,0.9852206719224812,-0.45682729901292596,0.4196151452202507,0.5,-0.7830822459465371,0.6941685667094799,0.5,0.2887513041931661,1.0964730607004556,0.5,0.5733607002609693,0.011253840195908638,0.5,-0.28679050020933805,0.07168908002347721,0.5,0,
0.20005334755934917,0.23811412161146372,0.5194284166909723,0.5,-0.4512844201851994,0.49462848384037444,0.720585179812946,-0.777101374552574,0.7613891446649895,0.5,0.2946247003909007,0.8492373844782609,0.5,0.5723464441421148,0.18769358465099695,0.5,-0.2864609242090492,0.25677554007781306,0.5,0,
0.20805548146172315,0.24429646140634306,0.2317932271789693,0.5,-0.44891324327147997,0.633640872337176,0.5,-0.7709000196318972,0.7222537143261043,0.5,0.30233910234481826,1.2721562582008425,0.5,0.5763637976153853,0.3778679885684047,0.5,-0.28268209156809304,0.10751386985326239,0.5,0,
0.21605761536409712,0.24182281324632723,0.08337839612677402,0.5022778255806629,-0.44114616622780456,0.5612890179508973,0.9408218729510722,-0.7655453151233563,0.7240144321454395,0.5,0.3149792005221142,1.278322468606076,0.5,0.5783923319592092,0.20249804582560954,0.5,-0.284740702291397,0.05032904667220256,0.5,0,
0.22405974926647107,0.24563051574437145,0.36937214202188706,0.5,-0.4399326189842656,0.36233578834106783,1.70575300095117,-0.7593157887175702,0.9096961185896535,0.5,0.32279226184251547,0.8851795480782562,0.5,0.579603766348595,0.2538381743791285,0.5,-0.2818768268213378,0.18078349128723345,0.5,0,
0.23206188316884505,0.24773276751867743,0.16092088042385896,0.5,-0.4353487936143475,0.7456121500750909,0.71282406558074,-0.7509901772259219,0.9518267629029172,0.5,0.3291420732913663,0.8002603966176108,0.5,0.5824537427492753,0.3214920784875286,0.5,-0.28184816643080124,-0.2697791278279092,0.5,0,
0.24006401707121902,0.2482052498311532,0.0649740200785627,0.5,-0.42800282458306416,0.6078190181001211,1.669460850773871,-0.7440865605111235,0.7597015233889239,0.6019159182185171,0.33559642818839724,0.8789750633331275,0.5,0.5847476396043955,0.29340111784139505,0.5,-0.28619329286658435,0.0035682527002624254,0.5,0,
0.24806615097359297,0.24877235183993443,0.31493904012607454,0.5,-0.42562368932474554,0.25584235390403026,0.5,-0.7388349528516991,0.4003972279006049,0.5,0.34320567430469634,0.8501501903859648,0.5,0.5871481606347376,0.2403856148404035,0.5,-0.28179107438759704,0.3189698920065612,0.5,0,
0.25606828487596694,0.2532442744731704,0.2928538501464403,0.5515729788171936,-0.4239093469205997,0.17416540875453065,0.9449020528272579,-0.7376802048647139,0.5569940307991877,0.5,0.3491988312345727,0.8485928041930615,0.5,0.5885938094418419,0.13378113362073202,0.5,-0.28108977459447937,-0.08964336832151601,0.5,0,
0.2640704187783409,0.2534580134422775,0.0033251798804041777,0.5,-0.42283704278467305,0.3517762549890141,0.7905538723499748,-0.7299230483589121,0.6956581481149943,0.6569706959457282,0.3567831591717853,0.8885436686625648,0.5,0.5892886587726693,0.11523703382881195,0.5,-0.2832253682807413,-0.015947910817524363,0.5,0,
0.2720725526807149,0.25329747735125685,-0.04149411473322595,0.5,-0.41828092684077545,0.5133205322221702,1.0170647928718195,-0.726549674494874,0.3194402226826265,0.5,0.3634155299331737,0.7921789988944682,0.5,0.5904376019831029,0.11282739704609329,0.5,-0.28134494116755976,0.17517919343371102,0.5,0,
0.28007468658308887,0.25279410760654586,0.20144075117665625,0.5789035575175778,-0.4146239142691183,0.292447660040121,0.9527985057936998,-0.7248120047959901,0.4053937602649174,0.5,0.3694580231540968,0.5085855699227433,0.5,0.5910938971254068,0.05154167639899454,0.5,-0.2804225011858019,0.09540800368504701,0.5,0,
0.2880768204854628,0.25652052937008335,0.46747365518448947,0.8364112421217083,-0.4136017642801335,0.10099541340255827,0.7988468256157338,-0.7200633743306353,0.36316688611644915,0.5,0.3715528990519376,0.4759454221953327,0.5,0.5912622688054868,0.13840579160370042,0.5,-0.279818413108599,0.007437648634957272,0.5,0,
0.29607895438783677,0.2602736860894977,0.050704413411008925,0.5,-0.4130079876546774,0.2844327218349228,1.0705475443201269,-0.7190013346181269,0.35894666683407295,0.5,0.37707314990922214,0.7238571142135463,0.5,0.593308389791066,0.2720286309222178,0.5,-0.2803034988076426,0.03445409213798448,0.5,0,
0.30408108829021074,0.2573317999846595,0.2067842138669257,0.5,-0.40905084073077475,0.5110920294255465,1.798694303425285,-0.7143202276612901,0.5631212474099603,0.5,0.38313461287935435,0.5002373936196375,0.5,0.5956147269002423,0.23221575199624395,0.5,-0.27926714763439126,-0.040457175507477294,0.5,0,
0.3120832221925847,0.2635822335113685,0.25330246471175555,0.5,-0.40483051518386864,0.1144429822019094,0.6463774101843038,-0.7099913946595675,0.5704431535061907,0.833908271953002,0.38507694820713634,0.3589350629654778,0.5,0.5970238418230059,-0.11691894292335803,0.5,-0.28095081361576224,0.2509256021844819,0.5,0,
0.3200853560949587,0.2613846394200476,0.12412536619101425,0.5,-0.4072197530155442,0.004272412671639525,2.5741788624674906,-0.7051931372051911,-0.057582198559912035,0.5,0.388877573886802,0.41357315540380135,0.5,0.5937440238134686,0.073142105421177,0.5,-0.27525233799943954,-0.17534127338027922,0.5,0,
0.32808748999733267,0.26556823937042473,0.3142878018363715,0.5,-0.4047621565811224,0.5800608846321733,2.1894426631685215,-0.7109127098365261,0.1581950625548223,0.5705227051077414,0.39169411869359716,0.4414252809979667,0.5,0.5981941155097448,0.4072340649779807,0.5,-0.2837562739898467,-0.014949049778244239,0.5,0,
0.3360896238997066,0.2664132442494295,0.2082051975153612,0.5,-0.3979387788614294,0.0901193939333994,1.6451358632058448,-0.7026620162043139,0.5857365265565656,0.7773787597585549,0.39594037838276946,0.43447210245802986,0.5,0.6002597688531163,0.22419697646497427,0.5,-0.27549152279589145,0.41339477228609367,0.5,0,
0.34409175780208057,0.2688995225306705,0.44414434414152476,0.5,-0.403320246278188,-0.2581540937099773,2.009028378141125,-0.701540925411621,-0.04576812442844136,0.5,0.39864567233292564,0.13066055037974297,0.5,0.6017812671331844,0.22484487188991625,0.5,-0.2771419576332692,-0.17719557372076686,0.5,0,
0.35209389170445454,0.2735195537556939,0.31669561251048556,0.5,-0.40206924436078906,0.19238220465156788,0.5,-0.703394306195169,0.30077761682205384,0.5,0.39803094718884535,0.17846532729186293,0.5,0.6038572868033549,-0.12572001700862645,0.5,-0.2783266519754237,0.22445917254733036,0.5,0,
0.3600960256068285,0.2739666523308383,0.11202688583511825,0.5,-0.40024213100376294,0.1258219570197741,1.2855140844484052,-0.6967284835424682,0.020195273957260285,0.5,0.40150111756959544,0.3075596845034563,0.5,0.5997697468610463,-0.17802555624712307,0.5,-0.2735506108725119,0.15244672383824334,0.5,0,
0.3680981595092025,0.2753119839290558,0.034548885898409015,0.5,-0.40005609304847267,-0.15468782412632331,0.5,-0.7030711818118528,-0.3161612063646707,0.6908504016783269,0.40295190214090065,-0.09628273461953496,0.5,0.601008877903401,0.12067645665229942,0.5,-0.27588750439401183,-0.1725975375251737,0.5,0,
0.37610029341157647,0.2745194345052128,0.1905565801445519,0.5,-0.4027171361897841,-0.10487051380039802,1.435769880923376,-0.7017870628443029,0.1678779893352217,0.5126471858049925,0.3999605938156829,-0.16120793783649945,0.5,0.6017005701674831,-0.12885766471981003,0.5,-0.2763121714729147,-0.2642060199972533,0.5,0,
0.3841024273139504,0.27836088921136865,0.19242105610406748,0.5,-0.40173402126927904,0.23908039193561506,0.5,-0.7003851339824892,-0.10895990959602225,0.5,0.40037257513551666,-0.06769429336130756,0.5,0.598947155267884,-0.2625291879444769,0.5,-0.2801148007139679,0.18944028521463915,0.5,0,
0.39210456121632437,0.2775981714028779,0.07708949607626234,0.5,-0.39889184991881427,0.21672909607345012,1.8825711519152997,-0.7035304213978393,-0.15825319082680284,0.5,0.39887748512190196,-0.116567161849334,0.5,0.5975001031603715,-0.053589348777825785,0.5,-0.2732811269094805,0.26116173718407354,0.5,0,
0.40010669511869834,0.27959432114858884,0.23251602130349228,0.5,-0.39826635573210384,-0.22565498495387068,1.7653791408275812,-0.7029171850357181,0.15231675140335577,0.5,0.3985075005459273,-0.15374177274772582,0.5,0.5980897256874388,0.07335370419454812,0.5,-0.2759362129190227,0.05241952528360627,0.5,0,
0.4081088290210723,0.2813184277437338,0.32082333370318794,0.5,-0.4025023296780762,-0.6138906195849552,2.429727031340634,-0.7010933533753856,-0.0752454351599513,0.5,0.39641761675793835,-0.1782017438039865,0.5,0.5986737624274843,0.2880034321629324,0.5,-0.2724424145049428,0.15605627766445557,0.5,0,
0.4161109629234463,0.28472749448783985,0.12176938848979663,0.5,-0.4080886056454631,-0.08038111400638856,1.231623601959905,-0.7041211119982773,-0.11044311270170387,0.5,0.39565627264506353,-0.16535713416955533,0.5,0.6026977806020457,-0.2700396226048979,0.5,-0.2734393124763914,0.2048784596959119,0.5,0,
0.42411309682582027,0.2832667379595705,0.23081312698869372,0.5,-0.4037884275021784,0.18520906786799116,1.3668140318921,-0.7028604431786128,-0.24441905761687227,0.5,0.39377190261122547,-0.29230570252453125,0.5,0.5943531284658059,-0.6483479930760871,0.5,-0.2691643591498082,0.179144940219967,0.5,0,
0.43211523072819424,0.28842050451965895,0.03379345262827585,0.6250175798470058,-0.40512526055957526,-0.0940275836509713,1.7707725397902971,-0.7080318169201473,-0.37071938080734945,0.5,0.39097938140467103,-0.4785968986085534,0.5,0.5923242127128283,0.04999091823801316,0.5,-0.27057299343287194,-0.08628465311429426,0.5,0,
0.44011736463056816,0.28380743320162294,0.3407656302171109,0.5,-0.40529286884059396,-0.47995741855229657,0.5,-0.7087919532715304,-0.31193701938502655,0.5,0.3861143522334886,-0.682666066879601,0.5,0.5951529831576141,0.39241528916383883,0.5,-0.2705449135996369,0.18602215245458464,0.5,0,
0.44811949853294214,0.2938727546031327,0.41023883268223243,1.0803825653212025,-0.412804579256412,-0.49915649361130865,2.073406009668148,-0.7130228092303077,-0.5011306976022284,0.5,0.3800567243345974,-0.5392116718602631,0.5,0.5986028573394497,-0.22070675079535057,0.5,-0.2675966389935986,0.09482234135682957,0.5,0,
0.4561216324353161,0.29037125452453866,-0.1335811199943658,0.785068255405059,-0.4132793727383749,-0.050203822596194686,0.9740491331211638,-0.7168100444331661,-0.2747275280813241,0.5,0.3774869654837244,-0.4120638503439071,0.5,0.5916216751448885,-0.286902273909026,0.5,-0.2690277561379276,-0.0594531678586932,0.5,0,
0.4641237663376901,0.29173545668322287,0.28983430924449727,0.6551793146671708,-0.4136078404179511,-0.250404159324695,0.6075304040302402,-0.7174184496796089,-0.46033629684180677,0.5,0.3734637027290949,-0.6434588863859746,0.5,0.5940124209569053,0.17742328322454398,0.5,-0.2685478896793377,0.21856716336936602,0.5,0,
0.47212590024006407,0.2950086034724506,0.6339309811196798,0.8639618719004698,-0.41728583928757,-0.37131969126557096,0.6133194943898752,-0.724175425182635,-0.7506577449985993,0.5620020575284255,0.3671916233015488,-0.7578093980142239,0.5,0.5944604476764812,0.08183281805296955,0.5,-0.26553068152401776,0.10347650751399082,0.5,0,
0.48012803414243804,0.30187835238113775,0.19958906908320098,0.789004718677762,-0.41954895547820026,-0.2660111795362123,0.5,-0.7294289735995865,-0.485353640546915,0.5,0.3613387523608673,-0.6731902181291195,0.5,0.5953217460457528,-0.30391288440011904,0.5,-0.26689226555911383,-0.0645899787950939,0.5,0,
0.48813016804481196,0.29820202857778183,-0.2130897321384606,0.6585958722304857,-0.4215420181601494,-0.2463326768477464,1.2358528584678639,-0.7319410834313856,-0.5627216666984208,0.5,0.3564205798114829,-0.9605434904376361,0.5,0.5895978415260793,-0.3357062821435844,0.5,-0.26656412118473927,-0.1042085043994577,0.5,0,
0.49613230194718594,0.2984689166669224,0.1641516788071229,0.5,-0.4234902783077642,-0.5106107581174593,0.6335047909084106,-0.7384325202667612,-0.5823764961874617,0.5,0.34597005651386514,-0.830391798112725,0.5,0.5899504455314555,-0.3734388413992526,0.5,-0.26855960162950515,-0.04040985630523325,0.5,0,
0.50413443584956,0.3008284554386958,0.015326314182967371,0.5,-0.42971179029002876,-0.6250779115098554,0.9841327509002724,-0.741259107370385,-0.50579714338371,0.6828842355268437,0.3431343110416793,-0.6930775448227948,0.5,0.5836228200636913,-0.22675736396571278,0.5,-0.267210678885623,0.46135765636603,0.5,0,
0.5121365697519339,0.29871413769384986,0.13589519054441404,0.8044887510948691,-0.4334915248919219,-0.4381903959427558,0.5698691976195569,-0.7465252745609006,-0.9780585206524972,0.6311598869513695,0.3348808157967004,-0.9672782174777946,0.5,0.5863223277080041,-0.14709989802046824,0.5,-0.26117787912764867,0.22912499048774113,0.5,0,
0.5201387036543078,0.3030027784874064,0.5434097282966642,0.8325598113564371,-0.43672283662511285,-0.5313426643109644,0.5511068993723218,-0.756908043700825,-0.6349597475508936,0.5,0.3276578595620346,-1.049756096392622,0.5,0.5812692216953638,-0.3479463606434613,0.5,-0.26354467903781914,-0.30980530327251454,0.5,0,
0.5281408375566818,0.3074086933465965,0.12069318951907909,0.5,-0.4419930075208973,-0.4473747810736332,0.5,-0.7566846305217149,-0.7161425724159509,0.5948553580990524,0.3180847182544185,-0.9977521834676275,0.5,0.5807551859377087,-0.21933686078469405,0.5,-0.2661347639800089,-0.0668470533667885,0.5,0,
0.5361429714590558,0.3049338695197117,0.21628160729433854,0.5,-0.443880833122291,-0.47870444405363755,0.6280766358729444,-0.7683663248594802,-1.058203533953389,0.856325461464101,0.31169382462655254,-0.9110635333525671,0.5,0.5777598319228087,-0.18617523118893975,0.5,-0.26461423189168776,0.06263518586411068,0.5,0,
0.5441451053614298,0.3108691990633059,0.36904190975857454,0.5953300922383504,-0.4496522786257555,-0.5794180319102331,0.6956266530403666,-0.7736158870649691,-0.4811206882672017,0.6919224030786957,0.3035077017207774,-1.0725014784022762,0.5,0.5777763822386857,-0.4492497542025395,0.5,-0.26513260100618313,0.1367183848562728,0.5,0,
0.5521472392638037,0.3108385400758489,0.0053203730166623275,0.5,-0.4531515216328547,-0.4407173857912498,0.5,-0.7760642558717554,-0.8753988360065829,0.5,0.2945338009721161,-1.3152337359654473,0.5,0.570571835855568,-0.5093176985035904,0.5,-0.2624267377339874,0.19693873113175303,0.5,0,
0.5601493731661777,0.3109543250315725,-0.05546196533028763,0.6399369788342317,-0.4567037567984155,-0.5242311751639736,0.5,-0.7876222684410744,-1.0753558701113857,0.5308456208777628,0.28246396194533024,-1.234924661773041,0.5,0.5696272990626282,-0.022659492043761165,0.5,-0.2619815813080751,0.21370523343463774,0.5,0,
0.5681515070685517,0.3099511486305643,0.3173496944791805,0.5,-0.4615392204354783,-0.5966019587812371,0.685511439061507,-0.7932699497935376,-0.7877639278927664,0.5,0.27477500638374747,-1.1195077815273902,0.5,0.5702092839828679,-0.38737916600691674,0.5,-0.2590074539990332,0.1783566566732689,0.5,0,
0.5761536409709256,0.3160319201432394,0.5071884656509922,0.5,-0.4662493881389153,-0.7243967988931587,0.5,-0.8002264912873587,-0.9002931913698539,0.5,0.264551837440892,-1.1875240517140901,0.5,0.5634292324065175,-0.21574073877160538,0.5,-0.2591278748013028,-0.1147603150411583,0.5,0,
0.5841557748732996,0.31806616408098015,0.3044478779064552,0.5,-0.47312956921776883,-0.6624571026525791,0.5,-0.8076746408554553,-1.0944281475844946,0.5,0.255774621556322,-1.1728034643945264,0.5,0.5667574321625222,0.014857132732089273,0.5,-0.2608436190396917,-0.046028728780133504,0.5,0,
0.5921579087756735,0.32090308618974267,0.39504315441892324,0.7980756282093814,-0.4768487017813566,-0.6756217918585383,0.9104257169505732,-0.8177373416487106,-1.1300601000115775,0.5,0.24578698201057958,-1.282536331970001,0.5,0.563666946530231,-0.5775367715592367,0.5,-0.2598643344617849,0.13231538324066927,0.5,0,
0.6001600426780476,0.3243868545516829,-0.06146144723289185,0.5,-0.48393951788750544,-0.4899991257939044,0.98031667181286,-0.8257556024556405,-0.9119331018148102,0.5,0.235254040244802,-1.3206381600079191,0.5,0.5575168438175744,-0.3267400980326088,0.5,-0.258726572907841,-0.00824813343547337,0.5,0,
0.6081621765804215,0.3199197030340164,-0.11040050515108771,0.5,-0.48468868779405905,-0.6767132359743084,0.8971451164909693,-0.8323282712777476,-1.0321334708069465,0.5,0.22465677145045287,-1.5353922812158631,0.5,0.5584391049617092,-0.31010995913132583,0.5,-0.2599963045967525,0.012215000968172907,0.5,0,
0.6161643104827954,0.3226204464692655,0.04880395659839429,0.5,-0.4947669296630944,-0.8751824836811042,0.5,-0.8422697379885516,-1.1612969810439675,0.5,0.2106877637453482,-1.5651542394247309,0.5,0.5525550844714732,-0.44367388967389565,0.5,-0.25853113289235025,0.11051252346209323,0.5,0,
0.6241664443851694,0.3207005663395907,0.2529497133910534,0.5,-0.4986916075329567,-0.8315049830277637,0.5,-0.850909022974451,-1.1553875895156662,0.5,0.19961430361965718,-1.4612116614022477,0.5,0.5513403227269269,-0.27569895559427515,0.5,-0.258228104221359,-0.05484480305098169,0.5,0,
0.6321685782875434,0.3266676418835224,0.27394916758513577,0.5,-0.5080710093915386,-0.8665454599672134,1.1283161818067344,-0.8607559394208023,-1.0927093557634298,0.5,0.18730837716291224,-1.1653477113114306,0.5,0.5481439011819648,-0.47443349116741557,0.5,-0.25940864974116595,0.00898940507965823,0.5,0,
0.6401707121899174,0.3250837530209529,0.10141742073865173,1.0547994557612363,-0.5125563348924321,-0.6395347591338154,0.5659675533130201,-0.8683923726666659,-0.898586029901692,0.5,0.1809687402386743,-1.5358003960092343,0.5,0.5437493868682483,-0.4572769570294344,0.5,-0.25808427374008447,0.03931913097138598,0.5,0,
0.6481728460922913,0.3282903206153408,0.6125042793206705,0.5923875423585822,-0.5183035655376796,-0.7507058311155002,0.7908681417219153,-0.8751333158992294,-0.9148715369380334,0.9426445962767668,0.1627355708267645,-1.8283939712520052,0.5,0.5408274698694938,-0.23854641209383048,0.5,-0.2587795436456238,0.051689321939586697,0.5,0,
0.6561749799946653,0.3348838214900836,0.31901444681048036,0.826362303941832,-0.5245676281902801,-0.8895717701465702,0.5082339174577949,-0.8830303172576744,-1.572552303019302,0.5254675247372483,0.1517144366986422,-1.4636021953878044,0.5,0.539932644274747,-0.2940734594681846,0.5,-0.2572572445890511,0.013833097392543237,0.5,0,
0.6641771138970393,0.3333945517643085,-0.1252088151761678,0.5,-0.5325367138600248,-0.9747553000748754,2.2735314522776413,-0.9002941527475382,-1.3771297923573094,0.704326266803545,0.13931793570055961,-1.503130371173127,0.5,0.5361222945180029,-0.5940179720891059,0.5,-0.2585582140873431,0.09155765490943477,0.5,0,
0.6721792477994132,0.3328804804472649,0.06471742594064966,0.5615623783361399,-0.5401637129914781,-0.47687971072037094,1.0456738363864233,-0.9050643939353914,-0.9418180827327829,0.5216952874441508,0.12766435075987217,-1.4096943825850266,0.5,0.5304283567213213,-0.29743420079957755,0.5,-0.2557923221105001,0.45261915998081464,0.5,0,
0.6801813817017872,0.3344300305793589,0.3901182061789472,0.5,-0.5401667892315507,-0.712790645177326,0.5,-0.9153632420712627,-1.233524746471204,0.5,0.11676282557919919,-1.594208326652819,0.5,0.5313633473052096,-0.38003952110099437,0.5,-0.25131630752765005,0.09573809369309641,0.5,0,
0.6881835156041611,0.3391223717461281,0.3548506270565563,0.5,-0.5515683633143154,-0.7458302759242238,0.8987240769638307,-0.9248007898789307,-1.0493060370159317,0.5,0.10215701753342707,-1.6124205129477267,0.5,0.5243477243837054,-0.5186539887832644,0.5,-0.2542605126114106,-0.15729946063576875,0.5,0,
0.6961856495065352,0.3401076406122638,0.19087979099087493,0.5,-0.5521000736463383,-0.5679671159038793,1.770094196422155,-0.9321521386635176,-0.9868864431137742,0.539839774487983,0.09096409737203556,-1.4881275243151222,0.5,0.5230648834846774,-0.2658270188328482,1.5,-0.25383309889782235,0.0013210010515810056,0.5,1,C153C1
0.7041877834089091,0.3421764484019821,0.13214546959965448,0.5,-0.5606558371687774,-0.9823978753716808,1.396678746754836,-0.940590972968751,-1.2220720634609632,0.5,0.07834697714438511,-1.8382921567826551,0.5,0.5200944920823798,-0.6246618459694181,1.5,-0.2542393765945853,0.012215034392810964,0.5,1,C153C1
0.7121899173112831,0.34222196812585826,-0.010373327830395795,0.5,-0.5678184396522852,-0.682874303271061,0.8866010071654717,-0.9517052916788931,-1.4232839572791978,0.5,0.06155142286351308,-1.8588655460691295,0.5,0.5130702939491667,-0.4104364004116623,1.5,-0.2536376583475374,0.18578053986658544,0.5,1,C153C1
0.720192051213657,0.34201047515669575,0.1668102933139251,0.5433912510833054,-0.5715818260211144,-0.8415299656169134,0.5,-0.9633635162852182,-1.463394479929915,0.7973547176016849,0.04860512840727904,-1.2585812375876626,0.5,0.5135275096757932,-0.18443949600728538,1.5,-0.2512668879567199,0.00665179115061712,0.5,1,C153C1
0.728194185116031,0.34489093281888106,0.4088882585463922,0.6859262841673409,-0.5812829191021558,-0.8932052141400193,0.5,-0.9751196033577717,-1.0756054598837772,0.5,0.04141412306211048,-1.4849875883642591,0.5552859778851915,0.5101192620130501,-0.389965106713179,1.5,-0.2535312296891275,-0.03286662560251022,0.5,1,C153C1
0.736196319018405,0.348552687293438,0.10062370533484022,0.5,-0.5858731094473547,-0.8267214115679002,0.7667828785461093,-0.9805732036433586,-1.114311889575552,0.5445511482890236,0.024845326993450895,-2.1669446806686956,0.5248658392411678,0.5072880679683823,-0.5050830625877786,1.5,-0.2517927539663601,0.23747969892705043,0.5,1,C153C1
0.7441984529207789,0.3465009121042385,-0.07183401246629167,0.8236305620233447,-0.5945104616872422,-0.9644569080770812,0.5,-0.9929485935909805,-1.4554661455219233,0.6507223741810588,0.00674300817141135,-1.7276350584619597,0.5,0.5020379330116457,-0.5914876297496221,1.5,-0.2497315545062947,0.08635466955159155,0.5,1,C153C1
0.7522005868231529,0.34740334309397736,0.32661348184339145,0.5,-0.601304419976588,-0.98816430607402,0.7165547963454005,-1.0038606619717094,-1.080577462900606,0.5,-0.0027968339419404626,-1.2603900900189855,0.5,0.4978242658923884,-0.5519358852223085,1.5,-0.2504110792535346,-0.19803170656448876,0.5,1,C153C1
0.7602027207255269,0.35172672781373276,0.30536133610245886,0.5,-0.6103210905844265,-0.8615531797709144,0.7595300027940126,-1.0102378329973902,-1.003956989382118,0.9302438003983733,-0.013423233268892415,-1.6584078798138113,0.5,0.49320695884808874,-0.30007110204885096,1.5,-0.2529000618113265,0.19906764715125513,0.5,1,C153C1
0.7682048546279008,0.3522891244716167,0.12054353020216069,0.5,-0.6150892708529226,-0.9974079738960875,1.4732578061387036,-1.0199239738018233,-1.6176729587887155,0.6176439934908097,-0.029331360018961444,-2.0457369088276134,0.5,0.49302312825960676,-0.20066042955765515,1.5,-0.24722599689911454,0.5304877391610445,0.5,1,C153C1
0.7762069885302748,0.35365542429696734,0.28671822846263945,0.5,-0.6262796181667639,-0.7061846497541726,0.6126490606934047,-1.0361206003380097,-1.28265975307007,0.6673198165166642,-0.04615502381013423,-1.6539954281143365,0.5,0.48999639197516626,-0.44799728029966746,1.5,-0.2444122579847498,0.13995539864471856,0.5,1,C153C1
0.7842091224326487,0.35687661612701893,0.2166753668372684,0.5,-0.6263882252489894,-0.583736944826857,2.3204030877400506,-1.0404465298509444,-0.9525887512133735,0.8666498547126575,-0.05579528686879083,-1.8092218534692992,0.5,0.4858551717748121,-0.4928890482994025,1.5,-0.24498671052079904,-0.38636561406766784,0.5,1,C153C1
0.7922112563350228,0.35712223016636363,0.2389284788175093,0.5,-0.6356194092839936,-1.1058341031005072,2.032432801125354,-1.0513620203574237,-1.4293617684334041,0.5,-0.07510257346564302,-1.7341370992438963,0.5705047836035876,0.4821101672023758,-0.50370138493111,1.5,-0.2505941078098325,-0.08332862328745347,0.5,1,C153C1
0.8002133902373967,0.3606994717880991,0.37905886662331634,0.5,-0.6440815708985975,-0.6958582297818955,0.5,-1.063316318145879,-1.5348740299480357,0.7885634058986493,-0.08354148045669317,-1.1172258037735194,0.5,0.4777959496159143,-0.2357828443967265,1.5,-0.2463199684933983,0.3113758272997001,0.5,1,C153C1
0.8082155241397707,0.3631871720323367,0.44958691831273323,0.8965218604953235,-0.646753140960504,-0.7208823633805123,0.9995337948535491,-1.0759200048365922,-1.0243931425101271,0.5,-0.09297818632601933,-1.4811058648109563,0.5,0.4783376416920282,-0.42822514560868563,1.5,-0.2456120945730373,-0.11371241833386253,0.5,1,C153C1
0.8162176580421446,0.3678928624811028,-0.0010588912066275546,0.5,-0.6556156887126857,-0.915607293124461,0.5,-1.079706608426041,-1.116287917123218,0.6382387191542194,-0.10723917429366847,-1.7988325670151528,0.5,0.47094434728617535,-0.672284004624487,1.5,-0.2481393671867401,-0.32324129952484776,0.5,1,C153C1
0.8242197919445186,0.36317022977303065,-0.1557446015050916,0.6908691579214982,-0.6614028576504953,-0.8945899129202197,0.6901270182194625,-1.0937806115105637,-1.5561361827531455,0.7170292792734916,-0.12175950739826177,-1.5928798860378768,0.5,0.4675810976180364,-0.3427883033687504,1.5,-0.25078395536543485,0.1182992987458411,0.5,1,C153C1
0.8322219258468926,0.36540094885702135,0.2225938093156389,0.5,-0.6699291273194092,-0.7749384465484122,1.4488749269216834,-1.1046047873500913,-1.1738343897883807,0.5,-0.1327252524702745,-1.591171283414617,0.5,0.46545973443227534,-0.4421652774596017,1.5,-0.24624657840680664,0.5859792253091485,0.5,1,C153C1
0.8402240597492665,0.3667317307220809,0.13809924143728947,0.7368071151203973,-0.6738018727952699,-0.4856900888074861,1.7565142265305054,-1.1125619617471778,-0.9203503590713147,0.5,-0.14721824793289565,-1.6377625301070824,0.5,0.4605064531786828,-0.46036425530413677,1.5,-0.24140828776048848,-0.03023178570692696,0.5,1,C153C1
0.8482261936516405,0.367610536720018,0.5432391774625976,0.5,-0.677700168740329,-0.8501978978059584,0.8260499368544877,-1.1193303930952323,-0.8692842064058903,0.5768769591758296,-0.15892945295198782,-1.4698151679042992,0.5,0.45809390634740915,-0.3920447078898867,1.5,-0.24673028697811747,-0.23383610773310656,0.5,1,C153C1
0.8562283275540145,0.37542355756148243,0.3653103788777874,0.8931684633155215,-0.6874050391601653,-1.015606515806268,1.5949543923926888,-1.126470509049672,-1.145037725801004,0.5,-0.17073529061936443,-1.5319987048077535,0.5,0.4542337378524446,-0.2623320272833185,1.5,-0.24514966548421818,0.16863538808894496,0.5,1,C153C1
0.8642304614563885,0.3734555027820626,-0.09706095650287294,0.6222603360531946,-0.6939498729932293,-0.6886315435563617,0.5,-1.1376509967080484,-1.3488011935154087,0.5684084009049326,-0.18344143222891188,-1.4340991784454158,0.5,0.45389659391087606,-0.18662506998724793,1.5,-0.24403212076869435,0.12120310014094617,0.5,1,C153C1
0.8722325953587624,0.37387058225743647,0.23866553692725861,0.5,-0.698423143857067,-0.6239256593330785,0.9092994749234476,-1.1480513281459186,-1.1234179856237925,0.5,-0.1936808774744911,-1.4056530359064303,0.5,0.4512477367326486,-0.1978273138631137,1.5,-0.24321041588196304,0.21207954454854383,0.5,1,C153C1
0.8802347292611363,0.3772741513728987,0.46059870151835686,0.8018177378939042,-0.7039326835425586,-0.7922061461821117,0.5955710677137928,-1.155625684478029,-0.9958695149100139,0.5,-0.20593188080341476,-1.4130453009583588,0.5,0.45073135688906624,-0.5348330997837457,1.5,-0.24063884805591765,0.07170970543703657,0.5,1,C153C1
0.8882368631635104,0.3812401614817302,0.07842967594141187,0.5,-0.7110984421959808,-0.8975606612766848,1.5339215262401362,-1.1639852403844788,-0.863403592471404,0.5,-0.21628960228982483,-1.5349883195316174,0.5,0.4426904071361087,-0.48271595719006144,1.5,-0.24206306059497046,-0.03265509998864706,0.5,1,C153C1
0.8962389970658843,0.3785290261879613,0.05781928393719035,0.5,-0.7182936541229855,-0.57145902614264,0.6561014116977891,-1.1694401419575715,-1.01898759746058,0.5,-0.23049169391592064,-1.4807796722683761,0.5,0.44300790157402525,-0.2993982604763759,1.5,-0.241161329655736,0.10783087021437425,0.5,1,C153C1
0.9042411309682583,0.3821652700247252,0.12868837988451107,0.5,-0.7202417866142631,-0.4537928944030947,0.7134645941936077,-1.180289041943848,-1.24538678562916,0.6923526451431365,-0.23998207704611885,-1.1093707422099914,0.5,0.4379000349684867,-0.17626753048156918,1.5,-0.24033776667154047,0.08221825026272743,0.5,1,C153C1
0.9122432648706322,0.3805880402661135,0.17224129640162206,0.5,-0.725554340433435,-0.5996258054815629,0.5,-1.189366330527638,-0.7955308299813085,0.5,-0.2482416257912805,-1.5307639625547487,0.5,0.44018762108632015,-0.2715485793448186,1.5,-0.23984583765153236,0.30223174917751,0.5,1,C153C1
0.9202453987730063,0.3849211307671512,0.42008039001918335,0.5,-0.7298357995019681,-0.5483147432996938,1.3438726726759975,-1.193017535223549,-0.9884550782134488,0.6419344059552031,-0.2644743004469948,-1.3782943395846992,0.5,0.4335552576989696,-0.22845767347056886,1.5,-0.2355020586847003,0.028248804281425996,0.5,1,C153C1
0.9282475326753802,0.3873093265064204,0.18853790217000094,0.5,-0.7343273763262301,-0.8247246167607664,0.5,-1.2051816117790533,-1.417924555967176,1.033212150957213,-0.2702943352246357,-1.0218057020602855,0.5,0.43653229831079104,-0.4208821374737277,1.5,-0.23939385678302955,0.16057956182054592,0.5,1,C153C1
0.9362496665777541,0.3879377372018712,0.09551740048999863,0.5,-0.7430313933701403,-0.8725621152017512,1.4309998451396486,-1.2157043281190238,-0.705966353752599,0.5,-0.2808231916799594,-1.4597846908100016,0.5,0.42682114349938993,-0.6477396797333647,1.5,-0.23293278569557158,0.32460094350605756,0.5,1,C153C1
0.9442518004801281,0.3888376049142604,0.18275206465459548,0.5,-0.7482883701694582,-0.5685519560203883,0.9496342319856137,-1.2164770734390948,-0.5769301046015529,0.816436108564612,-0.2936508902775957,-1.3656102718780094,0.5,0.4261684634350572,-0.10071256247239091,1.5,-0.23420024168693263,-0.036984435130588134,0.5,1,C153C1
0.952253934382502,0.3908617702363447,0.43467262033177606,0.9895181626707418,-0.7521282246664666,-0.3838236193308697,0.8613010063693408,-1.2249352097926487,-1.1563036836262224,0.6360011201688772,-0.30267295603000755,-0.9739652883182237,0.5,0.4252097424998317,-0.323193655765254,1.5,-0.23352453665766099,0.033330117733633424,0.5,1,C153C1
0.9602560682848761,0.3957923668395688,-0.03419100960112484,0.5,-0.7544295480787521,-0.5493605563452671,0.6114774333806081,-1.2349779323771144,-0.7726489758906607,0.5,-0.3092343348906873,-0.7369546558920852,0.5,0.42099736494281315,-0.47623768703058605,1.5,-0.2336669598031945,-0.1313355120738397,0.5,1,C153C1
0.96825820218725,0.3903147140827267,0.10057948893658908,1.0515411489931075,-0.7609179935679908,-0.6652496368741712,1.1149966544976975,-1.2372975934068993,-0.7057368998156927,0.5,-0.3144642305242809,-0.9010698512426502,0.5,0.4175899395073423,-0.05524147598954393,1.5,-0.23562590485084242,-0.3608120566262387,0.5,1,C153C1
0.9762603360896239,0.39740163866255424,0.6744380706817862,1.2422838947674573,-0.7650735422687388,-0.42869037788958314,1.3138667648597355,-1.2462697227741655,-1.0745513095712644,0.5217364155773587,-0.3236514525105697,-1.02192055118739,0.5,0.42011350132698044,0.10318248194194843,1.5,-0.2394399527092143,-0.00013273787390251368,0.5,1,C153C1
0.984262469991998,0.4011057232136353,0.06674651059540918,0.5,-0.7677770396142242,-0.12457173794214876,1.2325486212891656,-1.2544904143600395,-0.7767594222037599,0.7043582799697602,-0.33081495934327915,-1.0201386992649866,0.5,0.4192408592184135,-0.27856701771955883,1.5,-0.23562802865682486,0.3934802629527567,0.5,1,C153C1
0.9922646038943719,0.3984695828320808,-0.17154294193070033,0.5,-0.7670666900758132,-0.38582568206114304,1.1799897608649887,-1.2586978735294256,-0.3190118986614171,0.5,-0.3399736716988095,-0.9135102361487908,0.5,0.4156564290434675,-0.23434411137499347,1.5,-0.2331442685019702,-0.011622485314263797,0.5,1,C153C1
1.0002667377967458,0.3983610361427441,0.10765063307672032,0.5,-0.7739502505272025,-0.6350302011264366,2.1550891069301947,-1.2595946047386222,-0.36916201514657077,0.5426057594173748,-0.3454311231216598,-0.8794686551461885,0.5,0.4154913534364136,-0.16867578666899044,1.5,-0.23581398842185308,0.1711354971672945,0.5,1,C153C1
1.00826887169912,0.4001919929613083,0.1969920248437694,0.5,-0.7772271732938362,-0.1762977140850261,0.8242220891169587,-1.2646044657717708,-0.7892121223059961,0.5,-0.3540451701811485,-0.8809614983410242,0.5,0.41295761645676365,-0.3301291096931037,1.5,-0.2304061005472935,0.2634660444390847,0.5,1,C153C1
1.0162710056014939,0.4015129085402444,0.455137519207241,0.5,-0.7767710139525629,-0.34249579168804667,1.2173367312167183,-1.272221998695518,-0.9207840067706752,0.8024021159321463,-0.3595265070951162,-0.533956500145434,0.5,0.4102092876813239,-0.12512898621675275,1.5,-0.23159853171082773,-0.18939378979306204,0.5,1,C153C1
1.0242731395038678,0.40747419326862416,0.34350069703376757,0.5,-0.7827071059608449,-0.5926322516981649,1.440365264386389,-1.2793370098801016,-0.30726937229502704,0.5,-0.36258847418347545,-0.6457881185221344,0.5,0.4109555526772956,-0.16708648120949618,1.5,-0.23343640118398248,0.19543503819386374,0.5,1,C153C1
1.0322752734062417,0.4070089196927847,0.16845952716542864,0.5,-0.7862531299797335,-0.2843844177037175,0.507720924013159,-1.2771383086522385,-0.15980653822295077,0.5,-0.36985911699147034,-0.6938188717767225,0.5,0.407535903981972,-0.19400524932474544,1.5,-0.2284715710997259,0.2415943844032778,0.5,1,C153C1
1.0402774073086156,0.410169545703271,0.1439979295183129,0.5,-0.7872572566441044,-0.19145502429283173,0.5,-1.2818939144916688,-0.45834278419988606,0.5,-0.373689576131903,-0.4675971350684531,0.5,0.4078514686880997,-0.14982616153498204,1.5,-0.22957089103353004,0.07068049996001788,0.5,1,C153C1
1.0482795412109898,0.4093128865650777,0.07417809265967967,0.5,-0.7893164103684188,-0.24225923727155818,0.5,-1.2844717931994367,-0.3210892518119429,0.5,-0.3773406711525656,-0.6029533559000038,0.5,0.40513868539741227,-0.3152021309911143,1.5,-0.22734068310036562,-0.03529916221044899,0.5,1,C153C1
1.0562816751133637,0.4113563951858259,0.153928485614227,0.5,-0.7911334044404493,-0.23949521263828127,0.9862435480669274,-1.2870313425206599,-0.20879979148098748,0.5,-0.38333682982630307,-0.62479457389902,0.5,0.40280823459224185,-0.033197003409830145,1.5,-0.23013567762889722,-0.16492810808778,0.5,1,C153C1
1.0642838090157376,0.4117757423349053,0.37143114391745974,0.5,-0.7931483337706313,-0.43606221759547037,1.1320717015770771,-1.2878125898631325,-0.19865689093803707,0.5,-0.3873373843349499,-0.4410897352578914,0.5,0.404607533342855,-0.1306815144548265,1.5,-0.2299795328297701,0.036949747853216516,0.5,1,C153C1
1.0722859429181115,0.41729929348850525,0.21583663300174527,0.5,-0.7981103999219769,-0.22924692233865923,0.5034626712648012,-1.2902098527756685,-0.398964464779189,0.5,-0.39039426559042933,-0.4353330144565119,0.5,0.40071733036096463,-0.21034036288641172,1.5,-0.22954448166324576,0.17768507336672623,0.5,1,C153C1
1.0802880768204854,0.41522912846293325,0.07759959483914086,0.5,-0.7968162845280499,-0.12706800595706919,0.5591920387388967,-1.2941960212995995,-0.5852193579836962,0.5,-0.3943027125662541,-0.3174102696082218,0.5,0.4012420875366724,0.21653303957223924,1.5,-0.22713657165590248,0.07039996586099238,0.5,1,C153C1
1.0882902107228596,0.4185408870059315,0.1568304340008389,0.5,-0.80014348801729,-0.2380109896260238,2.0991195926562,-1.2995733625034076,-0.4185745519439954,0.6342634599286753,-0.3954728299041609,-0.2947702804735608,0.5,0.40418185899412046,-0.07918358067021333,1.5,-0.22841808220946988,0.1399554419935691,0.5,1,C153C1
1.0962923446252335,0.4177384154069467,0.2749301217764011,0.5,-0.8006244603620662,0.22476738529902257,1.249157076804776,-1.3008932141307035,-0.0013738543612057397,0.5,-0.39901903705383107,-0.14264766272224783,0.5,0.399975150245949,-0.212489510148052,1.5,-0.22489728458400537,0.23502993567066366,0.5,1,C153C1
1.1042944785276074,0.4229397689543539,0.2734457695151085,0.6203662167746622,-0.7965472098525056,-0.04488351978321897,1.1716887310915618,-1.299595344173187,-0.1294891133769155,0.5,-0.39775519250771685,-0.10021363802311528,0.5,0.4007820268317516,0.14562481266943914,1.5,-0.22465760323873926,0.19921629818088482,0.5,1,C153C1
1.1122966124299813,0.4221135477191884,-0.026422959507294702,0.5,-0.8013425966785978,-0.30005833051714725,2.3854893128618,-1.3029650399447341,0.012510510380925322,0.5,-0.4006224552622009,-0.22695806896568665,0.5,0.40230514724866,-0.11200274904842045,1.5,-0.22170982381311122,0.024770516491698716,0.5,1,C153C1
1.1202987463323555,0.4225170016022372,0.20884670434828667,0.5,-0.80134814314078,0.24067446468190729,0.7213139756515399,-1.299395176007092,0.24860749088649603,0.6234698189683435,-0.40138652161116783,0.06417203566000743,0.5,0.3989899828469769,-0.23490233993692447,1.5,-0.22426127497487208,-0.3342808883062629,0.5,1,C153C1
1.1283008802347294,0.425455094988761,0.32541222304547507,0.5,-0.7974918052436872,0.08079511495535235,0.5,-1.2989873200905502,-0.17284953925193747,0.5,-0.3995957026916408,0.1341718180381743,0.5,0.3985467098096692,-0.03311156146600103,1.5,-0.22705831802601142,-0.045993669747003765,0.5,1,C153C1
1.1363030141371033,0.4277235971709648,0.23013943981743668,0.6867886530672276,-0.8000554213014943,0.008423130847465266,0.7330252044833969,-1.302160768635123,-0.007120606073635072,0.5,-0.39923977252255705,0.2808250424663275,0.5,0.3984601978635209,0.1204394578740546,1.5,-0.22499717369082414,0.4622026659135189,0.5,1,C153C1
1.1443051480394772,0.42913732602584,-0.13549450047171951,0.516765522939072,-0.7973570351501278,0.1660663467618062,1.0397132673715908,-1.2991012497877283,0.25874581154075593,0.5,-0.39510250201217956,0.04291443501375225,0.5,0.4004737411356541,-0.08214693100283901,1.5,-0.21966307537139512,-0.057726824573514635,0.5,1,C153C1
1.1523072819418512,0.4255556851634173,0.14612078999574202,0.8374274713575638,-0.7973983597533054,-0.06532139164505679,1.495362085093344,-1.298020835650471,0.3083753412972817,0.5,-0.398553141562337,-0.11710202463699818,0.5,0.39714584696747546,-0.03552950537505026,1.5,-0.22592080288400038,-0.03956482121629003,0.5,1,C153C1
1.1603094158442253,0.43147525866577185,0.5607634712373084,0.7604260474453203,-0.7984021774164487,0.2766070507875043,1.1142128176660258,-1.2941672443269718,0.20625666654647268,0.5128220735267055,-0.39697613440637153,0.38237047680779107,0.5,0.3999052690496533,0.21110373416586767,1.5,-0.22029611251085576,0.45288281375112716,0.5,1,C153C1
1.1683115497465992,0.43452790070321423,0.20859251357637637,0.5,-0.7929726469407054,0.023275551350031287,0.9843748732682618,-1.2947207289857274,-0.10622421380772351,0.6437226442388204,-0.39243521393341235,0.378011160260025,0.5,0.40052350671412934,0.09396524337096715,1.5,-0.21867467786398234,-0.10552136566881545,0.5,1,C153C1
1.1763136836489732,0.4348127388829939,0.03699194758947921,0.6107781765996978,-0.7980297685948482,-0.19017619646800876,1.953979190366343,-1.2958668317478954,0.31588291797553236,0.5,-0.39092795584221113,0.3759928632859899,0.5,0.40140871294358876,0.17946368120751177,1.5,-0.2219844543615568,-0.3505288307435583,0.5,1,C153C1
1.184315817551347,0.4351197718646459,0.31073226329181997,0.5,-0.7960154660841935,0.2593924242102266,0.5,-1.289666602298119,0.45737965867871655,0.5,-0.3864193281208365,0.6936152965373865,0.5,0.40339492561344953,0.24010114293139193,1.5,-0.22428313915587927,0.15002966996481223,0.5,1,C153C1
1.192317951453721,0.439784455095663,0.2621104112729942,0.5,-0.7938794898074846,0.20352103257808424,0.6131699709298615,-1.288548757209036,0.3672801861052538,0.5,-0.37983011109761294,0.40085791083913425,0.5,0.40525033123049103,-0.006681250331954519,0.5,-0.21958397964211981,0.2295989711217812,0.5,0,
1.2003200853560951,0.4393135384450138,0.2321782442182528,0.5,-0.7927591295629441,0.31631829626781877,0.6960215530524742,-1.2837901193204349,0.42436793020489416,0.5,-0.38000560154741037,0.3548692961953502,0.5,0.40328802560813826,0.057865247829216176,0.5,-0.22060955561793077,-0.04578264441123733,0.5,0,
1.208322219258469,0.44349930700315504,0.10758674474223295,0.5,-0.7888183970671995,0.42829336657252554,0.5,-1.2817588703257576,0.2707325004479566,0.5,-0.37415220235848734,0.6763277774742733,0.5,0.4061761751957585,0.3362293438977058,0.5,-0.2203165019526996,0.230056665831882,0.5,0,
1.216324353160843,0.44103492636088953,0.07117240364327981,0.5270810422587056,-0.7859064356977837,0.4315982662250126,0.5,-1.2794583993132675,0.5278390114347026,0.5,-0.369184357107822,0.6155426672157273,0.5,0.40866769511050155,0.1787735733328119,0.5,-0.21692864896462066,0.3851311353714748,0.5,0,
1.224326487063217,0.4446380654614475,0.39967360289632975,0.5,-0.7819128248075993,0.46262206940392986,0.5,-1.2733134461428024,0.6532846823004146,0.5,-0.3643035196830357,0.5749065471620484,0.5,0.4090365523690835,0.2281669221285941,0.5,-0.21415440378675601,-0.18796790189149098,0.5,0,
1.2323286209655908,0.4474297040072308,0.19458277920781156,0.5,-0.7785044825873209,0.36093770615321097,0.959582739261037,-1.269005844396461,0.3285409714411103,0.5,-0.3599858523532292,0.9099669328389188,0.5,0.41231836586455906,0.24428644335759003,0.5,-0.21993613539488452,-0.10000031010367998,0.5,0,
1.240330754867965,0.4477513899287725,0.1421532375646059,0.5054249328196679,-0.7761378215091479,0.17751492546799752,1.2442741346637305,-1.2680567905997446,0.5863368523084528,0.5,-0.349744048757613,0.8773500136380826,0.5,0.4129451354628049,-0.12864461214065828,0.5,-0.2157544087484149,0.2796480588373052,0.5,0,
1.2483328887703389,0.4497041558082645,0.39024450686333395,0.5,-0.7756642437798329,0.45053904637401554,0.780152179505157,-1.2596244547595257,0.4800114683586182,0.538884206204171,-0.3459482521350199,0.7549557850249633,0.5,0.4102600520703085,0.23803469897317256,0.5,-0.21546176645348764,-0.156879073993919,0.5,0,
1.2563350226727128,0.45399530203858585,0.22200368283370464,0.5,-0.7689291967671636,0.594892235672273,1.7990280338920266,-1.2603766071060067,0.8583859022786994,0.5,-0.3376647561972136,0.9818761634644776,0.5,0.4167536906463757,0.4105592935447523,0.5,-0.2182644739323176,0.01745977116520553,0.5,0,
1.2643371565750867,0.4532562147336038,0.1674483092589142,0.5373085161300886,-0.7661459680090765,0.1983955720409325,0.8010209344614292,-1.2458902803230665,0.9632506736997754,0.7274167312203069,-0.33023823351958825,0.6976610108010844,0.5,0.41682900076702456,0.07261636744548133,0.5,-0.21518241011484435,0.006901660982295069,0.5,0,
1.2723392904774609,0.4566744749867285,0.44734896707668975,0.7945676798855321,-0.7657548676145087,0.37514921491263453,0.8333777542649526,-1.2449645963268103,0.4609079640400665,0.5,-0.32650218002439624,0.9858719067725521,0.5,0.4179155525255034,0.1786798419830711,0.5,-0.21815404735660088,-0.10511806064267097,0.5,0,
1.2803414243798348,0.4604137982068308,0.03705162471082449,0.5,-0.7601435805704744,0.5603794114142219,0.504785381035537,-1.2385157528984254,0.6069456207955931,0.5,-0.3144642830112274,0.8314846196879957,0.5,0.4196878782387537,0.3326666375264124,0.5,-0.21686429908512708,0.2199830854103732,0.5,0,
1.2883435582822087,0.45726730098210167,0.004291317336924116,0.5,-0.7567887970318812,0.65266588224102,0.5,-1.2352534663940808,0.8753902343273251,0.5,-0.3131984261093883,0.7321237234592832,0.5031047012166032,0.423238218725926,0.4088515246801795,0.5,-0.2146343179900349,0.026679940339670652,0.5,0,
1.2963456921845826,0.4604824592842216,0.2369696591679009,0.5,-0.749700926454618,0.7100895458901842,0.926371948542803,-1.2245095091491882,1.0103088661744668,0.7957278077685561,-0.3027503034358789,1.2843324366607414,0.5,0.42622950263363657,0.2044032144398432,0.5,-0.21643742003969235,0.09769310973077594,0.5,0,
1.3043478260869565,0.4610588155287881,0.13740712273403732,0.5,-0.7454273642976382,0.5223744612428485,0.6913208256422749,-1.2190885245352894,0.550723723026475,0.589986514809753,-0.29264910712281644,1.2923091085815588,0.5,0.4265086701569635,0.1646020238097387,0.5,-0.2130712282343425,0.27725012336433236,0.5,0,
1.3123499599893307,0.4626809732479662,0.16132401388131018,0.5,-0.7413429350747325,0.656799673460523,1.3370716978279216,-1.2156979295807646,0.9004148090435982,0.546335610001676,-0.28207335769857395,1.3288886984499857,0.5,0.4288631350145924,0.40381078241989027,0.5,-0.21200141806586303,-0.24661767780052682,0.5,0,
1.3203520938917046,0.46363999975088904,0.28528621524652464,0.5,-0.7349185695222699,0.3766715695524628,0.7272477725393731,-1.2046818875905918,1.1908106280470732,0.6638672660586704,-0.2713868879476167,1.0922634142773655,0.5,0.4329696426756817,0.4602151341935243,0.5,-0.21701711107915092,0.21687230344010627,0.5,0,
1.3283542277940785,0.4672455526919106,0.35324235183240016,0.5,-0.7353161899618931,0.5229322408641032,1.525097496293416,-1.1966449595320114,0.8865770337652262,0.5,-0.2645971430701361,0.9995491200605715,0.5,0.4362265771616888,0.4030028793985639,0.5,-0.20853146121082133,0.3290127945004117,0.5,0,
1.3363563616964524,0.46929187738020745,0.19548275886676833,0.5,-0.7265516536684442,0.8516038338787709,1.1252799039805974,-1.1904966550503482,0.936841611521938,0.523288618428888,-0.25539410202664753,1.3639939350019394,0.5,0.43941768874605874,0.30506826538619775,0.5,-0.21175290636714433,-0.1698057904224604,0.5,0,
1.3443584955988264,0.4703732768337789,0.06093884807994651,0.5,-0.7216905286198327,0.6054502746506846,0.5,-1.1816554937476604,1.1868274744636087,0.5018215470055537,-0.24277324011010507,1.504349962808231,0.5,0.44110766940786794,0.2594460806839664,0.5,-0.2112483538575807,0.18109978446457542,0.5,0,
1.3523606295012005,0.4702668989494866,-0.18500623998348592,0.8554546852839318,-0.7168644492740333,0.6562591176453233,0.9811041193475423,-1.1715074154589304,0.8903520359235945,0.5,-0.23132450262171583,1.4233057445185489,0.5,0.4435688260370022,0.5494686679945529,0.5,-0.20885530981571113,-0.1960342887917764,0.5,0,
1.3603627634035744,0.4674131769940431,0.2691037786191758,0.6777448977368183,-0.7111903827375076,0.8634246371207673,1.0767826107918923,-1.167409861172883,1.0679893285253927,0.5,-0.22000034819780828,1.5562898289723133,0.5,0.4498991680957808,0.20631937715992477,0.5,-0.21438490247824912,-0.06713008681329992,0.5,0,
1.3683648973059483,0.4745725594073934,0.6359760488299643,1.3881703143323625,-0.703049655080101,0.6525403622570716,0.5,-1.1544195862025242,1.1303540937227519,0.5686226775223909,-0.20642386535815882,1.3769905455642861,0.5,0.446869936071561,-0.06071958442564404,0.5,-0.20992939120472393,0.11154406714169833,0.5,0,
1.3763670312083223,0.47758879377532254,-0.09312481847875698,0.5820196759174199,-0.7007497369413944,0.5691620220813348,1.866005226495616,-1.149324195673319,0.9145741718157296,0.7200249426758744,-0.1979684994687797,1.244503037543327,0.5,0.4489276547449705,0.3789291251779098,0.5,-0.21260019740398195,0.16784709725131164,0.5,0,
1.3843691651106962,0.4730825623117333,0.18880019515044727,0.5,-0.6939430627267996,0.9668301848010998,1.2945928196259968,-1.1397863994534725,1.4486366732536364,0.5,-0.1865118167574656,1.4880013615151226,0.5,0.45293280207440756,0.4622959189776177,0.5,-0.20724383764870294,0.3248281519350922,0.5,0,
1.3923712990130703,0.4806095968977297,0.38048181981806606,0.5,-0.6852804539845768,0.7139149093299824,0.5,-1.1261460089012607,1.2624803168643366,0.8223859778556484,-0.17416047768453774,1.4047708455243082,0.5,0.45632438944861237,0.2399209230101694,0.5,-0.20740294697302047,0.09925782942323338,0.5,0,
1.4003734329154442,0.47917027142882235,0.12689495427826297,0.5390221221342422,-0.6825204241775199,0.7794676205698098,1.0053394350613227,-1.119586714383643,0.8550594452377547,0.5,-0.16403548322907666,1.5036545042193503,0.5,0.45677153684257027,0.2880544344723949,0.5,-0.2056557123779312,0.4117108121544158,0.5,0,
1.4083755668178182,0.4826399161661819,0.40454820237170036,0.5,-0.6728089720554599,0.9570153757995011,1.87924355554482,-1.1124650577774566,0.9452172297630124,0.5935939761791073,-0.15010200561702813,1.5992685991474895,0.5,0.4609332604001707,0.5549965149937997,0.5,-0.20081557397854982,0.09492135066385167,0.5,0,
1.416377700720192,0.48564304266676955,0.2894745698358951,0.5,-0.6672081781647279,0.5692856418599082,1.5396113993573846,-1.104463238707435,1.3031158030108874,0.5,-0.13844718564271682,1.55482568549614,0.5,0.46565148108247106,0.2701862169734934,0.5,-0.20413697076730958,-0.3308629369187122,0.5,0,
1.4243798346225662,0.4872715092835562,0.13294613301481975,0.5,-0.6637004017857013,0.890659188668437,0.5,-1.0916152049292824,1.190315462599331,0.5,-0.1252247946490899,1.7334653143680645,0.5,0.4652562398717466,0.6322748081729647,0.5,-0.20610938096924922,-0.16408689150060676,0.5,0,
1.4323819685249402,0.48777018079500667,0.07989424600779102,0.5,-0.6529576311460329,0.9251683818554748,1.461658998336428,-1.0854181913058456,0.9547684376154386,0.5,-0.11071174061282779,1.6141934244415035,0.5,0.4757678780132385,0.4214207657587919,0.5,-0.20676236103131929,0.1539698861769169,0.5,0,
1.440384102427314,0.4885498172196809,0.22282616400894767,0.5,-0.6488977076760137,0.6163507605570286,0.66962438200349,-1.0763389099274354,1.2051029483048092,0.5894786179905784,-0.09939769985802584,1.6512220125849981,0.5,0.47199897212388725,0.0518639528890516,0.5,-0.20364586279041855,0.22129978278935883,0.5,0,
1.448386236329688,0.49133539941914983,0.20522305641832578,0.5,-0.6430960189771204,0.7496703634365595,0.5,-1.0661365441329687,1.5964185137153502,0.7474620490115339,-0.08429218841146782,1.6019330218172891,0.5,0.4765977012594633,0.44479013974418197,0.5,-0.20322156450668954,0.07814387115724283,0.5,0,
1.456388370232062,0.4918333861223741,0.2722731036838219,0.7419188257006086,-0.6369029818610288,0.831844994715572,0.5,-1.0507962137079898,1.2244441489733804,0.5,-0.07376677150894921,1.4693602772639816,0.5,0.47911561435979416,0.4718759547139399,0.5,-0.20239556085190266,-0.01153199759820929,0.5,0,
1.464390504134436,0.495691769078091,-0.09132815758588347,0.5,-0.6297864990616713,0.8918571279128359,0.5,-1.0465454377493946,1.0766524272241422,0.6457638152883333,-0.06078242397524412,1.6707895185998316,0.5,0.48414771653488636,0.5590032219419429,0.5,-0.2034060764682609,0.1615874650500639,0.5,0,
1.47239263803681,0.49037213560099996,0.08512926851135527,0.707045735698701,-0.6226332678144234,0.9242038572287239,0.5,-1.0335697748724035,1.3852992136525326,0.6232556346348496,-0.047034139211351904,1.8110925916810638,0.5,0.48805966591086525,0.41027604277268576,0.5,-0.19981016141110164,0.23071869012450744,0.5,0,
1.480394771939184,0.49705383737427267,0.46490843245137675,0.5302001128743766,-0.6149992373460117,0.9184933572212867,0.9144898448039077,-1.024380650330954,1.0553902918781222,0.5,-0.031804942508347096,1.8485023367947935,0.5,0.49071213321924934,0.5113265154974983,0.5,-0.19971457742626877,-0.028604331476486666,0.5,0,
1.4883969058415578,0.497810670520222,0.19350089692353467,0.5,-0.6079373740988828,0.7395497891175897,0.5,-1.0166835302023536,1.3193438863913913,0.5809044770865572,-0.017458101822635207,1.8264225932019296,0.6287888356719705,0.4962408901588252,0.3868664312344505,0.5,-0.20026783071472543,-0.09601835647658416,0.5,0,
1.4963990397439317,0.5001498517250492,0.1489555078378682,0.5,-0.6031664407201303,0.7315329499054598,0.5399966120645497,-1.0032711481486918,1.6880223729854524,1.0545715765047246,-0.0025821810171162197,1.2205581742118077,0.5,0.49690199611900054,0.41756960820969746,0.5,-0.20125087112989412,0.22212142701445725,0.5,0,
1.5044011736463059,0.5001939586456279,0.14197590625252,0.5,-0.5962328469003955,0.8266831331564806,0.5888752079093036,-0.9896751722345863,1.0666274594261713,0.5,0.0020708289647537173,1.4334778666506471,0.5,0.5029220038901804,0.5107277798500411,0.5,-0.1967138878824941,0.11377880553632008,0.5,0,
1.5124033075486798,0.5024214662250895,0.2084031292693897,0.5,-0.5899395105896266,0.9160987833990788,0.5,-0.986205108797873,1.0876714440193544,0.5015345962787017,0.020353464849294133,1.9287834568409985,0.5,0.5050736405966012,0.5261012728802611,0.5,-0.199430410241313,-0.044872052136780624,0.5,0,
1.5204054414510537,0.5035284087139381,0.25620626092075216,0.5,-0.5815752663660102,0.9123609094280962,0.5,-0.9722724291302767,1.3618781593249876,0.5,0.032931364274209694,1.8551917440745482,0.5,0.5113396242562646,0.5159059935269869,0.5,-0.1974318407166826,0.1762263232151142,0.5,0,
1.5284075753534276,0.5065207663998216,0.017269548555812197,0.5,-0.575341736038777,0.8305884880085087,0.5,-0.9644150582486732,1.2581900921561293,0.5,0.050036532754486905,1.7016373509240812,0.5,0.513328136493033,0.31623294475673774,0.5,-0.19661078906987117,-0.08007603864441763,0.5,0,
1.5364097092558016,0.5038047214908311,0.2180624562203512,0.5,-0.5682858505578741,0.8751088834075756,1.3322313361312033,-0.9521413876557786,1.1863726880150873,0.5,0.060157561888994994,1.5343593686985624,0.5,0.5163993513723724,0.24308652288936028,0.5,-0.19871305733499328,0.07538005237160521,0.5,0,
1.5444118431581757,0.5100097656993472,0.3916315656687097,0.6408784170692362,-0.5613399939042558,0.5980203681318838,0.5,-0.9454330952404318,0.9269250326410446,0.737578840296873,0.0745862826536639,1.496224002869279,0.5,0.5172175208592628,0.34946288309353757,0.5,-0.1954047082319255,-0.07688990659462588,0.5,0,
1.5524139770605496,0.5100708265415305,0.11269596663828624,0.5,-0.5587175246677639,0.6427632053300144,2.0203262133852182,-0.9373105871335219,1.3947869160574748,0.5,0.08409714593490346,1.807780904118531,0.5,0.521990757501869,0.5263646609815903,0.5,-0.1999432958405073,0.0741575183162771,0.5,0,
1.5604161109629235,0.5118129011655598,0.16898022861583373,0.5,-0.5510557826189756,1.1002869868184315,0.5,-0.9231165045835122,1.3909462388978637,0.5495917260010631,0.1035107771195604,1.95641459023957,0.5,0.5256393554349682,0.3859849578548638,0.5,-0.19421818793886506,0.3768844698581221,0.5,0,
1.5684182448652975,0.5127745101993838,0.22009833902800896,0.5,-0.541112932878669,1.0154481182267916,1.831567164196929,-0.9150554473111561,1.1636735356360048,0.5,0.11539977937873658,1.357466129781582,0.5,0.5281665168275468,0.3471351805992978,0.5,-0.19391314432277734,-0.18010287815281925,0.5,0,
1.5764203787676716,0.5153344745900079,0.06890732626409907,0.5,-0.5348086127273469,0.6210429315323396,0.5,-0.9044977280133362,1.2814819181793182,0.5030044046964312,0.12523023519606571,1.429090511997246,0.5,0.531193518324557,0.396515869581171,0.5,-0.19709983398931016,-0.03878895697407431,0.5,0,
1.5844225126700455,0.5138770274196094,0.16400800079143657,0.5,-0.5311762459741516,0.644943653048409,0.9283599950413848,-0.894551736620287,1.145714322671347,0.5,0.1382652275706925,1.585897970322759,0.5,0.5345107707408455,0.425718210283553,0.5,-0.19453376763436253,0.21829648162061294,0.5,0,
1.5924246465724194,0.5179586026026709,0.3671262896119687,0.5,-0.5244895142785724,0.8214460321056133,0.5,-0.8861662988505946,1.219805123216261,0.5642044399917118,0.15060460272122986,1.3899490173179385,0.5,0.5380050096890938,0.5139116920546762,0.5,-0.19360709028338036,0.3091666854948792,0.5,0,
1.6004267804747934,0.5197510480534009,0.25528067011951205,0.5,-0.5180331094604618,0.8355124736416641,1.6044045575349635,-0.8750348546488268,0.92246481119123,0.5,0.16050441184777953,1.7387416610226083,0.5,0.5427333578137203,0.4822656341767345,0.5,-0.18958710066644446,-0.18186366212703808,0.5,0,
1.6084289143771673,0.5220430933245831,0.18560804443662482,0.5,-0.5111213147003058,0.4824579476265453,0.5,-0.8714068618715349,1.0236548129056098,0.5,0.1784244692975916,1.3859821471475207,0.5,0.5457212598359216,0.1171483554364347,0.5,-0.19651690887741297,-0.37423018572316397,0.5,0,
1.6164310482795414,0.5227207767643869,0.3859484917934919,0.8807144205958792,-0.510313782298437,0.5442368671027195,2.1926392364647596,-0.858656377642337,1.2998392052209693,0.5,0.18268012620213986,1.4044190759579747,0.5,0.5446077315007033,0.31788256759643363,0.5,-0.1955747836380151,0.22553576264546826,0.5,0,
1.6244331821819153,0.528218269193279,-0.060124756732372886,0.5,-0.5024135248266622,1.0286184631312576,0.5,-0.8506094345879994,1.109674728249327,0.5,0.2008951745129192,1.7418028704257962,0.5,0.5508073809174645,0.6503938995569003,0.5,-0.19290833667508547,0.3356634313618611,0.5,0,
1.6324353160842893,0.5217587806566689,0.11778506873454803,0.6825504151395229,-0.4938558868883369,1.062071698534367,2.236706791786241,-0.8409015819903478,1.12857007822912,0.5,0.2105489721289526,1.5441738985456557,0.5,0.5550140338936137,0.1831502854794942,0.5,-0.1902041687362253,0.31614112535966776,0.5,0,
1.6404374499866632,0.5301028302930317,0.48293863502101714,0.9759480571037858,-0.48542037765011237,0.5821097892307302,0.5599739669037154,-0.8325523133363335,0.9137786772492398,0.5,0.22560195688964968,1.3539672616032523,0.5,0.5537377854851364,0.23851919545073152,0.5,-0.1878500786693308,-0.04921195351167279,0.5,0,
1.648439583889037,0.5294857988170052,-0.01607723025420088,0.5,-0.48454213026064524,0.48719277001319294,0.7235568113752215,-0.82628112315436,0.8655829102549236,0.5,0.23221244831460464,0.9271089379505534,0.5030005973377181,0.5588303410208254,0.4938313094260058,0.5,-0.19099155999241207,-0.21889290829886324,0.5,0,
1.6564417177914113,0.5298455946089645,0.03396133288956216,0.5,-0.4776252933299013,0.6321654721430439,1.1564016089942974,-0.8187029867722547,0.9000104710959397,0.512836246159283,0.24043569989685853,1.5827828076422945,0.5,0.5616390864359525,0.2152549749584523,0.5,-0.1913523652021126,0.1283532460505006,0.5,0,
1.6644438516937852,0.5300291801432382,0.3095127151751184,0.5,-0.47442748270635654,0.40545596423201613,1.7486674146166834,-0.8118809556168249,1.1769149640008734,0.5,0.25753697323688135,1.7162888781645824,0.7140130226713043,0.5622744206201606,0.2951627206343385,0.5,-0.18893790805560406,0.06111137196697543,0.5,0,
1.672445985596159,0.5347977980517664,0.3437566683002699,0.5,-0.471137997902189,0.7602720888092024,0.8222169940023374,-0.7998723473482408,1.0843104366340464,0.5389155073465564,0.26789632194749186,0.8316932147314181,0.5,0.5663616899661019,0.2778893157214177,0.5,-0.190374583250641,-0.12855720584670563,0.5,0,
1.680448119498533,0.5355292868360425,0.17191055141592415,0.5,-0.4622631292854093,0.8976308571973408,2.2863431138932198,-0.7945319886306802,0.727106094096673,0.5369712496889992,0.27084406467258404,1.2116769135583072,0.5,0.5667206496717033,0.35882289046812454,0.5,-0.19099482334915135,0.12700576148325265,0.5,0,
1.6884502534009072,0.5375483668744212,0.23089076150033944,0.5,-0.45677590418703157,0.39972035582036547,0.8510539723168851,-0.788238649842694,0.9968155724233707,0.5,0.28728315256442477,1.4861772651930254,0.5,0.5721028562135919,0.499038096540054,0.5,-0.18834249106690895,0.2226053623940998,0.5,0,
1.696452387303281,0.5392235390200479,0.22627456474189067,0.5,-0.45586760359228345,0.5667139978767672,0.9010890282491867,-0.7785829394719063,0.8327368454939601,0.5,0.29462290091567245,0.9486172858489891,0.5,0.5747052592163442,0.22113000612160316,0.5,-0.18743313755084576,0.11508069140468181,0.5,0,
1.704454521205655,0.5411687599102915,0.19184040527395196,0.5,-0.4477084802210033,0.752813860135669,1.124164868093418,-0.7749148603147906,0.9612297886460591,0.5,0.3024610291380086,1.3174198449537704,0.5,0.5756409363115376,0.18111074102714758,0.5,-0.18650120000443404,0.2426014495790791,0.5,0,
1.712456655108029,0.5422929855044312,0.28002640873331375,0.5,-0.44382258183011275,0.5377261809853886,0.5,-0.7632032628535693,0.8024604790722589,0.6106939434011381,0.3157016184349328,1.006795765793822,0.5,0.5776030310727785,0.33818752049460943,0.5,-0.1835515143575805,0.17751196185875062,0.5,0,
1.7204587890104028,0.5456491824500245,0.26499114593894063,0.5,-0.4391048613252371,0.5448843694470413,0.6811202498011927,-0.7620754926496345,0.43445782717295434,0.5,0.31856976139070975,0.7740110085120051,0.5,0.5810519366394513,0.2325049636353535,0.5,-0.18366100861469403,-0.03994158965271895,0.5,0,
1.728460922912777,0.5465328438394542,0.3254788717835799,0.5,-0.4351044319189601,0.41815482335909315,0.5,-0.756251937618802,0.6663759078479949,0.5,0.32808579457112486,0.8771851704244861,0.5,0.5813231104909442,0.2172089201264646,0.5,-0.184190579792024,-0.07765059450095743,0.5,0,
1.736463056815151,0.5508568443985618,0.20580461681572043,0.5,-0.4324143841514916,0.45552574387010963,0.8132391242147281,-0.7514134781240666,0.8335397325071394,0.514573553750311,0.3326047241175015,0.7290678496769051,0.5,0.5845272793614747,0.2822592882212385,0.5,-0.18490341812670935,0.04006869833406146,0.5,0,
1.7444651907175248,0.5498257177085057,0.021396071278004247,0.5717933006522309,-0.42781602001703833,0.2959408783628249,0.5,-0.7429153018986878,0.5702410636210381,0.5,0.33975088016595534,1.2682429362634238,0.5,0.585839259102484,0.10443864125880137,0.5,-0.183549480618679,0.08553506956872868,0.5,0,
1.7524673246198987,0.5511991815390098,0.30247150868862455,0.5381539624293507,-0.4276793300976864,0.35727220163696627,0.5,-0.74228962110613,0.6691646104507454,0.5,0.3528966110977163,1.012251347143188,0.5,0.5861982976216156,0.2986788832373688,0.5,-0.1835348570136097,0.2160716404738805,0.5,0,
1.7604694585222727,0.5546652618475237,0.04667704082064045,0.5,-0.4220996647908469,0.40603537972069487,1.174367058387431,-0.7322086681314759,0.837164270804179,0.8595484360858673,0.35594690172024634,0.6030713066537963,0.5,0.5906181212342819,0.21849444883140917,0.5,-0.18009233437109692,0.19996204779663615,0.5,0,
1.7684715924246468,0.5519460141921401,0.0069211237579344664,0.6235187766556508,-0.42118276402215526,0.16532457903083858,0.9812907778609522,-0.7288949927732631,0.3478633499057679,0.5,0.36254575200417705,0.6095641182426621,0.5,0.5896942088029181,0.0717064493245198,0.5,-0.18033546424886351,-0.15991893625761852,0.5,0,
1.7764737263270207,0.5547759998276507,0.3510570896893203,0.5,-0.41945447152635346,0.35967845258733433,1.1149966333671852,-0.7266428545329836,0.5270322935905652,0.5,0.36569992761212894,0.579250076300955,0.5,0.5917654244234742,0.10608293068959523,0.5,-0.18265103735121882,0.011896069804737466,0.5,0,
1.7844758602293946,0.5575629276271692,0.2512136556186706,0.5,-0.4154279087807579,0.596126416924872,1.051154456175789,-0.720462476075814,0.40723662277079853,0.5,0.3718137532249923,0.5719153542768085,0.5,0.5913915356939516,0.22163382139563786,0.5,-0.18014512713198771,0.20660237524335393,0.5,0,
1.7924779941317686,0.5587954183175494,0.11225955476768662,0.5,-0.4099164488555555,0.3666448604767898,1.6592489886849442,-0.7201270685686508,0.4759539853054773,0.5,0.3748505732805579,0.4959556585875206,0.5,0.5953115655658044,0.110064674456678,0.5,-0.17934539934732516,0.01962932625695045,0.5,0,
1.8004801280341425,0.5593590805034522,-0.07933874040626926,0.5256136328386042,-0.4095615910131293,0.01232768091571218,0.7043411493497704,-0.7128472123109264,0.5727101223994696,0.5,0.37974904376239266,0.49845568626153897,0.5,0.5931525704852585,-0.02141248792447703,0.5,-0.1798310579118765,-0.06748026494928297,0.5,0,
1.8084822619365166,0.5575259984710491,0.17667349549257277,0.7790283719688139,-0.4097192059609041,0.14557899100087202,0.5,-0.7109637066102593,0.28099684055091223,0.5,0.3828258642607425,0.40556021746338683,0.5,0.5949689657590128,0.043449128850167607,0.5,-0.18042508358651368,0.00202401216005052,0.5,0,
1.8164843958388905,0.5621858564313333,0.6351720029350721,0.5,-0.4072323271571153,0.15597645034889224,0.5,-0.7083512628621118,0.24236043543870295,0.5,0.38623800724180685,0.5634474709643629,0.5,0.5938477565468612,-0.02429288339460267,0.5,-0.1797986737173157,0.07551348343442371,0.5,0,
1.8244865297412645,0.5676887505180103,0.44049115281039747,0.8048605365337069,-0.40722358275532183,0.1279501494472965,0.8393121445710665,-0.7070859396432401,0.20678701827536727,0.5,0.3918410237961723,0.4982689206162009,0.5,0.5945802796246992,0.020741044995296887,0.5,-0.1792168678515629,0.1720766961660295,0.5,0,
1.8324886636436384,0.5692337148762997,0.05185409009317993,0.5,-0.4051851247659586,-0.053427728623444554,1.5980567533132768,-0.7050426705697059,0.003334308510766215,0.5,0.39421030997166606,0.11629156977311858,0.5,0.5941796132667859,0.36563286272654066,0.5,-0.17704544657865923,0.10284223160817937,0.5,0,
1.8404907975460125,0.5685184159595011,0.061346280945222265,0.5,-0.40807842641329695,0.3092447940918376,1.3781236899813187,-0.7070325907070678,0.140978371286668,0.5,0.3937016889125422,0.052199543109136826,0.5,0.6004304054283238,0.17559269495213276,0.5,-0.17757139214583204,0.041160971042385544,0.5,0,
1.8484929314483864,0.5702152553714233,0.2796795912103425,0.5,-0.4002372080604892,0.613537208591846,2.2089656247079374,-0.7027870166291192,0.31485576064686077,0.5,0.39504550266141225,0.2314125431459868,0.5,0.59698909638602,0.26844583094598473,0.5,-0.17638687104198106,0.1518012424901044,0.5,0,
1.8564950653507604,0.5729932894188666,0.11785270820977717,0.5,-0.3982618310758274,0.13491947091356232,0.5,-0.701994898536718,0.12007039860136015,0.5,0.397404289602878,0.2925960806730819,0.5,0.6047255387234596,0.13998949000688932,0.5,-0.17514257226599036,0.15957160989700686,0.5,0,
1.8644971992531343,0.5721008987027797,-0.007788654479409796,0.5,-0.3980784965258722,0.0661272044186513,1.1955394879016636,-0.7008658902514975,0.22099283429041772,0.502450282486399,0.39972703995218156,0.1539838491452089,0.5,0.5992289282261303,-0.38558562887071324,0.5,-0.17383372528362895,0.037607483443970885,0.5,0,
1.8724993331555082,0.5728686709471961,0.2718555827996849,0.5,-0.397203795805129,-0.19371402319071085,1.1639281155742216,-0.6984590131880714,-0.09772272362601475,0.5,0.39986803118920133,0.07629079321482338,0.5,0.5985561686615282,0.10662841856919764,0.5,-0.17454085253088683,-0.033404405165277096,0.5,0,
1.8805014670578823,0.5764505880275747,0.3398216291644121,0.6504224371431517,-0.40117792089692356,0.03975048200000053,0.5,-0.7024294538295137,-0.22004867020493368,0.5508098771994843,0.40094769264361874,-0.07046904839822996,0.5,0.6009349829232374,0.0877735884075026,0.5,-0.17436819576627338,-0.15990633647997193,0.5,0,
1.8885036009602563,0.5783058170138267,-0.007093021915566267,0.5,-0.396567788093129,-0.03387697147646043,0.7078495692517358,-0.7019797919113503,0.12216717626455792,0.5,0.39874052641482965,-0.22620929859102495,0.5,0.5999605460760482,-0.04833853166866936,0.5,-0.17709935391456638,0.020785666471461947,0.5,0,
1.8965057348626302,0.5763370996769256,0.255771395803045,0.5,-0.4017199524405469,-0.18201437702616494,0.9690751211012874,-0.7004747790092808,0.09915989327933389,0.6695726165522722,0.39732834386616234,-0.11893568059591006,0.5,0.6001615664165387,-0.07622928771688908,0.5,-0.17403562510273,0.32585069209217776,0.5,0,
1.904507868765004,0.5823981593466754,0.4841614470270164,0.9690260021503879,-0.3994800181255476,0.03400099991825167,1.6621267878960666,-0.700393233618881,-0.3395103289180676,0.5,0.3968375555252951,-0.34987388800086433,0.5,0.598740877472578,-0.31125261002550725,0.5,-0.17188574284109154,0.0649602664505658,0.5,0,
1.912510002667378,0.5840836828293579,-0.012286804785384409,0.6812992467638403,-0.4011759364418549,-0.33618736095456997,0.5,-0.7059069442719699,-0.24725947393261505,0.5,0.3917303616581485,-0.12259339080069112,0.5,0.5951815246561306,0.026367360251508543,0.5,-0.17299626083952094,0.0830294205569574,0.5,0,
1.9205121365697522,0.5822015704701092,0.3601902268383361,0.5,-0.40485901590082074,-0.33850205222024643,1.3755510651669707,-0.7043493852018028,-0.1376101021792267,0.5,0.39487606127248404,-0.06673315383408027,0.5,0.5991627552366021,0.12962705667992486,0.5,-0.17055727211218022,-0.23597245032122918,0.5,0,
1.928514270472126,0.5898467264587712,0.15801368302179042,0.710317937351212,-0.40659196927737884,-0.05005751764623409,1.3675004756570341,-0.7081087059068375,-0.46708384175701834,0.716793905537462,0.3906626311968032,-0.7137629444703246,0.5,0.5972555575630094,-0.22087781020847103,0.5,-0.1767718200446606,-0.016569790513860233,0.5,0,
1.9365164043745,0.5847297893984579,-0.2403036678268397,1.0776999709584714,-0.4056599361831605,-0.34816570777956163,0.5,-0.7118227266699151,-0.0030428769582854787,0.5000883803484425,0.38345585416095884,-0.3709054965040266,0.5,0.5956287102732666,-0.2309238983186218,0.5,-0.17082238876040198,0.2902679391664359,0.5,0,
1.944518538276874,0.5860018677735418,0.3246041022736401,0.5,-0.4121626206018518,-0.27234848878141327,1.2464986314203947,-0.7081573919381701,-0.3063780501923394,0.5,0.3847281432527388,-0.18175122886159023,0.5,0.5935607751899115,0.11160554398809835,0.5,-0.17212753301799763,0.08523727012653068,0.5,0,
1.9525206721792479,0.5899234550348361,0.4884768611979548,0.6415283704417715,-0.4100175120036631,-0.011157078660180286,1.9084686186114417,-0.7167247754729925,-0.5134419786535018,0.5,0.3805478344991734,-0.26656951114355576,0.5,0.5974143989770762,-0.020051811240553996,0.5,-0.1694585924383775,0.134429568558787,0.5,0,
1.960522806081622,0.5938174975527091,0.19207634796783446,0.5,-0.4123411338604147,-0.4411014095631986,0.5942317657046623,-0.7163724635966261,-0.269738112228593,0.5,0.3804630310744419,-0.7333725061169222,0.5,0.5932399462100626,-0.25159336079979416,0.5,-0.16997665992105704,0.10557639592771208,0.5,0,
1.968524939983996,0.5929966766023215,0.18751407644966578,0.5,-0.4170751345566743,-0.3163392293828726,1.2994836475328007,-0.72104058526865,-0.5145443228939256,0.5,0.36881387440130264,-0.9581461243082164,0.5,0.5933889052042794,-0.2539804912899124,0.5,-0.1677693701035341,-0.04377601767270589,0.5,0,
1.9765270738863698,0.5968177227759037,0.22832765365337487,0.5,-0.41740256153054067,-0.02640231247168917,2.112169166070769,-0.7246051727629289,-0.5787944085800384,0.5,0.36513269308551044,-0.7828848021293813,0.5,0.589176258349424,-0.32001320868339095,0.5,-0.17067707620382033,-0.07090642941828297,0.5,0,
1.9845292077887438,0.5966499190607755,0.14986360542681987,0.66162708038909,-0.4174975715562213,-0.5096516740598286,0.9261016377351692,-0.7303012958059306,-0.763932024620384,0.5,0.35628771756723254,-0.7202551894146432,0.5,0.5882686938653452,-0.051984823478984366,0.5,-0.16890387297422663,0.21899989193899586,0.5,0,
1.992531341691118,0.5992155404627328,-0.18541736333809594,0.5149766090788306,-0.42555698831549793,-0.3390677499554538,0.5,-0.736828085156855,-0.5797695352366474,0.5,0.35360861005487615,-0.5980509641528887,0.5,0.5883445011737602,-0.27507834740876647,0.5,-0.1671730779327964,0.1482334442458877,0.5,0,
2.0005334755934916,0.5936832412473659,0.12333452655927113,1.0841184405365665,-0.42292265555550856,-0.4047659333623367,1.5764853204217997,-0.739577608369717,-0.6572226579072068,0.5,0.3467189021407863,-0.7847745534883612,0.5,0.5838674403068049,-0.1424474457694183,0.5,-0.16653213786629242,-0.006154934473902307,0.5,0,
2.0085356094958655,0.6011888928876812,0.6986022199011385,0.752702378986192,-0.4320332432492953,-0.7427592632878107,1.2669681091806027,-0.7473436476833704,-0.6750964872625359,0.5,0.34105221719906237,-1.1457275836375194,0.5,0.5860653420414496,-0.3163493726708669,0.5,-0.16727155688437884,0.07539969883185206,0.5,0,
2.01653774339824,0.6048608767657842,0.36122661839833176,0.7073630788746644,-0.43480680376811354,-0.4889483457471595,0.5,-0.7503791521659176,-0.49405243923347775,0.7041304249855401,0.328387260802586,-1.201230145401376,0.5,0.5788058503440711,-0.11047997509073398,0.5,-0.1653257426849828,0.287008135509843,0.5,0,
2.024539877300614,0.6069685187820545,-0.028937964412167894,0.5,-0.43985641678124987,-0.46416234588021393,0.8163598921394277,-0.755248486711106,-0.927817860559156,0.5,0.32183253487264035,-0.8382024589179484,0.5,0.5842976624399978,-0.0711872416233883,0.5,-0.16267942671622135,0.11949219419458458,0.5,0,
2.0325420112029877,0.6043978693351895,0.1550070433115891,0.5,-0.44223340130219696,-0.3144693311379898,1.0201647638452942,-0.765224237934864,-0.8300106065261409,0.5,0.31497602145989884,-0.948872371339407,0.5,0.5776668544780968,-0.5552944044648691,0.5,-0.16341386757786944,-0.17127123776913486,0.5,0,
2.0405441451053616,0.6094486314750399,0.050199266654185615,0.5,-0.4448879260794577,-0.5471683719218724,0.6840948209408496,-0.7685286564155243,-0.5392620965812001,0.6202507348739814,0.30665057693120984,-0.9392609109929867,0.5,0.5754129519685599,-0.4379222124265836,0.5,-0.1654197665205275,0.10356382430275375,0.5,0,
2.0485462790077356,0.6052010576016564,0.1895676384799233,0.5821346457621815,-0.4509880952529469,-0.6620391178514679,0.5,-0.7738524314801632,-0.9317096708972711,0.5505634815055837,0.29994784688401105,-0.9091894749484637,0.5,0.5706600990792715,0.029143523807118044,0.5,-0.16175684638902538,0.13550131506903998,0.5,0,
2.0565484129101095,0.6124817136907187,0.48138144675797384,0.6293115989031609,-0.4554805519650812,-0.596840479634382,1.0381923010005705,-0.7834360111498806,-1.214620740880329,0.6041591918710587,0.2921035453320344,-1.328267342373287,0.5,0.5758792483494738,-0.04234972538472159,0.5,-0.16325174547942287,0.04345600852360271,0.5,0,
2.0645505468124834,0.612903160749784,0.15289882006280092,0.5,-0.46053754292709703,-0.7892997790817438,1.4329424514619074,-0.7932863633342485,-0.9089710683878524,0.5,0.27869556940603846,-1.3645554050111808,0.5,0.569982503473116,-0.6117867326147636,0.5,-0.16106155025264773,0.210500120420053,0.5,0,
2.0725526807148573,0.6149280948117235,0.19068742844211006,0.5,-0.4681093484303891,-0.47446292657162686,0.5,-0.7979795482440862,-0.6612685302094037,0.71083679590397,0.2702706588518555,-1.1718060374779764,0.5,0.5660906606276376,-0.03539404378892497,0.5,-0.15988374355270202,-0.21675742487806127,0.5,0,
2.0805548146172312,0.6159541596048578,0.03939914698381647,0.5,-0.46812894975224306,-0.48690624734352633,0.7290935075151883,-0.803866659817599,-1.112788669464869,0.5,0.25994667280639083,-1.3342569956910788,0.5,0.5694161987724932,-0.29200223859154883,0.5,-0.16452966905069671,-0.040643622732891224,0.5,0,
2.0885569485196056,0.6155584811634646,0.28247686556304163,0.5,-0.4758998483878855,-0.6118943657711096,0.5274539101897532,-0.8157841669555241,-1.0093482974527501,0.5,0.24892254692079827,-1.4374669131264564,0.5,0.5614186248101728,-0.6083270099969257,0.5,-0.16053404151642828,0.4096304811473106,0.5,0,
2.0965590824219795,0.6204737894538664,0.5198531446810317,0.5,-0.4779192596045808,-0.5229505632781163,1.0360581696073452,-0.820016232576843,-1.014486548734969,0.5,0.23694720219636753,-1.3517539274044057,0.5,0.5596829666125424,-0.38533648542755233,0.5,-0.15797558135233974,0.03707634668433102,0.5,0,
2.1045612163243534,0.6238761314783611,0.30587370607426667,0.555011699926894,-0.4842670574003354,-0.7451559627755927,1.060983029999663,-0.8320159517352836,-0.8136569543465144,0.5,0.22729448408232777,-1.2951007410117108,0.5,0.555253241043332,-0.26848418979211197,0.5,-0.15994081996947898,-0.052238773984506284,0.5,0,
2.1125633502267274,0.6253677687510547,0.03899816705392467,0.5,-0.4898417550089903,-0.9301872441303122,1.5262044135490873,-0.8330347438463872,-0.7706324673266013,0.753445120710365,0.21622559034018016,-1.3482664327732536,0.5,0.5553872195758686,-0.0634562346054357,0.5,-0.15881140173609185,0.05462106860185806,0.5,0,
2.1205654841291013,0.6245001021512239,-0.11174079390891684,0.5,-0.49915005330642037,-0.6286460665650834,0.5,-0.8443460712125093,-1.298154137385661,0.5516842654957697,0.20572222115795571,-1.5480020595338098,0.5,0.554237941289645,-0.37722809765464854,0.5,-0.15906688287184925,-0.10461899737978196,0.5,0,
2.128567618031475,0.623579916048512,-0.08485077620960096,0.5,-0.49990009207403163,-0.5935549380853485,0.9349431238847375,-0.8538052100445578,-0.9626979733445353,0.5,0.1914575573876392,-1.4968961771725953,0.5,0.5493515700133942,-0.44661305071080903,0.5,-0.16048530569416836,-0.0031579933058457216,0.5,0,
2.136569751933849,0.6231424897318703,0.051886826237065864,0.5,-0.508646932315786,-0.7877745271974226,0.6357519696404283,-0.8597492387860218,-1.3088477955668851,0.5,0.1817718823231942,-1.102163899379123,0.5,0.547092132478272,-0.42717190733741056,0.5,-0.15911741076474278,0.2763623809187415,0.5,0,
2.144571885836223,0.6244101052683051,0.1974853266084528,0.9255160526948372,-0.5125044845091904,-0.6884480056809916,0.5,-0.8747467747736279,-1.404252437490691,0.8459674802471367,0.17382293499757323,-1.4601971977309756,0.5,0.5425168194959956,-0.43294995914339857,0.5,-0.1560635075994685,0.06644828423548257,0.5,0,
2.152574019738597,0.6263022549576055,0.694142349983072,0.6228922209464174,-0.5196621004066818,-0.7374206108318112,0.5441352559541851,-0.8822172777858729,-0.960666808558129,0.5,0.15840872715949858,-1.5640698094059307,0.5,0.5401649331319777,-0.2929365684073773,0.5,-0.15805423821697506,0.22354908566906903,0.5,0,
2.160576153640971,0.6355163828680342,0.36729303227617943,0.8214719770922082,-0.5243032142824994,-0.8224325229451642,0.6193380056690357,-0.890117443710558,-1.1456123497569013,0.5,0.14879781804707834,-1.659147424383174,0.5,0.5378298344014776,-0.4889073280962067,0.5,-0.1524867222287634,0.18107920508684572,0.5,0,
2.1685782875433453,0.6321789434740244,-0.08530609280478496,1.1286139142024079,-0.5328210207738044,-0.9331692092705637,0.7059762043559968,-0.9005470753819833,-1.4023630773446414,0.870089348483836,0.1318623683693678,-1.6729345597331549,0.5,0.5323424158824384,-0.35523232319599474,0.5,-0.15515697093558553,0.07190556275258643,0.5,0,
2.176580421445719,0.6341514853831577,0.5139923189992207,0.819689876092993,-0.5392339216308284,-0.8085842100606574,0.5,-0.9125552529480723,-0.8906580246322571,0.5,0.12203086509134786,-1.3710836864103326,0.5,0.5321461172303417,-0.48170422892486464,0.5,-0.151336233224722,-0.03551196497557363,0.5,0,
2.184582555348093,0.6404028205780119,0.13406483945986591,0.5,-0.545758368134775,-0.8754267575817876,0.5,-0.9147976037760994,-0.8786754286238402,0.8801223645543793,0.10992502938680247,-1.7600297004650285,0.5,0.5246351482196405,-0.25680814759684173,0.5,-0.1557251623751947,-0.04922950710344043,0.5,0,
2.192584689250467,0.6362965228145155,-0.08963498722164981,0.6083872623899529,-0.553240749752137,-0.8728892731679968,0.8019365535127786,-0.9266140598060537,-1.4493977737140353,0.5,0.0938703898839074,-1.6941512636491725,0.5,0.5280371868687922,-0.4207381705038371,0.5,-0.15212390533837705,0.27064797251914047,0.5,0,
2.200586823152841,0.6389686607824655,0.21614348596485367,0.5,-0.5597245965054629,-1.0286122490005614,1.2077733147059795,-0.937987968155524,-1.3434175793345313,0.5,0.08281860916841571,-1.7252369576506434,0.5,0.5179033374915791,-0.6355807441474278,0.5,-0.15139479481488846,-0.09035730939608612,0.5,0,
2.208588957055215,0.6397548185899532,0.17144043436681522,0.8665140148279314,-0.569698545736146,-0.7992132275133623,0.7481277578725388,-0.9481087410754062,-1.4049245049977537,0.5,0.06626659856149711,-1.9065830426059243,0.5423012957128276,0.5178678949624334,-0.03841782507627012,0.5,-0.15356962228871443,-0.2256133302222362,0.5,0,
2.2165910909575888,0.6417117077323345,0.6105745128340556,0.5,-0.5725120081456767,-0.6596272431301161,1.210381212285717,-0.960466760235488,-1.2976142584921677,0.5070178877533594,0.052313280486720924,-1.4304670670974728,0.5,0.5172886522903588,-0.5438416923655361,0.5,-0.15500460809844424,0.09870016231205807,0.5,0,
2.2245932248599627,0.6495240107952981,0.43461445973613094,0.9470359330452395,-0.5802525816262278,-0.9016301198176354,1.2341606068865532,-0.9688705692112809,-1.1438537964302276,0.5,0.04337912548793754,-1.4577336554277875,0.5,0.5091664278845848,-0.7554745417338651,0.5,-0.1519904196917215,0.06554983307347113,0.5,0,
2.2325953587623366,0.6486655390881126,-0.01077085813156603,0.5,-0.5869380900627589,-0.6244499313267649,1.1386657659148505,-0.9787684209783717,-0.9972506808863176,0.6187676567852256,0.02898954199987632,-1.6751374023219312,0.5,0.505201059622617,-0.20276446778547813,0.5,-0.1539558107692687,-0.0007843052963005942,0.5,0,
2.240597492664711,0.649351677065193,-0.03747781903169767,0.5940038285724678,-0.5902437805274561,-0.3841567269387766,2.5840177295899815,-0.984826580105462,-1.3416117861494923,0.5,0.016576927050786644,-1.4333467239481021,0.5,0.5059221964000171,-0.41643597419337497,0.5,-0.1520029685764623,0.16709660418502345,0.5,0,
2.248599626567085,0.6480658939836055,0.271118726991558,0.5,-0.5930845976937793,-0.9669186917391284,1.299235578721927,-1.0002342095567636,-1.370330471620336,0.5,0.006055994416706686,-1.7460840900997747,0.5,0.49853808403552297,-0.5346447532386319,0.5,-0.15128226510230833,0.05335651061285154,0.5,0,
2.256601760469459,0.653689576697058,0.13305347364073877,0.5023168824444133,-0.6057144795952821,-1.2287158006301924,1.7516641043109529,-1.0067518676513874,-1.205806721284383,0.5,-0.011360418390809753,-1.699754321505939,0.5,0.497367880348199,-0.24077272194787322,0.5,-0.15114926440665669,0.12794998481176906,0.5,0,
2.2646038943718327,0.6501947495618573,-0.15145375708238568,0.929840676064062,-0.6127440505038624,-0.8573167271551454,0.8840834719210235,-1.0195271170973137,-1.379967311982852,0.5,-0.02114007472738834,-1.6969465965594475,0.5,0.494685720484357,-0.4343708730698385,0.5,-0.14923506534532002,0.20229840675439237,0.5,0,
2.2726060282742067,0.6512663165837398,0.3500763457264175,0.5,-0.6194315472297645,-1.016556517827949,0.5,-1.028831344643113,-1.2745386667039476,0.5,-0.03851156393576091,-1.940182491488885,0.5,0.4904179463790816,-0.318443294954205,0.5,-0.1479124898985864,-0.11742413969203364,0.5,0,
2.2806081621765806,0.65579597109348,0.44868917540639985,0.5,-0.6290089547891096,-0.9555305095083135,1.877865065055186,-1.0399197357645769,-1.4031381730767316,0.7793900910446122,-0.0521829945912105,-1.680086348436279,0.5,0.4895906277650897,-0.1610618895888892,0.5,-0.15111385158039256,0.15404806474879004,0.5,0,
2.2886102960789545,0.6584453433902422,0.3516184869529135,0.5025251272894853,-0.6347200353818975,-0.5462196695113011,0.738036334003124,-1.0512815554123407,-0.9194579883428783,0.5,-0.06539294551074137,-1.498088004820625,0.5,0.48784095614565937,-0.5422464999451856,0.5,-0.14544772086260577,0.2523208791032159,0.5,0,
2.2966124299813284,0.6614218668847266,0.10380629343475362,0.5,-0.6377484695012904,-0.6841745089713399,0.9823025436700741,-1.054631063578063,-0.8820063930290861,0.9925617763980736,-0.0761524026683405,-1.7674487305889466,0.5,0.48091468376596674,-0.7417018364880117,0.5,-0.1470767175147411,-0.13946576300752356,0.5,0,
2.3046145638837023,0.6601062440851982,-0.028708144239192324,0.5,-0.6456668275254389,-0.8814420162424896,0.8072117666131869,-1.065393657700806,-1.6469732403130433,0.5380032577556949,-0.09367212520016452,-1.7948786889811965,0.5771847526621892,0.4759737267618512,-0.4744803627695741,0.5,-0.14767917307072614,0.1763965766691522,0.5,0,
2.3126166977860763,0.6609625365768995,0.182027384656884,0.5,-0.6518515417611702,-0.7259165187333688,0.6502532319455848,-1.0809826354230716,-1.3837793826820681,0.7181638722913575,-0.10487046169203965,-1.2518789507404644,0.5,0.47332299796165356,-0.5700999833432724,0.5,-0.14425437228803467,0.30900623989536974,0.5,0,
2.3206188316884506,0.6630186822397084,0.41063540839535867,0.5,-0.6572814918251728,-0.8463100250774708,0.8850465187958105,-1.0875341278237192,-0.9754511506083752,0.5920644203498777,-0.11370218841201195,-1.5639900537364366,0.5,0.4668521270283588,-0.26892036853837575,0.5,-0.14273507323240023,-0.04532345633393754,0.5,0,
2.3286209655908245,0.6675327031112253,0.3902078231612788,0.5,-0.6653925021624097,-0.6966695822897967,0.5,-1.0965898538328056,-1.3857645366845417,0.5,-0.12989430255182263,-1.8623067910953577,0.5,0.46902027206503955,-0.09254779643755318,0.5,-0.14497954758937767,-0.3143632089775538,0.5,0,
2.3366230994931985,0.6692620074102889,0.15215752169690788,0.5,-0.6684282051418096,-0.6500686359870028,1.4093879311621054,-1.1097063604106718,-1.1554689476246798,0.5877165881811558,-0.14349909706953767,-1.675405416047432,0.5,0.46537136228535797,-0.3795970127174579,0.5,-0.1477648845760411,0.06762182002750805,0.5,0,
2.3446252333955724,0.6699672234583758,0.034537526858106904,0.5,-0.6757936003382018,-0.9532400526867241,0.7431736868923813,-1.1150773569948005,-0.8873599693358242,0.5,-0.15670078920858155,-1.5949769130572753,0.5,0.4629467198615602,-0.5742677229450405,0.5,-0.14389759846893754,0.2344978373066929,0.5,0,
2.3526273672979463,0.6698146078400186,0.019176058056173673,0.5,-0.6836800459847971,-0.8340001556543449,0.6321854405343266,-1.123904119920045,-1.1131036088212614,0.5480225828195537,-0.16901872767845408,-1.5388864128548767,0.5,0.4561830787182373,-0.2590401510673551,0.5,-0.144012919179134,0.19040726281270048,0.5,0,
2.3606295012003202,0.6702740403872746,0.1299108922634684,0.5,-0.6891376028286713,-0.7128998823694166,0.7785608679556013,-1.1328870147359407,-1.3919592521212665,0.5,-0.18132297181425958,-1.51480134680357,0.5,0.45880207744448254,-0.3575919598240371,0.5,-0.14085108226393434,0.1503255182974221,0.5,0,
2.368631635102694,0.6718931821162341,0.24331555344016265,0.5697729361002654,-0.6950864441027078,-0.5658035405096129,0.7790085942060915,-1.1461754679539853,-1.3347844695047184,0.6674009321742653,-0.1932555492273112,-1.4327564627598428,0.5,0.45046160736105273,-0.637474258013384,0.5,-0.14160771088637525,-0.03017606211523638,0.5,0,
2.376633769005068,0.6741670892423172,0.541451116762029,0.5,-0.6981904594768251,-0.7200229311979319,0.94440756456342,-1.1542435662480162,-0.9406482029552243,0.5,-0.20424707521841706,-1.292423646446203,0.5,0.4486024893162684,-0.04696425914119465,0.5,-0.14133389925777812,-0.06999662435558905,0.5,0,
2.384635902907442,0.6805563999844265,0.2915317010944371,0.5,-0.7066068110018747,-0.8819870902980892,0.5,-1.1612258392012689,-1.0993079832161134,0.5,-0.21393432757045044,-1.283349869633063,0.5,0.4497101792147936,-0.3711906724165638,0.5,-0.14272765687606467,-0.07661875687934964,0.5,0,
2.3926380368098163,0.6788315964598282,0.07017033996026961,0.5,-0.7123022529215945,-0.8146055821007664,0.5,-1.171832493979474,-0.9475058697697158,0.5,-0.22478067313254607,-1.4788930292261149,0.5,0.4426634385576034,-0.5482427207186037,0.5,-0.1425597993678477,0.2506411202518911,0.5,0,
2.4006401707121903,0.6816791254237908,0.04009149048106453,0.5,-0.719640500315487,-0.7711679516630848,1.9190493416211507,-1.1763859331175843,-0.7068164045846009,0.5,-0.23759661603806828,-1.5478262780782674,0.5,0.44093829568329596,-0.2281463955220303,0.5,-0.13871739895203442,0.3678586626992171,0.5,0,
2.408642304614564,0.6794730603075252,-0.05684618397835961,1.0796964774397166,-0.7246409401482039,-0.37292680576422876,1.404841493059231,-1.1831415564528276,-0.9856942245853456,0.5,-0.24954589358179835,-1.3618763214991465,0.5,0.4390130962292509,-0.4655803303958081,0.5,-0.13667406076466024,-0.04328866989520598,0.5,0,
2.416644438516938,0.6807695864801371,0.4931033212659669,0.5,-0.7256073292077146,-0.6738041031508074,0.5054170871161594,-1.1921570407109499,-1.0618087543535493,0.5,-0.2593866371820546,-1.0336540544977901,0.5,0.433489010396963,-0.3683661501030395,0.5,-0.1394100176703577,-0.29787845696624404,0.5,0,
2.424646572419312,0.6873627134477807,0.4674123035858027,1.1810996005610928,-0.7354218057986168,-0.6174683392173932,2.5540846177063767,-1.2001304965224844,-1.00609449672516,0.5,-0.266084358453763,-1.198397426088113,0.5,0.43311923782760225,-0.05007990944857696,0.5,-0.14144011607612014,0.17119430112757897,0.5,0,
2.432648706321686,0.6882481833375099,-0.13983349292186892,0.5,-0.7354868226351929,-0.05204382241374289,3.058968035799151,-1.2082545526585524,-0.8358924809509227,0.5,-0.27856099599946443,-1.1884110387374995,0.5,0.4326877318457858,-0.5376543410457423,0.5,-0.13667090885231645,0.24704363391489514,0.5,0,
2.44065084022406,0.6851253775610308,0.0003020039797962948,0.5037944721062624,-0.7362545069572367,-0.7565454677638597,1.8478036389310166,-1.2135047762176991,-0.927138106785394,0.5,-0.285098935073563,-1.0664795602885295,0.5,0.4245167683708704,-0.540060021129822,0.5,-0.13748741793348182,0.0007335669902075459,0.5,0,
2.448652974126434,0.6882530154011867,0.26427970599222916,0.5,-0.7475915501194147,-1.1486090641948319,3.714942406260481,-1.2230887623671187,-1.1152416247900003,0.5329516534198252,-0.2956246689640809,-1.2653995214347569,0.5,0.42404677150770864,-0.08497533214988501,0.5,-0.13665917178047313,0.13921858140560073,0.5,0,
2.4566551080288077,0.6893538528569064,0.11825760951116732,0.5,-0.754632251984354,-0.30558602217441166,1.392725550721528,-1.2313486422143392,-0.7591093574235985,0.5,-0.3053453274165191,-1.1097997732779121,0.5,0.4231571630564722,0.022500722241601545,0.5,-0.1352599206309922,0.2588458310492214,0.5,0,
2.4646572419311816,0.6901451371533653,0.19782804544707377,0.5,-0.7524809264742053,-0.6101458592782938,0.8962585657940019,-1.2352345120858963,-0.6681291875604567,0.5,-0.3133814653365275,-0.9108904568255298,0.5,0.42440678306357427,-0.07139568485975065,0.5,-0.13251763848368558,0.07065835602558697,0.5,0,
2.472659375833556,0.6925191015840596,0.2719709601015294,0.644830000842599,-0.7643945857328067,-0.7950169026708572,3.059801801864711,-1.2420387092153065,-0.7176996679743863,0.5,-0.3199195747257276,-1.1046695932104382,0.5,0.4220148320987162,-0.43377880534473456,0.5,-0.13412938693458282,-0.15479393781762246,0.5,0,
2.48066150973593,0.6944966725149898,-0.04528933361924725,0.5353587766440421,-0.765201196916939,-0.08309497609082506,1.5603139120742733,-1.2467177067734865,-0.717420195406146,0.5,-0.3310561788278945,-1.2861338844406927,0.568821455604328,0.4174663221780585,-0.6120776024363533,0.5,-0.13499434148876754,-0.15606750480647197,0.5,0,
2.488663643638304,0.6917944722461516,0.18189326079968288,0.8198945612998477,-0.7657241053502599,-0.41436502546954995,2.519079877044605,-1.2535174323418048,-0.7503214287920973,0.5,-0.34049771687677866,-0.6901112430822247,0.5,0.41222159045973455,-0.14023258413543155,0.5,-0.13662646701148637,-0.06635641028139745,0.5,0,
2.4966657775406778,0.6974069646877847,0.5752168506433577,0.6494836029428729,-0.7718310373244518,-0.9669581237709209,3.3099012847407097,-1.25872284963416,-0.5555942758648236,0.5,-0.3420979587172101,-0.6437324382410452,0.5,0.4152226008318916,0.02655355659526501,0.5,-0.1360560440532699,0.13169879410946347,0.5,0,
2.5046679114430517,0.7009979418564454,0.2449209030867816,0.5,-0.7811954353305947,-0.21873366616580875,1.0175143636071136,-1.262406940755642,-0.8105751282068835,0.5,-0.3507974358886354,-0.7038823908681185,0.5,0.4126464473652588,-0.2047216250704205,0.5,-0.13451928630573495,0.13546850786862186,0.5,0,
2.5126700453454256,0.7013256991371732,0.4048985175113609,0.5,-0.7753307759831047,-0.0011226686487258997,2.2778208885145306,-1.2716920516854702,-0.6371666807060972,0.8785059075641979,-0.3533600769711,-0.704933939592707,0.5,0.4119470548307649,-0.3283387528600044,0.5,-0.13388854792737195,0.1734480024884275,0.5,0,
2.5206721792477995,0.7074763181366271,0.17277789634977114,0.5,-0.7812133980289743,-0.518437725623079,1.4271489358354927,-1.2726016076469395,-0.016391161284240452,0.5891088430921974,-0.3620763789221187,-0.6818970404596953,0.5,0.4073930273194987,-0.33487490411708215,0.5,-0.1317441182659201,0.2131795347083132,0.5,0,
2.5286743131501734,0.7040901454787696,0.15853215261277254,0.5,-0.783625779593074,-0.21326265653161258,0.5,-1.271954310266018,-0.43785683215498417,0.5,-0.3642704296184551,-0.7219170827274212,0.5,0.40658905636489157,-0.008289245913759707,0.5,-0.13047767537203894,0.19502381395284166,0.5,0,
2.5366764470525474,0.7100128325784315,0.36952347966816984,0.7905114249572298,-0.7846256005334801,-0.2596918385298283,0.7007027668035388,-1.2796073169614193,-0.7163349757258602,0.5,-0.37362705224575743,-0.9125074572590777,0.5,0.40726039938487857,0.21446127744808446,0.5,-0.12862373724267465,0.07860892913228584,0.5,0,
2.5446785809549217,0.7100025211534603,-0.042516784570865995,0.6128599230458921,-0.7877808490095513,-0.39047093876556915,1.2578460051755223,-1.2834156698776318,-0.502482183129288,0.5,-0.37887054893460037,-0.6445037038544689,0.5,0.4100204368040609,0.019866795950691102,0.5,-0.12921993250592237,-0.2193343466915798,0.5,0,
2.5526807148572956,0.7093325640252977,0.2676307635096284,0.5,-0.7908731355537292,-0.11911860197150875,0.7487354638160567,-1.2876470318914879,-0.2805259907537744,0.5,-0.38393911150742893,-0.5015955201776862,0.5,0.4075782681200896,-0.39002910137977964,0.5,-0.13213308678973992,-0.2402378687523382,0.5,0,
2.5606828487596696,0.7142846133696144,0.2777480021468326,0.5,-0.7896867466410954,0.05060851815788525,0.7880481170175735,-1.2879040857296922,-0.2881464699623498,0.5,-0.38689607725744335,-0.22982547627059188,0.5,0.40377997118198444,-0.19523138052815123,0.5,-0.13306373840595978,0.2483423976526091,0.5,0,
2.5686849826620435,0.713776532059647,0.2931859160426459,0.5,-0.790063399263203,-0.10758283542767338,0.5,-1.2922573754108855,-0.10671237783310694,0.5,-0.3876163191277584,-0.46377783277964585,0.5,0.4044545660316392,0.04528250871773873,0.5,-0.12815960842729818,0.2035026901867215,0.5,0,
2.5766871165644174,0.7189755880262967,0.27378791266662733,0.5,-0.7914080720079382,-0.18544876073757488,1.1040136362823598,-1.2896114837750219,-0.1760164940192016,0.5,-0.3943165225819177,-0.4020191097219919,0.5,0.40450449132146826,-0.33344690197276844,0.5,-0.12980769536297224,0.059361323554687345,0.5,0,
2.5846892504667913,0.718157138662313,0.16198570164237258,0.5,-0.7930305794350042,-0.4069474195343842,0.6854503394115788,-1.2950736393151927,-0.3203323515315881,0.5,-0.3940486248833103,-0.24394509420450766,0.5,0.3991194156000749,-0.4901886025131877,0.5,-0.12720982725042318,0.38918004232833897,0.5,0,
2.5926913843691652,0.7215673592525746,0.12344789491178232,0.5,-0.7979192307204883,-0.5326470352229814,2.5577339748684635,-1.2947368013995273,-0.38603173348293607,0.5,-0.3982196440891898,-0.24267218721435446,0.5,0.39666147368125726,0.019297308590467133,0.5,-0.12358081468571881,0.09818497071169968,0.5,0,
2.600693518271539,0.7201323049809015,0.0046204569665656,0.5,-0.8015529319985719,0.03695803216577365,0.5,-1.3012501470509197,-0.3056396855271454,0.5,-0.39793137987873994,-0.15886947802366824,0.5,0.3994281725375224,0.24319326915661285,0.5,-0.12563886771903598,-0.22574631277205107,0.5,0,
