samirx20/RADAR/web/public/data/datasets/overcurrent_j4_60.csv
timestamp,actual_q_0,actual_qd_0,actual_current_0,actual_q_1,actual_qd_1,actual_current_1,actual_q_2,actual_qd_2,actual_current_2,actual_q_3,actual_qd_3,actual_current_3,actual_q_4,actual_qd_4,actual_current_4,actual_q_5,actual_qd_5,actual_current_5,protective_stop,fault_code
0.0,0.19850197616304774,0.07474921701751402,0.2,-0.5970579041698997,0.3528546700186097,0.2,-0.9984034677350319,1.3187383122904155,0.2,0.003048364980932633,1.8827524360118966,0.2,0.49958590117480056,0.31280460289847406,0.2,-0.30034718309632025,0.019047636389699085,0.2,0,
0.008002133902373967,0.19909996989918785,0.11668307196763955,0.2,-0.5942350668097508,0.3899488718432237,0.2,-0.9878535612367085,1.1744817640424732,0.2,0.018110384469027806,1.4296308557434523,0.2,0.5020883379979884,0.5552168406367901,0.2,-0.30019480200520265,0.10314649943263948,0.2,0,
0.016004267804747934,0.20036890531452997,0.28114881963929234,0.2,-0.5908187222204081,0.7554599265203951,0.2,-0.9796117595103523,1.0997348172928287,0.2,0.02592245867282787,1.1419696582036039,0.2,0.5084693706249892,0.3011323073088962,0.2,-0.298696839105398,-0.07316986168334413,0.2,0,
0.0240064017071219,0.20359835101341653,0.454962468538992,0.2,-0.5821477079854245,1.0690163459477278,0.2,-0.9702578041600233,1.330582756755426,0.2,0.03638189900028547,1.6851693599263295,0.2,0.5069064549149307,0.26343984103417706,0.2,-0.30136551979213616,-0.03886686417809912,0.2,0,
0.03200853560949587,0.20764830481115384,0.46376524848681067,0.2,-0.5737144606852445,1.1469414727749219,0.2,-0.9583224354022655,1.0198940638037335,0.2,0.05288516843164914,1.9447884204896577,0.2,0.512684408081536,0.6364227982270376,0.2,-0.2993187089322476,0.16173272242947165,0.2,0,
0.04001066951186984,0.2110185949892055,0.2599454160772882,0.2,-0.5637966444210257,0.8283777091709077,0.2,-0.9539394991391635,1.2557369095591089,0.2,0.06749851372811999,1.7634827831180488,0.2,0.5170892196865633,0.35216355687549966,0.2,-0.2987777962332646,0.10954764342242448,0.2,0,
0.0480128034142438,0.21180743146839046,0.09699441313072536,0.2,-0.5604604173385099,0.8516364476019791,0.2,-0.9382306448493197,1.3955738798718322,0.2,0.08110089296153793,1.7180265192550852,0.2,0.518319024991544,0.6025912476102027,0.2,-0.2975659466374888,-0.0890832200209496,0.2,0,
0.05601493731661777,0.2125705055992971,0.10532166721701798,0.2,-0.5501704612593941,0.65044711609024,0.2,-0.9316103170612142,0.8772578584263987,0.2,0.09498693803620135,1.4373424139749509,0.2,0.5267306796483265,0.52850120523492,0.2,-0.3002031277535998,0.10473176357539762,0.2,0,
0.06401707121899174,0.21349257814386274,0.12507621627052232,0.2,-0.5500532634810661,0.39248761943809496,0.2,-0.9241945191144973,1.3158407812167636,0.2,0.10409837158513714,1.1939237834528116,0.2,0.5267750442753028,0.16485899572876023,0.2,-0.29589023842028245,0.3277639370570726,0.2,0,
0.0720192051213657,0.21457172505962546,0.15717481965554433,0.2,-0.5438906593483845,1.1491182371712871,0.2,-0.910556864561746,1.4100236217479758,0.2,0.11408971857144634,1.6180269271977445,0.2,0.5293684235799867,0.29986373178834264,0.2,-0.29495890476068665,0.08468561938552652,0.2,0,
0.08002133902373967,0.21600737525835145,0.25308023912490146,0.2,-0.5316673716863255,1.1843051128502744,0.2,-0.9016341411665297,1.1873741345482594,0.2,0.12998680242030106,1.9806070238242381,0.2,0.5315728639839162,0.268316242698588,0.2,-0.294535268510114,-0.023342060811303023,0.2,0,
0.08802347292611364,0.21862100888562389,0.15904803179167362,0.2,-0.5249417775427802,0.5940116570268064,0.2,-0.8915588784089739,1.1508676717158426,0.2,0.14577943095263415,1.5760346941963728,0.2,0.5336614834631641,0.38924974955184544,0.2,-0.2953323777336675,0.1873791864734492,0.2,0,
0.0960256068284876,0.21855214376701823,0.06865844654180969,0.2,-0.5221631851738966,0.7953836045544449,0.2,-0.8832202584190763,1.0420994350625115,0.2,0.15520335752744302,1.3854871607977686,0.2,0.5378008599767458,0.4891481365596334,0.2,-0.29153720152653884,0.3106238674772492,0.2,0,
0.10402774073086157,0.21971954403029284,0.27011861039004725,0.2,-0.512215639869909,0.642565527003286,0.2,-0.8748852874479737,1.0618975871397527,0.2,0.16794722552539845,1.5319572302841828,0.2,0.5414878536481182,0.7909740988128119,0.2,-0.2903623958540315,0.014330037801928153,0.2,0,
0.11202987463323553,0.222874041533259,0.24787604052461595,0.2,-0.511882136741844,0.2715683950238468,0.2,-0.8662298970248402,1.303280402034687,0.2,0.17971467321198994,1.4475167152119117,0.2,0.5504564455577508,0.2742273894451863,0.2,-0.291307920921708,0.04547209139347391,0.2,0,
0.12003200853560951,0.2236855606786867,0.1327363355589691,0.2,-0.5078705455495275,0.8917869024427788,0.2,-0.8540328010154187,1.1734735634152393,0.2,0.19110749296878904,1.4721319203820584,0.2,0.5458754918792412,-0.23788646974604727,0.2,-0.2896348423917359,-0.026355361179758452,0.2,0,
0.12803414243798347,0.2249978229022025,0.5666332153555446,0.2,-0.49761354630275956,0.9550132827806195,0.2,-0.8474543200101964,0.9794172887726688,0.2,0.20326878393810288,1.2468810388464053,0.2,0.546650262041814,0.6121578545908862,0.2,-0.2917296067005841,0.0015852726558962527,0.2,0,
0.13603627634035745,0.2327516921243754,0.18229755230722566,0.2,-0.4925903330250376,0.9858101604271856,0.2,-0.838362124395056,0.9547131827657013,0.2,0.21105758959033152,1.7874158256295738,0.2,0.5556700175526954,0.7679348065629948,0.2,-0.2896094780292416,0.03890072283920312,0.2,0,
0.1440384102427314,0.2279145837391181,-0.16617757608184366,0.2,-0.4818405837359246,0.7086055425313993,0.2,-0.8321789090859452,1.0519033169495984,0.2,0.23186743714817606,1.7179350390408072,0.2,0.5589372189468219,0.3475970045401927,0.2,-0.29110719513515687,0.011653132733050603,0.2,0,
0.15204054414510537,0.2300928509070659,0.3090065540795068,0.2,-0.4812526443445352,0.46441755152364095,0.2,-0.8215316713238624,1.328163697278749,0.2,0.23854455021498444,1.1285822633709148,0.2,0.5612315696253385,0.25896076980548577,0.2,-0.2894230279055128,0.0019929170013838204,0.2,0,
0.16004267804747935,0.2328586886043902,0.35487508866223827,0.2,-0.47440990291154633,0.5959567702515169,0.2,-0.8109282899294852,1.1150913328446115,0.2,0.2499247533621107,1.4890219845015429,0.2,0.5630805912637097,0.3485660547723271,0.2,-0.29107530846313473,-0.13355091979681127,0.2,0,
0.1680448119498533,0.23577085232566172,0.2738188221906752,0.2,-0.4717173360205109,0.4409748677458337,0.2,-0.8036902099983486,0.7859747881141868,0.2,0.2623689019670091,1.2876857684735679,0.2,0.5668086265016957,0.2704956566482661,0.2,-0.29155984262226176,0.1401201061893044,0.2,0,
0.17604694585222727,0.23723978975944102,0.056851008724516025,0.2,-0.467354305027613,0.8181915465816925,0.2,-0.7983526933196582,1.0808481126343832,0.2,0.2705277256576878,0.8136277708913585,0.2,0.5674085217700819,0.22655720320485795,0.2,-0.28883338676410586,0.5181709895225525,0.2,0,
0.18404907975460125,0.23668046846525398,-0.0320657971946605,0.2,-0.45862627127520383,0.5788810177601508,0.2,-0.7863966401961985,0.6938866793378059,0.2,0.27538694630127086,1.0488068066208354,0.2,0.5704335417529734,0.35840811463373756,0.2,-0.2832691067899009,0.20775730936839834,0.2,0,
0.1920512136569752,0.23672673700432645,0.017733210529148613,0.2,-0.4580922087434506,0.4689933709130095,0.2,-0.7872505064502533,0.6590031862333118,0.2,0.28730863456362116,1.280228941898092,0.2,0.5731430516042217,0.11270709806912582,0.2,-0.2855092698142115,-0.18996001269973306,0.2,0,
0.20005334755934917,0.23696419983372036,0.1358125112424311,0.2,-0.4511223773405957,0.6691878970243245,0.2,-0.7758525892164655,1.0922224737182766,0.2,0.29587060937164034,1.1304905612826086,0.2,0.5722368553220795,0.21497289114949525,0.2,-0.28630846699309664,0.06459588487586765,0.2,0,
0.20805548146172315,0.23889973718420535,0.4942732792095339,0.2,-0.4473852023910614,0.5713402537409901,0.2,-0.7697749468707609,0.6693724261766023,0.2,0.3053964835441429,1.1356947241861273,0.2,0.5765826178626137,0.4632371896688692,0.2,-0.2844757356561976,-0.055431156535147574,0.2,0,
0.21605761536409712,0.2448725723010729,0.4530157360149983,0.2,-0.44198093328073984,0.4026264860839332,0.2,-0.7651426303976399,0.7682907540138284,0.2,0.3140417249586184,1.1020147134582041,0.2,0.5796486503567814,0.3034736158034207,0.2,-0.287195365497659,-0.1888241952910409,0.2,0,
0.22405974926647107,0.24614798896044532,-0.05388302630521605,0.2,-0.44094317861371846,0.374680953301329,0.2,-0.7574822948065396,1.06892478249742,0.2,0.32302871895947416,1.10336511414192,0.2,0.5814381957154684,0.010019223158734547,0.2,-0.28749692278085426,0.29693205758481167,0.2,0,
0.23206188316884505,0.24401044388018944,0.05722069415977152,0.2,-0.4359860380279186,0.9378216592064343,0.2,-0.7480398338776811,0.6252423835762729,0.2,0.3316955667848891,0.7071551212648846,0.2,0.5798089579273211,0.08200944780151903,0.2,-0.282444452576302,0.025021176760422342,0.2,0,
0.24006401707121902,0.24706352006700166,0.18784292179094275,0.2,-0.4259380320664155,0.4828132223768655,0.2,-0.7474784166693192,0.47166685137973313,0.2,0.3343432008997123,0.8216008371723544,0.2,0.5827503468802927,0.5587795910126647,0.2,-0.2870965839526875,0.18834132758727834,0.2,0,
0.24806615097359297,0.24701593062884453,0.38510904012874214,0.2,-0.42826102646988873,0.1823223432463883,0.2,-0.7404931642556054,0.6248562539034122,0.2,0.34484118017964677,1.1700829800994559,0.2,0.5887494313835238,0.2823338072392781,0.2,-0.27943099133490557,0.3834231707649377,0.2,0,
0.25606828487596694,0.25322526470906154,0.2889041272445825,0.2,-0.4230208745744733,0.6693365114408197,0.2,-0.7374807166068647,0.527735645079623,0.2,0.3530645285813036,0.6822783451501113,0.2,0.5872676877961212,0.12876541230755906,0.2,-0.2809618132204485,-0.25631929307486434,0.2,0,
0.2640704187783409,0.25163839666475785,-0.20666946431115682,0.2,-0.4175516422868356,0.09249952202188688,0.2,-0.7320493939343314,0.5713264010042268,0.2,0.35575763370204855,0.7106919973359701,0.2,0.5908096779804447,0.18815863400114402,0.2,-0.2835321000241034,-0.06338590583170045,0.2,0,
0.2720725526807149,0.24991855328008303,0.16223474071873703,0.2,-0.4215408822221231,0.013566185276536746,0.2,-0.728339494190797,0.6233625864287273,0.2,0.3644356005386791,0.7647168081107714,0.2,0.5902782259401395,0.05305426056794599,0.2,-0.2819759877137557,-0.08341537756836187,0.2,0,
0.28007468658308887,0.25423415251625764,0.6529606862777805,0.2,-0.417334583322411,0.33995551206179864,0.2,-0.7220755925514718,0.6009600357422817,0.2,0.3679931026318209,0.5771892959188368,0.2,0.5916585461495318,0.22309261323462393,0.2,-0.2848667460651972,-0.04783913005863838,0.2,0,
0.2880768204854628,0.2603659242605275,0.2939221078156716,0.2,-0.4161015940291343,0.4416175542215593,0.2,-0.7187241336189205,0.33531154560419857,0.2,0.3736706292733805,0.7489455408350338,0.2,0.5938477077518934,0.18792308644583616,0.2,-0.2827414137946939,0.3825617247097124,0.2,0,
0.29607895438783677,0.2589369062413084,-0.0816134513498129,0.2,-0.4102687024548661,0.27930237922532336,0.2,-0.7167106078218046,0.4106730647570264,0.2,0.37997623128518143,0.5322612465554454,0.2,0.5946653155326652,0.3679170420739092,0.2,-0.2787457584698418,0.012094333596394252,0.2,0,
0.30408108829021074,0.2590601090389305,0.3020073283229868,0.2,-0.41163275596152915,0.2633907132748442,0.2,-0.7121533645828081,0.19756998057151448,0.2,0.38218680921826764,0.10885200647903562,0.2,0.599734380425076,0.25714902527222,0.2,-0.2825479044571516,-0.24106206776510972,0.2,0,
0.3120832221925847,0.2637690234944762,0.20120133355551115,0.2,-0.40605445104246857,0.3821585822743091,0.2,-0.7135494881326604,0.15928116133355485,0.2,0.381717863388846,0.6200505524451804,0.2,0.5987796999370207,-0.03644425922127992,0.2,-0.28260275155408354,0.12104349415580432,0.2,0,
0.3200853560949587,0.2622793303758187,0.1813299166624517,0.2,-0.4055182186451402,-0.11439044540812598,0.2,-0.7096048660014712,0.5132232509928238,0.2,0.39210761805739053,0.7368417649715915,0.2,0.5991512722775355,0.04005089551825658,0.2,-0.28061120855065874,0.3522660420801453,0.2,0,
0.32808748999733267,0.2666703021610754,0.3033284649699014,0.2,-0.4078846981689986,0.25227856125056497,0.2,-0.7053379161167752,0.3225671399982727,0.2,0.39350733162839147,0.31147191212468545,0.2,0.5994205142653128,-0.019977352082638233,0.2,-0.2769664948808012,0.3598792639274706,0.2,0,
0.3360896238997066,0.2671325858153371,0.12392461574432106,0.2,-0.40148176166513116,0.47776489532017075,0.2,-0.7044437917614988,0.14373104166633122,0.2,0.3970911686513855,0.20674147601230583,0.2,0.5988316346442133,0.13803788033137088,0.2,-0.2748531403278192,-0.10575307405347525,0.2,0,
0.34409175780208057,0.26865309601298454,-0.10564946344544454,0.2,-0.40024045984387585,0.20753576252708836,0.2,-0.7030382194501139,0.1154722246795789,0.2,0.39681519524458836,0.07088936528344691,0.2,0.6016291203506148,-0.06419016754768275,0.2,-0.2786585440656568,-0.15690375487263306,0.2,0,
0.35209389170445454,0.26544219440021,0.37049024026749794,0.2,-0.39816118946469775,-0.1413268733065666,0.2,-0.7025962361666256,0.1998944047782933,0.2,0.39822539849592065,-0.09434972597564123,0.2,0.5978045919634504,0.004100331859838158,0.2,-0.27736360040578134,0.39471885844834587,0.2,0,
0.3600960256068285,0.2745809398572645,0.4780241654874784,0.2,-0.4025016898167809,-0.18300858681007115,0.2,-0.6998399089736612,0.26423917457728957,0.2,0.3953055996289781,-0.1795784025203917,0.2,0.6016947256603722,0.010735881886859977,0.2,-0.2723430423304833,0.2062170381858415,0.2,0,
0.3680981595092025,0.27309058104800965,0.069176938032392,0.2,-0.4010893268536589,0.06336054930342408,0.2,-0.698368409373389,0.07904778401904289,0.2,0.3953521440555944,0.21461736617803262,0.2,0.5979763660736401,0.16956739045050073,0.2,-0.2740641277948079,-0.027628409389274244,0.2,0,
0.37610029341157647,0.2756877708657828,0.2143719730265392,0.2,-0.40148792102792613,0.04028582649735074,0.2,-0.6985751444293565,-0.08193621009552204,0.2,0.3987394774878266,0.11910316452578076,0.2,0.6044078039075802,-0.0036111943233704813,0.2,-0.2727850968807117,0.016701583756720956,0.2,0,
0.3841024273139504,0.2765205326164343,0.24947211100935854,0.2,-0.4004447536297013,-0.10963627598825632,0.2,-0.6996793887349173,-0.0933843357133271,0.2,0.39725779468800687,0.27236174453548406,0.2,0.5979185869644662,-0.22613530891192613,0.2,-0.27379690245470034,-0.25134682197597985,0.2,0,
0.39210456121632437,0.2796793246419325,0.663787984761608,0.2,-0.40324210144373823,-0.165507994185448,0.2,-0.7000692938007698,-0.11919238621047046,0.2,0.40309726540039437,-0.1011511788672724,0.2,0.6007896389649894,0.08606572839044146,0.2,-0.27680664603232735,0.11870280368908581,0.2,0,
0.40010669511869834,0.28714114037262,0.2554312526366065,0.2,-0.40309288153666845,0.07033038110118572,0.2,-0.7015864669142848,-0.10381242104300775,0.2,0.3956393758261305,-0.33847167642023224,0.2,0.5992956386187133,0.02846717575060581,0.2,-0.27189765759567497,0.2675213696629736,0.2,0,
0.4081088290210723,0.2837662246841182,-0.3249213830216861,0.2,-0.40211681534611926,-0.1908067493026043,0.2,-0.7017302925374579,-0.16626559485764109,0.2,0.39768171857767065,0.06970957060794397,0.2,0.6012451137769991,0.10516537338054605,0.2,-0.2725263041177198,-0.01667554339927768,0.2,0,
0.4161109629234463,0.28194239824427303,-0.07659106643505276,0.2,-0.4061457895255101,-0.15916707800171792,0.2,-0.7042467164320071,-0.16749327993551694,0.2,0.3967547289558576,-0.4416480759045528,0.2,0.600978284592802,-0.181632947021948,0.2,-0.2721644662900634,0.20730445153656005,0.2,0,
0.42411309682582027,0.2825407676211574,0.13790795022984234,0.2,-0.40466348859414675,0.13934372498495065,0.2,-0.7044101850164262,-0.029396832705481935,0.2,0.3906153493631978,-0.4688810155836602,0.2,0.5983389866246479,-0.20727502516023483,0.2,-0.2692094328931348,-0.02184995914532306,0.2,0,
0.43211523072819424,0.2841489254479505,0.2958459117497203,0.2,-0.4039162899257509,-0.324246739596995,0.2,-0.7047170657552948,-0.49628751491079953,0.2,0.38925263270651905,-0.40074186338054374,0.2,0.5976618841902382,-0.03296759620972228,0.2,-0.2725140656363886,0.03354688896892166,0.2,0,
0.44011736463056816,0.2872743022091529,0.41887523919843445,0.2,-0.40985143642769867,-0.2907242526100154,0.2,-0.712350785254999,-0.37800600410998336,0.2,0.3842034795491091,-0.5384753356668347,0.2,0.5978115050852923,-0.21758312293555793,0.2,-0.26867268266963207,0.05634511100992626,0.2,0,
0.44811949853294214,0.29085092927512546,0.3850395355586185,0.2,-0.40856787796751115,-0.170758393398477,0.2,-0.7107651618210545,-0.5367890596610011,0.2,0.3806370273358497,-0.2708707906559672,0.2,0.5941805542232693,-0.016636049615194326,0.2,-0.27161254386022976,-0.03375917520226021,0.2,0,
0.4561216324353161,0.2934349347780908,0.2189562611341761,0.2,-0.4125835707220743,-0.29983574063573853,0.2,-0.720939410209575,-0.43682516905182295,0.2,0.37986954689861363,-0.8058598182040522,0.2,0.5975453282914492,-0.2430891867374052,0.2,-0.26921282947286823,0.04035419055433559,0.2,0,
0.4641237663376901,0.2943542294532723,0.05846559674391877,0.2,-0.41336524981768297,-0.07656598888438476,0.2,-0.7177543645258837,-0.28862733786771955,0.2,0.36774327024458486,-0.729832557738095,0.2,0.5902911272354708,-0.32898889962373196,0.2,-0.2709668768113604,0.01160306728303917,0.2,0,
0.47212590024006407,0.2943703843259935,0.19040027803697915,0.2,-0.41380862654422446,-0.45848438043744055,0.2,-0.7255574476154585,-0.738665025487778,0.2,0.3681922259748041,-0.3980969150840681,0.2,0.5922815058974695,0.020889419748704174,0.2,-0.2690271803963396,0.13155252568766013,0.2,0,
0.48012803414243804,0.29740063390186394,0.2400689840211176,0.2,-0.420700999904682,-0.3529862746223765,0.2,-0.7295730049336882,-0.5289924548100358,0.2,0.3613737196032398,-0.7885221132571153,0.2,0.5906253579514501,-0.36517236047243357,0.2,-0.26886203640035783,0.19621365812289362,0.2,0,
0.48813016804481196,0.2982114880703314,0.01796730233507432,0.2,-0.4194564069381825,-0.30485067341302907,0.2,-0.7340213268924191,-0.40215568415222225,0.2,0.35557587216269027,-0.8483553881030864,0.2,0.5864387481299106,-0.19462455056171168,0.2,-0.2658877618663733,-0.0033753419718153543,0.2,0,
0.49613230194718594,0.29768811073922513,0.1656092553636926,0.2,-0.4255786106792905,-0.5840145326290597,0.2,-0.7360074958801237,-0.45712765138695294,0.2,0.3478000333935904,-0.9022253457624321,0.2,0.5875113651424627,-0.09465500763489176,0.2,-0.2689160418719069,0.04491905640282082,0.2,0,
0.50413443584956,0.30086123615615046,0.1067884234767745,0.2,-0.42880063946024743,-0.38334142190161663,0.2,-0.7413353693146103,-0.7728228682953447,0.2,0.34114026663049135,-0.877498924942044,0.2,0.5849242680077523,-0.18823961606450473,0.2,-0.2651690569639282,0.2882848597650575,0.2,0,
0.5121365697519339,0.2993967255148535,0.07494971487014696,0.2,-0.43171207342971635,-0.4067560576989024,0.2,-0.7483726617728492,-0.7297496297862734,0.2,0.3337600505945177,-0.9109807511804637,0.2,0.5844995312854306,-0.2620225676480334,0.2,-0.26430348411566595,-0.3148484392009182,0.2,0,
0.5201387036543078,0.3020604315940728,0.4424600839600008,0.2,-0.4353087363834299,-0.46631898119091003,0.2,-0.7530113633911907,-0.5741523968952611,0.2,0.32656457461160393,-0.7795664307017648,0.2,0.5807319069253838,-0.3058428510596192,0.2,-0.27020663199114286,0.24682571299844414,0.2,0,
0.5281408375566818,0.30647608685821354,0.44671745115616723,0.2,-0.4391731771287709,-0.6265038254605649,0.2,-0.7575591001231734,-0.9178102425376963,0.2,0.32128698770328945,-0.9904619730605919,0.2,0.5796060456684767,-0.22064846793455606,0.2,-0.26035427270769085,0.5069252368225009,0.2,0,
0.5361429714590558,0.3092079108125715,0.10844037298616063,0.2,-0.4453327975907989,-0.4692055907863993,0.2,-0.7676963272717938,-0.9028965440552802,0.2,0.31071718304263446,-1.1003845829831924,0.2,0.5772015314384309,-0.28339676943658215,0.2,-0.26209582820198285,-0.20151294755839724,0.2,0,
0.5441451053614298,0.3082111328259921,0.039976672400642704,0.2,-0.4466804665813533,-0.5547373699640381,0.2,-0.7720054448280579,-0.7033715747453012,0.2,0.3036808343755584,-1.0639696103937994,0.2,0.5750716973574914,-0.40781016823044497,0.2,-0.2635784798686252,-0.20838747453921433,0.2,0,
0.5521472392638037,0.30984753757098177,0.11837822447654384,0.2,-0.4542085955102235,-0.701748714390861,0.2,-0.7789502724677186,-0.8819965727589613,0.2,0.29369366927633367,-0.990165917785054,0.2,0.5706765687467438,-0.31471217690832304,0.2,-0.2654300277946103,-0.054598630483938815,0.2,0,
0.5601493731661777,0.3101051844176168,0.4613947872689414,0.2,-0.4579084460116071,-0.7201019237582997,0.2,-0.7861173899922013,-0.8910463287115019,0.2,0.2878381796909975,-1.258637013950771,0.2,0.5700363025269582,-0.14268858889417146,0.2,-0.2644520579563682,0.3978089212655043,0.2,0,
0.5681515070685517,0.31722985416728483,0.09910731792343169,0.2,-0.4657302262903563,-0.6095922387862711,0.2,-0.7932070137271027,-0.9151751542292724,0.2,0.27355547705312133,-1.4843934113285724,0.2,0.568393551324437,-0.14667879757364333,0.2,-0.2590650850543622,0.33619329935518844,0.2,0,
0.5761536409709256,0.3116909015043917,0.09140096295737546,0.2,-0.4676619218321874,-0.14555649908578813,0.2,-0.8007601924598696,-0.9114718023592039,0.2,0.26408788510974035,-1.0602358183657428,0.2,0.56768944176578,-0.25244736994117084,0.2,-0.2590729651666852,-0.2897275006776487,0.2,0,
0.5841557748732996,0.31869226957460284,0.39676305193903777,0.2,-0.46805913027572893,-0.5066662326804611,0.2,-0.8077905625648499,-0.9407418871083192,0.2,0.25659170395926945,-1.218125786352017,0.2,0.5643543934053783,-0.40104413319886484,0.2,-0.2637007250652046,-0.05200323808712132,0.2,0,
0.5921579087756735,0.3180391103354163,0.20381162157992114,0.2,-0.4757685815550748,-0.7142222889332458,0.2,-0.8158120626536027,-1.0387730049767618,0.2,0.24459787252810808,-1.385154843783185,0.2,0.5612727356345981,-0.4872411670030219,0.2,-0.25990501697607915,0.061786517309002364,0.2,0,
0.6001600426780476,0.3219532555198816,0.19459486570013937,0.2,-0.47948668689866086,-0.7697975142074952,0.2,-0.8244109306444781,-1.0768952043082036,0.2,0.23442922645873848,-1.3419060277841885,0.2,0.55655853473333,-0.5213192388054955,0.2,-0.26271214078826055,0.20408073194306403,0.2,1,C153C1
0.6081621765804215,0.32115262818661855,0.1507874157984264,0.2,-0.4880853417823947,-0.8076141949813314,0.2,-0.833042385922534,-1.0483061987376017,0.2,0.22312737608356106,-1.5492751644782046,0.2,0.5529316278137102,-0.2462533636516384,0.20040000000000002,-0.2566397252649901,0.27677131942908245,0.2,1,C153C1
0.6161643104827954,0.3243658541726564,0.17765474349971597,0.2,-0.49240851401836216,-0.5747224846082352,0.2,-0.8411838298242797,-0.8920487542198041,0.2,0.2096408238270872,-1.2298714919365943,0.2,0.5526184809149037,-0.2654844699654796,0.2008,-0.25828379967739523,0.01993677403309968,0.2,1,C153C1
0.6241664443851694,0.323995104082614,0.21189247807320427,0.2,-0.4972809015361265,-0.9047343408170455,0.2,-0.8473151659900509,-1.1644505089384027,0.2,0.20344943221257555,-1.4330682348253458,0.2,0.5486838762942625,-0.29400068554760045,0.20120000000000002,-0.25632073688046053,0.011589554967810639,0.2,1,C153C1
0.6321685782875434,0.32775613382182767,0.20245267714239304,0.2,-0.5068842634714349,-0.9613788649993557,0.2,-0.8598150379672942,-1.096935281208619,0.2,0.18671173206988168,-1.798123812305227,0.2,0.5479144699461421,-0.270085529779196,0.2016,-0.25809836679791026,-0.27650801858494084,0.2,1,C153C1
0.6401707121899174,0.3272343469168923,-0.010521034604523555,0.2,-0.5126629633761162,-0.3602079890368537,0.2,-0.8648661304893888,-1.0011910398869672,0.2,0.17467945121569192,-1.4354766437720008,0.2,0.5443625078177954,-0.17532895012981747,0.202,-0.2607448651778196,0.2106248300776832,0.2,1,C153C1
0.6481728460922913,0.3275877972681553,0.18169664320509538,0.2,-0.5126475912960246,-0.7806516320454162,0.2,-0.8758340946054857,-1.1851217849561113,0.2,0.16374410576952966,-1.4185286560796164,0.2,0.545109206744065,-0.6045809051698006,0.20240000000000002,-0.25472836951666733,0.26780632719649794,0.2,1,C153C1
0.6561749799946653,0.3301414932081738,0.20654521688810018,0.2,-0.5251533894888428,-1.043119046996395,0.2,-0.8838280790486865,-1.1353550465797169,0.2,0.15198299271841806,-1.5073723401162284,0.2,0.5346892133350786,-0.5867303952291208,0.2028,-0.2564599639426756,-0.0406848720653219,0.2,1,C153C1
0.6641771138970393,0.3308925207383649,0.2897807917176219,0.2,-0.5293374960479669,-0.881140683208631,0.2,-0.8939997753507611,-1.1291054091688777,0.2,0.13962614832767,-1.581319469113206,0.2,0.5357215204203991,-0.22646019964488173,0.20320000000000002,-0.2553793274697125,-0.0598422749136622,0.2,1,C153C1
0.6721792477994132,0.33477798587565577,0.31445141434731716,0.2,-0.5392516404201809,-0.8447435230876029,0.2,-0.9018937655953886,-1.1830243389731667,0.2,0.12668188121260676,-1.5011203454910418,0.2,0.5310658501407605,-0.47097293356668235,0.2036,-0.2574174403412942,0.13741236255235614,0.2,1,C153C1
0.6801813817017872,0.33592374336792197,0.06372801955902008,0.2,-0.5428533924173685,-0.5486862456055147,0.2,-0.9129281647743318,-1.3655926813561508,0.2,0.11560822279981334,-1.4927590175382734,0.2,0.5281859534833322,-0.26482584213314425,0.20400000000000001,-0.2531807296688748,0.10868158597808833,0.2,1,C153C1
0.6881835156041611,0.3357976341886001,0.2527987975691273,0.2,-0.5480306203498692,-1.0569092353216318,0.2,-0.923743248497087,-1.4400088392410026,0.2,0.10279773693199439,-1.460250669812542,0.2,0.5268286366666302,-0.40432547707738853,0.20440000000000003,-0.2556785349656448,-0.0021715142747361083,0.2,1,C153C1
0.6961856495065352,0.339968524129028,0.20890856175615966,0.2,-0.5597639401825146,-0.9252497253428235,0.2,-0.9359683062021878,-1.0326735265130949,0.2,0.09224421208281267,-1.6109327830597913,0.2,0.521716745850094,-0.3557733038866487,0.2048,-0.25321547389727056,0.051599375426168714,0.2,1,C153C1
0.7041877834089091,0.33914017117669865,0.11764907814353423,0.2,-0.5628346159553543,-0.44990136864191815,0.2,-0.9402660249212965,-1.047737398826909,0.2,0.07702281240303772,-1.9924936258087709,0.2,0.5211362638044438,-0.29072634415407833,0.20520000000000002,-0.2548529449588261,0.217849278196321,0.2,1,C153C1
0.7121899173112831,0.34185090937932455,0.28612038163125864,0.2,-0.5669623620807853,-1.0928465866215167,0.2,-0.9527321045834184,-1.1316452982889011,0.2,0.06036431406987233,-1.6290790462207905,0.2,0.5170651243436287,-0.49920814931497803,0.2056,-0.24972988544612942,-0.01883444231150222,0.2,1,C153C1
0.720192051213657,0.3437180972827988,0.24519754655380824,0.2,-0.5803201613412986,-0.9649725293915875,0.2,-0.9583723496939189,-1.0950500587536063,0.2,0.050957547663505076,-1.5295034904622977,0.2,0.5131489334154041,-0.46712423303907347,0.20600000000000002,-0.25515429603581014,-0.18218107703289915,0.2,1,C153C1
0.728194185116031,0.3457740701241855,0.3004821333384422,0.2,-0.5824019225510507,-0.4061650739255532,0.2,-0.9702529055234761,-1.6365768023906269,0.2,0.03589225822247557,-1.5743568043417435,0.2,0.5095911366150035,-0.4952694320441778,0.20640000000000003,-0.2526447826786558,0.5346487003407285,0.2,1,C153C1
0.736196319018405,0.34852581141621386,0.17224983138470346,0.2,-0.5868188025241075,-0.9345113758058438,0.2,-0.984557578532169,-1.3479781293354933,0.2,0.02576783879403718,-1.845655853426134,0.2,0.5052246225026973,-0.33656726230364004,0.2068,-0.24659991683035848,0.0748761177319611,0.2,1,C153C1
0.7441984529207789,0.34853006742634074,-0.18498192002923755,0.2,-0.5973541045639442,-0.8744726252963505,0.2,-0.991820555592844,-1.4136050127598887,0.2,0.0063617645676574235,-1.9176678161287453,0.2,0.5042060604181453,-0.25082614612850773,0.20720000000000002,-0.25144676479494443,-0.3299387947389154,0.2,1,C153C1
0.7522005868231529,0.34556610069574606,0.109502634552016,0.2,-0.6008103645288491,-0.7035588095399627,0.2,-1.0071752587363272,-1.6538568018061792,0.2,-0.004914846264022744,-1.4990255451958283,0.2,0.5012114041646412,-0.5540717741272759,0.2076,-0.2518789375461811,0.20418223204730737,0.2,1,C153C1
0.7602027207255269,0.350282109579173,0.48775077696990365,0.2,-0.6086110455165836,-1.093399471932932,0.2,-1.0182822644217429,-0.8651663516274083,0.2,-0.01762264415547583,-1.6292967999308492,0.2,0.4953409120321089,-0.7931712171731324,0.20800000000000002,-0.24817984908218751,-0.004753073385994899,0.2,1,C153C1
0.7682048546279008,0.3533701131272645,0.0588231541987054,0.2,-0.618304756079776,-0.6673638692674746,0.2,-1.0210179203623657,-1.0710310547242667,0.2,-0.03098359506291633,-1.5369252928157255,0.2,0.48852066468987104,-0.42953877124832573,0.20840000000000003,-0.25195498672035704,-0.07294133756010832,0.2,1,C153C1
0.7762069885302748,0.3512232800463523,0.3401304776527031,0.2,-0.6192888674248632,-0.8045355263476134,0.2,-1.0354187612973311,-1.4559580233362845,0.2,-0.04221344884052744,-1.4853781239953852,0.2,0.4884682916921357,-0.22227806638252037,0.2088,-0.24934691048314925,-0.042936611469014674,0.2,1,C153C1
0.7842091224326487,0.35881220076970777,0.30607462908787547,0.2,-0.6311773245013378,-1.023169628539558,0.2,-1.0443132487357463,-1.2011531435524996,0.2,-0.054749645046842495,-1.6931816898194023,0.2,0.4849642156277507,-0.30683568484843327,0.20920000000000002,-0.2526419725038613,0.055196254506541254,0.2,1,C153C1
0.7922112563350228,0.3561204741117583,0.01411331183518924,0.2,-0.6356595814814961,-0.7781096194480821,0.2,-1.0546372115941711,-1.0826752077399693,0.2,-0.06930435587763788,-1.8143914767517386,0.2,0.48355892073456075,-0.6518266656213613,0.2096,-0.2484637704110446,0.22276077875278688,0.2,1,C153C1
0.8002133902373967,0.3590380137590708,0.34376018896593863,0.2,-0.6436270784125071,-0.47228729223340593,0.2,-1.0616360520595858,-1.1001439315627415,0.2,-0.08377990867487031,-1.6143562452132532,0.2,0.47453498897780894,-0.2613800101431106,0.21000000000000002,-0.2490778000438167,0.2574564576019369,0.2,1,C153C1
0.8082155241397707,0.3616206371352133,0.3810965622902569,0.2,-0.6432161781572306,-0.7457953267406697,0.2,-1.072239514499175,-1.399304040185484,0.2,-0.09513405580104993,-1.8848891078411179,0.2,0.479376840572271,-0.1847721929816859,0.21040000000000003,-0.2443444670894136,0.25390243821632114,0.2,1,C153C1
0.8162176580421446,0.3651355587557149,0.3627754162583742,0.2,-0.6555598036403578,-1.2764261906167487,0.2,-1.0840249167025535,-1.2332352529206974,0.2,-0.1139381344003282,-1.7315723113579495,0.2,0.47157863389010196,-0.6863337060598156,0.21080000000000002,-0.24501536103235555,0.11502027891053916,0.2,1,C153C1
0.8242197919445186,0.3674250437953473,0.019107736329477404,0.2,-0.6636389972070986,-0.6791401234610069,0.2,-1.0919712785459061,-1.2115595015579905,0.2,-0.12283921278277712,-1.5066402029005896,0.2,0.46839550127531393,-0.5188124950493388,0.21120000000000003,-0.24250414262684497,0.23899493208749503,0.2,1,C153C1
0.8322219258468926,0.36544128253698654,0.20685386487877266,0.2,-0.6664260456157339,-0.5683127637304275,0.2,-1.1034098687274814,-1.0128034505055838,0.2,-0.13804437764673763,-1.3838292266137724,0.2,0.46327763396931254,-0.2199193887692276,0.2116,-0.24119144211895563,-0.08667458394890672,0.2,1,C153C1
0.8402240597492665,0.37073470563340766,0.44588147230228276,0.2,-0.6727320014267855,-0.619713740627234,0.2,-1.1081761337539955,-0.9493804987940196,0.2,-0.14498048040859748,-1.638862813193552,0.2,0.4648767910550063,-0.03748424409073109,0.21200000000000002,-0.24389093597002748,0.07388467236988695,0.2,1,C153C1
0.8482261936516405,0.37257538609382307,0.09583022516834391,0.2,-0.6763414654657697,-0.8338606261265452,0.2,-1.1185999567081857,-1.2542086493858433,0.2,-0.16426618265783446,-1.894539690926159,0.2,0.46267788606386084,-0.44534661869626707,0.21240000000000003,-0.24000928736103744,-0.2585075408028919,0.2,1,C153C1
0.8562283275540145,0.37226798923610116,0.1072436391327293,0.2,-0.6860737714448102,-0.9688578107103148,0.2,-1.128243472144169,-1.342184418324066,0.2,-0.17529311546341603,-1.1361922610420694,0.2,0.457751245155866,-0.4144885553538681,0.21280000000000002,-0.24802705662287375,-0.08523886025795478,0.2,1,C153C1
0.8642304614563885,0.37429128431994674,0.10187106490090747,0.2,-0.6918431904371347,-0.7840399352287349,0.2,-1.1400749074013707,-0.9018315652701836,0.2,-0.18244525883450757,-1.6272880301925474,0.2,0.45604606917819895,-0.27141141905628885,0.21320000000000003,-0.24137310912516471,0.5378155268537642,0.2,1,C153C1
0.8722325953587624,0.3738979262745157,0.10783758877383823,0.2,-0.69861841040847,-0.7261596019589935,0.2,-1.142672777188492,-1.0096332890750652,0.2,-0.20132972394649679,-1.6664072759673652,0.2,0.4534086624509654,-0.3220483422421878,0.2136,-0.23942200819321352,-0.2837800815521825,0.2,1,C153C1
0.8802347292611363,0.37601668574032815,0.27026419833382426,0.2,-0.7034617440684786,-0.4948909714188529,0.2,-1.1562290400265718,-1.2314380203016644,0.2,-0.20910777524998542,-1.2099713905962053,0.2,0.45089329570232395,-0.3610614439868674,0.21400000000000002,-0.24591359042999963,-0.03443739977928434,0.2,1,C153C1
0.8882368631635104,0.37822215344785687,0.21878177770687582,0.2,-0.7065366659511716,-0.7840580445170608,0.2,-1.1623757855133185,-1.1114023028038904,0.2,-0.22068926619603607,-1.2166828420884754,0.2,0.4476316793471755,-0.7354237747753262,0.21440000000000003,-0.23997300658968207,0.46146220290073714,0.2,1,C153C1
0.8962389970658843,0.37951719418363816,-0.16845369668868487,0.2,-0.7160066727807516,-0.9420432669364348,0.2,-1.174011476871434,-1.0853556148296555,0.2,-0.22857470072340103,-1.1495526019093452,0.2,0.43912651530591873,-0.6732065207028654,0.21480000000000002,-0.23853019518358784,-0.06005875932576718,0.2,1,C153C1
0.9042411309682583,0.3755268943008379,0.4479688914972336,0.2,-0.7216093582221546,-0.7566984537184102,0.2,-1.179741475350593,-0.7405442200889706,0.2,-0.2390821078265856,-1.505095872511908,0.2,0.43686037501592967,0.02276869133162676,0.21520000000000003,-0.24093394673889434,-0.017135334051111145,0.2,1,C153C1
0.9122432648706322,0.3866846964475939,0.6792503656449511,0.2,-0.7281138480402461,-0.6746901587230749,0.2,-1.1858601843928576,-0.9880116389547611,0.2,-0.25265623468359155,-1.5496431121856131,0.2,0.43949081436722476,-0.48610477178239603,0.2156,-0.23880436052840562,0.16836794355097084,0.2,1,C153C1
0.9202453987730063,0.38639490015115713,-0.09004013023307736,0.2,-0.7324044007617238,-0.4552172528308335,0.2,-1.1955496615738692,-1.0010892328795318,0.2,-0.2638763976215554,-1.1359353141302437,0.2,0.42908269866741133,-0.6676628694063588,0.21600000000000003,-0.2382400596420788,0.09580932731865881,0.2,1,C153C1
0.9282475326753802,0.38524405436386466,0.21090446536972327,0.2,-0.7353973240855395,-0.5034075397692961,0.2,-1.20187761211893,-1.1561987788925725,0.2,-0.27083119970967545,-1.2304778327197445,0.2,0.428808208456723,-0.19033968992797703,0.21640000000000004,-0.23727141129130708,0.06395032795563152,0.2,1,C153C1
0.9362496665777541,0.3897693715970727,0.09437444254817642,0.2,-0.7404589213980325,-0.719311407184224,0.2,-1.2140488420361504,-1.013001808374339,0.2,-0.2835640429450713,-1.3196316881351373,0.2,0.4260372636285637,-0.08102562158367188,0.21680000000000002,-0.2372168543947887,-0.1627726474254954,0.2,1,C153C1
0.9442518004801281,0.3867540454446355,0.19862885427736343,0.2,-0.7469063066004871,-0.5135641836872679,0.2,-1.2180856410529195,-0.591770748716608,0.2,-0.29194530671983765,-1.0268773077717792,0.2,0.42751179851138427,-0.10266047275809057,0.21720000000000003,-0.239875773650115,-0.06370483882133134,0.2,1,C153C1
0.952253934382502,0.3929474332655105,0.2682005901698571,0.2,-0.7486759483370288,-0.4226671268751647,0.2,-1.223517174015616,-0.8199251464582752,0.2,-0.2999940798694198,-1.1051755272089014,0.2,0.42439469606443425,-0.12258233021514645,0.21760000000000002,-0.23823613181593,0.318259300757082,0.2,1,C153C1
0.9602560682848761,0.3910452548873532,0.3151212601634513,0.2,-0.7536689806304897,-0.49659467028876497,0.2,-1.231204443396252,-0.9549040012009347,0.2,-0.3096281151551801,-1.019273268765726,0.2,0.4255504812279419,-0.27826573700567153,0.21800000000000003,-0.2347836248380017,0.3211152711078916,0.2,1,C153C1
0.96825820218725,0.39798937342812574,0.1545332168748012,0.2,-0.756621463061649,-0.5484413264334742,0.2,-1.238795638034831,-0.7590954790105825,0.2,-0.3163024521696714,-1.155388849719212,0.2,0.4199424442723435,-0.7014767706226277,0.21840000000000004,-0.23309828747820374,0.022132220733118643,0.2,1,C153C1
0.9762603360896239,0.39351778635735,-0.289361006629487,0.2,-0.7624440418534253,-0.6664322333009356,0.2,-1.2433499710604212,-0.41346754212256975,0.2,-0.32811433675068746,-0.8865900943933122,0.2,0.4143268528979799,-0.37536199474465237,0.21880000000000002,-0.2344295093062718,-0.010397737126740386,0.2,1,C153C1
0.984262469991998,0.39335959732205394,0.4324279737156454,0.2,-0.767284378794464,-0.5798966509005382,0.2,-1.2454111187087922,-0.7976712507093559,0.2,-0.3304878936799644,-0.5024964706168561,0.2,0.41393665235642907,0.1673301155826895,0.21920000000000003,-0.2332646512722316,0.2137141934815262,0.2,1,C153C1
0.9922646038943719,0.40043663393680035,0.32229237045004744,0.2,-0.7717223882678339,-0.7023078167845559,0.2,-1.256112711071771,-0.7943763206286203,0.2,-0.33615428028055716,-1.0633783423841143,0.2,0.4170041347473029,-0.10404913644464914,0.21960000000000002,-0.23101008221056737,0.0006639162303014035,0.2,1,C153C1
1.0002667377967458,0.3985162752492547,0.05938497973039317,0.2,-0.7785213038630169,-0.3644252037553197,0.2,-1.25812113983885,-0.5800467089663863,0.2,-0.3475019471581102,-1.0694789602535975,0.2,0.4122718661733147,-0.10100014112706182,0.22000000000000003,-0.23325402861254677,-0.027248830112508796,0.2,1,C153C1
1.00826887169912,0.40138679361248664,0.11021622992848576,0.2,-0.777553191527919,-0.11737275201820219,0.2,-1.265393458415233,-0.4552583085744577,0.2,-0.3532659436446147,-0.8315196423178649,0.2,0.4153881324892699,-0.18972908969664207,0.22040000000000004,-0.23144606349236752,-0.0013092228208916312,0.2,1,C153C1
1.0162710056014939,0.4002797349281105,0.34793279898158097,0.2,-0.7803992678953081,-0.09356121379533455,0.2,-1.2654052727760414,-0.5946501512387736,0.2,-0.36080626143519606,-0.7984172837950804,0.2,0.4092362007381684,-0.37218296662708605,0.22080000000000002,-0.23327497617768103,-0.1074256662295485,0.2,1,C153C1
1.0242731395038678,0.40695371839619193,0.35983034569044003,0.2,-0.7790501709486444,-0.2873506851280294,0.2,-1.2749078608350535,-0.8918706314459263,0.2,-0.366040620185336,-0.6342468118218613,0.2,0.40943320502323655,-0.21495258472261497,0.22120000000000004,-0.2331648741520403,0.1792117954368816,0.2,1,C153C1
1.0322752734062417,0.4060370204591575,0.12376836497834595,0.2,-0.7849968788573566,-0.7280978999078952,0.2,-1.2796752028791762,-0.3623220892622764,0.2,-0.37095421042434584,-0.5344845620799745,0.2,0.40579695938260657,-0.1162220264283656,0.22160000000000002,-0.23040758745069093,0.018704795248881967,0.2,1,C153C1
1.0402774073086156,0.40893401223584547,0.22251914724783634,0.2,-0.7906997373471707,-0.47140660341675467,0.2,-1.28070501426325,-0.347848152099442,0.2,-0.3745923731786156,-0.5463343347579287,0.2,0.4075736526003827,-0.09989033679611362,0.22200000000000003,-0.23286559742805818,0.03585666546846063,0.2,1,C153C1
1.0482795412109898,0.4095973268151229,-0.008993377312919298,0.2,-0.7925393845120247,0.02806821120696079,0.2,-1.2852407733127673,-0.6251167190903517,0.2,-0.3796955597804727,-0.4715128721888284,0.2,0.40419871399386875,-0.11644194730385526,0.22240000000000004,-0.22983388080319556,0.23222267417353884,0.2,1,C153C1
1.0562816751133637,0.40879011819883876,0.1782714616174949,0.2,-0.7902506459678593,-0.06482990326128063,0.2,-1.2907068817686955,-0.12024233013373242,0.2,-0.38213657913363686,-0.42415252441604584,0.2,0.405710581443521,-0.17749792331210254,0.22280000000000003,-0.22915003464128156,-0.2615329635360479,0.2,1,C153C1
1.0642838090157376,0.4124496702010028,0.3337401112144672,0.2,-0.7935766629642051,-0.24119500071858452,0.2,-1.287164650594907,0.1079870649097342,0.2,-0.38648200017112944,-0.4702715072806389,0.2,0.4013587472208751,-0.03529491934229842,0.22320000000000004,-0.23401840821977232,0.030803325770429116,0.2,1,C153C1
1.0722859429181115,0.41412995997827023,0.08881640939111327,0.2,-0.7941097659793567,-0.18532439348356577,0.2,-1.2889790887301398,-0.4434198401003925,0.2,-0.3896609232501271,-0.5199518825892806,0.2,0.40514586273404424,0.012703855945934983,0.2236,-0.2286571814289547,0.2321537408094508,0.2,1,C153C1
1.0802880768204854,0.41387073275126063,0.22770723810024152,0.2,-0.7965418532599422,-0.3622157535209461,0.2,-1.2942593680365133,-0.45987107539297023,0.2,-0.3948012302925579,-0.292304037488051,0.2,0.40156200891601007,-0.1844119211117795,0.22400000000000003,-0.2303039483668211,0.23785013440347572,0.2,1,C153C1
1.0882902107228596,0.4177732757878741,0.3322659191373825,0.2,-0.7999052180356918,-0.13779804034567966,0.2,-1.2963370259364273,-0.16354016561180573,0.2,-0.3943377878499359,-0.26658633864123926,0.2,0.40219527199625577,-0.051731145564219705,0.2244,-0.22485157927849908,0.2683511201216609,0.2,1,C153C1
1.0962923446252335,0.41918698745745875,0.12324781156978007,0.2,-0.7987466219054731,0.08223310082848545,0.2,-1.2968760106863022,0.012781737670636284,0.2,-0.39906661171081775,-0.4470890144514898,0.2,0.40073431058698256,-0.329582739743442,0.22480000000000003,-0.22601033044487454,-0.23370513164974563,0.2,1,C153C1
1.1042944785276074,0.4197452407729906,-0.024707841930669827,0.2,-0.798589488422436,-0.04800867464242048,0.2,-1.2961325181336971,-0.24258810118989171,0.2,-0.40149121208115973,0.28192036165201534,0.2,0.3969219481603607,-0.05142942557462282,0.22519999999999998,-0.228590861384895,0.13589167403172014,0.2,1,C153C1
1.1122966124299813,0.41879166198656803,0.07426011200278859,0.2,-0.7995147606997518,-0.0964643302417828,0.2,-1.3007574203053405,-0.2178861724336928,0.2,-0.3945558859243855,0.10042385194562742,0.2,0.3999114397777886,0.08393785021231642,0.22560000000000002,-0.223836063660367,0.36016193112312944,0.2,1,C153C1
1.1202987463323555,0.4209334025650352,0.5203145723086666,0.2,-0.8001329177063046,-0.14060691315127133,0.2,-1.2996186968926362,0.29734131733374913,0.2,-0.3998844304500297,-0.2635580181655772,0.2,0.39826495376375776,0.018228206121760626,0.22599999999999998,-0.22282827048692494,-0.10013088577136113,0.2,1,C153C1
1.1283008802347294,0.4271166951435067,0.18852024919863153,0.2,-0.8017644713101721,-0.028267046612455438,0.2,-1.2959999592280005,-0.11119459193290049,0.2,-0.39877281421503474,0.14600199940650524,0.2,0.40020309107573676,0.09152009206879475,0.22640000000000005,-0.2254381578327088,-0.2035015037491171,0.2,1,C153C1
1.1363030141371033,0.4239497265522133,0.19546220084098315,0.2,-0.8005851904521039,0.05758359230973592,0.2,-1.3013978103635626,-0.045450503481786475,0.2,-0.3975483984595256,-0.1130051358879669,0.2,0.3997292752368585,0.13203258447545482,0.2268,-0.2260842945469108,-0.12121317635113878,0.2,1,C153C1
1.1443051480394772,0.4302440903569624,0.4612233375753359,0.2,-0.8008431338332164,0.0655737900540701,0.2,-1.296727167283709,0.20649885937353007,0.2,-0.4005808963892422,0.006050763592883868,0.2,0.40231561242734404,0.05379450068588448,0.22720000000000004,-0.227377568654327,0.3873337058205809,0.2,1,C153C1
1.1523072819418512,0.4313292999534187,-0.11397731783501647,0.2,-0.7995360098112387,0.48365271897756607,0.2,-1.2980938286135861,-0.006070479816502883,0.2,-0.39745158624203947,0.38877655181898324,0.2,0.4005899872478326,0.05243071008236705,0.2276,-0.21988695525378152,0.32292291514291954,0.2,1,C153C1
1.1603094158442253,0.42842045327160216,0.15706727931148398,0.2,-0.7931046903295753,0.23461673053454257,0.2,-1.2968242949607731,0.10635711013907978,0.2,-0.3943604715601385,0.3715496902158034,0.2,0.4031545037886619,0.07074864088447985,0.22800000000000004,-0.2222108020120403,0.10106633674846627,0.2,1,C153C1
1.1683115497465992,0.4338423764224024,0.5066134250345175,0.2,-0.795782142122686,0.11278194680075515,0.2,-1.2963921148513609,0.2905058241091246,0.2,-0.3915067911985866,0.1555942119981328,0.2,0.4017219655019843,-0.09917027981862919,0.2284,-0.21826989386580606,-0.008547514825239105,0.2,1,C153C1
1.1763136836489732,0.43652626807215444,0.1322296659532901,0.2,-0.7913001791807632,-0.011665131705800025,0.2,-1.2921762017750271,0.2417790590338864,0.2,-0.39187096416816836,0.26232649339075903,0.2,0.40156777931156384,0.009020957302287996,0.2288,-0.22234756224924412,-0.015181412645138073,0.2,1,C153C1
1.184315817551347,0.43595805107765506,-0.12885509254367475,0.2,-0.7959687842299789,-0.2113284883600297,0.2,-1.2925236499068187,-0.15818214412000042,0.2,-0.38730956730433447,0.6812496034924315,0.2,0.4018663008188209,0.42550230853459836,0.2292,-0.21851279646812827,-0.05426526972534575,0.2,1,C153C1
1.192317951453721,0.43446458659145565,0.13339447817425562,0.2,-0.7946814349945237,0.34903117566330993,0.2,-1.2947071160809471,0.4628262133226091,0.2,-0.38097097051228945,0.5985910374750776,0.2,0.4083758162481174,0.20973899277586597,0.2296,-0.22321580656484966,-0.08891355305054235,0.2,1,C153C1
1.2003200853560951,0.43809236272844315,0.175535880357746,0.2,-0.7903842854193659,0.5112107053940814,0.2,-1.285118430493657,0.8305193916510051,0.2,-0.3777321107047332,0.25619915874686844,0.2,0.40522212470323477,0.04115332844520023,0.22999999999999998,-0.21993541331693695,0.11030403712772134,0.2,1,C153C1
1.208322219258469,0.4372731606771796,0.3278825992820665,0.2,-0.7865020637082184,0.26883668354956564,0.2,-1.281418805814531,0.49430563502274316,0.2,-0.37687178397233956,0.3893982714358313,0.2,0.4090342695032406,0.04262882498636336,0.2304,-0.22145094197080611,0.185381773977613,0.2,1,C153C1
1.216324353160843,0.4433384843169562,0.7336293744747563,0.2,-0.7860828984825728,0.31945639425309813,0.2,-1.277209540333293,0.34886775477983856,0.2,-0.3715017383617599,0.6569323412117835,0.2,0.4059041859030166,0.06569326283448196,0.2308,-0.21696930493329514,-0.015929110150718004,0.2,1,C153C1
1.224326487063217,0.4490112306687757,0.1789938100074523,0.2,-0.7813907614001688,0.3655657075013613,0.2,-1.2758369217380536,0.35412815854753144,0.2,-0.366360866512951,0.8066326068238011,0.2,0.41008536170859233,0.18078735254865863,0.2312,-0.2217058077332176,0.007959707034991409,0.2,1,C153C1
1.2323286209655908,0.44620238527707545,-0.07237245483340468,0.2,-0.7802338471625511,0.6196741181235323,0.2,-1.2715434897965325,0.5076754025536562,0.2,-0.3585956166525791,0.7443558854147644,0.2,0.4087967835437951,-0.03792704984077744,0.2316,-0.21684194962073527,0.47502348501075353,0.2,1,C153C1
1.240330754867965,0.4478532713914412,0.20156460222025413,0.2,-0.7714759755101923,0.26469869654324046,0.2,-1.2677141152971951,0.4004620353583038,0.2,-0.3544511723463148,0.5582903361565396,0.2,0.4094785289111399,0.03118544085823141,0.23199999999999998,-0.21410543197304555,0.11657439122349927,0.2,1,C153C1
1.2483328887703389,0.4494274189125995,0.24705694532626415,0.2,-0.7759986680178592,0.2143413183089693,0.2,-1.2651360972307997,0.9899772521706762,0.2,-0.3496629712740745,1.0761462660794676,0.2,0.4092957505975268,0.2922290020279314,0.2324,-0.2149767593611593,-0.08883910505323549,0.2,1,C153C1
1.2563350226727128,0.45180618251666144,0.14072349393545736,0.2,-0.7680465144172488,0.44577685872272677,0.2,-1.2518744792624643,0.75409101946039,0.2,-0.3372328320890433,0.8995455360687292,0.2,0.4141541929435868,0.2735394565697158,0.2328,-0.2155268576538973,-0.08807941589162455,0.2,1,C153C1
1.2643371565750867,0.45167899481556684,0.15517143512060183,0.2,-0.7688662382782956,-0.07171527924105386,0.2,-1.2530706409194334,0.3767405491741094,0.2,-0.3352702426969748,0.7103466640689046,0.2,0.41367238190264227,0.2852839700664342,0.2332,-0.21638603001542528,-0.05973228925509194,0.2,1,C153C1
1.2723392904774609,0.45428892547859107,0.4293175716971187,0.2,-0.7691939588851057,0.643097597141172,0.2,-1.2458466304756786,1.1945067081141902,0.2,-0.32586728546394084,0.9657383993122715,0.2,0.41871873646464974,0.44121963871636416,0.2336,-0.21648257428197878,-0.017756725222375924,0.2,1,C153C1
1.2803414243798348,0.45854807596272074,0.19559964666071572,0.2,-0.7585766767240368,0.8900131260280719,0.2,-1.2339585335896064,0.7395180719150796,0.2,-0.31981842830797846,0.9719639196092388,0.2,0.4207318961221041,0.17206292929504777,0.23399999999999999,-0.2166701376189833,0.19046545538060725,0.2,1,C153C1
1.2883435582822087,0.4574185198251625,-0.02477710362414412,0.2,-0.7549537488686565,0.5684324822439537,0.2,-1.2340143413250373,0.5421817028392478,0.2,-0.310315862750193,1.3536089098960153,0.2,0.4214717433333705,0.19336082626657605,0.2344,-0.21343512699588907,0.19027321542868478,0.2,1,C153C1
1.2963456921845826,0.45815164230473443,0.21347304737057496,0.2,-0.7494817570081336,0.5012434089612106,0.2,-1.2252836263441784,1.0492584303540553,0.2,-0.2981606857496422,1.0750254527004468,0.2,0.4238256693423693,0.33315624783828224,0.2348,-0.21362576617212434,0.04279667918236779,0.2,1,C153C1
1.3043478260869565,0.4608340885830917,0.2139170846082658,0.2,-0.7469338543252771,0.4476775416082379,0.2,-1.2172262064393724,0.9846706990394999,0.2,-0.29311545550698587,1.0713057195977267,0.2,0.426802243298783,0.23006738035706922,0.2352,-0.21275038012897118,-0.004654430910789459,0.2,1,C153C1
1.3123499599893307,0.4615743156584667,0.26475496251369274,0.2,-0.7423189163424018,0.6845177558520501,0.2,-1.2095288951595464,0.589825448686479,0.2,-0.2810197942360786,1.3699927792833084,0.2,0.4275067474280824,0.17648125605321946,0.2356,-0.21370023706669697,0.31556855739881157,0.2,1,C153C1
1.3203520938917046,0.4650701679833108,0.36827773894640425,0.2,-0.7359815702316443,0.5991283472738529,0.2,-1.2077889992603887,0.9482880152751477,0.2,-0.27119557103845293,0.9953755417137361,0.2,0.42962594339563454,0.46094909290649716,0.236,-0.2077012832105902,0.15413718392589051,0.2,1,C153C1
1.3283542277940785,0.46746675948160915,0.184616460318459,0.2,-0.7327328627860201,0.771027191318975,0.2,-1.194356286915144,1.1675908228862968,0.2,-0.2650937855686588,1.0172461172353007,0.2,0.4348819329145864,0.4745100547962622,0.2364,-0.21123404212388272,-0.13011556717396586,0.2,1,C153C1
1.3363563616964524,0.46802403134840614,0.22059977572251935,0.2,-0.7236451351705407,0.7044763684111512,0.2,-1.189107546094208,0.6907202518922628,0.2,-0.2549196331626881,1.3596181902279219,0.2,0.43721810427237473,0.15661116810660597,0.2368,-0.20978313228537365,0.09717721004805398,0.2,1,C153C1
1.3443584955988264,0.47099635589316946,0.38395107140234624,0.2,-0.7214612408914417,0.7556901818779812,0.2,-1.1833047628848679,0.9142647076397364,0.2,-0.24333989452501206,1.3072327730959468,0.2,0.4373877116042921,0.2342177799394135,0.2372,-0.20967920676311386,0.23318695502660622,0.2,1,C153C1
1.3523606295012005,0.4741672484908437,0.25334714971790223,0.2,-0.711554092260493,0.6177911365467942,0.2,-1.1744793107719722,1.202026910261042,0.2,-0.23400390879315297,1.7102865962945486,0.2,0.44096558875140535,0.5952968197725228,0.2376,-0.20605214100494795,-0.09274820196428397,0.2,1,C153C1
1.3603627634035744,0.4750499102886559,0.09281111973293357,0.2,-0.711576582706693,0.6453651400363941,0.2,-1.1640723323206912,1.0556947575923874,0.2,-0.21597530898429929,1.377441976271496,0.2,0.44691246072065244,0.342378743833506,0.238,-0.2111631779945424,-0.3540523647416038,0.2,1,C153C1
1.3683648973059483,0.4756522264065706,0.1439007791369032,0.2,-0.7012282500199107,0.7872842602541369,0.2,-1.157588194650494,0.7664381628833677,0.2,-0.21196483717280903,0.9011241208862902,0.2,0.44644364865274144,0.23246382576238428,0.2384,-0.2117169788408136,0.2294203684129678,0.2,1,C153C1
1.3763670312083223,0.47735232275484635,0.1340081053611518,0.2,-0.6989800345426268,0.5178969123167606,0.2,-1.1518093217145573,0.9927042760430049,0.2,-0.20155732305011864,1.507380304177925,0.2,0.4506318819328506,0.2611658381854835,0.2388,-0.20749245209993492,0.24311237216002693,0.2,1,C153C1
1.3843691651106962,0.47779635609234905,-0.11735389729762916,0.2,-0.6929418994228426,0.48128770494159506,0.2,-1.141704926233806,1.186278034589247,0.2,-0.18784675230596223,1.7761260579181766,0.2,0.4506223020637092,0.2520732270900501,0.2392,-0.20782718088625318,-0.03440403969497824,0.2,1,C153C1
1.3923712990130703,0.4754746603980843,0.17402858976192995,0.2,-0.6912794312635613,0.7536999635979341,0.2,-1.1328288731611293,1.3094607712146322,0.2,-0.17313930612342782,1.5279379839358842,0.2,0.4546650535662914,0.3958186718586061,0.2396,-0.20804291673505457,-0.21177599094347221,0.2,1,C153C1
1.4003734329154442,0.48058081352853993,0.3396037827820171,0.2,-0.6808827000052756,0.8633689393902355,0.2,-1.1207535538943718,1.3335922678991141,0.2,-0.1633997445629881,1.6476921871022114,0.2,0.4569554008134469,0.40899347805274305,0.24,-0.21121559674134874,0.09815978633047687,0.2,1,C153C1
1.4083755668178182,0.48090832092259655,0.16334925296848657,0.2,-0.6774655282333175,0.8498541327047123,0.2,-1.1114913968747435,1.0281477694854961,0.2,-0.14677623112979243,1.558468013208112,0.2,0.4612089492151353,0.50261730562021,0.2404,-0.20647236015376694,0.05878163251687302,0.2,1,C153C1
1.416377700720192,0.4831944015760357,0.3002043289950552,0.2,-0.6672850338820002,0.8712409853486521,0.2,-1.1043031895826039,1.356966140786564,0.2,-0.1384642563516583,1.3508335447305289,0.2,0.46499727770337024,0.6916592152807592,0.24080000000000001,-0.21027509062107877,0.20747246808744227,0.2,1,C153C1
1.4243798346225662,0.48571159018651744,0.1256031134723931,0.2,-0.6635256724677391,0.635517929256646,0.2,-1.0897799386221585,1.2820760273282439,0.2,-0.12516289441410397,1.7157091607414177,0.2,0.4722754966596274,0.17185459147929516,0.2412,-0.20315280066436786,0.2609495633252076,0.2,1,C153C1
1.4323819685249402,0.485204051391594,0.08862658949188029,0.2,-0.6571167470138939,1.1597512684769218,0.2,-1.083789973145352,0.7773169772591071,0.2,-0.11101290977979561,1.7946575802018838,0.2,0.46774695116703896,0.16445188613531392,0.2416,-0.20609989760787545,0.016946160413415512,0.2,1,C153C1
1.440384102427314,0.4871296156183875,0.5594781238357285,0.2,-0.6449696521721083,0.6452768148401261,0.2,-1.0773428669860128,1.231876152250344,0.2,-0.09644837313087383,1.5573682383597538,0.2,0.47490672683779245,0.5034127402242724,0.242,-0.2028816620977532,0.41581529129772543,0.2,1,C153C1
1.448386236329688,0.49415570137296566,0.31892560988110163,0.2,-0.6467923179764519,0.6960102760681444,0.2,-1.0640799547093465,1.518628239144365,0.2,-0.08609501796603955,1.4801714899625278,0.2,0.4758015550106273,0.18167442672694864,0.2424,-0.19944685294711184,-0.12719592391307633,0.2,1,C153C1
1.456388370232062,0.49223242537648515,-0.08539824538103535,0.2,-0.633833487755018,0.9690414949676609,0.2,-1.053044815159703,1.394960311141752,0.2,-0.07276562929147339,1.6172313385381465,0.2,0.4778135176654236,0.6181510780883456,0.24280000000000002,-0.20491679688036243,-0.3529944037887877,0.2,1,C153C1
1.464390504134436,0.4927893294468691,-0.024781349051879176,0.2,-0.6312876540569693,0.5741970885413324,0.2,-1.0417605897310784,1.3248239539079554,0.2,-0.060219316549429205,1.5240250421852648,0.2,0.48569197226004085,0.5692341963230186,0.2432,-0.20509476340773244,0.13706198213691947,0.2,1,C153C1
1.47239263803681,0.4918359237916551,0.20672040253186946,0.2,-0.6246463343383567,0.9067660196762362,0.2,-1.0318476318971757,0.8088730614673467,0.2,-0.04838122861650915,1.506568617564783,0.2,0.4869212648065919,0.4015100300447764,0.2436,-0.20272380516617172,0.15805125350762048,0.2,1,C153C1
1.480394771939184,0.496096855887379,0.15721858974342487,0.2,-0.6167793977421495,0.9977855354954615,0.2,-1.0288186207476009,1.0382239577180623,0.2,-0.03611421866839268,1.8106539756841467,0.2,0.4921161327407573,0.35167423974780815,0.244,-0.20256594335161052,0.2175555435444034,0.2,1,C153C1
1.4883969058415578,0.4943514212275499,0.19915751468620874,0.2,-0.6086817657704293,0.831856223586433,0.2,-1.0152360485736867,1.5722104515638462,0.2,-0.0194107650055628,1.98493868058454,0.2,0.49254805264255686,0.4800138762617624,0.2444,-0.19924291646946127,0.1981223778022012,0.2,1,C153C1
1.4963990397439317,0.49928337612235835,0.4906999068481042,0.2,-0.6034696981647666,0.6657716133503383,0.2,-1.0036632535225793,1.4486859511951347,0.2,-0.004355199779040039,1.6767187136081212,0.2,0.49979635476094547,0.5658435350600621,0.24480000000000002,-0.1993959853067753,0.007917171748066804,0.2,1,C153C1
1.5044011736463059,0.5022026197371195,0.458168299946899,0.2,-0.5980294199568239,0.9266781710688121,0.2,-0.9920570733545645,1.3951036779305397,0.2,0.007416734412167137,1.2803031595270733,0.2,0.5016015492035178,0.3446628428830332,0.2452,-0.1991162417214922,0.1666691266871828,0.2,1,C153C1
1.5124033075486798,0.5066140689215087,0.2828467261955653,0.2,-0.5886428474276656,0.8461014013444248,0.2,-0.9813415946756907,1.0993100884997553,0.2,0.016129650773393137,1.7354811280101476,0.2,0.505310960247074,0.30660495410718414,0.2456,-0.19672927927978037,-0.02897200238328318,0.2,1,C153C1
1.5204054414510537,0.5067281673562486,-0.08380708027540262,0.2,-0.5844917975353131,0.7239638691292973,0.2,-0.9744681119385684,1.0993678994699467,0.2,0.0351844324603295,2.007926083907509,0.2,0.5065072284692328,0.3052811505493275,0.246,-0.19957979375962473,-0.08929980618545448,0.2,1,C153C1
1.5284075753534276,0.5052731556371023,0.05011834022369821,0.2,-0.5770594255215968,0.9964966584195406,0.2,-0.9637517082841716,1.3367903841489184,0.2,0.048256468115913276,1.3471979888064964,0.2,0.5101954586558632,0.5550067152433266,0.2464,-0.19815807617874764,0.11275484397051637,0.2,1,C153C1
1.5364097092558016,0.5075300607998278,0.27243607157507316,0.2,-0.5685478510006005,0.7927090501813061,0.2,-0.9530794657921857,1.0498396503679162,0.2,0.05673960028123344,1.7511270349654116,0.2,0.515387335913126,0.4611927062816573,0.24680000000000002,-0.19777571625609647,0.07472298782312294,0.2,1,C153C1
1.5444118431581757,0.5096321327823035,0.2504291631808542,0.2,-0.5643760807186959,0.8232348602152245,0.2,-0.9469542738782849,1.184347317076423,0.2,0.07627450067535986,1.844396718350745,0.2,0.5175745419563698,0.3791886403696765,0.2472,-0.19696250837357768,0.23375074758939796,0.2,1,C153C1
1.5524139770605496,0.5115369274107214,0.2693095269252349,0.2,-0.5553760932371569,0.9775651912613189,0.2,-0.934129908718963,1.1691551396695241,0.2,0.08624994777484536,1.3956630156368053,0.2,0.5214543541590408,0.7955659584762131,0.24760000000000001,-0.1940357042946661,0.18250279167942446,0.2,1,C153C1
1.5604161109629235,0.5139410852131072,0.04371033276959896,0.2,-0.5487350376585148,0.59996202198144,0.2,-0.9282477916435725,1.2946379792528397,0.2,0.09860510892554875,1.717995697940202,0.2,0.5303035972919892,0.3910238567247232,0.248,-0.19404246370670689,0.09847064893489174,0.2,1,C153C1
1.5684182448652975,0.512236292735035,0.13313439732771243,0.2,-0.5457767008854538,0.7389430841798702,0.2,-0.9134157010509175,1.271195882427009,0.2,0.1137378789418886,1.7455361163165126,0.2,0.5277107358666364,0.043395046144291405,0.2484,-0.19246017391170783,-0.4041142770394336,0.2,1,C153C1
1.5764203787676716,0.5160712355703506,0.042265012452046,0.2,-0.5369119483116369,1.0759561713352128,0.2,-0.9079086575247404,1.0742433740039552,0.2,0.12653368678661295,1.4619431676740875,0.2,0.5309979180302978,0.7121645347977975,0.24880000000000002,-0.20050829213933782,-0.3173293306813086,0.2,1,C153C1
1.5844225126700455,0.5129125329342678,0.2922301886817899,0.2,-0.5285614021440904,0.7842185974150303,0.2,-0.8962278070668542,1.253686911856372,0.2,0.137128969624674,1.6823868312509562,0.2,0.5391053684234012,0.25873255921435995,0.2492,-0.19753744320260877,0.297553212190816,0.2,1,C153C1
1.5924246465724194,0.5207469185892593,0.4466255766297639,0.2,-0.5243644507529964,0.627805270947121,0.2,-0.8878496669350384,1.1803341407139316,0.2,0.15345187608662825,1.459945708148596,0.2,0.5351376389777276,-0.09280384362626154,0.24960000000000002,-0.19574744074428477,0.33594612872767277,0.2,1,C153C1
1.6004267804747934,0.520058542160344,0.12301993751503287,0.2,-0.5185165178089365,0.7028531857213235,0.2,-0.8773424608154313,1.2016628910770308,0.2,0.16048810095505153,1.3391102357694413,0.2,0.537620506925381,0.4844752587418108,0.25,-0.192162305142966,0.2830835546871729,0.2,1,C153C1
1.6084289143771673,0.5227152375894998,0.039920490496850314,0.2,-0.5131187997814552,0.7073435168234373,0.2,-0.8686230606778059,1.2313673566611698,0.2,0.1748776398589393,1.8701379740481034,0.2,0.5428892431175966,0.18006004329127606,0.2504,-0.19121810386929,0.0031722055794172754,0.2,1,C153C1
1.6164310482795414,0.5206972700082936,0.25026546885685563,0.2,-0.5071990215397615,0.7661973071138514,0.2,-0.8576405831088526,1.2070224121858986,0.2,0.1904103085398212,1.642785749566873,0.2,0.5405014676180414,0.4848925605689808,0.2508,-0.19211154985369533,-0.1403105268390093,0.2,1,C153C1
1.6244331821819153,0.5267194850912095,0.4547261490119858,0.2,-0.5008596428676336,0.855169150536142,0.2,-0.8493107020828315,1.08443270249,0.2,0.20116221185200928,1.322140020041565,0.2,0.5506475240867003,0.9612406197768916,0.25120000000000003,-0.19346307229871415,0.30097884192617147,0.2,1,C153C1
1.6324353160842893,0.5279728883924854,0.40815092133178466,0.2,-0.4935163151311832,0.5727989495493413,0.2,-0.8402896598690126,1.0529543490091358,0.2,0.21156454886048623,1.1162594962990067,0.2,0.5558813175344717,0.2077771052359581,0.2516,-0.18729588838287659,0.4217628793592807,0.2,1,C153C1
1.6404374499866632,0.533249899832518,0.26137777846974714,0.2,-0.49169485967484416,0.41839574667535545,0.2,-0.8324634324986854,0.9326194005891686,0.2,0.21902236379279338,1.4576688540362277,0.2,0.5539719577704756,0.21951198822127427,0.252,-0.18671486622896566,-0.37204399789446224,0.2,1,C153C1
1.648439583889037,0.5321549328480013,-0.01563751175392286,0.2,-0.4868219831843775,0.8647078784132338,0.2,-0.8253677494595859,1.1360776423421093,0.2,0.23488725052506587,1.8050914834837808,0.2,0.5593935093460121,0.1582091153154927,0.2524,-0.19324859234918798,-0.23905499638957398,0.2,1,C153C1
1.6564417177914113,0.5329996996444553,0.2538724519293642,0.2,-0.4778595336202324,0.8303273837356601,0.2,-0.8142861902212116,1.205756884650265,0.2,0.24790382752853388,1.1582542603437787,0.2,0.5565033036155235,0.16618517012589873,0.2528,-0.19053974617119884,0.47017910959813375,0.2,1,C153C1
1.6644438516937852,0.5362168920788711,0.0316996862395405,0.2,-0.47353674504460697,0.7355555535333534,0.2,-0.8060756393051817,0.9604166801005787,0.2,0.25341931869056633,1.0095861895357983,0.2,0.5620524720680264,0.5101188872867409,0.25320000000000004,-0.18572572659561784,0.09477231107793936,0.2,1,C153C1
1.672445985596159,0.5335068946242879,-0.02023519787204553,0.2,-0.46609064476369877,0.7089420512491479,0.2,-0.7989195233396024,0.6481382705493671,0.2,0.26405720656110665,1.2480391713249015,0.2,0.5646652058121113,0.4008170323965138,0.2536,-0.1890233891939518,-0.1159820659129198,0.2,1,C153C1
1.680448119498533,0.5358931289129184,0.13746620290532724,0.2,-0.4621936722246206,0.4235540496053021,0.2,-0.7957054269763918,0.5919967878885365,0.2,0.27338794543176476,1.3011549892703902,0.2,0.5684655445863707,0.4978828532021043,0.254,-0.18758143965022456,0.12193561416201128,0.2,1,C153C1
1.6884502534009072,0.5357063538707731,0.22741744489073595,0.2,-0.45931377997001394,0.5238187018141681,0.2,-0.7894475747333858,0.8612088214920501,0.2,0.2848756863894329,1.1594372854071555,0.2,0.572631331463345,0.23715664315966667,0.2544,-0.18707241936735963,-0.00232986443027966,0.2,1,C153C1
1.696452387303281,0.5395318080311702,0.2663585718510192,0.2,-0.4538125729955939,0.5879099083426139,0.2,-0.781926085832519,1.1199913141304307,0.2,0.29193894199827924,1.2016234842717848,0.2,0.5722600508769253,0.2097592951195021,0.2548,-0.18761871748110903,0.08077612765521915,0.2,1,C153C1
1.704454521205655,0.5399680910203895,0.18713692865427595,0.2,-0.4499072214365321,0.8754430386061148,0.2,-0.7715277137072989,0.8542302473052432,0.2,0.30410166213778145,1.1090014496706533,0.2,0.575987480185257,0.49819090733855403,0.25520000000000004,-0.18578000132487613,0.012165054493792904,0.2,1,C153C1
1.712456655108029,0.5425259988896386,-0.003114121117128721,0.2,-0.43980548437789607,0.8449229779180153,0.2,-0.7682584018756351,0.6975363524718072,0.2,0.3096829651930097,1.036684949686284,0.2,0.5802311053943422,0.1256594414346182,0.2556,-0.18742407660920835,-0.07346236819469852,0.2,1,C153C1
1.7204587890104028,0.5399182650825154,0.040869525075808155,0.2,-0.43638845378984387,0.22509272037481848,0.2,-0.76036713206775,0.9180836332478223,0.2,0.320688621332762,1.213505732643571,0.2,0.5779980312482109,-0.08146377132247501,0.256,-0.1869553992159913,0.12287704103128815,0.2,1,C153C1
1.728460922912777,0.5431799112908515,0.4868566543124106,0.2,-0.436204000851899,0.06719226402846293,0.2,-0.7535690637436699,0.7609771508147664,0.2,0.32909905691530683,0.9950551339016067,0.2,0.5789276850531826,0.4107313367559193,0.2564,-0.18545804395270774,0.04735161210489558,0.2,1,C153C1
1.736463056815151,0.547707971551514,0.2267573705979839,0.2,-0.43531337756538846,0.3299515588137958,0.2,-0.7481914976547137,0.4612733216216858,0.2,0.3366095034751877,0.7304457594696917,0.2,0.5845697326363056,0.6322127733969021,0.25680000000000003,-0.18619777342231297,0.20605967339729253,0.2,1,C153C1
1.7444651907175248,0.5468080292204193,0.022547561794449,0.2,-0.43092477591087824,0.313080611586556,0.2,-0.746188690597723,0.7035018225049344,0.2,0.3407861890668219,0.9845241355516849,0.2,0.589043089427533,0.1576000820293702,0.25720000000000004,-0.18216108917835105,0.49811814808656435,0.2,1,C153C1
1.7524673246198987,0.5480687325402251,0.27549864542082,0.2,-0.43030408778000356,0.2418668200024343,0.2,-0.7369354684946348,0.635488075053911,0.2,0.35236188964401466,0.853936001366986,0.2,0.5870913339487756,0.10602021833946984,0.2576,-0.17822788305292794,0.005897923789178333,0.2,1,C153C1
1.7604694585222727,0.5512160075471524,0.4052555090126031,0.2,-0.4270549067908393,0.7565297097777528,0.2,-0.7360208813968604,0.5517637130103905,0.2,0.3544491650886937,0.3957566009465535,0.2,0.5907394129209645,0.27891356321915056,0.258,-0.1820667223977242,0.007825356758568366,0.2,1,C153C1
1.7684715924246468,0.5545528206844268,0.14226091573814326,0.2,-0.4181996124235595,0.5611579923160137,0.2,-0.7281072490864685,0.7098951128088545,0.2,0.3586939952591595,0.7134522158541885,0.2,0.591553950960282,0.1464982160838263,0.2584,-0.17810267734479085,-0.027401298905341265,0.2,1,C153C1
1.7764737263270207,0.5534921821989627,0.10424339522997761,0.2,-0.4180763789137831,0.10666718800094593,0.2,-0.7246625595919187,0.26536826428968235,0.2,0.3658644005423607,0.6795691590651166,0.2,0.5930833843783058,-0.011761029013623858,0.25880000000000003,-0.18250514318020966,-0.07757244393118666,0.2,1,C153C1
1.7844758602293946,0.5562207150081064,0.4226138838826013,0.2,-0.4164929374155444,0.47885975192356667,0.2,-0.7238613568578336,0.521072472247537,0.2,0.3695671018042014,0.7239789004189583,0.2,0.591365774496064,0.14947931575828854,0.25920000000000004,-0.17934383644768984,0.18793766268641876,0.2,1,C153C1
1.7924779941317686,0.5602540043410843,0.0792785952146921,0.2,-0.410414622883006,0.37404052172135965,0.2,-0.7163254000359581,0.7076256822843296,0.2,0.377448062949064,0.7705035098879327,0.2,0.5954750534304384,0.17276889486179253,0.2596,-0.17949814057722696,-0.042930250653988936,0.2,1,C153C1
1.8004801280341425,0.5574891725315415,0.11232043055095509,0.2,-0.41050828906800263,0.33076602357862483,0.2,-0.7125393459412843,0.4476981089484161,0.2,0.3818951579624083,0.3925750855582714,0.2,0.5941300768138527,-0.17029021422092228,0.26,-0.18003072045815366,-0.09248221468346161,0.2,1,C153C1
1.8084822619365166,0.5620511312298996,0.3648425596176133,0.2,-0.405122366505748,0.09773163958570752,0.2,-0.7091622302927835,0.3448547239561506,0.2,0.38372926431799637,0.6469174128685834,0.2,0.5927504100029036,0.32293959020694013,0.2604,-0.18097785601216235,-0.002852162242156578,0.2,1,C153C1
1.8164843958388905,0.5633266534854233,0.19705620553795572,0.2,-0.4089445828346313,0.108993215978858,0.2,-0.7070216703579859,0.04398611339898745,0.2,0.39224583656830564,0.6107835276435887,0.2,0.5992971102571637,0.15503977848581318,0.26080000000000003,-0.18007635505402816,0.15408523298187335,0.2,1,C153C1
1.8244865297412645,0.5652040305185069,0.3517731259994397,0.2,-0.4033784750500863,0.31396217421137546,0.2,-0.7084584524783997,0.08208221469763188,0.2,0.3935018007602938,0.11358955879180177,0.2,0.5952310464586766,0.210062410871098,0.26120000000000004,-0.17851249228445237,0.303524198568059,0.2,1,C153C1
1.8324886636436384,0.5689550235014144,0.0712334038570489,0.2,-0.4039211880472493,-0.013081426489834624,0.2,-0.7057083549228238,0.41856537513889486,0.2,0.39406326950897447,0.21926607854396915,0.2,0.6026581088311013,0.09914786933357816,0.2616,-0.17521996787693922,0.1145553136146036,0.2,1,C153C1
1.8404907975460125,0.5663437649802197,0.06768723332887389,0.2,-0.40358777787392364,0.2628049650593815,0.2,-0.7017614064761774,0.317855531580806,0.2,0.3970100580169973,0.23409856560867304,0.2,0.5968174123680139,-0.407308495734407,0.262,-0.17667960726661872,-0.03724234176880059,0.2,1,C153C1
1.8484929314483864,0.5700380192346763,0.28447309566944495,0.2,-0.3997163086062992,0.2770064387983724,0.2,-0.7006226664175309,-0.023043432603869762,0.2,0.39780884655871324,0.1427067109079569,0.2,0.5961411728993508,0.1725244056926742,0.2624,-0.17581584534524003,0.09006585964880381,0.2,1,C153C1
1.8564950653507604,0.5708953345109308,0.09539949345650084,0.2,-0.3991556748531497,0.12369050475313087,0.2,-0.7021301013978393,0.11290372454320075,0.2,0.3992933653915246,0.26984137978495676,0.2,0.5995778028590967,0.10763162600841564,0.26280000000000003,-0.17523855351223785,-0.018953645169447753,0.2,1,C153C1
1.8644971992531343,0.5715644111299804,0.08451646940563218,0.2,-0.3977372605302491,-0.12876762591991844,0.2,-0.6988162068248397,0.3642139015655743,0.2,0.40212630863527254,0.12834265080097912,0.2,0.5978632789154854,0.0549730730587672,0.26320000000000005,-0.1761191036679512,-0.04864617498269268,0.2,1,C153C1
1.8724993331555082,0.5722475980214209,0.3000529549114436,0.2,-0.4012159568678684,-0.203335912056294,0.2,-0.6963026789727901,-0.025201282819770077,0.2,0.40134684780434027,-0.3834071207447602,0.2,0.600457372028037,0.16807849398266933,0.2636,-0.17601689231196094,0.15399115745013195,0.2,1,C153C1
1.8805014670578823,0.5763652584085635,0.35679528058112087,0.2,-0.4009906351231498,0.07833003561923124,0.2,-0.699219427349956,0.01615044160997725,0.2,0.3959917947033564,-0.1988975893000601,0.2,0.6005525348192081,-0.27133706467034197,0.264,-0.17365524514874908,0.013188907989089213,0.2,1,C153C1
1.8885036009602563,0.5779563225107188,0.13420464965639006,0.2,-0.3999626762979607,-0.27254407062349617,0.2,-0.6960442719070304,-0.1957631445542174,0.2,0.3981644863755393,0.31149864636374064,0.2,0.5961159789933115,-0.03842809092889643,0.2644,-0.1758058697841355,0.11665335345117066,0.2,1,C153C1
1.8965057348626302,0.5785125328030657,0.19548043305563784,0.2,-0.40535134025312575,-0.15122178337358128,0.2,-0.7023516376628235,-0.31270395198013806,0.2,0.40097577304517623,-0.11218477316183098,0.2,0.5999376853643458,0.1661074275700683,0.26480000000000004,-0.17178879149353035,0.13673002006501891,0.2,1,C153C1
1.904507868765004,0.581084009439609,0.281964781268379,0.2,-0.402382224831938,0.2722498594340608,0.2,-0.7010475351387127,-0.15195124534310434,0.2,0.39636953000495,-0.33764714290805686,0.2,0.5987736978344326,-0.3797021861393565,0.26520000000000005,-0.1736181894630952,-0.10146766099367217,0.2,1,C153C1
1.912510002667378,0.5830239693033598,0.16745515142149725,0.2,-0.4009953425021808,-0.2676223691390582,0.2,-0.7047828575883132,-0.4187198830140071,0.2,0.3955734187586473,-0.14775759577445938,0.2,0.5938624503861161,0.017046210756890834,0.2656,-0.1734122740694291,0.10304140809822698,0.2,1,C153C1
1.9205121365697522,0.583763291862353,0.35941800646648037,0.2,-0.4066641827381629,-0.27916429419439986,0.2,-0.7077470532669368,-0.3407753739959746,0.2,0.39400540847255866,-0.5156649518763962,0.2,0.5990464372065428,0.2888900035742034,0.266,-0.17196952693352358,0.15105324350450297,0.2,1,C153C1
1.928514270472126,0.5887746574068234,0.23774037326045744,0.2,-0.40546197120929117,0.05231887401311794,0.2,-0.7102352635722488,-0.37216709005605947,0.2,0.387322779528625,-0.21005611194376342,0.2,0.5984846904433033,-0.336138854906215,0.2664,-0.17099542217335706,0.0672211630660842,0.2,1,C153C1
1.9365164043745,0.5875671378345203,-0.05193948680598526,0.2,-0.405827080753953,-0.14734524205759977,0.2,-0.7137017267078337,-0.3071660687241143,0.2,0.39064451068145845,-0.2546175716209159,0.2,0.5936682155280434,-0.05845015506063256,0.26680000000000004,-0.17089398832446623,-0.12370757865137229,0.2,1,C153C1
1.944518538276874,0.5879436256179277,0.18127810113261617,0.2,-0.40781949508221277,-0.22051221060393617,0.2,-0.7151499206718346,-0.10026459757553341,0.2,0.38324889838269033,-0.8491960195548022,0.2,0.5975494879623332,0.327817477015227,0.26720000000000005,-0.17297474343177902,0.00112246524547506,0.2,1,C153C1
1.9525206721792479,0.5904675874526422,0.2734556479051936,0.2,-0.409355276123616,-0.10086275150734611,0.2,-0.7153059602690423,-0.06414999319569875,0.2,0.3770573743685816,-0.6116961622457707,0.2,0.598913295160287,-0.25681388773377,0.2676,-0.17087602888053863,0.1174006613257235,0.2,1,C153C1
1.960522806081622,0.5923189159844108,0.1630531936056001,0.2,-0.4094332991063303,-0.3753966474054036,0.2,-0.7161763205629658,-0.6569893328007073,0.2,0.373461759786758,-0.2951689937709459,0.2,0.5934404657585929,-0.3694512099855149,0.268,-0.17109633285056744,0.19081212222478092,0.2,1,C153C1
1.968524939983996,0.5930764385503318,0.212712235653445,0.2,-0.41536162248210245,-0.6370512670037902,0.2,-0.7258177895938536,-0.614318735071076,0.2,0.3723346704682465,-0.7039063501816829,0.2,0.5930020758005188,-0.23309282429033462,0.2684,-0.16782303492494213,0.2839062757783745,0.2,1,C153C1
1.9765270738863698,0.5957223117548659,0.4700926576382061,0.2,-0.41962611937839095,-0.45135580603187714,0.2,-0.726005420324103,-0.4129878260108605,0.2,0.36219925818385107,-0.5587038962421402,0.2,0.5897109805699475,-0.45983740305163834,0.2688,-0.16655383243811345,0.07316583247211558,0.2,1,C153C1
1.9845292077887438,0.6005979210725431,0.059635878126816644,0.2,-0.4225833153786125,-0.40869337885766216,0.2,-0.7324255948100273,-0.573645870042265,0.2,0.36339540812837223,-0.6746980893619359,0.2,0.5856446773516926,-0.047643742745420714,0.26920000000000005,-0.16665238160538828,-0.06477727587322381,0.2,1,C153C1
1.992531341691118,0.596676485804895,-0.0650984122084336,0.2,-0.42616521344011354,-0.3006434835444958,0.2,-0.7351837542447792,-0.5005906171060837,0.2,0.3514040887540601,-1.0971582448067383,0.2,0.5889486806860208,0.0005595500693206246,0.2696,-0.16759026885208503,0.06285465733955539,0.2,1,C153C1
2.0005334755934916,0.5995563464772081,0.35029419479876145,0.2,-0.4273936111153244,-0.1882890341460483,0.2,-0.7404350446837247,-0.5991139928001529,0.2,0.3458408762114644,-0.864703994112908,0.2,0.5856536301528017,-0.0241483764755121,0.27,-0.1656467070879554,-0.01690671326923937,0.2,1,C153C1
2.0085356094958655,0.6022811929216751,0.2785789381378606,0.2,-0.4291778379864503,-0.4373480917126311,0.2,-0.7447695781295817,-0.7114411440791792,0.2,0.33756882484825357,-1.1210899027201195,0.2,0.5885623066624126,-0.11304565376456938,0.2704,-0.16786077626439286,0.18926192400093958,0.2,1,C153C1
2.01653774339824,0.6040136094874139,0.05930823778711736,0.2,-0.4343911805827265,-0.5739196894958936,0.2,-0.7518181029889915,-0.7349894980679117,0.2,0.3279034377679425,-0.8502167034081312,0.2,0.5838448996925686,-0.38219516476210164,0.27080000000000004,-0.16261851630394036,0.3129125482430311,0.2,1,C153C1
2.024539877300614,0.603230124726269,0.1800554074213867,0.2,-0.4383605530183846,-0.302613610110438,0.2,-0.7565294100986683,-0.7800875904177551,0.2,0.32396535759372347,-0.8552357063498911,0.2,0.582447184026219,-0.23312041779686987,0.2712,-0.16285417549250436,0.0837923659546512,0.2,1,C153C1
2.0325420112029877,0.6068944960061561,0.31408512839024155,0.2,-0.43923299834449353,-0.5168951974915056,0.2,-0.7642995044356756,-0.8521753996379929,0.2,0.31421966646634425,-0.9082237087562027,0.2,0.5801149730078187,-0.44976166577544163,0.2716,-0.16127783844866594,-0.006934840810338128,0.2,1,C153C1
2.0405441451053616,0.6082554867805129,0.39115696753233564,0.2,-0.4466308761782487,-0.7771430328509382,0.2,-0.7701642164928761,-0.8496131662932351,0.2,0.3094337782536242,-1.0305787571420026,0.2,0.5752509973738119,-0.3585514014817215,0.27199999999999996,-0.16296513294546977,-0.227470149378765,0.2,1,C153C1
2.0485462790077356,0.6131530074866735,0.21561827364598163,0.2,-0.45166728687010854,-0.41575447782471464,0.2,-0.7778933150963674,-0.5898112397022744,0.2,0.2977304063520722,-1.3623975999195632,0.2,0.5743781505841111,-0.17814574797131444,0.27240000000000003,-0.16491736083872618,0.25995713919265556,0.2,1,C153C1
2.0565484129101095,0.6117053791588486,-0.026608752543330616,0.2,-0.45328294782344414,-0.38466596575997825,0.2,-0.7796011963281125,-0.6944732549057642,0.2,0.2876354166549112,-1.1779169557231197,0.2,0.5724006654062709,-0.3146480683545311,0.2728,-0.15880581871838728,0.10052642709224707,0.2,1,C153C1
2.0645505468124834,0.6127272674459802,-0.0579530377657414,0.2,-0.4578219423222682,-0.7257114591011012,0.2,-0.7890048871748596,-1.1158873777501188,0.2,0.2788837350605023,-1.0645964329969864,0.2,0.5693437814904386,-0.14987944449283697,0.27320000000000005,-0.16330893800525023,-0.33167420470191744,0.2,1,C153C1
2.0725526807148573,0.6107781305545967,0.09982342011291556,0.2,-0.46489433116906176,-0.8694154815049315,0.2,-0.7974553943721144,-1.0520026569033822,0.2,0.27060187372695943,-0.9280984837023789,0.2,0.5700025942943855,-0.43556645468633554,0.2736,-0.16411260599361796,0.2388603431789874,0.2,1,C153C1
2.0805548146172312,0.6143244421677868,0.27390834340855486,0.2,-0.4717325900263471,-0.5862822216005821,0.2,-0.8058369296853137,-1.019004133216303,0.2,0.26403415932126423,-0.9950370986488155,0.2,0.5623747182154573,-0.5378481917877528,0.274,-0.15948717251438643,0.5154424234499293,0.2,1,C153C1
2.0885569485196056,0.6151606640491336,0.3140703144374271,0.2,-0.4742748467146711,-0.5664474520993764,0.2,-0.8137594605035753,-0.9789386336582564,0.2,0.2546812801485784,-1.48686937051218,0.2,0.5613970232257814,-0.0721577889202657,0.2744,-0.1558655272184191,-0.018548224580233058,0.2,1,C153C1
2.0965590824219795,0.6193495671987856,0.3719092894193185,0.2,-0.4807957492599371,-0.7964082283087142,0.2,-0.8214999478238458,-1.12395441761641,0.2,0.24024424939306935,-1.4131926471831149,0.2,0.561220193592733,-0.28419916545081164,0.27480000000000004,-0.15978394410767016,-0.1591129909456184,0.2,1,C153C1
2.1045612163243534,0.6211112126798427,0.1876245556026307,0.2,-0.4870173783676105,-0.8745384840960698,0.2,-0.8317427311854378,-0.786955720818501,0.2,0.23207019779364854,-1.3075824762271826,0.2,0.5568498365785685,-0.29079605793369545,0.2752,-0.158411335073549,0.11697374829789178,0.2,1,C153C1
2.1125633502267274,0.6223515600884277,0.2816583871238648,0.2,-0.49478836500547424,-0.6379837563345557,0.2,-0.8340912393569418,-1.0106784951581447,0.2,0.21932292977343443,-1.6245338311840183,0.2,0.5565674566657939,-0.19059250657701976,0.2756,-0.1579123641349039,0.14742774556653418,0.2,1,C153C1
2.1205654841291013,0.6256177468738245,0.2349637950756281,0.2,-0.4972251184689634,-0.3443940087416129,0.2,-0.8479135871079682,-1.1257430980482346,0.2,0.20607765649470425,-1.4202842004523153,0.2,0.5538003564733361,-0.598437606665253,0.27599999999999997,-0.15605249114448444,0.044332261577162066,0.2,1,C153C1
2.128567618031475,0.6261109808096378,0.09579621572471803,0.2,-0.50029866914534,-0.8144219702184325,0.2,-0.8521031289257136,-1.0345704304360257,0.2,0.19659838256619738,-1.6239812345850355,0.2,0.5469924549591498,-0.42835331859695375,0.27640000000000003,-0.1572030479496693,0.07704184111594417,0.2,1,C153C1
2.136569751933849,0.62715048632542,-0.21129332847170945,0.2,-0.5102558699924583,-0.9438780347980208,0.2,-0.8644667139949446,-1.1953225274602408,0.2,0.18009395674134368,-1.4305340261081823,0.2,0.5469467033757849,-0.19481225674238684,0.2768,-0.15481982168662933,0.011583265854021862,0.2,1,C153C1
2.144571885836223,0.6227302875540904,0.1224993446935635,0.2,-0.5154007177021084,-0.4117499063224575,0.2,-0.8712282893650775,-1.082216104613981,0.2,0.17370983814846647,-1.2977303333079233,0.2,0.5438754588512716,-0.6226387208327633,0.27720000000000006,-0.15701771569600495,-0.12313767384559623,0.2,1,C153C1
2.152574019738597,0.629110475840517,0.626889916239999,0.2,-0.5168438684936176,-0.8384661936876106,0.2,-0.8817821716687683,-1.2428353437883148,0.2,0.1593302714084169,-1.6719331960391923,0.2,0.5369844838424607,-0.6558034096185924,0.2776,-0.15679002446815887,0.188455780077831,0.2,1,C153C1
2.160576153640971,0.6327605262139304,0.5237164084228169,0.2,-0.5288161768011101,-1.4154926818030975,0.2,-0.8911136548656905,-1.0577379437014325,0.2,0.1469589070118394,-1.6944376580617215,0.2,0.5333826042973742,-0.09932782458777628,0.278,-0.15400242321475965,-0.00328845572305711,0.2,1,C153C1
2.1685782875433453,0.6374899383752821,0.22490609582732218,0.2,-0.5394917514024672,-0.6618236083719489,0.2,-0.8987059787679912,-1.295862873633105,0.2,0.13221926887942936,-1.5279085783643032,0.2,0.5353952386490562,-0.24112306682061435,0.2784,-0.1568426397597278,0.009618376116071747,0.2,1,C153C1
2.176580421445719,0.6363590237471676,0.006063014804089106,0.2,-0.5394053545350613,-0.5034961857575959,0.2,-0.9118474608438202,-1.2068643231952363,0.2,0.12251236975801054,-1.5258206973342128,0.2,0.5295246352282443,-0.49323988302898275,0.27880000000000005,-0.1538485291969025,0.08372997762267145,0.2,1,C153C1
2.184582555348093,0.6375869466121475,0.25830042139687176,0.2,-0.5475476903745887,-0.6893164912939245,0.2,-0.918015807939115,-1.1046045645824245,0.2,0.10780613772208196,-1.6559298064104198,0.2,0.5275034005205925,-0.4150710796200288,0.2792,-0.15550296011776504,-0.11381679604473456,0.2,1,C153C1
2.192584689250467,0.6404918304895175,0.026538477272117222,0.2,-0.5504344183957641,-0.9172830264784909,0.2,-0.929521133877139,-1.356842216546604,0.2,0.09601749285544382,-1.7791999540525265,0.2,0.5228834979543239,-0.5363728018726172,0.2796,-0.15566959793361826,0.23947987424614325,0.2,1,C153C1
2.200586823152841,0.6380115622485014,0.08160493788608725,0.2,-0.5622242187982446,-0.9219447551719745,0.2,-0.9397252834038606,-1.0620802327786505,0.2,0.07933893845724153,-1.4710401736003744,0.2,0.5189214356906307,-0.46417545038267977,0.27999999999999997,-0.15167128212982675,0.2376455203616408,0.2,1,C153C1
2.208588957055215,0.6417975094956949,0.3698124519351739,0.2,-0.5651855344785157,-0.6030210375698314,0.2,-0.9465144176015974,-1.1115258978296947,0.2,0.07248085007783783,-1.6494397264166867,0.2,0.515456690748201,-0.4707021963964442,0.28040000000000004,-0.151867269607832,0.03899941283202514,0.2,1,C153C1
2.2165910909575888,0.6439285614794642,0.2382719380045889,0.2,-0.5718725553993619,-0.7783203214714041,0.2,-0.9575096977691357,-1.2952237814492853,0.2,0.052947902834574546,-1.7438534955481433,0.2,0.5113902005482875,-0.226558567018878,0.2808,-0.15104729152451435,-0.04001338465424269,0.2,1,C153C1
2.2245932248599627,0.6456098605037683,0.07453812948568506,0.2,-0.5776386596220582,-1.0251906600865779,0.2,-0.967237998104786,-1.2595742887455894,0.2,0.04457919414906754,-1.2179874511458417,0.2,0.511831753675899,-0.4043472596230932,0.28120000000000006,-0.1525074837622999,0.11632593214375847,0.2,1,C153C1
2.2325953587623366,0.6451211715512352,-0.185801177402925,0.2,-0.5882756059607471,-0.9451847518317443,0.2,-0.9776628863890652,-1.411317960748476,0.2,0.03346010361624108,-1.7794031081292807,0.2,0.504920644394318,-0.48083172413874303,0.2816,-0.1491860766102142,0.11160779672440488,0.2,1,C153C1
2.240597492664711,0.6426370416653215,0.10169748866676459,0.2,-0.5927616156513661,-0.6027552734084174,0.2,-0.9898190854767616,-1.3376203579842372,0.2,0.016108744418999045,-1.8640156626595592,0.2,0.5041384460896791,-0.20685961444260464,0.282,-0.1507217590147094,-0.17841849639496296,0.2,1,C153C1
2.248599626567085,0.6467483313699034,0.5657061330655091,0.2,-0.5979196903352818,-0.7879873325880027,0.2,-0.999064812116813,-1.1952808203066698,0.2,0.0036358530136881293,-1.6950802114485086,0.2,0.5016108905632364,-0.31503434473666503,0.2824,-0.15204077255253362,0.05000489295548492,0.2,1,C153C1
2.256601760469459,0.6516883397943697,0.16728597406828055,0.2,-0.6053694129727741,-0.6980998620578979,0.2,-1.0089435786016683,-1.2959701588348762,0.2,-0.011012538964177095,-1.6626203164908746,0.2,0.4990978965738924,-0.5717254104285092,0.2828,-0.14992168072742165,0.1898065506006647,0.2,1,C153C1
2.2646038943718327,0.6494249069549959,0.23967769748562545,0.2,-0.6090892881282082,-0.8068827939387152,0.2,-1.019800334658171,-1.2124348438230652,0.2,-0.022966072050165865,-1.7987665487614448,0.2,0.49246328399638023,-0.4909335996019885,0.2832,-0.14900386774292299,0.1376698830953746,0.2,1,C153C1
2.2726060282742067,0.6555231829541397,0.289796040334786,0.2,-0.6182795376757936,-0.9472747089675145,0.2,-1.0283425361028373,-1.0548150567683545,0.2,-0.039792803744360214,-2.034004240444113,0.2,0.4912429589802606,-0.28004674097530796,0.2836,-0.14771896259789566,0.035734635042279986,0.2,1,C153C1
2.2806081621765806,0.6540616436003525,0.06803284349597705,0.2,-0.6242456834716884,-0.6870883366634495,0.2,-1.0366773755664647,-1.3307468803731293,0.2,-0.055510139897271674,-1.3161740073929893,0.2,0.4879825361407753,-0.2856124413028564,0.284,-0.1484321135822465,-0.14326146175690396,0.2,1,C153C1
2.2886102960789545,0.6566117084500753,0.41676754505838576,0.2,-0.6292729510624088,-0.8137672095720055,0.2,-1.0496344861888074,-1.4750197802068654,0.2,-0.06085158786264804,-1.5140831819581007,0.2,0.4866731599194149,-0.40363413417640254,0.2844,-0.15001114598600612,0.16378409062810934,0.2,1,C153C1
2.2966124299813284,0.6607299243212866,0.24231355418483091,0.2,-0.6372659588248405,-1.2522512262587229,0.2,-1.0602776920497745,-1.2659733384888099,0.2,-0.07973547080860129,-1.842264957364634,0.2,0.48152438999395286,-0.5176953504983928,0.2848,-0.14581156813219676,-0.06300489105053389,0.2,1,C153C1
2.3046145638837023,0.6604887253170326,0.36514168441857675,0.2,-0.6493089706825483,-1.0163213702616345,0.2,-1.0698900596046284,-1.113997002106043,0.2,-0.09032782718048218,-1.3748960913624075,0.2,0.4783900343114406,-0.24614255691293718,0.2852,-0.15101922424281466,-0.0809054007716338,0.2,1,C153C1
2.3126166977860763,0.6665721912719839,0.2490669378015578,0.2,-0.6535271007490266,-0.449770339554581,0.2,-1.0781016440834712,-1.0775649255072017,0.2,-0.10173380827039981,-1.7165885698453391,0.2,0.47758610908334587,-0.4789746518576408,0.2856,-0.1471060545445429,0.40102453535823673,0.2,1,C153C1
2.3206188316884506,0.6644737963218575,-0.02344479683071693,0.2,-0.6565052961154216,-0.6464547413128143,0.2,-1.0871310984127436,-0.9759248164276091,0.2,-0.11779324429800761,-1.9182186834932482,0.2,0.47072643988171836,-0.5771967518160593,0.286,-0.14460283167708288,0.14645330115078783,0.2,1,C153C1
2.3286209655908245,0.6661970745226924,0.22815895594398977,0.2,-0.6638703766100317,-0.7647642227527202,0.2,-1.093716441146313,-1.2311633713301544,0.2,-0.13242530720629178,-1.2789048390767845,0.2,0.4683509610542889,-0.5365642918849257,0.2864,-0.1447628017261303,-0.056740688303153625,0.2,1,C153C1
2.3366230994931985,0.6681243396169614,0.4137761231277348,0.2,-0.6687415236794652,-0.6457418397310468,0.2,-1.106829712354026,-1.3658634628742476,0.2,-0.13825572172323616,-1.186212835089009,0.2,0.46214141121155955,-0.2791377172133708,0.2868,-0.14551068268993333,0.10218752296294563,0.2,1,C153C1
2.3446252333955724,0.6728174924927361,-0.02959326736121093,0.2,-0.6742022460457284,-0.9915224489193408,0.2,-1.115570256552301,-1.0495794055085939,0.2,-0.15140471256771593,-1.817743748257503,0.2,0.463884757578875,-0.1637483806835975,0.2872,-0.14312780135872316,0.1651936050612486,0.2,1,C153C1
2.3526273672979463,0.667650847339182,0.08926959043768085,0.2,-0.6846058828621746,-1.1041029333674346,0.2,-1.1236229828421636,-1.3862277543459922,0.2,-0.1673396216953562,-1.5283020328838748,0.2,0.459521437120622,-0.5692071122842465,0.2876,-0.14286758500895336,0.12653053344452955,0.2,1,C153C1
2.3606295012003202,0.674245805939739,0.20312485780604045,0.2,-0.6918678929796074,-0.7439531985585085,0.2,-1.1377499006218368,-1.2623185949829085,0.2,-0.17585754509385793,-1.4917658757457788,0.2,0.45477744378232704,-0.3013826157519973,0.288,-0.1411033128236107,-0.11874556598230612,0.2,1,C153C1
2.368631635102694,0.6709008450640787,0.24942195934930106,0.2,-0.6965091340391107,-0.7485148982347423,0.2,-1.14382008036189,-0.7541163294052661,0.2,-0.19120787570728867,-1.630399902136261,0.2,0.45469931526859003,-0.3059747820792664,0.2884,-0.14476751406467026,-0.08228122807125114,0.2,1,C153C1
2.376633769005068,0.6782365572893279,0.44439644056724903,0.2,-0.7038441313513633,-0.793783590927348,0.2,-1.149815761892321,-1.1893519247104938,0.2,-0.2019439435280381,-1.5465450159423046,0.2,0.4498818472690588,-0.3214775591148106,0.2888,-0.1424198124727507,0.42189792542862353,0.2,1,C153C1
2.384635902907442,0.6780111881131546,0.20171334640055327,0.2,-0.7092096714939483,-0.5181866165557893,0.2,-1.162849711157258,-1.3615804086924976,0.2,-0.21595259596236555,-1.6068913743901794,0.2,0.44955567432275306,-0.16816826504809437,0.2892,-0.13801714725781228,0.2008569062201919,0.2,1,C153C1
2.3926380368098163,0.6814639708317367,0.32731798747660107,0.2,-0.7121351172162559,-0.6136719487475628,0.2,-1.171601048431401,-1.0285626326781705,0.2,-0.22765420551828097,-1.1220268521135723,0.2,0.44719115502828927,-0.6737550170506298,0.2896,-0.13920610197322764,-0.09704880431058577,0.2,1,C153C1
2.4006401707121903,0.6832482759127803,-0.007333293450338674,0.2,-0.7190284226739093,-0.5629647189240652,0.2,-1.1793067132801087,-0.7516960838510334,0.2,-0.2339050255961827,-1.1779869083143706,0.2,0.438775594049943,-0.6046791663518111,0.29,-0.13956992812678165,0.019455417772814426,0.2,1,C153C1
2.408642304614564,0.6813466381365313,0.18036875387444917,0.2,-0.7211425527190409,-0.6164170039604233,0.2,-1.1836281857730175,-0.7648244547233396,0.2,-0.2465019960513109,-1.5600323896273436,0.2,0.4375162883666603,-0.13718926296356349,0.2904,-0.1388948152888626,0.08508297183397288,0.2,1,C153C1
2.416644438516938,0.6861341759747714,0.16078261853741393,0.2,-0.7288910947372761,-0.7734225016340496,0.2,-1.1915439045556822,-1.1664590592359718,0.2,-0.2588655438302202,-1.376161259126287,0.2,0.43658056584252597,-0.10475758871020951,0.2908,-0.13820860057743808,0.024351862239688216,0.2,1,C153C1
2.424646572419312,0.6839191600331299,0.168090817055426,0.2,-0.7335173127451857,-0.4908340627385391,0.2,-1.202291530720793,-1.0648491550087484,0.2,-0.2685205761973315,-1.3140565953468144,0.2,0.43584016694729694,-0.4791929822304461,0.2912,-0.1385051854930276,0.11078970289863689,0.2,1,C153C1
2.432648706321686,0.6888236290476583,0.3424548618952625,0.2,-0.7367444397410927,-0.6126604795259546,0.2,-1.2085814910358221,-0.877004186358124,0.2,-0.27989044935576923,-1.0701195830569303,0.2,0.42891347812683883,-0.5788180148347983,0.2916,-0.1364359653310599,-0.013015699142603088,0.2,1,C153C1
2.44065084022406,0.6893984378234541,0.23007235436681844,0.2,-0.743319880417601,-0.9030323718318412,0.2,-1.216323597702523,-0.7118273384656565,0.2,-0.2856424895262424,-1.076338163352248,0.2,0.42657907870994016,-0.3392685288091633,0.292,-0.13871343667930924,0.01594625543476294,0.2,1,C153C1
2.448652974126434,0.6925047867175274,0.18125075238132476,0.2,-0.7511929576904022,-0.3676962543217935,0.2,-1.2199707284512726,-0.6661474766085085,0.2,-0.2971118599694052,-1.3187758827896134,0.2,0.4234851816658922,-0.2569567465847376,0.2924,-0.1361808252441037,-0.09718117465696598,0.2,1,C153C1
2.4566551080288077,0.6922984498615553,0.27012952091589465,0.2,-0.7492030204867497,-0.11091064752033475,0.2,-1.2269819573282592,-1.1298611309538964,0.2,-0.3067429036508762,-1.1234246950382678,0.2,0.42246777076458436,-0.11520205405186196,0.2928,-0.1402683354738207,0.17296825801199794,0.2,1,C153C1
2.4646572419311816,0.6968268590521817,0.041038447961036506,0.2,-0.7529675280507275,-0.7852961620233856,0.2,-1.238048506546535,-0.9419626564446809,0.2,-0.3150866550900175,-1.128618755717653,0.2,0.4216419488010624,-0.21413566413942126,0.2932,-0.13341333311591172,0.3311046175577554,0.2,1,C153C1
2.472659375833556,0.6929550650289319,-0.027369878599296793,0.2,-0.7617677590791239,-0.6817064319240146,0.2,-1.242053359831374,-0.3750408103233849,0.2,-0.32480080374235865,-0.7940464558380544,0.2,0.4190416001383536,-0.2493133523786724,0.2936,-0.1349706615928966,-0.2214109493748652,0.2,1,C153C1
2.48066150973593,0.6963889409945929,0.35064426548511024,0.2,-0.7638748309615118,-0.29712454432598984,0.2,-1.2440491595117091,-0.7464693549315699,0.2,-0.32779139838342636,-0.5970816900762766,0.2,0.41765293516300367,-0.30218153251647045,0.294,-0.13695590830590956,0.24788419292014544,0.2,1,C153C1
2.488663643638304,0.6985653732766937,0.21919727487685475,0.2,-0.7665217517883397,-0.35816987708823383,0.2,-1.2539968695102792,-0.9598820121729523,0.2,-0.3343541107835791,-0.8906813652964051,0.2,0.4142066956180901,-0.08494425838448394,0.2944,-0.13100451450617429,0.1628397849831927,0.2,1,C153C1
2.4966657775406778,0.6998960973926226,0.11267389653651927,0.2,-0.7696055489949235,-0.4780383915738082,0.2,-1.2594072717064764,-0.5812914848739165,0.2,-0.34204230022816884,-1.176324022123705,0.2,0.4162938270288519,-0.13971135845582128,0.2948,-0.13435047174617848,0.014747574547115463,0.2,1,C153C1
2.5046679114430517,0.700368155621278,0.4162545654021674,0.2,-0.7741703660535206,-0.745072754487,0.2,-1.2632975332682619,-0.2960148259033707,0.2,-0.35317529513755835,-0.9968996325115282,0.2,0.41197131388279695,-0.26283451068979596,0.2952,-0.13076855331342044,0.1898526194435493,0.2,1,C153C1
2.5126700453454256,0.7065561704390573,0.1646017265732047,0.2,-0.7815267130667155,-0.47471230787629604,0.2,-1.2641435089209303,-0.41368685425630103,0.2,-0.3579926943483533,-0.6158288395010543,0.2,0.4120884748578152,0.08166457190974738,0.29560000000000003,-0.1313128298350817,-0.33960020880250547,0.2,1,C153C1
2.5206721792477995,0.7030017832464492,0.03303938391544664,0.2,-0.7817657629795414,0.014850916828491878,0.2,-1.2699165229363627,-0.580638623130153,0.2,-0.3630285565695752,-0.500480413306116,0.2,0.4132779470333529,-0.018003033843229377,0.296,-0.13620215665426053,-0.23725540993819494,0.2,1,C153C1
2.5286743131501734,0.7070848005817044,0.3138004132221678,0.2,-0.7812890983974596,-0.3944044591057752,0.2,-1.2734337268910128,-0.6728765045724838,0.2,-0.36600038096125115,-0.635604553056831,0.2,0.4118004263163235,-0.33617759664224256,0.2964,-0.1351089163940928,0.25613273306349105,0.2,1,C153C1
2.5366764470525474,0.7080225898580039,0.1905256070556527,0.2,-0.7880762343252338,-0.3928698508733966,0.2,-1.2806825470095224,-0.49374027200575765,0.2,-0.3731982294184845,-0.7283605882262914,0.2,0.40789910548707703,-0.4440567247926165,0.2968,-0.13210403292524467,0.3723668497637705,0.2,1,C153C1
2.5446785809549217,0.7101332102945949,0.09073266451240652,0.2,-0.787575016011434,-0.19755112435292793,0.2,-1.2813335712431049,-0.2476083200960988,0.2,-0.3776541503728718,-0.3419706547456991,0.2,0.40469551871964166,-0.04679139961896034,0.2972,-0.12915104679787248,0.15831734526629107,0.2,1,C153C1
2.5526807148572956,0.7094743124902024,0.14436800325959287,0.2,-0.7912370523148806,-0.19877166240394456,0.2,-1.28464428013106,-0.361953740760132,0.2,-0.3786697598944157,-0.5538336106100661,0.2,0.40715044309317366,-0.08636366947012766,0.29760000000000003,-0.129570955400984,0.00846552391310304,0.2,1,C153C1
2.5606828487596696,0.7124430983467483,0.3173704437605465,0.2,-0.7907553626098971,-0.3384591043695123,0.2,-1.287124831095267,-0.3930646322452547,0.2,-0.38651548814263287,-0.9467406961486298,0.2,0.4033137000081196,-0.33240227467159,0.298,-0.12901559841526283,-0.03542276221819678,0.2,1,C153C1
2.5686849826620435,0.7145522395903712,-0.10289727287342981,0.2,-0.7966523979847928,-0.2411648010813977,0.2,-1.290933314246984,-0.11774933302548252,0.2,-0.3938176110327938,-0.33891097815313964,0.2,0.4018320066984282,-0.14908452041088177,0.2984,-0.13013771959647516,0.04474224941252922,0.2,1,C153C1
2.5766871165644174,0.7107967419807735,-0.08170331015322496,0.2,-0.7946139994271995,0.18503845886380654,0.2,-1.2890088204236747,-0.29178898910978135,0.2,-0.3919380637930831,0.09714560291726806,0.2,0.4009283476815455,0.257253103125573,0.2988,-0.12829972242466237,0.04820759988271445,0.2,1,C153C1
2.5846892504667913,0.7132449866279196,0.4586430677088263,0.2,-0.7936917826429719,-0.19938594547008054,0.2,-1.2956019380727406,-0.5403980974138245,0.2,-0.3922632813861175,-0.19561857081518488,0.2,0.4059480563484374,0.11164261133252487,0.2992,-0.12936639799835173,0.049066865318308714,0.2,1,C153C1
2.5926913843691652,0.7181350310641147,0.34625844040694215,0.2,-0.7978041745547207,-0.2397572568897388,0.2,-1.297655189982296,-0.1112022534728585,0.2,-0.39506796092612606,-0.5547815420931731,0.2,0.4027146294628659,-0.19895040707078662,0.29960000000000003,-0.12751465257956943,0.08634961243140886,0.2,1,C153C1
2.600693518271539,0.7187851216744306,0.26488732022811323,0.2,-0.7975278987532077,-1.1809577669941174e-05,0.2,-1.2973811741283063,-0.04451609891449604,0.2,-0.40113978605960826,-0.16093196837977525,0.2,0.4027648498353048,-0.055732413068172726,0.30000000000000004,-0.1279848041994492,0.2797641973941653,0.2,1,C153C1
2.608695652173913,0.7223732281877645,0.3115011881427224,0.2,-0.7978043635079635,-0.10280547687387814,0.2,-1.2983674475649278,-0.23611927701532032,0.2,-0.39764287242020246,0.09510920671185197,0.2,0.40182291085377514,-0.1796496469536439,0.3004,-0.12303842542126278,0.010740407640600497,0.2,1,C153C1
2.616697786076287,0.7237691406847142,0.05787785420854896,0.2,-0.7991727863831898,-0.048193302237126145,0.2,-1.3011590825605515,-0.045041188168851165,0.2,-0.39961803875221863,-0.3095492168839024,0.2,0.3998904554840465,-0.17831421780537676,0.3008,-0.12781295767719958,-0.03781820252570477,0.2,1,C153C1
2.6246999199786614,0.7232992738551013,0.21742580324075195,0.2,-0.7985754563437575,-0.06660751156510603,0.2,-1.2990881065756295,0.17110651518728592,0.2,-0.4025956598903449,0.013206457239314101,0.2,0.3989698833688891,0.015547849662931462,0.3012,-0.12364351666167406,0.15681740632329624,0.2,1,C153C1
2.6327020538810353,0.7272479535365662,0.2714334354164613,0.2,-0.8002385065682315,-0.07918184836328696,0.2,-1.2984213783175549,-0.04184336873858108,0.2,-0.3994067354363896,0.29999618951889045,0.2,0.4001392210786534,-0.02025255608690754,0.30160000000000003,-0.12530387917602684,-0.03892714297964745,0.2,1,C153C1
2.640704187783409,0.7276422088217647,0.2827593303280432,0.2,-0.7998423659175701,0.025148926109171132,0.2,-1.2997576004754468,-0.003980926187571732,0.2,-0.39779572085804266,0.3865885284232463,0.2,0.3986458424714986,0.14788954742312593,0.30200000000000005,-0.12426635094934842,0.2927820288493371,0.2,1,C153C1
2.648706321685783,0.7317721028218149,0.36483969782887676,0.2,-0.7998361237504847,0.24094997105792576,0.2,-1.298485073136556,0.07245287503941655,0.2,-0.39322131898161766,-0.047652485302265846,0.2,0.4025054538374234,0.104174797440338,0.3024,-0.12061936671443745,0.2538920665977329,0.2,1,C153C1
2.656708455588157,0.7334796439870267,0.20240867203259738,0.2,-0.7959871663806433,0.24195369996975885,0.2,-1.298598354474816,0.18294385851877482,0.2,-0.3985581606228789,-0.1882397818835646,0.2,0.400312639230544,-0.016720372565184882,0.3028,-0.12020407788378469,-0.11133092940742231,0.2,1,C153C1
2.664710589490531,0.7350106415743365,0.16986673725744028,0.2,-0.7959648645509686,0.04666923329046252,0.2,-1.2955579714002556,0.38771483691457664,0.2,-0.3962331554917547,0.410510675486999,0.2,0.40223792787638046,0.21055284419373155,0.3032,-0.1224006615849562,-0.05703823262040355,0.2,1,C153C1
2.672712723392905,0.7361975117831457,-0.09247188749458152,0.2,-0.7952404586479959,0.14923617267472572,0.2,-1.2923949170841829,0.12214209039702884,0.2,-0.3919899898150869,0.2539497923687156,0.2,0.4036814847376437,0.10990194646810433,0.30360000000000004,-0.12111668960571115,-0.039881406627456824,0.2,1,C153C1
2.680714857295279,0.7335310913744232,0.08295636186349264,0.2,-0.793577085788173,0.26346978885249256,0.2,-1.2936036979539032,0.19708780851487862,0.2,-0.39216995881385525,0.29100468331049245,0.2,0.40399635901987013,-0.08955790711066489,0.30400000000000005,-0.12303876409099551,0.18060200431909995,0.2,1,C153C1
2.6887169911976527,0.7375248135729616,0.4918783965929263,0.2,-0.791024942026356,0.11823463902690956,0.2,-1.2892415121479448,0.25622164703117956,0.2,-0.38733391488211905,0.6320126412915454,0.2,0.40224855822387307,0.02198226730249636,0.3044,-0.11822705753660555,0.2812174585688073,0.2,1,C153C1
2.696719125100027,0.74140114571991,0.18842728000167952,0.2,-0.7916853315637424,0.29404414361337144,0.2,-1.2895041516014043,0.48168262585694677,0.2,-0.3820577565531905,0.6672656112453289,0.2,0.4043480752967101,0.08955564906849844,0.3048,-0.1185392847538946,-0.068278126070429,0.2,1,C153C1
