samirx20/RADAR/web/public/data/datasets/overcurrent_j4_22.csv
timestamp,actual_q_0,actual_qd_0,actual_current_0,actual_q_1,actual_qd_1,actual_current_1,actual_q_2,actual_qd_2,actual_current_2,actual_q_3,actual_qd_3,actual_current_3,actual_q_4,actual_qd_4,actual_current_4,actual_q_5,actual_qd_5,actual_current_5,protective_stop,fault_code
0.0,0.20146528040600914,0.300279361136635,0.2,-0.6056071121448897,1.7599252524652942,0.2,-1.0008119632453905,1.219029013888956,0.2,0.0006879844317171022,1.426799554185819,0.2,0.502504754158081,0.11470047949661832,0.2,-0.29955632143559735,0.33110273289364833,0.2,0,
0.008002133902373967,0.20386751529510222,0.2685275300397284,0.2,-0.5915277101251674,0.8774624906445483,0.2,-0.9910597311342788,1.279701193595155,0.2,0.012102380865203655,1.5598065545737623,0.2,0.503422357994054,0.2325463869362332,0.2,-0.29690749957244816,0.0548516704512482,0.2,0,
0.016004267804747934,0.2057617208866448,0.08971614236378926,0.2,-0.5915677122945769,0.6951921409545577,0.2,-0.980336744147868,1.4430531681516867,0.2,0.0256448893048973,1.803203329201022,0.2,0.5062254963490608,0.51341242554373,0.2,-0.2986786947083774,0.024027326757367073,0.2,0,
0.0240064017071219,0.20530297357292285,0.021395618779923575,0.2,-0.5804046358698944,1.1817168284480177,0.2,-0.9679708804438518,1.572939921206301,0.2,0.04095363413242001,1.5768556761106247,0.2,0.5116369568027537,0.399872385334947,0.2,-0.2965230623443303,0.03159301799536898,0.2,0,
0.03200853560949587,0.20610405078712357,-0.11238884770474293,0.2,-0.5726602430394087,0.7843911940845701,0.2,-0.9551697054085672,1.1130254134881987,0.2,0.050874580122667296,1.6333046430555953,0.2,0.5126234545144199,0.36180404190743615,0.2,-0.2981732064204515,0.15297852271254145,0.2,0,
0.04001066951186984,0.20350475200964696,0.12538673474488288,0.2,-0.5678543767645413,0.7945827685801806,0.2,-0.9501624738280406,0.6783941839071036,0.2,0.06708650842130953,1.9463396318109074,0.2,0.5174258214732727,0.4099329103249838,0.2,-0.2940754059809296,-0.0939193225743297,0.2,0,
0.0480128034142438,0.2081102385430417,0.4882329873016934,0.2,-0.5599469187421258,1.2068974751587511,0.2,-0.9443153984660535,1.3602355260881813,0.2,0.08201601423164182,1.672611938555276,0.2,0.5191823810796197,0.30265166671882004,0.2,-0.29967591558164075,0.06291421269973702,0.2,0,
0.05601493731661777,0.21131647980647406,0.2611553301702912,0.2,-0.5485440171620013,0.8161446362034349,0.2,-0.9283987054106297,1.5160855995017124,0.2,0.09384829943819395,1.5386062147878512,0.2,0.5222682481407738,0.608660753353113,0.2,-0.29306877857773384,0.25396150387544875,0.2,0,
0.06401707121899174,0.21228872382576636,0.17408005170867213,0.2,-0.5468886045628708,0.6762837713538972,0.2,-0.9200580288740261,1.1164245447851662,0.2,0.10663371366824743,1.5471649908130654,0.2,0.5289209531332695,0.5248517165194962,0.2,-0.29561253151963357,0.03649209820660859,0.2,0,
0.0720192051213657,0.2141017606338128,0.06964490463945774,0.2,-0.5377234768203389,0.6732248976193955,0.2,-0.9105359126940671,1.2866199985592728,0.2,0.118602939291203,1.630639232927022,0.2,0.5306658756050857,0.3516444195750257,0.2,-0.2924849050064281,0.22758825099021898,0.2,0,
0.08002133902373967,0.21340304229999768,0.164389282354193,0.2,-0.5361170062009605,0.7850570178937616,0.2,-0.8994721088970777,1.03346486085025,0.2,0.1327239413950798,1.5186987239826244,0.2,0.5345472638464699,0.37062462812863933,0.2,-0.29197111950379007,9.805914850252728e-05,0.2,0,
0.08802347292611364,0.2167319891514799,0.4612376876348603,0.2,-0.5251625645340388,0.8884613679237471,0.2,-0.8940004749204631,1.1262641323258813,0.2,0.142902118874925,1.3635252865573932,0.2,0.5365958696551439,0.38999262116698463,0.2,-0.29248333606005206,-0.005393120511454352,0.2,0,
0.0960256068284876,0.22078284530215544,0.059694142116871116,0.2,-0.5219016243141805,0.4369774091033743,0.2,-0.8814518827798636,1.1656923531306873,0.2,0.15454034597999808,1.7649265466756423,0.2,0.5407871457851416,0.1630135781755665,0.2,-0.29205740943197334,-0.13088379293072633,0.2,0,
0.10402774073086157,0.21768709542534984,0.00523827236219819,0.2,-0.5181709259883848,0.8515699541026336,0.2,-0.8753493972703721,1.2630928077792327,0.2,0.17114094362173526,1.7638907477472692,0.2,0.539204086905953,0.24951753542667987,0.2,-0.2945774767469437,-0.2737050569156449,0.2,0,
0.11202987463323553,0.22086665765995062,0.594439257586659,0.2,-0.5082765050485384,0.727628142729711,0.2,-0.8612423978553959,1.3101201798859512,0.2,0.18276259794395439,1.5349589271869604,0.2,0.5447794263519685,0.7784868418370602,0.2,-0.29643669034262365,0.19027136481221743,0.2,0,
0.12003200853560951,0.22719812354673638,0.38449781122610294,0.2,-0.5065288757047094,0.5472864056184426,0.2,-0.8543874743921969,1.0202616136505902,0.2,0.19570028645672663,1.5241913802251787,0.2,0.551659876375346,0.14357812790595503,0.2,-0.2915331349099482,0.22145155022151516,0.2,0,
0.12803414243798347,0.22701862263956826,-0.2013015706059367,0.2,-0.4995199225586433,0.8973821210761096,0.2,-0.8449182120369865,0.9793532361861562,0.2,0.20714966002755725,1.4572071178495534,0.2,0.5470766763984638,0.09078068955877677,0.2,-0.2928934655390794,-0.22578673541621963,0.2,0,
0.13603627634035745,0.2239772984170414,0.010124598763453993,0.2,-0.49217076176749164,0.8899316397434006,0.2,-0.8387178226132184,1.2797079179805229,0.2,0.21901560034231948,1.250952984762287,0.2,0.5531123674082864,0.563825017099527,0.2,-0.2951457226766077,-0.10829664579496343,0.2,0,
0.1440384102427314,0.22718061621978353,0.37199928797312065,0.2,-0.4852810163227489,0.8812024866506271,0.2,-0.8244428853492981,1.0902449482774468,0.2,0.22716490778375384,1.1356171983976406,0.2,0.5560978766720562,0.42633508257335084,0.2,-0.2946262118717988,0.6110625018559829,0.2,0,
0.15204054414510537,0.22992928702461132,0.28432347867285956,0.2,-0.4780715219810816,0.3657510120962416,0.2,-0.8212739034407792,0.6343263757876207,0.2,0.23718547551668173,1.649941567773176,0.2,0.55993372872946,0.19035018792878944,0.2,-0.285368722646912,0.45031681344345414,0.2,0,
0.16004267804747935,0.23172979187854928,0.2874058420399856,0.2,-0.479429000129209,0.5290071820740517,0.2,-0.8142936633366962,0.839578052968748,0.2,0.25356397286812465,1.2724248124105983,0.2,0.5591434796789169,0.2900162772306661,0.2,-0.28742114285670356,-0.31511914233468136,0.2,0,
0.1680448119498533,0.2345277804972511,0.32761699021444796,0.2,-0.4696074070678968,0.7198901918058775,0.2,-0.8078406545932793,1.050744833846623,0.2,0.2575442725152513,0.9868853351111747,0.2,0.5645739891651507,0.6982039911827137,0.2,-0.2904106289242669,0.10739082364821101,0.2,0,
0.17604694585222727,0.23697166372198045,0.1251853087102378,0.2,-0.467910757060315,0.4365474166735279,0.2,-0.7974817459951502,1.3310749276918208,0.2,0.26935413822990345,1.6127797193664708,0.2,0.5703147435378403,0.28879926972689984,0.2,-0.2857028896783322,0.15395925797529603,0.2,0,
0.18404907975460125,0.2365307454366149,0.14701067172695828,0.2,-0.46262264840112033,0.6232532234065092,0.2,-0.7865434557502101,0.7330162291794562,0.2,0.28334874802511484,1.2433627798349687,0.2,0.5691947774807811,0.16651660580394023,0.2,-0.28794728079666215,-0.1527416330496835,0.2,0,
0.1920512136569752,0.23932383446961178,0.4237320430859875,0.2,-0.45793870548581084,0.7541985965047806,0.2,-0.7857534863282789,0.5479168147278918,0.2,0.28924794270726295,1.0330397939461409,0.2,0.5729790092307033,0.37493551308771106,0.2,-0.2881467558071271,0.06908698788027356,0.2,0,
0.20005334755934917,0.2433104581259907,0.07644888043452716,0.2,-0.45055547085704384,0.7970311338372748,0.2,-0.7777767867145639,1.0430052151593137,0.2,0.2998773847282531,1.1386899916051747,0.2,0.5751937456901844,0.38643570308311004,0.2,-0.2868418889905778,0.22272262274205396,0.2,0,
0.20805548146172315,0.2405470165565642,-0.0034210235426435087,0.2,-0.44518620734441444,0.6635317300724766,0.2,-0.7690654028857299,0.7794779465579507,0.2,0.30746698257294575,0.8119118435137817,0.2,0.5791619804800331,0.19768075585378103,0.2,-0.28458319384325426,0.06415038526704636,0.2,0,
0.21605761536409712,0.2432557217493084,0.22430274795804359,0.2,-0.4399389631758842,0.35578553724224804,0.2,-0.7653051395696366,0.6135221633199391,0.2,0.3128679742244736,1.1844855123583735,0.2,0.5783566377838449,0.26835269976910325,0.2,-0.28581548282630503,-0.34075836738332516,0.2,0,
0.22405974926647107,0.2441358605238929,0.28746752710603374,0.2,-0.4394936387485385,0.3718904805489441,0.2,-0.7592490482726109,1.0158857973755346,0.2,0.3264187507706797,1.1313039276321137,0.2,0.5834556236763387,0.48074814266158006,0.2,-0.29003532772138746,0.05692307750841674,0.2,0,
0.23206188316884505,0.24785520218300494,0.45007608353639716,0.2,-0.4339887154871011,0.7536868583921732,0.2,-0.7490509668116281,0.6945426912397592,0.2,0.3309688370665874,0.9045463653540586,0.2,0.5860486080664302,0.1588743114212393,0.2,-0.28490471358617037,0.40438212607315366,0.2,0,
0.24006401707121902,0.25133707786047527,0.052383298681398655,0.2,-0.4274346490142637,0.498904807526266,0.2,-0.7481363652127747,0.46718743383861866,0.2,0.34089149261634466,0.9518726962324183,0.2,0.5859976126590786,0.013524477959700465,0.2,-0.283565213704217,0.14423558777244133,0.2,0,
0.24806615097359297,0.24869333496190732,-0.13300853782951746,0.2,-0.42600623856668085,0.09892837704043173,0.2,-0.7415759678702102,0.8184495089658058,0.2,0.3461988002063061,0.4983928650187895,0.2,0.5862649997137854,0.031768543629774604,0.2,-0.2825969441818113,-0.13848227946952618,0.2,0,
0.25606828487596694,0.249208941255203,0.3128042154544666,0.2,-0.4258517949816168,0.21464302492883378,0.2,-0.7350411730693218,0.5972292344218338,0.2,0.3488657784566453,0.7244142403127936,0.2,0.586505909357155,-0.10826875175599937,0.2,-0.2857809301757294,0.15885160837611836,0.2,0,
0.2640704187783409,0.2536982024091788,0.3123617804642771,0.2,-0.4225719501678195,0.4616091821045762,0.2,-0.7320203001194608,0.40237815395401805,0.2,0.3577894280513108,1.0578199651125157,0.2,0.5845326996856894,0.4799571883610104,0.2,-0.2800553184477934,0.16391579188765673,0.2,0,
0.2720725526807149,0.2542067297426314,0.233424235786088,0.2,-0.4184660480679436,0.6892833901297953,0.2,-0.7286031226060575,0.5729630166291452,0.2,0.36579089789844554,0.5415667237051308,0.2,0.5941852243709311,0.5058934461302927,0.2,-0.2831582775055269,-0.2332024799460465,0.2,0,
0.28007468658308887,0.2574329901817562,0.18374267857558177,0.2,-0.4115434159257428,0.20689547442252418,0.2,-0.7228528918533945,0.7272868408550944,0.2,0.3664544956305929,0.6777571021454389,0.2,0.5926269948237741,0.11689916676724255,0.2,-0.28378655812693016,0.42361439753720725,0.2,0,
0.2880768204854628,0.25714661259984073,0.05940592701716291,0.2,-0.4151557204771832,-0.10469158053880157,0.2,-0.716966533152376,0.5194350622699517,0.2,0.37663501153277257,0.9691077417690979,0.2,0.596055611039207,0.03337698112579335,0.2,-0.2763804471449316,0.2871908390485213,0.2,0,
0.29607895438783677,0.2583834850140308,0.17116939493436525,0.2,-0.4132184812143636,0.5178612363715696,0.2,-0.7145419308570753,0.25288099448547013,0.2,0.38196021949889847,0.325821139815094,0.2,0.5931610265217868,-0.006916647143077881,0.2,-0.2791915047021538,-0.1866329583410202,0.2,0,
0.30408108829021074,0.2598853229187906,0.05536665194113763,0.2,-0.4068699406952381,0.4623169406510301,0.2,-0.7129204372406085,0.30700023792946257,0.2,0.38184814976981407,0.22786315892173517,0.2,0.5959449446849178,0.22205497378115918,0.2,-0.2793665744783879,0.300152490737296,0.2,0,
0.3120832221925847,0.259269351445089,0.26599616234524237,0.2,-0.4058214101639471,0.2102181142121587,0.2,-0.7096299270502039,0.2744187217261218,0.2,0.38560603004164623,0.594911081204387,0.2,0.5967139061022854,0.11910587121020944,0.2,-0.2743890648503571,0.003406633631228284,0.2,0,
0.3200853560949587,0.26414126151631445,0.44130231543099835,0.2,-0.40350645086784354,0.16578831153119325,0.2,-0.7085297376929905,0.2060238880176729,0.2,0.39136672706908426,0.6270206837823491,0.2,0.5978506386242811,0.08211085017691133,0.2,-0.27931206834028827,-0.2512896686415432,0.2,0,
0.32808748999733267,0.266330188491985,0.18302217725752606,0.2,-0.40316879717944804,0.10765028543102684,0.2,-0.7063335448419211,0.2618062306592103,0.2,0.3956383609821638,0.36353826633089836,0.2,0.5980276797051159,0.23390471880060937,0.2,-0.27840969954862177,0.45465844602105354,0.2,0,
0.3360896238997066,0.26706961635243487,0.2082196287633703,0.2,-0.4017840463009471,0.16416996356062932,0.2,-0.7043408380024432,0.045796107802593966,0.2,0.39718333933037864,-0.021607465336335313,0.2,0.6015931141250909,0.1257854093504665,0.2,-0.2720375332039514,0.057686662358950175,0.2,0,
0.34409175780208057,0.2696617025521989,0.07833670999812456,0.2,-0.40054207776247797,-0.2105446615700106,0.2,-0.7056008071170796,0.21990891787467687,0.2,0.39529264153678245,0.16530557552544428,0.2,0.6000402462547234,-0.12618107332285078,0.2,-0.27748671295087857,-0.289092617822128,0.2,0,
0.35209389170445454,0.26832300371240486,0.3327233985206089,0.2,-0.4051527608860673,0.03784022720662583,0.2,-0.7008222953164484,0.24591324657783492,0.2,0.39982822853878575,0.26818648933150946,0.2,0.5995742169519253,0.22268060829419567,0.2,-0.27666301508910546,-0.03917956143691115,0.2,0,
0.3600960256068285,0.27498527692852864,0.32245345099427347,0.2,-0.39993663412717195,0.20032425243342658,0.2,-0.7016661951718343,0.10533789759716722,0.2,0.3995836253660866,-0.08182432153288136,0.2,0.6036031359874305,-0.053398378350499875,0.2,-0.27811358593386915,0.06991912326691913,0.2,0,
0.3680981595092025,0.27348225892831324,0.041737256712567894,0.2,-0.40194757284713245,0.20085768495102518,0.2,-0.6991368889548937,-0.18113186581275587,0.2,0.39851903939425964,0.37007408353693577,0.2,0.5987198428983173,-0.3232344787632499,0.2,-0.27554430911683475,0.13682969391563826,0.2,0,
0.37610029341157647,0.27565307303592973,0.2893305224516661,0.2,-0.39672291116795555,0.15639192692789086,0.2,-0.7045643050248384,-0.20547653546683364,0.2,0.4055048107026776,0.22471053493288567,0.2,0.5984313843272185,-0.021189320186715266,0.2,-0.27592431083121893,0.05568330171865782,0.2,0,
0.3841024273139504,0.2781115472875399,0.2727310270067354,0.2,-0.3994453020162862,-0.17543512595889765,0.2,-0.702424513522363,0.28556010071968674,0.2,0.4021144079531858,-0.3779373081465413,0.2,0.5983808137753298,0.18557122847498442,0.2,-0.2746533762893362,0.008896817266484947,0.2,0,
0.39210456121632437,0.2800167694680375,0.0033445813426846716,0.2,-0.3995298731832979,-0.1998033121784447,0.2,-0.6999953434133234,0.02772050910201246,0.2,0.3994578137723329,-0.22359199052702367,0.2,0.6014005239828183,0.023470307243235455,0.2,-0.2757819617549552,0.18526520224930454,0.2,0,
0.40010669511869834,0.27816506058902285,3.684103071915912e-05,0.2,-0.4026421550111413,-0.2070775598724678,0.2,-0.7019809853767308,-0.18102776493579553,0.2,0.39853693610475344,-0.23300376607190282,0.2,0.5987563386912216,0.0301555562589248,0.2,-0.27168913305334735,0.285175869613196,0.2,0,
0.4081088290210723,0.280017358924529,0.18284331512248564,0.2,-0.4028431141412574,0.13385366992917438,0.2,-0.7028917876522961,-0.11739388889687313,0.2,0.39572975351518247,-0.32014837594562456,0.2,0.6018830128829611,0.056075400410957044,0.2,-0.27121914784114404,0.051957056715411926,0.2,0,
0.4161109629234463,0.2810905536309826,0.2811698171004684,0.2,-0.4005004962922745,-0.09260635065475725,0.2,-0.7038592875990808,-0.01792228184652883,0.2,0.39341456208962344,-0.3350404559741664,0.2,0.5996535450977969,-0.3465797061283568,0.2,-0.27085782014590076,0.13942448482189007,0.2,0,
0.42411309682582027,0.2845160759981365,0.33569436324397406,0.2,-0.4043248157517335,-0.37527103619630975,0.2,-0.7031785441618406,-0.09472232720553198,0.2,0.3903691062195958,-0.1601151951783758,0.2,0.5963377375849074,-0.09508217884965364,0.2,-0.2689883560839938,-0.15253226276316922,0.2,0,
0.43211523072819424,0.2864616634428862,0.16933564571010307,0.2,-0.4065048328714155,-0.028435542451837187,0.2,-0.7053748448343693,-0.6470125073431005,0.2,0.39085271896676943,-0.3642170534350654,0.2,0.5981322302362024,0.10146414921773789,0.2,-0.27329833635011147,0.01849999523783133,0.2,0,
0.44011736463056816,0.28722544632949815,0.26225835409825204,0.2,-0.4047797844309629,-0.1293935635543024,0.2,-0.7135307442793302,-0.2931146500746648,0.2,0.38454163336463476,-0.3348234011369376,0.2,0.5979611639723912,-0.06089698673442112,0.2,-0.2686923561601885,0.18601076268890543,0.2,0,
0.44811949853294214,0.29065779710845824,0.23178389527810095,0.2,-0.4085751298882843,-0.4775906845576501,0.2,-0.7100646792355639,-0.2741046830101179,0.2,0.38549554454857843,-0.5677199562869397,0.2,0.5971578784484517,-0.22156182937783236,0.2,-0.270322164147089,0.0390479173190926,0.2,0,
0.4561216324353161,0.29093398865394776,0.01623007077120389,0.2,-0.4124212353838853,-0.6394785024698042,0.2,-0.717916419207492,-0.6946452516502222,0.2,0.3754581140640437,-0.7841683659293268,0.2,0.5944161747023459,-0.16686486620551277,0.2,-0.268067589483083,0.16177726628430894,0.2,0,
0.4641237663376901,0.2909174782407975,-0.020223878966468822,0.2,-0.4188067859278012,-0.20534256399615952,0.2,-0.7211790032619675,-0.3218159606900445,0.2,0.3729488506937092,-0.5725342301939051,0.2,0.5944880405891635,-0.09694661209014299,0.2,-0.26773372788654004,-0.07352062537169593,0.2,0,
0.47212590024006407,0.29061040659048426,0.1659840703475829,0.2,-0.41570671640782386,0.037289181045684766,0.2,-0.7230654745785328,-0.23002739557333174,0.2,0.36629756638094124,-0.5846239147457889,0.2,0.5928650289089036,-0.2903077946580443,0.2,-0.26924391948903015,0.06670357919279224,0.2,0,
0.48012803414243804,0.2935732233663588,0.5684498015203799,0.2,-0.4182101590310702,-0.40662795515601646,0.2,-0.7248594415911408,-0.5611172684577767,0.2,0.3635948680577766,-0.5751646619388228,0.2,0.5898431158746348,-0.2116196078354518,0.2,-0.26666647061945536,0.25076155245146864,0.2,0,
0.48813016804481196,0.29970560341481034,0.447207370770742,0.2,-0.4222127636903201,-0.46181658162207373,0.2,-0.7320433508738572,-0.8741392163681139,0.2,0.3570949317899201,-0.8172866370950993,0.2,0.5894791151835364,-0.3244072574987225,0.2,-0.26523173464980665,0.08393104334643298,0.2,0,
0.49613230194718594,0.3007285412986907,0.04850714206500878,0.2,-0.4255992243370234,-0.3832011198570684,0.2,-0.7388456690530306,-0.8177647935460608,0.2,0.350518281864255,-0.8235131011539616,0.2,0.5846525997546552,-0.14294234319683907,0.2,-0.26532357392591244,-0.07149496412816106,0.2,0,
0.50413443584956,0.3004817176878505,0.12070804526688808,0.2,-0.4283439816080332,-0.35817091570969,0.2,-0.7451275875705942,-0.6411762300868179,0.2,0.3439187221714567,-1.1079379350140521,0.2,0.5871920376923869,-0.1793982705003,0.2,-0.2663756540758572,0.09835461684649938,0.2,0,
0.5121365697519339,0.3026598700229609,0.2843772086838468,0.2,-0.43132995898837845,-0.49719049037602603,0.2,-0.7491044887344197,-0.7315745177249796,0.2,0.33279127490403015,-0.8416105667433011,0.2,0.5817822274266504,-0.3615279632992671,0.2,-0.26374990005636845,0.12968743051895368,0.2,0,
0.5201387036543078,0.30503175302679203,0.09118019184110177,0.2,-0.43629902945404964,-0.5247115771097252,0.2,-0.7568327798541938,-0.8068883767056514,0.2,0.3304529531035639,-0.8838111225206897,0.2,0.5814075902795987,-0.09052235926219898,0.2,-0.26430065518755397,-0.08452437661656334,0.2,0,
0.5281408375566818,0.30411875309241854,-0.05271569981786864,0.2,-0.43972534422213405,-0.4767490605043778,0.2,-0.7620147027617101,-0.7012518635326134,0.2,0.3186502969436991,-1.1602588689356534,0.2,0.5803338696784552,0.08902358834526891,0.2,-0.26510229008223346,-0.18778360370722003,0.2,0,
0.5361429714590558,0.30418830182970613,0.12336391605915695,0.2,-0.4439270144221197,-0.5620252619833905,0.2,-0.7680528096707157,-0.6462931177922682,0.2,0.3118888112005934,-1.2271562089934789,0.2,0.582831967693123,-0.11173880525781887,0.2,-0.2673051928468695,0.1325495690804139,0.2,0,
0.5441451053614298,0.30609257574936505,0.42691912894304157,0.2,-0.4487177484138683,-0.31929148230932375,0.2,-0.7723553926463864,-0.7130289401542297,0.2,0.29901579759980346,-1.1412522835654235,0.2,0.5785460487943301,-0.5563612734006546,0.2,-0.26298149697694684,0.24184378099561046,0.2,0,
0.5521472392638037,0.3110190078927948,0.29335763402981924,0.2,-0.44903567813906886,-0.7054353298313678,0.2,-0.7794612727131833,-0.7208015270178669,0.2,0.29362877466354664,-1.0426960662417786,0.2,0.5739301873187125,-0.5119813863970409,0.2,-0.2634356923509397,0.023459216269453714,0.2,0,
0.5601493731661777,0.31078629789384216,0.2539643082345548,0.2,-0.4600047136911702,-0.8807541943681614,0.2,-0.7838882170786723,-0.9558080686051795,0.2,0.282332660539935,-0.9595575526166987,0.2,0.5703543466119775,-0.14442271886168367,0.2,-0.2626061495166356,0.006033786905924876,0.2,0,
0.5681515070685517,0.3150824368245477,0.21305581334360793,0.2,-0.46312774524895944,-0.5010585641388072,0.2,-0.7947542018108662,-0.9533357241671425,0.2,0.27827585382167946,-1.0192533305945182,0.2,0.5716194238169255,0.03519367221904712,0.2,-0.2633391517604449,0.011797072873395709,0.2,0,
0.5761536409709256,0.3141951909073399,0.03685259860384052,0.2,-0.4680216507173911,-0.5027006700158814,0.2,-0.7991415886653466,-0.8262483200307258,0.2,0.2660246072504227,-1.7318683487376925,0.2,0.5709174453674822,-0.4438315359126671,0.2,-0.26241739635066125,-0.02049502417609747,0.2,0,
0.5841557748732996,0.3156720784022091,0.34044648430383434,0.2,-0.47117095596921355,-0.6509775932435277,0.2,-0.8079741749313578,-0.9135293678525849,0.2,0.2505659602418764,-1.2631839388309152,0.2,0.5645181192423229,-0.4860063463726569,0.2,-0.2636670721472625,0.07382760218928308,0.2,0,
0.5921579087756735,0.31964233465620123,0.20241880933923734,0.2,-0.47843729220928755,-0.5505682141168644,0.2,-0.8137580585509879,-0.8791284867060017,0.2,0.24581366422912806,-0.899390640519351,0.2,0.5631413438255197,-0.17205267864327245,0.2,-0.2612361547156327,0.20241042171538146,0.2,0,
0.6001600426780476,0.3189107793516369,0.24948672036690864,0.2,-0.4799800473950834,-0.45321016982368884,0.2,-0.8220402307186538,-1.282083145096459,0.2,0.23617570999356677,-1.2627342355648017,0.2,0.5617652763840305,-0.4858421112903591,0.2,-0.2604285053998164,0.049758699684529506,0.2,0,
0.6081621765804215,0.32363412218207177,0.3098815610109648,0.2,-0.48568865492646657,-0.7625866906179439,0.2,-0.8342713888725313,-1.2194793693750885,0.2,0.22560991646009124,-1.4668750681583966,0.2,0.555367870044874,-0.5012704760276321,0.2,-0.26044001552068025,0.14134500721287718,0.2,0,
0.6161643104827954,0.32386888432781236,0.1030208757368152,0.2,-0.4921814344449705,-0.7410537392654459,0.2,-0.8415519006286553,-0.8934599165439718,0.2,0.21270570890303242,-1.4348374428045043,0.2,0.5537449487675884,-0.5413333217428803,0.2,-0.25816698528441034,0.1813898199782074,0.2,0,
0.6241664443851694,0.3252824561938608,0.1616412176078212,0.2,-0.4975455147547137,-0.870713277301028,0.2,-0.8485667475372348,-1.0051244840285565,0.2,0.20265251737521917,-1.582033467558223,0.2,0.5467065368969879,-0.4273910587359944,0.2,-0.2575377784010289,0.05516648573894098,0.2,0,
0.6321685782875434,0.3264551438095375,0.21519983817978872,0.2,-0.5061128468817869,-0.7887270909718892,0.2,-0.8576338923731122,-1.2939629938782393,0.2,0.18739317342210085,-1.5710389148372184,0.2,0.5469066918278125,-0.1301830127078754,0.2,-0.2572843215125873,-0.2202578204682122,0.2,0,
0.6401707121899174,0.32872565360473743,0.337526506853137,0.2,-0.5101651482102639,-0.5548847296091147,0.2,-0.8692701554392867,-1.0873410040966174,0.2,0.17751589473782367,-1.4366182146475157,0.2,0.5446236086936619,-0.19825944863931938,0.2,-0.2610619035285203,0.3246707136502942,0.2,0,
0.6481728460922913,0.3318555679191877,0.20750349758384343,0.2,-0.5149910025555328,-0.5788024094473126,0.2,-0.875031348438658,-0.8543495985980989,0.2,0.1644072819877406,-1.4493437684850485,0.2,0.5437345406495834,-0.5392310251663562,0.2,-0.2520895900941826,0.34922024571687815,0.2,0,
0.6561749799946653,0.33204570956607893,0.06317372063107535,0.2,-0.5194259867614209,-0.7797621102094421,0.2,-0.8829397490168562,-1.2057586064998238,0.2,0.1543263944420629,-1.6584836374446341,0.2,0.5359959122910002,-0.5091613424866859,0.2,-0.25547437959705027,-0.3961919229618846,0.2,0,
0.6641771138970393,0.3328663474492849,0.08388219341450356,0.2,-0.5274671963188838,-0.9463168089786297,0.2,-0.8943234861426552,-1.255454133172372,0.2,0.13787154378862645,-1.7019439397302094,0.2,0.5355879591697964,-0.38259297070451087,0.2,-0.25842866086157273,-0.07044214481569111,0.2,0,
0.6721792477994132,0.333387824660711,0.27894904469669135,0.2,-0.534567055705079,-1.1048843282064,0.2,-0.9030270151476142,-1.4509631475230766,0.2,0.12709529140637954,-1.3366628472281035,0.2,0.529874424759728,-0.5517840579699825,0.2,-0.25660145391410133,0.23255219775095495,0.2,0,
0.6801813817017872,0.33732953216443196,0.23918448105329781,0.2,-0.5451453455701862,-0.9005099011785977,0.2,-0.9175388965030244,-1.2997451536567382,0.2,0.1164849382329768,-1.6050919141517217,0.2,0.5267594142422767,-0.07463505255043967,0.2,-0.25470782569755746,0.09811967761641158,0.2,0,
0.6881835156041611,0.33721477635756375,0.2388722019451492,0.2,-0.5489752141239366,-0.6130599278405882,0.2,-0.923822937606122,-1.1944159012084454,0.2,0.101413820779952,-1.7388532699103902,0.2,0.528680263918921,-0.3977342212961657,0.2,-0.25503153907223874,0.1626910405639649,0.2,0,
0.6961856495065352,0.34115148739555434,0.15867357551245867,0.2,-0.5549543044156356,-0.754943774146144,0.2,-0.9366495509223596,-1.3436521724205923,0.2,0.08866328591441056,-1.4569605527451241,0.2,0.520395666701538,-0.608684603818764,0.2,-0.252104769048534,0.28992612279606433,0.2,0,
0.7041877834089091,0.3397535535657631,-0.20000861330420408,0.2,-0.5610543145102749,-0.7457303886432703,0.2,-0.9453213723648515,-0.9466355160176256,0.2,0.07810245193603,-1.5122859569382001,0.2,0.5189413102578208,-0.4790576211263567,0.2,-0.2503927211075017,-0.11440072905460202,0.2,0,
0.7121899173112831,0.3379513495826871,0.28133606605120626,0.2,-0.566885990633928,-0.9595982836928737,0.2,-0.9517957191786416,-0.9813147330275662,0.2,0.06446671060339935,-1.6250121184184043,0.2,0.5127307447635163,-0.42727190527130227,0.2,-0.25393518071340765,-0.1383412008820785,0.2,0,
0.720192051213657,0.3442549306225824,0.44836017285022206,0.2,-0.5764078870493609,-0.8816185363070341,0.2,-0.9610224080932925,-1.4507808781023395,0.2,0.05210225804133554,-1.6879450330274568,0.2,0.5121049597734799,-0.16029179493845525,0.2,-0.25260618032161497,0.12334649482029572,0.2,0,
0.728194185116031,0.34512511234829063,0.4047513031276463,0.2,-0.5809918872148405,-0.5993716910217897,0.2,-0.975008213228279,-1.144736309543988,0.2,0.037459590074960046,-1.9045410725097165,0.2,0.510166076044501,-0.3733096459182586,0.2,-0.2519616367962829,0.20004412709182134,0.2,0,
0.736196319018405,0.35073095147262473,0.12904531209775166,0.2,-0.5859978341057095,-0.7870198157067728,0.2,-0.9793381890459963,-0.9792606015057644,0.2,0.021629600881180072,-1.661440399559587,0.2,0.5061320054387878,-0.3922870472337775,0.2,-0.24940547428814583,0.08044527219284309,0.2,0,
0.7441984529207789,0.34718983734185466,-0.10926830083369393,0.2,-0.5935842042661489,-0.8237498320997905,0.2,-0.9906763828523713,-1.2946320871252623,0.2,0.010876543682006657,-1.3738774623570678,0.2,0.5038894832887606,-0.5922461140016911,0.2,-0.25067451244119743,-0.06451281814493816,0.2,0,
0.7522005868231529,0.3489826586592856,0.24056117785394363,0.2,-0.5991778314193061,-1.020759789414169,0.2,-1.0000523024400005,-1.2284689273462794,0.2,-0.00035243851653301043,-1.610801265049346,0.2,0.4966560676147607,-0.6522802949209469,0.2,-0.25043767937846484,0.016645989122515692,0.2,0,
0.7602027207255269,0.35103881618751775,0.196445970848301,0.2,-0.6099163608967756,-0.9710161697546044,0.2,-1.0103318856899117,-1.3884115079490915,0.2,-0.01489627655878288,-1.9022161383926108,0.2,0.49345299857002545,-0.30895062625029696,0.2,-0.2504081766152372,0.13138140274726595,0.2,0,
0.7682048546279008,0.35212579419285844,0.04971817899334166,0.2,-0.6147140901353798,-0.5985771987701838,0.2,-1.022266886567186,-1.3395416031098255,0.2,-0.030787896730814786,-1.8797741269947055,0.2,0.49171285759475597,-0.22168901685222855,0.2,-0.24833557693450858,0.16568900665901026,0.2,0,
0.7762069885302748,0.3518343070514112,0.4745955191259414,0.2,-0.6194935960770985,-0.9592141343335927,0.2,-1.031764551339669,-1.0826003868763394,0.2,-0.04497266259069817,-1.6025800707203217,0.2,0.4899059743003898,-0.2681768816915099,0.2,-0.247757152508693,0.09649505809394658,0.2,0,
0.7842091224326487,0.3597193224988735,0.6119832722142511,0.2,-0.6300615162847173,-0.8714842672053538,0.2,-1.0395884927572074,-1.4507784378180455,0.2,-0.05642917786233993,-1.4021953885596021,0.2,0.4874220274876918,-0.37964158558131605,0.2,-0.24679165600500544,0.09805805816020217,0.2,0,
0.7922112563350228,0.36162603940683924,0.1271351478687073,0.2,-0.6334373443523842,-0.475532315734252,0.2,-1.0549770063447577,-1.286394072093272,0.2,-0.0674077888076518,-1.7071570370580953,0.2,0.48383170893108873,-0.5852827518854526,0.2,-0.24618822357812978,-0.22580884969676354,0.2,0,
0.8002133902373967,0.3617534848647728,0.20641260933702138,0.2,-0.6376700333364653,-1.1199307385583583,0.2,-1.0601707979106998,-0.8227083778877126,0.2,-0.08374369045526946,-1.9713502938995533,0.2,0.47805750345752457,-0.40092543501901373,0.2,-0.25040459760015366,0.08954633812067493,0.2,0,
0.8082155241397707,0.3649286411562316,0.2252991719376915,0.2,-0.6513562361693179,-0.9671591152281902,0.2,-1.068140340390961,-1.3784218095004297,0.2,-0.09894939351004466,-1.2805959380562253,0.2,0.4774169019707845,-0.515167198819444,0.2,-0.24475548216819898,0.3105940595941013,0.2,0,
0.8162176580421446,0.3653582716157759,-0.02657608531844713,0.2,-0.6531445791801164,-0.3796074314005582,0.2,-1.0822255468627067,-1.670545684632152,0.2,-0.10423322546416906,-1.2891013280413675,0.2,0.46981482827641347,-0.7292953330960624,0.2,-0.24543509264664803,-0.008755484130776314,0.2,0,
0.8242197919445186,0.3645034237911364,0.16248416130807894,0.2,-0.6574299550717269,-0.9841046021286312,0.2,-1.0948690713450755,-1.1989051147841268,0.2,-0.11957501475870654,-1.9053825806566926,0.2,0.4657481766412475,-0.2664275212315124,0.2,-0.2448955699142914,0.16617852498175198,0.2,0,
0.8322219258468926,0.36795801819670515,0.2537600880616504,0.2,-0.6688902528141745,-0.8834325320830546,0.2,-1.1014080286992527,-1.0113774309389034,0.2,-0.13471934675467614,-1.7321171835068025,0.2,0.46555198793670927,-0.341242203563602,0.2,-0.24277623624694,0.21847238905855007,0.2,0,
0.8402240597492665,0.36856358520012283,0.18775886330235983,0.2,-0.6715648755850557,-0.5947595762247765,0.2,-1.111051110240098,-1.389652200401409,0.2,-0.14728888969481538,-1.4545773812162759,0.2,0.4602883013842299,-0.200935018105676,0.2,-0.2414000116893546,-0.28604354086771316,0.2,0,
0.8482261936516405,0.3709621600095429,0.11718584657685258,0.2,-0.6784064060337709,-0.7848298580132514,0.2,-1.1236424639056752,-1.0859618930465498,0.2,-0.15799258485413656,-1.8076788638660273,0.2,0.46233702764701845,-0.06151360742317341,0.2,-0.2473529329008234,0.14206155336486842,0.2,0,
0.8562283275540145,0.3704385587453525,0.2838261118449335,0.2,-0.6841221533132678,-0.8871151382263132,0.2,-1.1284265005288427,-0.9865088498572094,0.2,-0.17621175151667182,-1.6220758360747223,0.2,0.4593040836654591,-0.5828619473739506,0.2,-0.2391270268355167,0.32789193124931754,0.2,0,
0.8642304614563885,0.37550337779906184,0.03375202209861955,0.2,-0.6926002482453919,-0.993906611063633,0.2,-1.1394266055033906,-1.1717550409464232,0.2,-0.1839457982313321,-1.035652922930265,0.2,0.45301123648903524,-0.6316623698353896,0.2,-0.24210666200083433,-0.22892921030122707,0.2,0,
0.8722325953587624,0.3709785910989304,-0.08806239884003378,0.2,-0.7000246590902859,-0.8917692355713686,0.2,-1.1471745811839855,-0.9295341550357022,0.2,-0.19278219828355606,-1.4950080223719922,0.2,0.4491974857480929,-0.406361879409952,0.2,-0.24278989420033634,0.039897637867020164,0.2,0,
0.8802347292611363,0.3740943794176213,0.5155160208924793,0.2,-0.7068685560145338,-0.581818331568465,0.2,-1.1542991519839618,-1.1050535469591394,0.2,-0.207865926589284,-1.7200280087368032,0.2,0.446509446418476,-0.0803431522867458,0.2,-0.241468299794962,0.2516229431086727,0.2,0,
0.8882368631635104,0.37922684743321006,0.4790897877184098,0.2,-0.7093337523953813,-0.693618154704978,0.2,-1.1648554379353318,-1.2380948441113175,0.2,-0.2203026464233449,-1.4525632330769767,0.2,0.44791199531150494,-0.21200515928831293,0.2,-0.23876392711059757,0.010472876133125336,0.2,0,
0.8962389970658843,0.38175981602111586,0.17036681722390826,0.2,-0.7179664464898134,-0.7334527656567071,0.2,-1.174108669489743,-0.9712276184112301,0.2,-0.23110693831851561,-1.3497475084901147,0.2,0.443117363869863,-0.4418142929800382,0.2,-0.241300733776832,-0.1962783033347508,0.2,0,
0.9042411309682583,0.3819527165087926,0.17236220290105242,0.2,-0.7210689966458886,-0.4236625828684948,0.2,-1.1803950798299114,-0.7771053757500701,0.2,-0.24189860655918674,-1.3312915192510588,0.2,0.44084296662382433,-0.2869293402117251,0.2,-0.2419043799639536,0.2481405972234521,0.2,0,
0.9122432648706322,0.3845176112675327,0.24470439519238066,0.2,-0.7247450478157094,-0.5182004924460248,0.2,-1.186542355501744,-0.958664878795687,0.2,-0.25240760262653256,-1.2270965993291232,0.2,0.4385264944264754,-0.5888114062283338,0.2,-0.23733048422125677,0.326300588809298,0.2,0,
0.9202453987730063,0.3858679868318707,0.12087001017507815,0.2,-0.729360204525025,-0.6930750686745535,0.2,-1.1957337178906424,-1.0407891320954876,0.2,-0.2615321521484527,-1.3554143886828005,0.2,0.431421984124171,-0.4091330414310243,0.2,-0.23668357054300482,0.13275614121404863,0.2,0,
0.9282475326753802,0.38645153143033395,0.04026692758231018,0.2,-0.7358342489145022,-0.854789878301905,0.2,-1.2031949816152718,-1.1555404226102488,0.2,-0.27409423284545736,-1.201415659136326,0.2,0.431980365763579,-0.226880122508568,0.2,-0.235206385961832,-0.16270612867604062,0.2,0,
0.9362496665777541,0.38651225767318764,0.1514660548769184,0.2,-0.7430368425778555,-0.5047759415046995,0.2,-1.2142223646524064,-0.8588028597748404,0.2,-0.28075480269463393,-0.9296133610293341,0.2,0.4277919021640339,-0.4079557786319729,0.2,-0.23928686860182147,-0.23296003299223822,0.2,0,
0.9442518004801281,0.38887498830836464,0.41373226821912396,0.2,-0.7439106639785774,-0.28659679700320656,0.2,-1.2169358273716693,-0.7545005703700758,0.2,-0.2889680466219267,-1.068418557489459,0.2,0.42545307330546744,-0.15262727486187178,0.2,-0.2389337464897078,0.3183983384539707,0.2,0,
0.952253934382502,0.3931319739646936,0.27366367355472276,0.2,-0.7476223913299068,-0.8596730585709728,0.2,-1.2262943737783276,-0.8900303346110333,0.2,-0.2978494996144653,-1.1646093563294768,0.2,0.42534986576624395,0.1366575594058013,0.2,-0.23419249518655794,0.17046550050866213,0.2,0,
0.9602560682848761,0.3932536070852402,0.053226426942058064,0.2,-0.757665432915713,-0.667385669176311,0.2,-1.2311763127254458,-0.8142988405294427,0.2,-0.30760179632319834,-1.008775054421613,0.2,0.42763959425596026,-0.30848717475788834,0.2,-0.2362062984815692,0.022302088055503946,0.2,0,
0.96825820218725,0.39398359679576656,0.08269077845128592,0.2,-0.7583005620367278,-0.06286650752210243,0.2,-1.2393231552267987,-0.8936026257451296,0.2,-0.3139899004852111,-1.1560185948936499,0.2,0.42041407097011774,-0.5474976205368902,0.2,-0.23383566177766987,-0.036376458617698795,0.2,0,
0.9762603360896239,0.3945766595404608,0.18948544806859924,0.2,-0.7586712970360666,-0.5317350734782635,0.2,-1.2454739547373679,-0.6745434061868477,0.2,-0.32609809384149674,-1.4193264195707551,0.2,0.41887963232737,-0.0980214508029438,0.2,-0.2367883218194524,0.027520592888019557,0.2,0,
0.984262469991998,0.39701536396486414,0.26533768233494986,0.2,-0.76680832321238,-0.7016229743909349,0.2,-1.2501158497257883,-0.6732897434740537,0.2,-0.33669912319834316,-0.8818595845504346,0.2,0.41884572775727064,-0.29642573326010485,0.2,-0.23339533229146156,0.17773118989181275,0.2,0,
0.9922646038943719,0.39882206245782,0.19794979406507346,0.2,-0.7698972646263216,-0.5928899471234969,0.2,-1.2562465906329527,-0.48914013502439346,0.2,-0.3402078471943037,-0.7580002100161382,0.2,0.41413682059520834,-0.34819075397140087,0.2,-0.2339446227811834,-0.0798028573398505,0.2,0,
1.0002667377967458,0.4001825606699053,0.12093359884753421,0.2,-0.776294562366356,-0.5082283377926058,0.2,-1.2579420918861786,-0.824512278479933,0.2,-0.3488271265586014,-0.576520739167606,0.2,0.4132746756937282,-0.12306594562686013,0.2,-0.23467217800889917,0.23966547848021727,0.2,0,
1.00826887169912,0.40075700003938053,-0.12080182136968431,0.2,-0.7780289180310033,-0.3759704072956935,0.2,-1.2694387870886317,-0.8285914001847777,0.2,-0.3494321790209854,-0.6383601808913446,0.2,0.4121677654651786,-0.16758972507381273,0.2,-0.2301099751254999,0.09848528164307403,0.2,0,
1.0162710056014939,0.39824973152799037,0.27151441492929623,0.2,-0.7823100888830871,0.015024782264012881,0.2,-1.271199554289135,-0.47676895670464847,0.2,-0.3590408894528629,-1.0199750914455068,0.2,0.4105932400925472,-0.24070505271280365,0.2,-0.23309641350260998,-0.020230738034372753,0.2,0,
1.0242731395038678,0.40510123067824927,0.6027420633516745,0.2,-0.7777885215147791,-0.06014736559938755,0.2,-1.277067090395906,-0.4948351885921687,0.2,-0.3657517804841135,-0.7299352354594862,0.2,0.4083164846217737,-0.2515571306159897,0.2,-0.23043366693404987,0.11430969564774074,0.2,0,
1.0322752734062417,0.40789360454161716,0.23590049271083116,0.2,-0.7832724467326773,-0.7750845973363424,0.2,-1.2791169173066097,-0.002604991552343505,0.2,-0.37071985322021467,-0.6843614757883788,0.2,0.4065683260026914,-0.253503585702225,0.2,-0.23126745837224613,-0.04995440413366886,0.2,0,
1.0402774073086156,0.40887563856162257,0.38689110685898376,0.2,-0.7901898750721605,-0.11088294274410465,0.2,-1.2771087702607435,-0.35241157272411505,0.2,-0.37670156409672756,-0.48807949565459957,0.2,0.4042604272505381,-0.032322662915952594,0.2,-0.23123293740018858,0.07793350274354523,0.2,0,
1.0482795412109898,0.4140838622513609,0.10255066546885003,0.2,-0.7850465738165829,-0.08972438227006219,0.2,-1.2847555024701955,-0.6512568666696555,0.2,-0.37852912515068826,-0.4011880452234953,0.2,0.40605116339603614,0.11523168509904036,0.2,-0.2300205223283494,0.15593091405425272,0.2,0,
1.0562816751133637,0.41051644920912417,-0.04603327551333178,0.2,-0.7916254651884815,-0.5164931969792591,0.2,-1.287528880127458,-0.45911658290952173,0.2,-0.3831205728203035,-0.681383984428175,0.2,0.40610413421212277,-0.23536310367810315,0.2,-0.22873804277532053,0.033890832165183946,0.2,0,
1.0642838090157376,0.4133473298431476,0.28472553890843477,0.2,-0.7933104649682511,-0.1867963336956019,0.2,-1.292101367796748,-0.30032978933404453,0.2,-0.38943126890153906,-0.539195591101136,0.2,0.4022853537371865,-0.15826869486983836,0.2,-0.22947826901370647,0.03839341008232168,0.2,0,
1.0722859429181115,0.4150720578316591,0.261918147826376,0.2,-0.7946142065276112,-0.11259983809099039,0.2,-1.2923341567568027,-0.038758668174695976,0.2,-0.39174770227792166,0.07431472047138982,0.2,0.40357183509420536,-0.15415124353345896,0.2,-0.22812374821400339,0.06813667512188017,0.2,0,
1.0802880768204854,0.4175380202083696,0.016517501348307234,0.2,-0.7951120623777069,0.04271447719044613,0.2,-1.292721506487543,0.04293428460699911,0.2,-0.3882422333739968,-0.16177991020405874,0.2,0.39981893384065115,-0.239598249751366,0.2,-0.22838808221175638,0.11115775484202978,0.2,0,
1.0882902107228596,0.41533633785323204,0.09180730933602485,0.2,-0.793930774892564,-0.24875158412843157,0.2,-1.2916472082030908,-0.017462784764402106,0.2,-0.3943361808411866,-0.42213450676548137,0.2,0.3997382630981835,-0.025086004374914178,0.2,-0.2263452241365309,-0.21986704886912434,0.2,0,
1.0962923446252335,0.419006937157746,0.2076855740586643,0.2,-0.7990920877237618,-0.36719753436650904,0.2,-1.2930009110437735,-0.2859545545761816,0.2,-0.3949963854822445,-0.4838818968604594,0.2,0.3994175577706525,-0.08439933172132985,0.2,-0.23190595499366237,0.08491469470003551,0.2,0,
1.1042944785276074,0.41865930703817067,0.10985489456670494,0.2,-0.7998059354424282,-0.09706168146922378,0.2,-1.2962224810763097,-0.558066792051698,0.2,-0.40207829119095395,-0.28561897695704785,0.2,0.3983878737906422,-0.07381221964052401,0.2,-0.22498658902133034,0.27731965622253446,0.2,0,
1.1122966124299813,0.4207646154708133,0.32978867374109166,0.2,-0.8006450746272694,0.09540984126082952,0.2,-1.3019299797166006,-0.2058874627064028,0.2,-0.3995662891135573,-0.10093553647233869,0.2,0.39823656225640414,0.09722572984376468,0.2,-0.22746884049410182,0.10507371618358706,0.2,0,
1.1202987463323555,0.42393592581802814,0.34759429650938267,0.2,-0.7982793779822549,0.20685727680568727,0.2,-1.299516680479612,0.17169323010905735,0.2,-0.40369325977451137,-0.06938170059682738,0.2,0.39994348546814246,-0.12118347105413707,0.2,-0.22330540956239295,0.12569709423610081,0.2,0,
1.1283008802347294,0.4263261242149634,0.2564715117504383,0.2,-0.7973353581983784,-0.16603928270380458,0.2,-1.2991828880348557,-0.07531593000099923,0.2,-0.40067639632310653,0.28519289307190815,0.2,0.39629762671953794,0.03432016182846817,0.2,-0.2254576869863242,-0.07998560841190709,0.2,0,
1.1363030141371033,0.42803947000603515,0.1780417335550677,0.2,-0.8009360065055158,-0.007364429467880684,0.2,-1.300721735359628,-0.0028658040534396134,0.2,-0.39913017348536084,0.1389019067948201,0.2,0.40049260805739795,0.34829445347570737,0.2,-0.22458517929698346,-0.1037913519099775,0.2,0,
1.1443051480394772,0.4291747919518445,0.23550644958969524,0.2,-0.7974531890698645,0.09071033737531597,0.2,-1.2992287408997107,0.3314061941982055,0.2,-0.3984539658143894,0.03417108341353253,0.2,0.40187033797514926,0.0710911392821853,0.2,-0.22711834861688385,0.37867819762562455,0.2,0,
1.1523072819418512,0.4318075731994703,0.061228977592812234,0.2,-0.7994846411075107,0.09483028853753822,0.2,-1.2954192362524568,0.32983998381222457,0.2,-0.3985834361507443,0.23145958118436782,0.2,0.4016300662859129,-0.010749943367176912,0.2,-0.21852632813497347,0.35968615890521677,0.2,0,
1.1603094158442253,0.4301544555933295,0.006109580562352335,0.2,-0.7959359044532639,0.03999408046741204,0.2,-1.2939513011587152,-0.14685973633185578,0.2,-0.3947506125154395,0.25615322229605164,0.2,0.40169833888127443,0.06614099724407824,0.2,-0.22136337007440038,0.12608971222577425,0.2,0,
1.1683115497465992,0.4319053264884679,0.31537264664331655,0.2,-0.7988447358200321,0.0682161246277832,0.2,-1.2977689920337665,0.08340567909784213,0.2,-0.3944849845940075,0.19517844205451523,0.2,0.40268832224181816,0.19955442695902478,0.2,-0.21650889273936108,0.20524728985183738,0.2,0,
1.1763136836489732,0.43520041793962255,0.30442572780828636,0.2,-0.7948444464592194,0.176985150502372,0.2,-1.2926168102931497,0.3314637908743423,0.2,-0.3916277574425673,0.49646554352547956,0.2,0.4048912097126188,-0.07507915225416634,0.2,-0.21807941343677098,-0.4232898100547805,0.2,0,
1.184315817551347,0.4367761381334005,0.19899339886351314,0.2,-0.7960129734119942,0.3516372407363494,0.2,-1.292465571379777,0.18588003896340133,0.2,-0.3865415358975998,0.5463981572501816,0.2,0.4014870558057515,-0.08121382090433768,0.2,-0.22328152970023757,-0.1636317795706537,0.2,0,
1.192317951453721,0.43838431232143876,0.07743549994603319,0.2,-0.7892182506074378,0.35936722606076665,0.2,-1.2896427296697353,0.6060797202789431,0.2,-0.3828853869265644,0.5911177622759181,0.2,0.4035917885781494,0.24894999665187045,0.2,-0.22069752190990144,0.07416712194066241,0.2,0,
1.2003200853560951,0.438015106132537,0.1578679787046719,0.2,-0.7902630977950219,-0.04838641902796953,0.2,-1.282768295855314,0.40377557852522283,0.2,-0.37708365170118513,0.4956821496194669,0.2,0.40547025575218143,0.1975003795165256,0.2,-0.22209485574918697,0.16046434037677962,0.2,0,
1.208322219258469,0.4409101999807135,0.344401791394236,0.2,-0.7899924333118853,0.21621638481440775,0.2,-1.2831823204133317,0.19328452872396928,0.2,-0.3749544725326529,0.4922266418933355,0.2,0.40675179465041383,0.04147013431694477,0.2,-0.21813009246387297,-0.005140478785414793,0.2,0,
1.216324353160843,0.4435255347948448,0.20732654604995945,0.2,-0.7868036356379914,0.3538275920680692,0.2,-1.2796757433957304,0.6348158396936726,0.2,-0.36920802543089176,0.44933884216675696,0.2,0.40613377790125255,0.23283315619217204,0.2,-0.2221771034097536,-0.1647283610983763,0.2,0,
1.224326487063217,0.44422742471751286,0.06833850924443247,0.2,-0.7843311918387962,0.233444862422022,0.2,-1.273025266978233,0.438628567046892,0.2,-0.3677650510579848,0.43697788088415884,0.2,0.4104771251494886,0.014033741404979178,0.2,-0.220765746241447,0.4119818805312422,0.2,0,
1.2323286209655908,0.4446189509427557,0.120098805807968,0.2,-0.783068517839239,0.49542230929271874,0.2,-1.2726576863229802,0.17367134784289362,0.2,-0.3622163793367452,0.8848430521899777,0.2,0.4063583177637322,0.27318803968803124,0.2,-0.21558539332125373,0.26027751189208576,0.2,0,
1.240330754867965,0.44614900561044035,0.3162266117619564,0.2,-0.7764044348901127,0.6779388739106135,0.2,-1.2702465254127466,0.9127164176101626,0.2,-0.35360756222294515,0.7396486924755169,0.2,0.4148481337844971,0.5706650537538916,0.2,-0.21660130605117361,-0.039386712158053644,0.2,0,
1.2483328887703389,0.449678576730947,0.25278166265414387,0.2,-0.7722214958566692,0.35066203779101496,0.2,-1.2580542236412176,0.8937611155307723,0.2,-0.35038200025713695,0.7603976573854997,0.2,0.4154889586237945,-0.19422834317488202,0.2,-0.2162155807157826,0.03817173577476407,0.2,0,
1.2563350226727128,0.45019351221290665,0.22386124797595108,0.2,-0.7707938422854564,0.31607045798804495,0.2,-1.2559463475642543,0.46321948241981326,0.2,-0.34144119970477715,1.1828239793015665,0.2,0.411740480293699,0.05210383906403132,0.2,-0.2159905582787774,0.054074541155952824,0.2,0,
1.2643371565750867,0.45326035669856224,0.29528503382153165,0.2,-0.7671643685288605,0.36350749120490217,0.2,-1.2506427119225005,0.7765506868493144,0.2,-0.3314568165883119,0.9518773908224649,0.2,0.416322620048819,0.26370712672130897,0.2,-0.21535038805728735,0.1506909013526958,0.2,0,
1.2723392904774609,0.45491807275405116,0.3885098031291174,0.2,-0.764977722426178,0.4997662807595324,0.2,-1.2435215365746652,0.7380313129780047,0.2,-0.3262111614516177,0.5874637554520202,0.2,0.4159597943212399,0.27518088444944755,0.2,-0.21357950385713426,0.1771880047234369,0.2,0,
1.2803414243798348,0.4594765135486281,0.21566828106569721,0.2,-0.759168108036708,0.6770168951113694,0.2,-1.2388342109148525,0.5620595118553812,0.2,-0.32205739650107956,0.9557889608469011,0.2,0.42072551420001014,0.45918351899321486,0.2,-0.21251537998171235,0.004051669242180478,0.2,0,
1.2883435582822087,0.4583687652511023,0.006639379017448627,0.2,-0.7541454521043961,0.4736608556001748,0.2,-1.2345285843849791,0.6560701519189444,0.2,-0.3109185380780673,1.2688930363164048,0.2,0.42330673062513136,0.33712758017724953,0.2,-0.21351467714925937,-0.09539420477489881,0.2,0,
1.2963456921845826,0.4595827436129073,0.2997696267365117,0.2,-0.7515895343471052,0.4174958617326474,0.2,-1.2283370884841494,0.7855584803120319,0.2,-0.3017551079200171,1.0968000677583216,0.2,0.42611955548284614,0.3050505944785335,0.2,-0.21404168725811074,0.01696412227720004,0.2,0,
1.3043478260869565,0.4631650792788865,0.24924235769136632,0.2,-0.7474655183166737,0.6475933862788996,0.2,-1.2219596486999866,1.3279643247776223,0.2,-0.29336973699393415,1.1116228687649414,0.2,0.4281875401367879,0.039838867487498875,0.2,-0.21324325119282417,-0.009762521574748634,0.2,0,
1.3123499599893307,0.46357062133596916,0.06429855175350829,0.2,-0.7412280401666428,0.6917110767685891,0.2,-1.2070896592877074,0.9235729427788941,0.2,-0.283969142019778,1.2710062893668965,0.2,0.4267569773626461,0.27288777912058,0.2,-0.2141978876033067,-0.10962804398238594,0.2,0,
1.3203520938917046,0.46419385610694264,0.223057762708357,0.2,-0.7363981410883763,0.5040681400791253,0.2,-1.2071824816155243,0.7755496977050469,0.2,-0.2730336363640638,1.250730765148176,0.2,0.43255374460271717,0.40457295636335194,0.2,-0.21499729989654234,0.004732035204799492,0.2,0,
1.3283542277940785,0.46713954553930287,0.3598344413124274,0.2,-0.7331629499253768,0.7269587652592238,0.2,-1.1946808641244266,1.175067583817746,0.2,-0.2639574497774072,1.1268589128002846,0.2,0.43323014466445975,0.3331405960008242,0.2,-0.21412217504002992,0.34887745360859085,0.2,0,
1.3363563616964524,0.4699512071679415,-0.07793851786450784,0.2,-0.7247668008442287,0.8488148832121247,0.2,-1.1883814002744404,0.9797652028185888,0.2,-0.25500389375925925,1.1570280669018964,0.2,0.43788399413873036,0.3931468548742135,0.2,-0.2094152606388049,0.04988073531612611,0.2,0,
1.3443584955988264,0.46589252925347074,0.0813624603083346,0.2,-0.7195819117939828,0.5018026345146032,0.2,-1.1790046208793292,0.8727507600295309,0.2,-0.24544500070697686,1.4537930217822306,0.2,0.43952049434244717,0.32251492235473717,0.2,-0.2133240832749719,0.3524127392968354,0.2,0,
1.3523606295012005,0.47125300653287483,0.4228480969432763,0.2,-0.7167379586919951,0.48495577914625665,0.2,-1.174417388113968,0.8940037720019389,0.2,-0.23174320541074356,1.671737557123465,0.2,0.44304423289640615,0.35644619525780974,0.2,-0.20377665681005552,0.0725062877322026,0.2,0,
1.3603627634035744,0.47265809880456316,0.239775006715761,0.2,-0.7118226193276427,0.880850665346114,0.2,-1.1647005605272982,1.1582820961815592,0.2,-0.21869719979300142,1.6004166109735447,0.2,0.4452236334665721,0.18643093191059168,0.2,-0.21216398267125666,-0.3351942475213459,0.2,0,
1.3683648973059483,0.475089406640327,0.1762845231684726,0.2,-0.7026443480464573,0.7657061468251333,0.2,-1.155884874575063,0.9552364661960244,0.2,-0.20613653963516684,1.4509955202792104,0.2,0.4460271278069756,0.3613006190398213,0.2,-0.20913976477039706,0.2880991693713416,0.2,0,
1.3763670312083223,0.4754786511752587,0.07514643370766863,0.2,-0.6995713209784405,0.3008799670243881,0.2,-1.1494167770681618,0.7897899944727532,0.2,-0.19548127146853406,1.2859141078388794,0.2,0.45100444337120926,0.33199148558298375,0.2,-0.2075543959613152,0.10548085086472224,0.2,0,
1.3843691651106962,0.4762917495796497,0.04808303967810887,0.2,-0.697830268574067,0.9370131539408466,0.2,-1.143248234663499,1.189130131792268,0.2,-0.18556191390974477,1.4268636910161145,0.2,0.45133899157630336,0.30869342797423815,0.2,-0.2074520711565615,-0.047840286682606856,0.2,0,
1.3923712990130703,0.47624797981010847,0.2843259414077141,0.2,-0.684579110515387,1.2115930754321227,0.2,-1.1303906949594855,1.3810903421755532,0.2,-0.17265145241227622,1.6021200593740978,0.2,0.4559435382187971,0.1812863438521231,0.2,-0.2083198405482369,0.048289835437241926,0.2,0,
1.4003734329154442,0.48084096464217313,0.21792370249516801,0.2,-0.6784447793671531,0.657590409538944,0.2,-1.12115078918869,1.241113996393997,0.2,-0.1599279929597592,1.5499734512595416,0.2,0.45423957307793733,0.6831767511312308,0.2,-0.20667943378956563,0.06403406414647386,0.2,0,
1.4083755668178182,0.47973475905003116,0.15983312193698293,0.2,-0.6740576639627639,0.66386156082298,0.2,-1.1105328710171816,0.9933680234330555,0.2,-0.14785187719212356,1.5153279604946945,0.2,0.46687436623689677,0.6872755777068764,0.2,-0.20729529552189332,-0.01723021349546959,0.2,0,
1.416377700720192,0.48339829459316486,0.23933785827843015,0.2,-0.6678229943939854,0.969065497313279,0.2,-1.1052569008137612,1.1404453900048654,0.2,-0.1356827455918441,1.3434833238667663,0.2,0.46523598232124735,-0.005229237792683805,0.2,-0.20695511720549314,0.1315885675532806,0.2,0,
1.4243798346225662,0.48356416478248604,0.02867035850591393,0.2,-0.6585526160057514,0.6778630887891157,0.2,-1.0922857447771037,1.505408753937787,0.2,-0.1263561440102553,1.6016049401399333,0.2,0.4667906984322138,0.6511180469578222,0.2,-0.20518987844104083,0.16649085760499574,0.2,0,
1.4323819685249402,0.4838570203292595,0.2840943974307397,0.2,-0.6569771849733596,0.708047355266056,0.2,-1.0811703607507566,1.1013797007121822,0.2,-0.11005706654960516,1.9618506205073576,0.2,0.4756538710725725,0.4607247495438324,0.2,-0.2042912634838132,-0.1276967374676443,0.2,0,
1.440384102427314,0.4881096751413779,0.3514325585756012,0.2,-0.6472238583214945,0.5436973180717591,0.2,-1.0746636695657088,1.0666782298008604,0.2,-0.09496653408213758,1.4851360874328186,0.2,0.47416229442491514,0.2698002169066113,0.2,-0.20723302624052314,0.1771932986567512,0.2,0,
1.448386236329688,0.4894799412664691,0.12368682484532878,0.2,-0.6482780278842114,0.6777891428379687,0.2,-1.0641035090739428,1.1202681437523925,0.2,-0.08629488915068007,1.7195578077415248,0.2,0.4799706745430783,0.35940723112506956,0.2,-0.2014561707053052,0.11325742553154085,0.2,0,
1.456388370232062,0.49008866433890313,0.33863755855681116,0.2,-0.636379232036087,1.3038029329904137,0.2,-1.0567393792656705,1.3091040675244774,0.2,-0.06745360915827318,1.7731403827990397,0.2,0.47991281012291626,0.4269587227134809,0.2,-0.2054209074320185,-0.2322309787971318,0.2,0,
1.464390504134436,0.4948981422033781,0.24177145179521756,0.2,-0.6274171809563648,1.0053668929113635,0.2,-1.0431578439935512,1.482328655153034,0.2,-0.05792464302589543,1.1653740789497333,0.2,0.486802014106494,0.3436531324227769,0.2,-0.2051718663660593,0.10122091974905725,0.2,0,
1.47239263803681,0.4939570075676266,0.36311577225127745,0.2,-0.6202933617495052,0.7825437405120095,0.2,-1.033022120783222,1.1604621355463807,0.2,-0.04880762389507745,1.4593161860207928,0.2,0.4854112602416807,0.1523864979921935,0.2,-0.20380137271603357,0.3735846991996562,0.2,0,
1.480394771939184,0.5007079945593985,0.2432932164293869,0.2,-0.6148964811081726,0.7142903740468137,0.2,-1.024590449824809,1.28566302158728,0.2,-0.03457558404956274,1.7961466903529826,0.2,0.4892401980743691,0.3758744342180001,0.2,-0.1991945111788648,0.30289145781171695,0.2,0,
1.4883969058415578,0.4978496990304968,-0.05746431565627555,0.2,-0.6088647157647562,0.7082531233558731,0.2,-1.0124515124378255,1.3210983951282285,0.2,-0.02006927684942973,1.5811171956743504,0.2,0.4914252511891687,0.4903606696906072,0.2,-0.1989551093910461,-0.12931959284337435,0.2,0,
1.4963990397439317,0.4997885655088981,0.02364326623054483,0.2,-0.6035644311344787,1.0350056469306672,0.2,-1.0034528755027574,1.015492634552563,0.2,-0.009277708918773135,1.816246360349614,0.2,0.4970859687894188,0.5405321360355958,0.2,-0.2012636246643588,-0.03566389518147063,0.2,0,
1.5044011736463059,0.4982279912901855,0.2576203056130731,0.2,-0.5923046254138655,0.8984454810507803,0.2,-0.9962036302849845,1.304437066811548,0.2,0.008990664916164095,1.8238262396254354,0.2,0.5000737653657382,0.48446726279257474,0.2,-0.19952573171394963,0.2193292850383409,0.2,0,
1.5124033075486798,0.5039104903987073,0.5194885285950447,0.2,-0.5891893034376662,0.7023876333751219,0.2,-0.9825818824337726,1.2833330507653826,0.2,0.019903510915233832,1.4728076679526383,0.2,0.5048374449941,0.6803498312939749,0.2,-0.19775435610374534,0.13721510945560386,0.2,0,
1.5204054414510537,0.5065398077477062,-0.054569567054074675,0.2,-0.5810664232798636,0.9532804075465945,0.2,-0.9756703014727384,1.0669848453064568,0.2,0.03255558760340631,1.6284049499319604,0.2,0.5109593626664418,0.4038669953569246,0.2,-0.19733028996265997,0.24166091892830616,0.2,0,
1.5284075753534276,0.5030373773258421,0.19489933077129068,0.2,-0.5739368169169207,0.6538190908980737,0.2,-0.9655101249088693,1.331802163290534,0.2,0.0459579901141452,1.8669651343957245,0.2,0.5112993169198108,0.32842058913675615,0.2,-0.19388778140089244,0.20142414850942564,0.2,0,
1.5364097092558016,0.5096581970400469,0.4210954970318634,0.2,-0.5706053178254944,0.572745721326269,0.2,-0.9543614668600898,0.9736251057363143,0.2,0.0624270297537379,1.8009789332724333,0.2,0.5162140920926299,0.28916882220928614,0.2,-0.19410750358650916,-0.2676151931269889,0.2,0,
1.5444118431581757,0.5097749052783519,0.10499378890504313,0.2,-0.5647728853757004,0.8471278469262613,0.2,-0.9499321232170883,1.1940518813267353,0.2,0.07477365304650413,1.6235745249531495,0.2,0.5159260180751594,0.3517172633917681,0.2,-0.19816962449092426,-0.10540891862503149,0.2,0,
1.5524139770605496,0.5113380976625276,-0.018799742106043182,0.2,-0.5570512722746742,0.922799180710955,0.2,-0.9352566367588621,1.6181201628256217,0.2,0.0884042221529883,1.385875663438835,0.2,0.5218415683068982,0.8021886569957171,0.2,-0.19579404628450967,0.3570706713957837,0.2,0,
1.5604161109629235,0.5094741094046552,0.19412153242887725,0.2,-0.5500080984843251,0.8274743443723517,0.2,-0.9240422006118784,1.1671083540811187,0.2,0.09694766366152549,1.389930417104044,0.2,0.5287610365870908,0.4439101476874652,0.2,-0.19245649374859172,-0.015841506800728933,0.2,0,
1.5684182448652975,0.5144440421813896,0.3627439271334104,0.2,-0.5438116827647166,0.9865781083945868,0.2,-0.9165829030935642,1.3074881044529,0.2,0.110643108826653,1.723328267729557,0.2,0.5289441306698976,0.05118466207284372,0.2,-0.19604751039332133,-0.22891532553070795,0.2,0,
1.5764203787676716,0.5152780122387898,0.45025204587870876,0.2,-0.5342228487500117,0.7968562242694002,0.2,-0.903122390940632,1.0882583664182655,0.2,0.1245209159451984,1.6839947056900657,0.2,0.5295799911802563,0.6501225858501699,0.2,-0.19611913895708305,0.2964988799250851,0.2,0,
1.5844225126700455,0.521648074915449,0.2211289952521664,0.2,-0.5310619831764062,0.6888836091641439,0.2,-0.8991707692308719,0.8321158254114142,0.2,0.13758702411769405,1.8076203469939571,0.2,0.5393460920435004,0.4735480013840984,0.2,-0.19130352831451997,0.2664926001619029,0.2,0,
1.5924246465724194,0.5188160761628244,-0.09598473895548049,0.2,-0.5232007110033854,0.6679148855449346,0.2,-0.8898085377340493,1.2483852302154068,0.2,0.15344284149710172,1.5539800747386128,0.2,0.5371567592024019,0.06939893022351457,0.2,-0.1918552573544926,-0.002905512828263457,0.2,0,
1.6004267804747934,0.5201123190921613,0.366389160612636,0.2,-0.5203753450076872,0.6661991240123413,0.2,-0.8791966055474254,1.5321891002401598,0.2,0.16245070531351186,1.3718359025036482,0.2,0.5404564749270766,0.31676161050191165,0.2,-0.19135001651977218,-0.054990711084765276,0.2,0,
1.6084289143771673,0.5246783027326266,0.07298998986142446,0.2,-0.5125415250191879,1.104159191894709,0.2,-0.8652935121302068,1.2859549636490275,0.2,0.1753922159371601,1.5114951626483755,0.2,0.5422249449704325,0.6967224174817821,0.2,-0.19273510873184885,0.27704618680352877,0.2,0,
1.6164310482795414,0.5212801589299441,0.028474930660576936,0.2,-0.5027087979373719,0.941852725638917,0.2,-0.858621326129041,1.0960336932998027,0.2,0.18663462791588586,1.7019415118948045,0.2,0.5516040336067851,0.5749994705839464,0.2,-0.18691727753091572,-0.08264429547845571,0.2,0,
1.6244331821819153,0.5251339016231958,0.20587666526728637,0.2,-0.49747188140896526,0.6333706627026231,0.2,-0.8477569730374099,1.0262134314553832,0.2,0.20262328012747696,1.445327438843168,0.2,0.5514249364997756,-0.05478616361213884,0.2,-0.19405741745950414,-0.026295097454350977,0.2,0,
1.6324353160842893,0.5245741855742206,0.41512889312384643,0.2,-0.4925748673341299,0.5310876219597783,0.2,-0.8422019112257548,0.7156555735360267,0.2,0.20975986693737655,1.1268632478981035,0.2,0.5507274549889909,0.3009180885913676,0.2,-0.18733799909018534,-0.01913916044644394,0.2,0,
1.6404374499866632,0.5317759639131774,0.5661753264149527,0.2,-0.4889744794576088,0.5865575931541314,0.2,-0.8363064838608335,0.9337410963749445,0.2,0.22065309209384662,1.578458945175512,0.2,0.5562396259172375,0.5959298697101392,0.2,-0.19436364402664724,-0.16408657207715033,0.2,0,
1.648439583889037,0.5336329907968599,0.15107406997630357,0.2,-0.4831899458436638,0.6215513074683751,0.2,-0.8272620536837557,0.9979972117638499,0.2,0.23501521006018475,1.4350185675276115,0.2,0.5602623329043531,0.2090014208177074,0.2,-0.18996338424341974,0.20675781311927863,0.2,0,
1.6564417177914113,0.5341931490327982,-0.16479669833418392,0.2,-0.4790296585381148,0.6148522314641559,0.2,-0.8203385284726119,1.0674852772579317,0.2,0.2436133891742884,1.2489507847741246,0.2,0.5595836486503208,0.27087699115058844,0.2,-0.19105551901673878,0.20834081799316234,0.2,0,
1.6644438516937852,0.5309962436235129,-0.011293747591643866,0.2,-0.4733523101402373,0.7925072072052786,0.2,-0.8101822892476288,1.323165654624002,0.2,0.25499842261657074,1.3265021589385553,0.2,0.5645963647627625,0.5553665614662014,0.2,-0.18662993115552914,0.2175225164390438,0.2,0,
1.672445985596159,0.5340124490713319,0.31338600612957485,0.2,-0.46634954322283034,0.9128617076921592,0.2,-0.7991678779986279,0.8158075940353504,0.2,0.2648374237173053,1.2042454516107242,0.2,0.5684695136337801,0.244199480879205,0.2,-0.18757515875371408,0.18959760228905512,0.2,0,
1.680448119498533,0.5360104197215861,0.40623836231434146,0.2,-0.45874652281716277,0.42598995143655266,0.2,-0.7971293677430632,0.7310985132988126,0.2,0.2742663498423423,1.3701322264990865,0.2,0.5685035564568298,0.27715524628509763,0.2,-0.18359636951890426,-0.16535364643014033,0.2,0,
1.6884502534009072,0.5405122628683614,0.27109734815373293,0.2,-0.4595337039998455,0.31110206596604223,0.2,-0.7874703017858469,1.2012417451949113,0.2,0.28675953934129067,1.1720578891031737,0.2,0.5729039975743416,0.29066260367076324,0.2,-0.19022081709659633,-0.23719307221613076,0.2,0,
1.696452387303281,0.5403479772920459,0.18648188165807517,0.2,-0.4537688897617061,0.4569277314169888,0.2,-0.7779094998199446,0.7263313913015712,0.2,0.2930192760679931,0.8888794740103574,0.2,0.573154158115562,0.2795319629661924,0.2,-0.18739145867436235,0.17851024217441397,0.2,0,
1.704454521205655,0.5434959729748906,0.15560621417121806,0.2,-0.4522228602971737,0.6089062462270971,0.2,-0.7758489995250217,0.6076821722598019,0.2,0.3009816109254564,1.0986774955606542,0.2,0.5773765089818007,0.3660222416204187,0.2,-0.1873646532218057,-0.007019161083445663,0.2,0,
1.712456655108029,0.5428376767187854,0.07740825611497748,0.2,-0.44402638982207254,0.8275628980785806,0.2,-0.7681865850637878,0.943913124468905,0.2,0.3105981159969636,1.0139382572566802,0.2,0.5790105139814887,-0.03063231358652052,0.2,-0.18750376525169749,0.22384643331614834,0.2,0,
1.7204587890104028,0.5447345050727302,0.2156067785208035,0.2,-0.4389818539279164,0.46311802952510306,0.2,-0.7607463895335193,0.8896445178768891,0.2,0.31720462304156327,0.9937427088828749,0.2,0.5768863919644164,0.42157210122162336,0.2,-0.18378311028874733,0.37961205071864074,0.2,0,
1.728460922912777,0.5462873851751182,0.15810596510883873,0.2,-0.4366165013496709,0.5755955805699028,0.2,-0.7539522727777576,0.6436390595286057,0.2,0.3264979993390896,0.8278423593335686,0.2,0.5857556676010347,0.36063378925808853,0.2,-0.18142997244019923,-0.006765713033462725,0.2,0,
1.736463056815151,0.5472642005144717,0.20582777877905384,0.2,-0.42977232463879794,0.33482782489796525,0.2,-0.7504481645810616,0.5508474096997742,0.2,0.33045010079090037,0.9077693198362365,0.2,0.5826565325925458,-0.008693215489033457,0.2,-0.18389136169728273,-0.22099638079922135,0.2,0,
1.7444651907175248,0.5495806296355831,0.08618200312448393,0.2,-0.43125925615130345,0.046232376793010205,0.2,-0.7451387142225612,0.6885070946952079,0.2,0.34102230845646936,1.1293393331117638,0.2,0.5856165761532102,0.2285305207839622,0.2,-0.18496591453298677,0.06905049899816156,0.2,0,
1.7524673246198987,0.5486431125644634,0.3727321592791391,0.2,-0.4290326066101098,0.43196954424421646,0.2,-0.7394320510659382,0.4922727272559102,0.2,0.3485195301206886,0.7770108586869148,0.2,0.5863130209250892,0.2753067327001049,0.2,-0.18278655371331215,-0.003248974878350755,0.2,0,
1.7604694585222727,0.5555443441840493,0.34864180748967605,0.2,-0.424347743443396,0.5302825347294725,0.2,-0.7372623505864666,0.7551833548161413,0.2,0.35345448219546,0.6530496093767324,0.2,0.5900214838764118,0.21952566324529021,0.2,-0.1850178981310404,0.011985942696992463,0.2,0,
1.7684715924246468,0.5542213814842982,-0.06289341549924055,0.2,-0.4205480860544382,0.4206043492105231,0.2,-0.72734911738888,0.8351942624576641,0.2,0.3589683238707163,0.8448955676008674,0.2,0.5898254315370138,0.08288858731096693,0.2,-0.18259477863016027,0.2600432230835739,0.2,0,
1.7764737263270207,0.5545380495360615,0.301174696072104,0.2,-0.4176180738560276,0.5291736993923956,0.2,-0.723899242387144,0.3531825970574942,0.2,0.3669728112770739,0.7734351876300637,0.2,0.5913477012733873,0.2640199175451968,0.2,-0.1808572065617032,-0.03773102243439207,0.2,0,
1.7844758602293946,0.5590401766214519,0.20594014455716653,0.2,-0.4120813068641599,0.2655521623412052,0.2,-0.7216981958359601,0.28751570688585054,0.2,0.37134328687279733,0.4851300330455874,0.2,0.594049750217737,0.23524937268957352,0.2,-0.18319847498911054,0.1221505324725241,0.2,0,
1.7924779941317686,0.5578330918489761,-0.038440855022935094,0.2,-0.41336923925856833,0.0981988836998536,0.2,-0.7192989910769704,0.35336252918869576,0.2,0.37473489180580327,0.5626520376339171,0.2,0.5951116912364205,0.14240877893185316,0.2,-0.17890279804214282,0.3024652966835215,0.2,0,
1.8004801280341425,0.5584251229410849,0.09331719259764171,0.2,-0.41051012472496223,0.47526394253161186,0.2,-0.7160443953689409,0.7006920654488852,0.2,0.38034571947494,0.8101186470634777,0.2,0.5963282906806466,0.02863419277015361,0.2,-0.1783590302421742,0.17073758265673428,0.2,0,
1.8084822619365166,0.5593261669305384,0.36259153286840456,0.2,-0.40576501617806254,0.2533563746846372,0.2,-0.7080879180297882,0.48410135071932925,0.2,0.3876967901588189,0.4642711326410115,0.2,0.595569838320743,0.028007341991667656,0.2,-0.17617099671963507,0.19199515861326177,0.2,0,
1.8164843958388905,0.5642265874669794,0.2246878715332981,0.2,-0.40645642273000804,-0.018506182342638983,0.2,-0.7082987737574317,-0.12071973682524495,0.2,0.3877740575971962,0.34850595564651227,0.2,0.5967764081525133,0.14990005149041752,0.2,-0.175287107704362,-0.19130061777236293,0.2,0,
1.8244865297412645,0.5629211728750712,0.1731905060525854,0.2,-0.40606111509554477,0.18534451152439624,0.2,-0.7100194338189921,0.4645203282324373,0.2,0.3932728854491631,0.36818433155917996,0.2,0.5979682391445896,-0.3415729464154166,0.2,-0.17923180660399288,-0.3477285980509354,0.2,0,
1.8324886636436384,0.5669976355638208,0.1267534324208286,0.2,-0.4034909105456177,0.18775493934650514,0.2,-0.7008664485057127,0.6806082650765779,0.2,0.39366500690214307,-0.03444529746413766,0.2,0.5913112410098667,-0.006480325758409511,0.2,-0.18085076527317698,0.13526317185550904,0.2,0,
1.8404907975460125,0.5649492277938044,0.01519744814670182,0.2,-0.4030570360660007,-0.09917718270443729,0.2,-0.6991297015777669,0.22369294639180276,0.2,0.3927217606897369,0.44351210973703203,0.2,0.5978645539324551,0.5083212737341594,0.2,-0.17706759585430473,0.11000487807815915,0.2,0,
1.8484929314483864,0.567240794734168,0.13438802616818485,0.2,-0.4050777454688887,0.04799650025736485,0.2,-0.6972873613634438,-0.23078488234142686,0.2,0.4007612006579356,0.3749199193840459,0.2,0.5994443813896132,0.12978436481242417,0.2,-0.17909068722392643,0.022825665119744626,0.2,0,
1.8564950653507604,0.5670994362124954,0.2879383127168608,0.2,-0.40228909206188285,0.3907229693721134,0.2,-0.7028222596952297,-0.009888520537605638,0.2,0.39872047939988164,0.03300068419852947,0.2,0.5999411037694539,0.15763660934196844,0.2,-0.17670238521238882,0.04875326575930032,0.2,0,
1.8644971992531343,0.5718478077376378,0.2267590143968587,0.2,-0.3988261779589349,0.06169449464660248,0.2,-0.6974455776920455,0.11861942657255542,0.2,0.40128921160511205,-0.012661097039543684,0.2,0.6019665671390847,0.06852979236925127,0.2,-0.17831063497177763,0.17865158837208212,0.2,0,
1.8724993331555082,0.5707275804428451,0.11813099199620841,0.2,-0.4013019801475372,-0.014901355712752112,0.2,-0.7009243488700688,0.04828579389756782,0.2,0.39851790184724895,0.09591025515514467,0.2,0.6010375804473619,0.022012408260621563,0.2,-0.1738439597984355,0.4966740328082725,0.2,0,
1.8805014670578823,0.5737379036095771,0.31937801957736267,0.2,-0.3990645996503389,0.0033488105574200344,0.2,-0.6966730049896844,0.19458594468824836,0.2,0.40282377568759437,0.08484995492321831,0.2,0.6023187656712546,-0.020372784407036992,0.2,-0.17036385044684527,-0.032339813335967305,0.2,0,
1.8885036009602563,0.5758376287560829,0.2252524889487309,0.2,-0.4012483991786185,-0.14624628068499526,0.2,-0.6978109737550569,-0.47274486746352873,0.2,0.39987550112602044,-0.3206543075731198,0.2,0.6007116158968493,-0.13968783610739804,0.2,-0.17436139681181098,-0.3494328338332839,0.2,0,
1.8965057348626302,0.5773419434327568,0.37909686494856654,0.2,-0.40140454014129884,-0.2618747176154762,0.2,-0.7042369228691009,-0.3804341395135802,0.2,0.39769330676642445,-0.1941907174695945,0.2,0.6000837602935363,-0.1316780306330756,0.2,-0.1759547757881778,0.08540697480875943,0.2,0,
1.904507868765004,0.58190317859526,0.1232959189107069,0.2,-0.4054383946604661,-0.14824300780313937,0.2,-0.7038979199872741,0.026201377300444362,0.2,0.3967684496465069,-0.28515785500288215,0.2,0.5986047674067201,-0.06798965680308855,0.2,-0.17299488521487083,0.16243895436588404,0.2,0,
1.912510002667378,0.5793146781353281,0.08126635451780051,0.2,-0.40377642826614907,0.32156366320065105,0.2,-0.7038177008322938,0.16643457538888934,0.2,0.39313078108637833,-0.41799768106255686,0.2,0.5989959257846869,-0.2061501644221933,0.2,-0.17335575251832366,0.026868835589617668,0.2,0,
1.9205121365697522,0.5832034402675448,0.3777313150427897,0.2,-0.4002933760492557,0.09295029933853449,0.2,-0.7012349667810519,-0.4054917628076582,0.2,0.390080486749506,-0.22044807063983235,0.2,0.595306364775965,-0.0644262517743438,0.2,-0.17256498384543695,0.024311983351364697,0.2,0,
1.928514270472126,0.5853583791760127,0.3634410004880462,0.2,-0.4022892234767325,-0.27834215221203895,0.2,-0.7103055690372163,-0.6013047896374981,0.2,0.389603611956141,-0.15233726605089204,0.2,0.5979651057562974,-0.09748972258343674,0.2,-0.17296676078470183,0.02388388160799726,0.2,0,
1.9365164043745,0.5890184962753535,0.2584002905433244,0.2,-0.4047468504846483,-0.26718885590620506,0.2,-0.7108558434152519,-0.29518100875842307,0.2,0.38764309049269174,-0.42937773740613083,0.2,0.59374652921463,-0.2287412815641654,0.2,-0.172182841739709,0.2587876814476031,0.2,0,
1.944518538276874,0.5894927838247059,-0.1715899144956179,0.2,-0.4065642451712318,-0.3297303534400171,0.2,-0.7150284651773511,-0.08197930145224103,0.2,0.3827335681576429,-0.5483186592419378,0.2,0.5943052452512707,0.03855773177938171,0.2,-0.16882615788154018,0.10952158235264658,0.2,0,
1.9525206721792479,0.5862730576434236,0.08702794446869416,0.2,-0.4100225361396886,-0.40172624079449354,0.2,-0.7121675122384877,-0.2933031175968506,0.2,0.37886999194482074,-0.5235323884809558,0.2,0.5943634529231001,0.1913772543565076,0.2,-0.17043049642206665,0.04103678548431251,0.2,0,
1.960522806081622,0.590885230936205,0.500568579551372,0.2,-0.4129918650239437,-0.034541007139402696,0.2,-0.7197213150589007,-0.5188910657320175,0.2,0.37435704994194763,-0.6032444143948407,0.2,0.5973672813209748,-0.25057881806005156,0.2,-0.16816956931379118,-0.0020843252592772643,0.2,0,
1.968524939983996,0.5942821549162456,0.3526907463364884,0.2,-0.41057519225391903,-0.25327527572166497,0.2,-0.7204697692902,-0.4602603606138414,0.2,0.3692180813145033,-0.6316677626101823,0.2,0.5903541918341393,-0.17603496169248112,0.2,-0.17046384562621508,-0.004720713961601369,0.2,0,
1.9765270738863698,0.5965282828775889,0.24269705473099062,0.2,-0.41704426943549033,-0.8082488717141636,0.2,-0.7270854808287222,-0.7201685235913163,0.2,0.3642503657401847,-0.7666540059493299,0.2,0.5945507219338951,0.04727953799901763,0.2,-0.1682451007371768,-0.05935409077575601,0.2,0,
1.9845292077887438,0.5981653077919414,0.10299064586981321,0.2,-0.42350717420134565,-0.5659973728982178,0.2,-0.7319924656676611,-0.639419333727298,0.2,0.356951617219314,-0.9649798096896707,0.2,0.5911106644421236,-0.4537603638178414,0.2,-0.17141351107862718,0.1635583040829492,0.2,0,
1.992531341691118,0.5981761332115059,0.16098643327112916,0.2,-0.4261002274018618,-0.16990290960807938,0.2,-0.7373161901683589,-0.533128956819874,0.2,0.34881068878515,-0.7998214725684557,0.2,0.5872905561128097,-0.3038550903522244,0.2,-0.1656281678718496,0.27853624679344613,0.2,0,
2.0005334755934916,0.6007410907242795,0.1081171932503025,0.2,-0.4262256207550749,-0.14399580635442166,0.2,-0.7405225289767791,-0.4533626085035797,0.2,0.3441544736582187,-0.4928678271588424,0.2,0.586248982996488,-0.11964567590915659,0.2,-0.16695693112993204,-0.02511460330474266,0.2,0,
2.0085356094958655,0.5999060083035107,0.2667201430483074,0.2,-0.42840416030353257,-0.295376561429056,0.2,-0.7445699919044162,-0.6712790894633641,0.2,0.3409248035506085,-1.0126148819923422,0.2,0.5853762252982632,-0.3234564479638463,0.2,-0.1660300015247255,0.09970500774820687,0.2,0,
2.01653774339824,0.6050086130130524,0.13017198393410617,0.2,-0.4309516457379398,-0.4428131677564652,0.2,-0.7512629944081929,-0.659282603099269,0.2,0.32795263554634124,-1.0063648650884618,0.2,0.5810736798290664,-0.10332368826426741,0.2,-0.16536165100596073,0.02847610747561645,0.2,0,
2.024539877300614,0.6019887600464564,0.24577848922029133,0.2,-0.435489170987636,-0.5959197797621753,0.2,-0.7551185135540045,-0.8161338016845417,0.2,0.3248229657091931,-0.6590136397058785,0.2,0.5837230462860349,-0.12107870434127643,0.2,-0.16557438380511563,0.10885456682539936,0.2,0,
2.0325420112029877,0.6089410688405771,0.294553849887684,0.2,-0.4404863622141346,-0.7408407149636295,0.2,-0.7643211352351456,-1.1244356791137444,0.2,0.3174084173110472,-1.0353639809928852,0.2,0.579136420559606,-0.646741169240815,0.2,-0.16361997793675434,0.0883347301591942,0.2,0,
2.0405441451053616,0.6067016216446594,-0.029010963061709694,0.2,-0.4473426224270541,-0.5410621139858123,0.2,-0.7731094844198244,-0.857861271653125,0.2,0.30825714201330695,-1.101854751251217,0.2,0.5733751875781818,-0.41259637553910794,0.2,-0.16416102812256853,0.020037726424561655,0.2,0,
2.0485462790077356,0.6084768934315897,0.20414563515133016,0.2,-0.4491433560379076,-0.3550948680465585,0.2,-0.7780469155815956,-0.4103077971175234,0.2,0.2997787412910277,-0.9825218186219515,0.2,0.5725348785509803,-0.0767985462727383,0.2,-0.16329937431396135,0.254835390314739,0.2,0,
2.0565484129101095,0.6099679518070806,0.2567593849337399,0.2,-0.453024140315799,-0.650664501232176,0.2,-0.7796744091737048,-0.6551809786694424,0.2,0.2925367929153557,-0.8664487897819921,0.2,0.572146410837818,-0.16151129984771917,0.2,-0.1600836618775327,-0.20140326227229693,0.2,0,
2.0645505468124834,0.6125850435905296,-0.008411290507624736,0.2,-0.45955398805762243,-0.7092015633071609,0.2,-0.7885298112403066,-1.423451963204786,0.2,0.28591556065451584,-1.4431290736052413,0.2,0.5699506977534168,-0.2161652246967377,0.2,-0.1665218265103181,0.2307105211499967,0.2,0,
2.0725526807148573,0.6098333711589586,0.21581406759852567,0.2,-0.4643713653287136,-0.5680609492528139,0.2,-0.8024496405849814,-1.1531337244666262,0.2,0.26944672773767187,-1.567393312123376,0.2,0.5686877672426702,-0.3609304027616597,0.2,-0.15639229353913275,0.3091836335797921,0.2,0,
2.0805548146172312,0.616038068672106,0.7191364306269945,0.2,-0.46864296324566745,-0.7247890959221382,0.2,-0.8069799508317727,-0.655618377687503,0.2,0.2608372676605418,-0.9137788950325382,0.2,0.5641758113092302,-0.3884575168590712,0.2,-0.16157488837304143,-0.4242873222226745,0.2,0,
2.0885569485196056,0.6213395540489905,0.4152516433742273,0.2,-0.4759679908634678,-0.47967462334836186,0.2,-0.8129395346279814,-0.7569177311309502,0.2,0.25482626541715125,-1.0790463926891227,0.2,0.5624724469729251,-0.3205907294499058,0.2,-0.16318089069469555,0.1442324252661723,0.2,0,
2.0965590824219795,0.6226820949660936,-0.26592803165741835,0.2,-0.47631775721924124,-0.5812133679871379,0.2,-0.8190906345298679,-1.0174987908808801,0.2,0.24357252537751586,-1.5377167447007227,0.2,0.5590463596380317,-0.5621914199380879,0.2,-0.15926716956878267,-0.027639789041777538,0.2,0,
2.1045612163243534,0.6170847055424719,-0.07149174049280588,0.2,-0.485267404751262,-0.9634085041536795,0.2,-0.8292195152820755,-1.0763814395818236,0.2,0.2302227975019397,-1.6331081569051307,0.2,0.5534773842539157,-0.27634208060058063,0.2,-0.163623127319364,-0.008842812750924078,0.2,0,
2.1125633502267274,0.6215382271182087,0.42739077691372057,0.2,-0.4917322932857001,-0.7328109666762638,0.2,-0.836312737563177,-0.9273170811753412,0.2,0.21744279486703377,-1.5998501962388514,0.2,0.5546248863484224,0.031151510169788454,0.2,-0.15940865457279746,0.30244012741072884,0.2,0,
2.1205654841291013,0.6239229579730914,0.24450998492015624,0.2,-0.49699238021808223,-0.6459895367077195,0.2,-0.844056588580881,-1.0745785111346133,0.2,0.20462519436211807,-1.220454559834905,0.2,0.5539758084166323,-0.3235063223698195,0.2,-0.15878408528079233,0.27867312920020965,0.2,0,
2.128567618031475,0.6254503868769312,0.0533628902121136,0.2,-0.5020681258730236,-0.5348355685216091,0.2,-0.8535059937413308,-1.3136078053432934,0.2,0.1979155219096753,-1.2310509666286114,0.2,0.5494487851905053,-0.5888520476917403,0.2,-0.1549498845055941,0.2556734872068214,0.2,0,
2.136569751933849,0.6247767642164852,0.10281244521016114,0.2,-0.505549749314428,-0.4873584056095809,0.2,-0.8650743134663736,-1.152811759943688,0.2,0.18492837889606029,-1.7348002946654673,0.2,0.5445541756535645,-0.3437708231154718,0.2,-0.15469330948548318,-0.11157093058960024,0.2,0,
2.144571885836223,0.6270953860002938,0.4918896365791181,0.2,-0.5098658603627769,-1.0078337545787532,0.2,-0.8719509819004299,-0.8290398308030134,0.2,0.17015871719502781,-1.821953661029458,0.2,0.5439484520206578,-0.2821389310979014,0.2,-0.1567350193950277,-0.062046464982366475,0.2,0,
2.152574019738597,0.6326469984017511,0.320784390923555,0.2,-0.521675089387688,-1.0579197736969164,0.2,-0.8783389507592219,-1.1957062281929831,0.2,0.15577712031958896,-1.4916145709110775,0.2,0.540039952755998,-0.21414567772751886,0.2,-0.15568605292520105,-0.12624952705707002,0.2,0,
2.160576153640971,0.6322279362550707,-0.0038156594140414946,0.2,-0.5267925767419276,-0.7600647819066344,0.2,-0.8910822815515176,-1.4465389942054443,0.2,0.14629288406045057,-1.3791265948042593,0.2,0.5405221211770175,-0.47053882467108094,0.2,-0.15875501182794083,0.2222116305929632,0.2,0,
2.1685782875433453,0.6325859478511264,0.2541495866153626,0.2,-0.5338361258981942,-0.7948432811725539,0.2,-0.901483574666509,-1.0753327452857688,0.2,0.1337110948027208,-1.6093478787931828,0.2,0.5325113315612607,-0.6190674554382782,0.2,-0.15213066683571363,0.17820148171277667,0.2,0,
2.176580421445719,0.6362943296409165,0.40875440330151447,0.2,-0.5395100692406885,-0.8204220030764986,0.2,-0.9082876054760899,-1.1471108883849903,0.2,0.12054331799975965,-1.547883002981124,0.2,0.530617041890005,-0.1760463823925265,0.2,-0.1559037881205364,0.02899248908203554,0.2,0,
2.184582555348093,0.6391260183039507,0.12327953712556322,0.2,-0.5469628779474182,-0.7399652532125711,0.2,-0.9198373488806688,-1.3369057832801345,0.2,0.10894496675502283,-1.8215325284887802,0.2,0.5296945894429803,-0.48112438884848063,0.2,-0.15166678701040107,0.08432784731029173,0.2,0,
2.192584689250467,0.6382668022349255,-0.0294782469490093,0.2,-0.5513495132920896,-0.7164078223603348,0.2,-0.929678098008572,-1.0706122210976179,0.2,0.09139879754393916,-1.5858911846627572,0.2,0.5229190516684293,-0.3848384317968051,0.2,-0.15455454256357173,-0.13800496961826647,0.2,0,
2.200586823152841,0.6386543663527665,0.21397739099302676,0.2,-0.5584254031051835,-0.8027263105831253,0.2,-0.9369671444182307,-1.0620667602265697,0.2,0.08357070780041871,-1.3085041175631018,0.2,0.5235371745342314,-0.22533676885253678,0.2,-0.15387486652429333,0.1624689152779149,0.2,0,
2.208588957055215,0.6416904404908139,0.3421211053927162,0.2,-0.5641931342614196,-1.040709619256168,0.2,-0.9466711661721972,-1.5056470701436535,0.2,0.07046273166292953,-1.6222858843978285,0.2,0.5193136633667887,-0.685649404724778,0.2,-0.1519550399191251,0.03681319260472049,0.2,0,
2.2165910909575888,0.64412830403905,0.4433639641346285,0.2,-0.5750767570132822,-0.9920725609555355,0.2,-0.9610574975405292,-1.5656353971457635,0.2,0.05761413365005345,-1.8602353461086893,0.2,0.512566784058635,-0.37560786000659374,0.2,-0.1532858554426178,-0.055083478008784506,0.2,0,
2.2245932248599627,0.648784263916968,0.21924859354995052,0.2,-0.5800662952367082,-0.9463579276809408,0.2,-0.9717213325265294,-1.0155308580596032,0.2,0.0406989661251905,-1.816766408223676,0.2,0.5133039376066832,-0.3994719803079444,0.2,-0.15283637556726565,0.2009133538340875,0.2,0,
2.2325953587623366,0.6476362815358492,0.2467879517074334,0.2,-0.5902184838561773,-0.9731399700001198,0.2,-0.9773059912694828,-1.088355118928949,0.2,0.028545871118474637,-1.585920167156724,0.2,0.5061752323737079,-0.5047923686651717,0.2,-0.1500712417812724,0.11132158244849324,0.2,0,
2.240597492664711,0.6527328711442869,0.37651876905225173,0.2,-0.5956365347567101,-0.4800304488668458,0.2,-0.9891350144293926,-1.2692690330105838,0.2,0.015324243450682914,-1.4972590019261802,0.2,0.5052272597080405,-0.06522756542666486,0.2,-0.15105523024808976,-0.12989040639301008,0.2,0,
2.248599626567085,0.6536605818406852,-0.031137648604427637,0.2,-0.5978989710380468,-0.506700614863631,0.2,-0.9976142957976522,-1.0579166478970128,0.2,0.004589727087655753,-1.5161751404492365,0.2,0.5051315913268812,-0.7429276650009405,0.2,-0.15214948828356056,0.053683668758155306,0.2,0,
2.256601760469459,0.6522346687666161,-0.06805252576151666,0.2,-0.6037437445945282,-1.1743214059919336,0.2,-1.0060616807957448,-1.1009502025995377,0.2,-0.00893455879650487,-1.8727505842431735,0.2,0.49334041706802545,-0.8153770894606914,0.2,-0.15019629154795927,0.21666096085161748,0.2,0,
2.2646038943718327,0.6525717414285009,0.031762565309165214,0.2,-0.6166881135339177,-1.0523043460485757,0.2,-1.0152294990392448,-1.265303536745338,0.2,-0.025374282260235026,-1.7844892571501934,0.2,0.4920855578955102,-0.2700721384563745,0.2,-0.14868291290993468,0.14452594487731305,0.2,0,
2.2726060282742067,0.6527428698115627,0.22004651575349005,0.2,-0.6205806141313054,-0.6018011330119823,0.2,-1.0263065373836702,-1.4454918339165679,0.2,-0.037486386910907964,-1.81186847435153,0.2,0.48901926285272346,-0.25426540285606797,0.2,-0.14788387642992226,0.007530064621471752,0.2,0,
2.2806081621765806,0.6560924856805568,0.17304961519472306,0.2,-0.6263169316621094,-0.769280877796652,0.2,-1.0383573683819098,-1.3175832229057465,0.2,-0.05436417784985951,-1.6328510312872149,0.2,0.4880173114498131,-0.345498186358293,0.2,-0.14856243187599114,0.08870743853128804,0.2,0,
2.2886102960789545,0.6555116636546783,0.3187112981231921,0.2,-0.6328891081760518,-0.6405918545243222,0.2,-1.0473878689501621,-1.1592930498832559,0.2,-0.0636120034115034,-1.4105774243163078,0.2,0.48349129187099077,-0.314687098203998,0.2,-0.14646455741342165,0.18765750201364673,0.2,0,
2.2966124299813284,0.6611918664505279,0.29579671257189827,0.2,-0.6365664013344986,-0.7843081562221854,0.2,-1.056906057180042,-1.2042558134305326,0.2,-0.07693341663892043,-1.7318536705555974,0.2,0.4829823178785491,-0.4258661875103653,0.2,-0.1455599118437728,-0.0622312549136729,0.2,0,
2.3046145638837023,0.6602444110558287,-0.0815175356057643,0.2,-0.6454380386756068,-0.98260359319189,0.2,-1.0666559619650506,-1.0282370829191312,0.2,-0.09132166214039296,-1.8538094588237546,0.2,0.4766774328708249,-0.5911286434666652,0.2,-0.14746025749204042,0.02622718399010633,0.2,0,
2.3126166977860763,0.6598875858808356,0.32266529566608165,0.2,-0.6522880588255688,-0.8386727562416513,0.2,-1.073357850506748,-1.1986935577310565,0.2,-0.10659436798010051,-1.4908588885243854,0.2,0.4735242595830825,-0.49418039585846435,0.2,-0.1451402768999311,0.2631726075566238,0.2,0,
2.3206188316884506,0.665407055786486,0.39668767985384656,0.2,-0.6588568027754732,-0.7698583404515332,0.2,-1.0858350588887475,-1.3005433031684777,0.2,-0.11517540435678313,-1.4214183605841266,0.2,0.4687705465370895,-0.31615157595142257,0.2,-0.14324949577113444,0.14470024611409546,0.2,0,
2.3286209655908245,0.6662345887584972,-0.03141468913631096,0.2,-0.6646057922727934,-0.6148017667311142,0.2,-1.0941665433574437,-1.261355432201197,0.2,-0.12933706174944654,-1.8096785100959563,0.2,0.4684658343678597,-0.08346481174893727,0.2,-0.14282507296210556,-0.14159396075517394,0.2,0,
2.3366230994931985,0.664904420760305,0.05560291296734937,0.2,-0.668693631043171,-0.7721191863226742,0.2,-1.1060167458039667,-1.1573480450309537,0.2,-0.14413026051831843,-1.4453242414148997,0.2,0.4674351095491065,-0.41540419568617326,0.2,-0.14551499914321722,-0.06829749589735111,0.2,0,
2.3446252333955724,0.6671242353659748,0.20819050923624738,0.2,-0.6769596992539562,-1.0162073765369872,0.2,-1.112684112077939,-1.163553263976394,0.2,-0.15246224961208493,-1.633462106913114,0.2,0.46181936723688094,-0.6986805332340057,0.2,-0.14391783289646318,0.22583524010543962,0.2,0,
2.3526273672979463,0.6682354689080849,0.3196061875183759,0.2,-0.6849529490677628,-0.7709828482532279,0.2,-1.124633598027589,-1.315541543340251,0.2,-0.17026565422892825,-1.4032834906836864,0.2,0.4562562210173624,-0.3272767324238139,0.2,-0.1419016353015302,0.15857440099286377,0.2,0,
2.3606295012003202,0.6722379343662688,0.20015237822525178,0.2,-0.6892954248260078,-0.525431417158613,0.2,-1.133732776771383,-1.3359032867533287,0.2,-0.17491478546302391,-1.3955350442312522,0.2,0.4565829395180999,-0.32198357621952484,0.2,-0.14138064248057736,-0.10719890686038125,0.2,0,
2.368631635102694,0.671437906959689,0.18734031554132335,0.2,-0.6933598517423006,-0.864798431520812,0.2,-1.1460080506156423,-1.1574471951712877,0.2,-0.1925942149366283,-1.6557932371078654,0.2,0.45110448379785,-0.40728045705466437,0.2,-0.1436168178112963,0.012440493793694149,0.2,0,
2.376633769005068,0.67523537941493,0.2591817309781988,0.2,-0.7031321997303408,-0.9260023523292304,0.2,-1.1522519318941236,-0.9800611659961656,0.2,-0.20140747725674976,-1.4848328952455567,0.2,0.4500664522052253,-0.39893702549646454,0.2,-0.14118159457987825,0.2695102336392578,0.2,0,
2.384635902907442,0.6755848146553401,0.05816566993399608,0.2,-0.7081758893795683,-0.7224627070208308,0.2,-1.161689029271581,-1.0635571468526477,0.2,-0.2163515412605572,-1.4729911735161059,0.2,0.4447214913899066,-0.51947487400952,0.2,-0.13930465407306816,0.09492742700597384,0.2,0,
2.3926380368098163,0.6761660301338739,0.203527590163656,0.2,-0.7146916030426741,-0.4904973343464389,0.2,-1.169268846243766,-0.9986624807251654,0.2,-0.22497533603300746,-1.100667242295447,0.2,0.44175485422107297,-0.1633276184776003,0.2,-0.13966275574778267,0.05497465680551206,0.2,0,
2.4006401707121903,0.6788412560979586,0.21619698297026257,0.2,-0.7160238467291113,-0.5329802223264581,0.2,-1.1776676289631836,-0.8441372431801653,0.2,-0.23396221713728435,-1.6030047864355954,0.2,0.44210824949426497,-0.21668776437570175,0.2,-0.13842505956417997,-0.005821491593439171,0.2,0,
2.408642304614564,0.6796251818613981,0.45905701293329215,0.2,-0.7232192865998974,-0.6030541734287492,0.2,-1.1827750421346486,-0.8637945513539358,0.2,-0.250623412615977,-1.5010704515710984,0.2,0.43828784999106174,-0.6175777325200388,0.2,-0.1397558996132777,0.0026298689715410772,0.2,0,
2.416644438516938,0.6861861683048913,0.2613487721001284,0.2,-0.7256727135039713,-0.8400653689496842,0.2,-1.1914883417848465,-1.0666463137441877,0.2,-0.2579793443624219,-1.1872945874691863,0.2,0.43222700577394435,-0.3726813209595503,0.2,-0.1383829816606353,0.08573444107964033,0.2,0,
2.424646572419312,0.6838067622150001,0.060592093030116534,0.2,-0.7366603325030924,-0.8914310674977346,0.2,-1.1998413831545556,-0.8232773207906274,0.2,-0.26962012601548396,-1.278791712228028,0.2,0.43232494885570893,-0.08992701729498148,0.2,-0.13838414855600345,0.14290350377133693,0.2,0,
2.432648706321686,0.6871556417933732,0.2882988009968515,0.2,-0.7399356105839351,-0.3549177962698588,0.2,-1.2046607789174966,-0.8564860150351711,0.2,-0.27844001175807037,-0.8767180293026561,0.2,0.43078817349722465,-0.3986598851705367,0.2,-0.13609652560029392,0.07277962189310844,0.2,0,
2.44065084022406,0.6884195430309498,0.2223236077904464,0.2,-0.7423390172434101,-0.5212602721761314,0.2,-1.2135451593951183,-1.134274281134301,0.2,-0.28364761448432646,-1.2301831438857151,0.2,0.42594639069298035,-0.2933977933004331,0.2,-0.13721967460571372,-0.32760840187545137,0.2,0,
2.448652974126434,0.6907128195180203,0.11732598312066966,0.2,-0.7482757749387532,-0.6663137672549765,0.2,-1.2228091674156454,-1.0339153879307117,0.2,-0.2981229420602418,-1.0195785135780517,0.2,0.4260938088044177,-0.166024166571431,0.2,-0.14133826003030114,0.024004523602436795,0.2,0,
2.4566551080288077,0.6902967587608805,0.0711259095161551,0.2,-0.7530000375194897,-0.5211006987889746,0.2,-1.2300878056020097,-0.7942158173070424,0.2,-0.2999608707015753,-0.939458700941538,0.2,0.42329000402783745,-0.2831503427020744,0.2,-0.13683560222807473,0.386641808249117,0.2,0,
2.4646572419311816,0.6918508340702788,0.380496609538844,0.2,-0.7566133861193768,-0.43085923545355814,0.2,-1.235516620492558,-0.7690023042581373,0.2,-0.3131542812753064,-1.2556390586218948,0.2,0.4215634033211845,-0.04119575028065092,0.2,-0.13515199109831527,0.2651194109564003,0.2,0,
2.472659375833556,0.696384704513502,0.20111050417898763,0.2,-0.7598937852867467,-0.3514355565571864,0.2,-1.24239184247014,-0.8309257273067389,0.2,-0.3200510956395256,-0.8912564030047199,0.2,0.42263087202334704,-0.17595652538369283,0.2,-0.13259369165277232,-0.11485793575384193,0.2,0,
2.48066150973593,0.6950686021371426,0.038290448956354584,0.2,-0.7622363550242918,-0.5675874395039138,0.2,-1.2488114321294659,-0.6202364253331261,0.2,-0.32741438372338194,-1.0513624402309178,0.2,0.41874809891504544,-0.48592851520019853,0.2,-0.13698971807037674,-0.16974610256197467,0.2,0,
2.488663643638304,0.6969973516968037,0.4002694302353421,0.2,-0.7689751843188093,-0.6360472514361434,0.2,-1.25231562527547,-0.4186966733903119,0.2,-0.3368728946832203,-0.9941042476361122,0.2,0.41485601578014386,-0.20279635675221272,0.2,-0.13530962929376392,0.2642495987805679,0.2,0,
2.4966657775406778,0.7014729130209081,0.06073036301892237,0.2,-0.7724131110472701,-0.44722250927363427,0.2,-1.2555105789037109,-0.6215491642605347,0.2,-0.34332005168555974,-1.1214761622602154,0.2,0.41550335720701004,-0.23432926403492427,0.2,-0.13276172448988766,0.03926228286480968,0.2,0,
2.5046679114430517,0.6979690375051064,0.15553869555694905,0.2,-0.7761307444671874,-0.34130589122051413,0.2,-1.2622604119036385,-0.840712985911235,0.2,-0.35481651327938374,-0.7517030444264411,0.2,0.4111067475555851,-0.2722613032851116,0.2,-0.13468143276792696,0.05995904405778178,0.2,0,
2.5126700453454256,0.7039615321498193,0.34818648345199404,0.2,-0.7778740053067983,-0.2638250855712884,0.2,-1.2689619866782906,-0.625860389143168,0.2,-0.3553473003963828,-0.6693665403209835,0.2,0.41114717635444825,-0.24540636865040544,0.2,-0.13180237978496315,0.32342756024317765,0.2,0,
2.5206721792477995,0.7035400212403383,0.16326862899240097,0.2,-0.780351945836328,-0.10519763126600606,0.2,-1.2722741781299292,-0.43101560453134846,0.2,-0.3655263779245195,-1.1253748446860903,0.2,0.4071802456571786,-0.3549328328679782,0.2,-0.12950659180403612,-0.15659602625040825,0.2,0,
2.5286743131501734,0.7065738302136977,0.165675827288346,0.2,-0.7795571674070544,-0.3818984290650945,0.2,-1.2758582363507922,-0.7107172711144083,0.2,-0.37335329791136024,-0.5762997337514959,0.2,0.4054682510285606,-0.06341959316845391,0.2,-0.13430791620496968,-0.15700300406519194,0.2,0,
2.5366764470525474,0.7061908344769519,0.20178402460530043,0.2,-0.7864623207013696,-0.6287764893156064,0.2,-1.2836456544677597,-0.5703346866672288,0.2,-0.3747471736645434,-0.027919640809229845,0.2,0.4061655321664833,-0.1788067473699681,0.2,-0.1320186398690792,0.23611359002407606,0.2,0,
2.5446785809549217,0.7098023746073825,0.3510602563753934,0.2,-0.7896175912361041,0.04703354879342231,0.2,-1.2849835913374679,-0.2628622301334843,0.2,-0.3738000121643079,-0.32004307584746966,0.2,0.4026073430706411,0.05017021966076049,0.2,-0.13053009876458446,0.17923792847249903,0.2,0,
2.5526807148572956,0.7118077985789582,0.1649752352170103,0.2,-0.7857097839206748,-0.15829611116003478,0.2,-1.2878514501498954,-0.37831633214403804,0.2,-0.3798678628781029,-0.8057955907007849,0.2,0.4069682556810555,0.0209985282352311,0.2,-0.1291508330135192,-0.0009375778783227845,0.2,0,
2.5606828487596696,0.7124419783708547,0.30498294599595743,0.2,-0.7921503290146646,-0.30998377896663404,0.2,-1.2910366526517725,-0.19010858152836152,0.2,-0.3866927416155205,-0.6887409922537654,0.2,0.4029433195224048,-0.1368132077013938,0.2,-0.13054510001063763,0.09786208940276882,0.2,0,
2.5686849826620435,0.7166875257148935,0.23854513738157113,0.2,-0.790669524384141,-0.2439447862178437,0.2,-1.2908931874543492,-0.27883313662564746,0.2,-0.39088771875416317,-0.3588013273733148,0.2,0.4047792443578332,-0.0388027901177708,0.2,-0.1275850395830749,0.15476524288939897,0.2,0,
2.5766871165644174,0.7162587005689598,-0.11156555940432938,0.2,-0.7960534455941501,-0.3779444847446037,0.2,-1.2954979828377828,-0.6348921288122505,0.2,-0.3924335628534935,-0.193926001041584,0.2,0.4023224748805205,-0.3445636129727862,0.2,-0.12806885612440724,-0.2548941986080366,0.2,0,
2.5846892504667913,0.7149024767644242,-0.0028892019235046695,0.2,-0.7967166361400546,-0.0792207222112401,0.2,-1.3010514615153452,-0.166484875373199,0.2,-0.3939905347708285,-0.25731404168037597,0.2,0.3992662265502686,-0.06688556235142848,0.2,-0.1316633467608035,-0.06359912023475196,0.2,0,
2.5926913843691652,0.7162124733381837,0.3628974605236965,0.2,-0.79732097714953,-0.313785391103813,0.2,-1.298161740843754,0.12659971289842586,0.2,-0.3965505875203795,-0.3656964678384368,0.2,0.4012523058828976,-0.02275418520782113,0.2,-0.12908644204816327,0.354880389228018,0.2,0,
2.600693518271539,0.7207088361328033,0.48283768494368495,0.2,-0.8017372023977156,-0.2612534516385906,0.2,-1.2990258661089704,0.028203460002942937,0.2,-0.3998416782562435,-0.15304457957237422,0.2,0.39890215958694347,-0.10484946474336246,0.2,-0.1259852605331552,0.2939040280647244,0.2,0,
2.608695652173913,0.7239378762972827,0.014178227949225575,0.2,-0.8015010323757474,-0.06391653009196058,0.2,-1.297710485483707,-0.050492635075768955,0.2,-0.3989993007935375,-0.05252674737858676,0.2,0.3995747144470038,0.19233089595139044,0.2,-0.12438397759912768,-0.12538230615593074,0.2,0,
2.616697786076287,0.720935687779991,0.22698517359334008,0.2,-0.802759866879187,0.17439941656404584,0.2,-1.2998337482701827,-0.0027064664060438837,0.2,-0.4006821062143009,-0.07639325149260898,0.2,0.4019794539221657,-0.13584151687074178,0.2,-0.1279913774316501,-0.19184638963002082,0.2,0,
2.6246999199786614,0.7275696390747761,0.3509454053661279,0.2,-0.7987106417107227,0.3487393593461993,0.2,-1.2977537889462036,0.2511404509734083,0.2,-0.40022159281741926,0.11627649184836955,0.2,0.39740125017707195,-0.20156193705007583,0.2,-0.12745351983320802,0.19908579622114966,0.2,0,
2.6327020538810353,0.726550814265849,0.00452038031999169,0.2,-0.7971800371296478,0.19852751429471488,0.2,-1.2958155010546082,0.02351153271631934,0.2,-0.398821682344727,0.09177037674200014,0.2,0.3987544629293645,-0.07234919148420282,0.2,-0.1248060046921117,0.1370995448689398,0.2,0,
2.640704187783409,0.727641965159896,0.31071262373214004,0.2,-0.7955342014820073,0.10099270329121113,0.2,-1.2973776044227425,-0.34768398335363604,0.2,-0.39875326678954726,-0.17672007385879235,0.2,0.3962436631133247,0.2613692740602788,0.2,-0.12525992711530498,0.37411648855974977,0.2,0,
2.648706321685783,0.7315222162455632,0.3758463967788381,0.2,-0.7955641538769884,0.0920615317873616,0.2,-1.3013784447882664,0.21470833943147694,0.2,-0.40164920352646766,-0.028120410579882127,0.2,0.40293637131432897,0.5072128173641832,0.2,-0.1188201408751557,0.18748020716662095,0.2,0,
2.656708455588157,0.7336555075083574,0.09284652134203958,0.2,-0.7940612169734095,-0.02050306850975847,0.2,-1.293942270991839,0.33790798071565986,0.2,-0.39920319335882537,0.4355375791831109,0.2,0.40435906819115164,-0.31372539363227686,0.2,-0.12226024380063905,-0.07695629031266235,0.2,0,
2.664710589490531,0.7330077605870359,0.11527865278764676,0.2,-0.7958922029731446,-0.2820480382781654,0.2,-1.2959719170968158,-0.09137893080055082,0.2,-0.3946806022595379,0.3095383435725088,0.2,0.39791676501621254,-0.16964681434232173,0.2,-0.1200514415201583,0.06348320426164104,0.2,0,
2.672712723392905,0.7354999659529597,0.24774933748236,0.2,-0.7985739855858601,0.018379858908346147,0.2,-1.2954043338846477,0.4237645710209459,0.2,-0.39425057986166523,0.2561497240259267,0.2,0.4016447191616745,0.07845152030514987,0.2,-0.12124451253245279,-0.03562704741952045,0.2,0,
2.680714857295279,0.7369717499867536,0.12146961205587725,0.2,-0.795598125230611,0.21274843089362505,0.2,-1.2891916839604807,0.5029055045137343,0.2,-0.39058220667512306,0.3495842044003265,0.2,0.39917198934109493,0.09696471848709073,0.2,-0.12062147427887063,0.004209051068591006,0.2,0,
2.6887169911976527,0.7374434797458538,0.09057779491807028,0.2,-0.7951700106915621,0.06655493402272367,0.2,-1.287357845812428,0.10312617250639311,0.2,-0.38865723259126,0.45693673397409484,0.2,0.40319615465746794,0.2900699776403684,0.2,-0.12117716771535533,0.10352454484670488,0.2,0,
2.696719125100027,0.7384209947054428,0.23647591022892683,0.2,-0.7945332462862474,0.48171179342924864,0.2,-1.2875416652003784,0.24669311643103764,0.2,-0.38327121893153754,0.6720270182075313,0.2,0.40381310898334083,-0.08263900822155085,0.2,-0.11896508156132335,0.036227441018906945,0.2,0,
2.704721259002401,0.7412270943095166,0.2213263762098211,0.2,-0.7874626219966941,0.7621774713539864,0.2,-1.2834107559495314,0.44188944797383944,0.2,-0.3779048002999395,0.7185057989436416,0.2,0.40187393052592313,0.32486579357449835,0.2,-0.12059752865905282,-0.07246097838941884,0.2,0,
2.712723392904775,0.7419622167247999,0.1026283691255847,0.2,-0.7823384067445837,0.28870472552099125,0.2,-1.280471434032797,0.6202519390861166,0.2,-0.37177512614843927,0.548027064424566,0.2,0.4090109616805328,0.5342395371204754,0.2,-0.12012445721555405,0.011159105074382523,0.2,0,
2.720725526807149,0.742869148215526,0.09849037981969622,0.2,-0.7828433463883583,0.350989765734909,0.2,-1.2734867249241535,0.4855426992284445,0.2,-0.36913636726914645,0.7440926396960513,0.2,0.41042176311985074,-0.020665131668810843,0.2,-0.1204189829778627,0.17129395049231538,0.2,0,
2.7287276607095228,0.743538062801915,0.24077006931491618,0.2,-0.7767225704928251,0.13923051125180885,0.2,-1.2727027508451418,0.10615681548752087,0.2,-0.35986964391330245,0.7939139211206002,0.2,0.40868031957383183,-0.01891600252072398,0.2,-0.117383754007677,0.16967404447001608,0.2,0,
2.7367297946118967,0.7467214693245646,0.41180435329549875,0.2,-0.7806156582083293,0.027080762879633236,0.2,-1.2717882158763532,0.9071271475033782,0.2,-0.35643374453121685,0.5634250973362217,0.2,0.41011910707951915,0.15971980020502985,0.2,-0.11770419826634244,0.07956846051241848,0.2,0,
2.7447319285142706,0.750126932454643,0.16295190700396645,0.2,-0.776289278286751,0.482172987292237,0.2,-1.2581887164850878,0.8071955223520055,0.2,-0.3508548423559229,0.5850869032892198,0.2,0.4112358363771123,0.31064780591019,0.2,-0.11611065863947831,-0.07847616019116942,0.2,0,
2.7527340624166445,0.7493286998366281,-0.09042280868919172,0.2,-0.7729008904116536,0.5084192266958804,0.2,-1.258873087518721,0.6644386708601902,0.2,-0.34707235407858933,0.8855816533293349,0.2,0.4150894719740822,0.11631397336994351,0.2,-0.11895981682940115,-0.031005203195305815,0.2,0,
2.7607361963190185,0.748680167515616,0.345846518381529,0.2,-0.7681545706596169,0.5255265522263464,0.2,-1.2475576977513247,0.745466381974938,0.2,-0.33668553590265354,1.0378641550491883,0.2,0.4130968599510314,0.07320456672458772,0.2,-0.1166067418906032,0.07995728590489987,0.2,0,
2.7687383302213924,0.7548622441307326,0.5225036013152135,0.2,-0.764492465576032,0.4976354815113826,0.2,-1.246945625407122,0.327184576438308,0.2,-0.3304665275978023,0.9368231278726671,0.2,0.4162607450416756,0.25129057982988673,0.2,-0.11768050025492276,-0.09666438590816805,0.2,0,
2.7767404641237667,0.7570402251366594,0.19953956199694756,0.2,-0.7601924029554348,0.493596264905867,0.2,-1.2423227445283118,0.5755439265778262,0.2,-0.32169636585669087,1.1356747687445816,0.2,0.4171175092283096,0.197366932855568,0.2,-0.11815337206513389,0.24622540117444272,0.2,0,
2.7847425980261407,0.7580548771226837,-0.02873111523736538,0.2,-0.7565949253375381,0.5040999723675901,0.2,-1.2377369225818768,0.9393167862392499,0.2,-0.312295731297889,1.0789817460679363,0.2,0.4194186159673647,0.43754014870483676,0.2,-0.11374089383613167,0.17553733493018073,0.2,0,
2.7927447319285146,0.7565805272928615,0.0005678284483376372,0.2,-0.7521268033975533,0.7350520167348981,0.2,-1.2272936759484838,0.8051390681000775,0.2,-0.3044326579196039,1.0092409143657097,0.2,0.424118151607587,0.2646066014015506,0.2,-0.115344774706251,0.039326081687792065,0.2,0,
2.8007468658308885,0.7580639623778571,0.2121846036768002,0.2,-0.7448340930697798,0.5325028457979775,0.2,-1.2248546974922756,0.8741794419414445,0.2,-0.29614787666803766,1.0560070974617863,0.2,0.4236523215897895,0.4571660115650529,0.2,-0.113111676529127,0.06233716075202886,0.2,0,
