samirx20/RADAR/web/public/data/datasets/vibration_j1_early.csv
timestamp,actual_q_0,actual_qd_0,actual_current_0,actual_q_1,actual_qd_1,actual_current_1,actual_q_2,actual_qd_2,actual_current_2,actual_q_3,actual_qd_3,actual_current_3,actual_q_4,actual_qd_4,actual_current_4,actual_q_5,actual_qd_5,actual_current_5,protective_stop,fault_code
0.0,0.1996745297041452,-0.02693749534488088,0.5,-0.5988730538402685,0.8510258300358509,1.162003087380644,-1.0005928284796994,1.0352191779421371,0.5,0.001083655539339627,1.55934498630039,0.5,0.49896666343507745,0.775332852164301,0.5,-0.30245924870547375,0.21230196196015544,0.5,0,
0.008002133902373967,0.19945902974138616,0.14924480371708743,0.5867894634477856,-0.5920648471999816,0.6130758310557705,0.5,-0.9923110750561623,1.1520705071888724,0.6549054736761375,0.013558415429742747,1.5567284365170928,0.5,0.5051693262523919,0.5053622884067313,0.5,-0.3007608330097925,0.2240894409731506,0.5,0,
0.016004267804747934,0.2020624465636186,0.4762694679254168,0.5,-0.5890638405433761,0.6994627277993881,1.3365501559037876,-0.9821597003646775,1.5413950032814594,0.5,0.025991310523613115,1.8704679976648004,0.5,0.5070524600495852,0.27481796688294535,0.5,-0.29887381764990334,0.27806481742799827,0.5,0,
0.0240064017071219,0.20707934122819283,0.24595256511194574,0.5,-0.5808734435551914,0.9677080923950406,0.5,-0.967648755003659,1.3500211600313075,0.6530294387058057,0.04348590339237955,1.6768348772415995,0.5252973858040301,0.509566413722519,0.525738741553948,0.5,-0.29631179593094453,0.2176500980552304,0.5,0,
0.03200853560949587,0.20599768760540974,0.16953165054242603,0.5,-0.5735805110650555,0.9025819547595972,0.9390144527662465,-0.9605593618041766,0.9839737078975938,0.5,0.05282066855947871,1.2301433753478426,0.5,0.5154642799144483,0.45075571774403494,0.5,-0.29539141608101965,0.2429178561476203,0.5,0,
0.04001066951186984,0.20979184763687164,0.3534081477050369,0.5,-0.5664321322790379,1.084478352707488,1.4092626779561568,-0.9519051756772975,1.1662313414594963,0.684580393738819,0.06316819739794503,1.6103247841598831,0.5,0.5167785052064235,0.10608343665370612,0.5,-0.2924251102325826,-0.21707128506432902,0.5,0,
0.0480128034142438,0.21165221796869033,0.1932184314077101,0.719142645406449,-0.5562288574217357,0.8137589308004067,0.8490182459151666,-0.9418996603408246,1.5601738917444679,0.5,0.07858586510603684,1.7695810907013945,0.5,0.5171616149009076,0.5889731171068169,0.5,-0.2988645566420489,-0.26690082062035336,0.5,0,
0.05601493731661777,0.212883342539395,-0.16601087182628765,0.8777234045474471,-0.5534119893862314,0.6504026131656445,1.411367508709044,-0.926942393409386,1.3776382372540086,0.5328056067433227,0.09148149484916734,1.6821918470085964,0.5,0.5262020750801326,0.7151121274566116,0.5,-0.29669552336250826,0.25290552541533395,0.5,0,
0.06401707121899174,0.20899604401946972,0.22755156751975805,0.6330548850322727,-0.5458224156110854,0.964946910584706,0.9905604551350793,-0.9198574485447605,1.2063810440113356,0.5,0.10550093465817438,1.905318652487803,0.5,0.5286034089402134,0.39749388433633903,0.5,-0.2948180682354036,0.16657146164213155,0.5,0,
0.0720192051213657,0.21652416761971113,0.5217039739448762,0.8599063265648186,-0.5379728388168761,0.7925727556341369,0.7112649953198009,-0.9076402967052046,1.1937751840749646,0.657201818259873,0.12196659328897219,1.5998937811276286,0.5,0.532561977229514,0.016873325486388424,0.5,-0.29403037997623416,0.03556166365954391,0.5,0,
0.08002133902373967,0.21734330760258774,0.037028791155656327,0.5,-0.5331412515209392,0.6671121871045654,0.739972664493947,-0.900757045599561,0.7454647940765002,0.5356972161380935,0.13109923515621644,1.227664478870705,0.5,0.5288733821479956,0.27230442291165113,0.5,-0.29424908161685087,-0.0076671763372636315,0.5,0,
0.08802347292611364,0.21711662827820163,-0.207720103753032,0.769153241030955,-0.527299043823203,0.5443351074708793,1.2223778160529706,-0.8957128599999806,1.036776625605168,0.6958848500187836,0.14160922495090347,1.5491155501238494,0.5,0.5369188479961005,0.6519141563153946,0.5,-0.2941530547976304,0.17884980047408114,0.5,0,
0.0960256068284876,0.21401978594253923,0.18141146676547112,0.543389589937695,-0.5244318898014051,0.7967720217898557,0.5,-0.8841686195898784,1.4093339539869922,0.5,0.15588508395819803,1.585567543273783,0.5,0.5393040086490419,0.33901999669353616,0.5,-0.2913874848092656,0.13585310417283877,0.5,0,
0.10402774073086157,0.22001921174644917,0.46903121970517764,0.5300017292743173,-0.5145506914745653,0.7930693462063556,0.5,-0.8731635167361887,1.2635347415984113,0.5,0.166978305643284,1.4215566406739002,0.5,0.542343167943197,0.3187838503647192,0.5,-0.29197940513086496,-0.15746408939460235,0.5,0,
0.11202987463323553,0.22152428545782207,0.219895828761172,0.5,-0.5117427802621034,0.8297336092071491,0.5,-0.8639520637243038,1.24103164491611,0.5096118882315539,0.17862999020898043,1.68781496406222,0.5,0.5444045502548774,0.3402917482034293,0.5,-0.2939069102395792,0.2468205688441888,0.5,0,
0.12003200853560951,0.22353754500662792,0.21395468441201027,0.5741834103273659,-0.501274953727251,0.822484054694414,1.309685215334869,-0.853307010417531,1.0133394274077014,0.5,0.19398334506827952,1.504543419418988,0.5,0.5477878359144519,0.43144981082633704,0.5,-0.28803027602935793,0.22352109611985943,0.5,0,
0.12803414243798347,0.22494756040841424,0.4730525905745457,0.5,-0.4985830353869928,0.546965988506596,1.7173621293705363,-0.8477386328857806,1.0719022975822292,0.5,0.20270268491968424,1.6777634394695047,0.5,0.5513077472280988,0.16208790304120257,0.5,-0.29033057270166146,-0.0287384742492236,0.5,0,
0.13603627634035745,0.23110638645582066,0.2902999204118014,0.5,-0.4925234979111454,0.8984319938674864,0.7345999059717194,-0.8361565736562153,1.2543226071503877,0.6424624584424921,0.2208275600997916,1.359644750788931,0.5,0.5503812423631111,0.45943516519597605,0.5,-0.2884900916173455,0.02805934349117689,0.5,0,
0.1440384102427314,0.22959235913500306,-0.008131050920233071,0.5,-0.484208123485113,0.8978528423963605,1.7149161920028302,-0.8276694711713743,0.8685871529960643,0.5,0.22445700093230714,1.130127884410916,0.5,0.5586587098712344,0.5840818043289231,0.5,-0.28988162320580263,-0.20334285011264566,0.5,1,C153C1
0.15204054414510537,0.23097628964109693,0.1397047025230025,0.5,-0.4801360211619641,0.45350169775325655,0.6604125670965422,-0.8222591792082783,0.7593605888042282,0.6163023333158165,0.23890960625036625,1.7543689806456542,0.5555268122647764,0.5597265512323739,0.005233634227691519,0.5,-0.29174357721914784,-0.08216325673950434,0.5,1,C153C1
0.16004267804747935,0.2318276343753711,0.3169657771178152,0.5,-0.4765913709428442,0.4328879041570285,0.8264126665336218,-0.8155197017505067,1.070513088657389,0.5,0.2525269046226376,1.246948456713413,0.5,0.5587424480188775,0.10156475204257248,0.5,-0.2911962353136347,0.32074039899327234,0.5,1,C153C1
0.1680448119498533,0.23604774207498197,0.23225807363506934,0.5579852213539932,-0.47059851336318265,0.2808946079473035,1.4562639903146042,-0.8051309697897601,1.065586145855224,0.5,0.25886078155778086,1.2192619565712728,0.5,0.5613515872650551,0.45982546746730496,0.5,-0.2866117308352555,0.44043576312950694,0.5,1,C153C1
0.17604694585222727,0.2355437635535322,-0.03277316918789443,0.5,-0.46787451756782333,0.43775039952707473,1.795434137776338,-0.7984703234168231,0.8092428851492125,0.5,0.27203509592777797,1.2303289278641945,0.5,0.5660996554983544,0.5859868772687127,0.5,-0.2841492631035626,-0.0618869016639767,0.5,1,C153C1
0.18404907975460125,0.23552337136797566,0.052984188336884994,0.5,-0.4587945539793061,0.6909716993679997,2.815257029600523,-0.7921830836273727,0.9012097100763589,0.5,0.278546044403608,1.219981910564244,0.5,0.5707273773013545,0.4213093324203082,0.5,-0.2876019212618791,-0.1708453274678265,0.5,1,C153C1
0.1920512136569752,0.23639151056692237,0.19243665223119336,0.5,-0.4526167999394309,0.2775555787375945,0.8219437508002609,-0.7840509680556014,0.871290420062884,0.5,0.2915548064968059,1.1363158223058056,0.5,0.5728406048170793,0.24702774949351275,0.5,-0.2868827883430478,0.16558799734504512,0.5,1,C153C1
0.20005334755934917,0.23860235780367475,0.25176115261432014,0.5,-0.4517781147131025,0.42909746099802937,0.7367292784359135,-0.7782424369063665,0.8281392437173365,0.5,0.29672709756050086,0.9041851450968252,0.5,0.5746798212932507,0.19832298986896535,0.5,-0.2849525133043584,-0.024899831841271314,0.5,1,C153C1
0.20805548146172315,0.2404196890087515,0.16269972875327351,0.5,-0.44543289545617665,0.7233684545064166,1.043396637187296,-0.770800740156124,0.7672485262355185,0.5,0.3060217688183551,1.0830541243361316,0.5,0.5760137726549828,0.3205329681538194,0.5,-0.28728118565250815,-0.1325122081875102,0.5,1,C153C1
0.21605761536409712,0.24120555346372713,0.3981151609665726,0.5,-0.4422210212177677,0.6833308410334974,0.9822706559309726,-0.7659664604865982,0.7851468520205795,0.5,0.31405596354987897,0.9573432052983367,0.5,0.5798083487837118,0.26672205720856823,0.5,-0.28707270863535855,0.19438005206412826,0.5,1,C153C1
0.22405974926647107,0.24678953158421665,0.40481044382849674,0.5,-0.43835776724708847,0.7403717935518475,1.0943644134169221,-0.7582383905237947,0.8446498795456614,0.5,0.32133926010312847,1.2239605666402031,0.5,0.5802813255703199,0.07551937565950656,0.5,-0.2841711048194821,0.012968883936322062,0.5,1,C153C1
0.23206188316884505,0.24768252056498308,0.1390580818987335,0.5,-0.4351299878282735,0.6520477123293353,1.284876253227309,-0.7524520624138676,0.8118967922977893,0.5,0.3336393326161222,1.0088228485356336,0.5,0.5810166587942639,0.24660219559800856,0.5,-0.2868652064923774,0.02001929175696887,0.5,1,C153C1
0.24006401707121902,0.2490144608945964,-0.008115872395315221,0.5,-0.4324125001163376,0.708705091040783,0.9406448654515444,-0.7452480418470301,0.9117191364298866,0.5,0.3374804256796986,0.7143284677368112,0.5,0.584226960699888,0.1041758953631497,0.5,-0.2838507961513706,0.16055033489539502,0.5,1,C153C1
0.24806615097359297,0.24755266660665803,0.2364590082840276,0.5,-0.42691208800437513,0.6736201391910104,0.797273025745801,-0.7378645562309895,0.6734764370504367,0.5,0.3450685880999112,1.0123045137898357,0.5,0.5826834731200743,0.131512945722001,0.5,-0.2842964011340511,-0.02162710749167504,0.5,1,C153C1
0.25606828487596694,0.25279780502714083,0.23201641314203256,0.5231358826059722,-0.42262562180258284,0.4185959365024522,0.6727419899990392,-0.7344724188542231,0.5563357400700588,0.5,0.353677297900336,0.8666790871722542,0.5,0.58633116783144,0.40262973229648197,0.5,-0.2841968298712374,0.10601317774237146,0.5,1,C153C1
0.2640704187783409,0.25126492921693055,-0.04842321187813192,0.5,-0.4188326171003436,0.3589369103582749,3.178460387762444,-0.7289631843898685,0.3847227426334171,0.5,0.35893545349466727,0.5366592640753051,0.5,0.589125548836818,0.36859934351821805,0.5,-0.28260019029017314,0.39178405121940985,0.5,1,C153C1
0.2720725526807149,0.2520230336370907,0.022638336931848912,0.889710468056305,-0.41346606159347865,-0.3211949778630758,1.076838495127734,-0.7283168549720884,0.36170188755930976,0.5,0.36226384612554086,0.709078770206803,0.5,0.5922287573277315,0.3153544887169457,0.5,-0.27792828505172684,0.06471808081235167,0.5,1,C153C1
0.28007468658308887,0.25162714260784014,0.46744406410427486,0.6683574172006628,-0.4193570287851309,-0.3197502538925212,2.569701814468199,-0.7231759541889196,0.36567006229647203,0.5,0.3702807138179761,0.859671228189255,0.5,0.5941712206562891,0.019832891090254545,0.5,-0.2815647009971755,-0.20190249498162893,0.5,1,C153C1
0.2880768204854628,0.2595021386627591,0.16772323933302025,0.5,-0.41389906082951183,0.19994858129958473,1.2161890768681958,-0.7224661339753449,0.24866131777732947,0.71254235017404,0.37601858577656894,0.3705835812082385,0.5,0.5925460835851756,-0.014169168661086473,0.5,-0.2811587249714329,0.1365462766775051,0.5,1,C153C1
0.29607895438783677,0.25431071443716846,0.08972322541275085,0.5,-0.4125531126998335,0.16983212772698975,1.0294926839597534,-0.7191973731044823,0.7267333920162183,0.5,0.37621005111730793,0.394634501576778,0.5,0.5939445139577118,0.2903976504569014,0.5,-0.27937996057033543,0.0023256676678039268,0.5,1,C153C1
0.30408108829021074,0.26093771026936313,0.24805307199590731,0.5,-0.40953783981722586,0.4914278952460553,0.979366627917719,-0.7108383997030854,0.5029697918931264,0.6323823643671967,0.3823327378017974,0.5208711035335212,0.5,0.597192445992486,0.23085225237514523,0.5,-0.28112151428874804,-0.06621555444350641,0.5,1,C153C1
0.3120832221925847,0.258279563589103,0.2569971242730937,0.6074708141858578,-0.4054096769822788,0.4597937680175549,1.3734271675759688,-0.7111498564341923,0.11587385670471656,0.5,0.38454398877384427,0.40682404924105225,0.5,0.5976381499957141,-0.13115791784809594,0.5,-0.28043940944143153,0.2707902504329208,0.5,1,C153C1
0.3200853560949587,0.26504966425773263,0.5504533537630321,1.012802427660658,-0.40508773090359906,0.3677300944854226,1.0477671504365764,-0.7089844179958099,0.4294866242248521,0.5,0.3888419225896542,0.4281820075066021,0.5,0.5950939193069165,0.2961396401732416,0.5,-0.2767888702818213,0.25390416112120934,0.5,1,C153C1
0.32808748999733267,0.2670868172493115,0.03653358453639677,0.5,-0.40390813267400466,0.31265164971029147,1.0980978765672795,-0.7042780704465946,0.3123452744044214,0.5,0.3913949008939499,0.4338030788561438,0.5,0.6023763842384859,0.2629894104996186,0.5,-0.2763769428634922,0.04585390257651201,0.5,1,C153C1
0.3360896238997066,0.265634201610315,0.15764420091909578,0.567631764105273,-0.40487008752077264,0.30629456651019293,1.0019933831216337,-0.7039868936053392,0.19038329724610503,0.5,0.3957827718513525,0.22006770862625577,0.5,0.5993017498749104,-0.10439700185754103,0.5,-0.2760552078405971,-0.051825866146111566,0.5,1,C153C1
0.34409175780208057,0.269609124464017,0.389886044321875,0.6158613243355308,-0.40302336667481464,0.23131053430199883,0.7829834018565176,-0.701231937690657,0.3156664103375964,0.5,0.39491598423197,-0.025256272429934057,0.5,0.6007060322087653,0.0860480640268238,0.5,-0.27720615672182997,-0.11169347862988871,0.5,1,C153C1
0.35209389170445454,0.271872378319465,0.0982972998865364,0.5,-0.4034329861867928,0.09431733838913452,0.9581224000134265,-0.6989362310399376,0.11339343742258062,0.5,0.3953786714924736,0.26119416455818234,0.5,0.6006785188993395,0.15625482554974812,0.5,-0.27784230349867534,0.23548662041666946,0.5,1,C153C1
0.3600960256068285,0.2711818812622016,0.20143153433263214,0.5,-0.40147180297599455,0.15486179590582363,2.0987258123967565,-0.6994176426918957,-0.19082010980792097,0.5,0.3990950908649009,0.1703132421913868,0.5,0.6032061094175613,-0.03728948894650419,0.5,-0.27343837079516325,0.24859002766009636,0.5,1,C153C1
0.3680981595092025,0.2750952828687871,0.1993819878469763,0.5,-0.3986167597924892,-0.34968652973482345,1.3680122434449937,-0.7019893527968644,-0.31274555812335625,0.7790175278866057,0.39810368336753577,0.11205258336442758,0.5,0.6000818870761955,-0.1847581984052507,0.5,-0.2738648630561138,-0.1857993052227086,0.5,1,C153C1
0.37610029341157647,0.27437199306775323,0.1710472928444437,0.5,-0.4030049295117109,-0.21608654726202947,1.325678326601881,-0.7044215716218694,0.305570267387513,0.5,0.40088793219873176,0.12420524742308425,0.5,0.6002499782430772,-0.0738149457960649,0.5,-0.2764111596787266,-0.17773025718072558,0.5,1,C153C1
0.3841024273139504,0.2778320395542982,0.1676525871717946,0.7812135851703962,-0.39728335081438054,-0.03910339385280337,2.138556176811683,-0.6971002285186642,0.3713945593738846,0.6518655912252561,0.4000909673263051,-0.005744274317421444,0.5,0.5989008479434584,-0.00046574847233776806,0.5,-0.2767085471710054,0.0828346369907626,0.5,1,C153C1
0.39210456121632437,0.27705443446250194,-0.23679330822297048,0.8483381512376389,-0.39928380767572397,-0.28591068011404375,0.8548145179190746,-0.6984792586718872,-0.018844655673005972,0.5,0.400796023809653,-0.2518740421781629,0.5,0.6002425262675198,0.16752742636977347,0.5,-0.2750858054868744,0.0020089933270017735,0.5,1,C153C1
0.40010669511869834,0.27404334662273067,0.2205299606962939,0.5,-0.39901940555285265,-0.17880707483977473,0.5794110500586638,-0.6974017430094323,-0.04654147073988174,0.5284138802940218,0.3960609826514545,0.05045836164922421,0.5,0.6015812867653748,-0.4315800168753006,0.5,-0.2766764032777734,0.18262702517867976,0.5,1,C153C1
0.4081088290210723,0.28058291383364264,0.4859837123590456,0.6278715840087786,-0.40150943247269105,0.017639727597194885,0.7555186016541455,-0.6992239222037253,-0.41032458037009584,0.5,0.4016033575960406,0.033099220303006716,0.5,0.593337245997515,-0.41727866821179155,0.5000004684767818,-0.2721637730840155,0.3014376162790572,0.5,1,C153C1
0.4161109629234463,0.2818190860204754,0.1626275862362074,0.6825602659128506,-0.40046065001060394,0.24173571970334087,2.610995725787613,-0.7039669362953538,-0.5952700381577427,0.5,0.3965905701763026,-0.6472441471960904,0.5,0.5949048280739861,0.44308418231080865,0.5,-0.27185340141730846,-0.004456363001958258,0.5,1,C153C1
0.42411309682582027,0.28318495521342196,0.5046161685099345,0.5,-0.4013019415197397,-0.18629295556740494,1.08761458586235,-0.7087482428142492,-0.5145966034403662,0.5,0.39124745124090315,-0.6121450182407159,0.5,0.600426592914488,0.14293168293842695,0.5,-0.27223507489204685,0.05239824742556132,0.5,1,C153C1
0.43211523072819424,0.28989294471663435,0.2928062422683543,0.5057384257082517,-0.4081422539865812,-0.1440574275499542,2.1296052061327746,-0.7122004819503996,-0.4157600927859051,0.9866320696470544,0.38679624988445116,-0.4123952262715703,0.5,0.597191735001001,-0.3336430459004308,0.5,-0.2710150294584995,0.23554350897337512,0.5,1,C153C1
0.44011736463056816,0.28786985508971563,0.015673738835993156,0.5,-0.4081974648168806,0.12170934065936673,1.0508313223143246,-0.7154004042988237,0.31351521736407845,0.5,0.38464912762055803,-0.2667794083502893,0.5,0.5950883041800811,-0.08833211430698401,0.5,-0.26846637874847284,-0.01709204623111596,0.5,1,C153C1
0.44811949853294214,0.29014372453801024,0.1149692101007696,0.5,-0.4095512566879758,-0.13969831737892607,0.6625434729847214,-0.7071842384725744,-0.0008014933697356175,1.0078849158267038,0.38252777935084653,-0.3960454330171684,0.5,0.5957784211720892,-0.10829253473388506,0.5,-0.27128850219819733,-0.14753917949965334,0.5,1,C153C1
0.4561216324353161,0.28970936245132795,0.033804280492558125,0.5,-0.41173298567882116,-0.31821441136895773,0.6342533841120779,-0.7154132281927394,-0.7033867049204903,0.5142735345456912,0.37831240069228333,-0.48854240358076406,0.5,0.5933556236243389,-0.11260789418514328,0.5,-0.2708270056204673,0.4498916462219518,0.5,1,C153C1
0.4641237663376901,0.29068459302589117,0.08319600447142042,0.5720361394798834,-0.4135686601969825,-0.4195281030944227,2.0197959645376913,-0.7184384257513022,-0.47225680278923515,0.5,0.3747111008935543,-0.5905481359842826,0.5,0.5939766948651269,-0.05356880511913492,0.5,-0.2640902358586461,0.4036085514888821,0.5,1,C153C1
0.47212590024006407,0.29104049852287067,0.36448753427516245,0.5,-0.4152599926841097,-0.8570912218863169,1.064618845005772,-0.7229693370373672,-0.6932740621228284,0.5,0.3688636305165348,-0.8078723385980465,0.5,0.5924985227424328,-0.17061923387838573,0.5,-0.2643692687966452,-0.23926965890192983,0.5,1,C153C1
0.48012803414243804,0.29651639357429377,0.4533899466338496,0.7371676255687983,-0.4227651689871174,-0.7810158981139877,2.3215032283581536,-0.7295308107452675,-0.42625012578722393,0.5,0.36178514347598556,-0.7753833719356569,0.5,0.5912467871230728,-0.18311800701094338,0.5,-0.267918550401077,-0.27442060075378094,0.5,1,C153C1
0.48813016804481196,0.29829473766901227,0.04448357952589743,0.5,-0.42301369525828775,-0.3418201775068859,1.7483388176093566,-0.7297893390499628,-0.7301836535835645,0.5,0.3564574965655643,-0.640317211396655,0.5,0.5895686346302577,-0.3822921052684461,0.5,-0.2687599984087057,0.00367826104934188,0.5,1,C153C1
0.49613230194718594,0.2972281308467081,0.11452739888671848,0.5380340062629801,-0.4244272810778326,-0.4982309880937642,0.742422587193839,-0.7412137492026045,-0.7043734928603024,0.5,0.3515400680936391,-0.8855903013602235,0.5,0.5851301134387776,-0.40776614530739497,0.5,-0.2678596982242875,0.29826837407627077,0.5,1,C153C1
0.50413443584956,0.30012717605119976,0.35851710001164394,0.5,-0.42904601037023726,-0.3265661614424076,0.5503846734150482,-0.7410593149357276,-0.49314111542007183,0.5,0.3422880517438007,-1.0314217968714103,0.5,0.5830443763053393,-0.08222396776835783,0.5,-0.26398770442348535,0.13383796178622134,0.5,1,C153C1
0.5121365697519339,0.30296440444689443,0.2452759487529925,0.5,-0.4300554170482315,-0.28433089450253124,0.8308560087450143,-0.7491040070493257,-0.6988877133228474,0.5,0.3350373193436965,-0.9865752510970528,0.5,0.5838145299544839,-0.10042280903692358,0.5,-0.26571829083570797,-0.2711854282293098,0.5,1,C153C1
0.5201387036543078,0.30405159123124764,0.33584706733011394,0.5,-0.4362421527522379,-0.16361592966874972,1.319193867923269,-0.7522415183488932,-0.6325757231058632,0.5,0.3265028477262479,-0.7711745093873755,0.5,0.5814376113607486,-0.10601639227229148,0.5,-0.2683266712751543,0.1922927839426783,0.5,1,C153C1
0.5281408375566818,0.30833795752417625,0.12642861310424233,0.5,-0.4369158499559515,0.025240388025391025,2.244616172259462,-0.7592252186190195,-0.802757224286077,0.5,0.3226985271934985,-0.7321326145189773,0.5157591223719985,0.5821182676781272,-0.3295914407206377,0.5,-0.2626416062926251,0.40649289063674626,0.5,1,C153C1
0.5361429714590558,0.3060744490409155,0.1411313211499253,0.5,-0.4406378834723465,-0.3656421517505587,1.5861768222010435,-0.7650856339374704,-0.9207791975796575,0.5,0.31478872589394424,-1.3556581535154946,0.5,0.5761641483092184,-0.3175312356892626,0.5,-0.26182278502496636,-0.204584295338546,0.5,1,C153C1
0.5441451053614298,0.31059605866257506,0.21552650345970162,0.5,-0.4469475963847725,-0.6898036647568156,0.9722110264634343,-0.773957685780294,-0.8640943542157705,0.5,0.3010079967372506,-1.0868752969858397,0.5,0.577037767907099,-0.10209035358840074,0.5,-0.26591495501804185,-0.03924035969897835,0.5,1,C153C1
0.5521472392638037,0.30952287309627075,-0.03345901925378911,0.676874309175209,-0.45421433900183167,-0.7319754210552604,1.5980329677193146,-0.7789111436049228,-0.6380268221319596,0.6181420055877989,0.2973987211421708,-0.9502852558066696,0.5,0.574530702651804,-0.3845362567416119,0.5,-0.26245063078015,-0.05136771754758393,0.5,1,C153C1
0.5601493731661777,0.31006071435451443,0.31271715610734285,0.5,-0.4589351430165603,-0.5433144950844935,0.7569096016976906,-0.7841661149344054,-0.9541145420075905,0.5,0.2858034326443439,-1.319046182036491,0.5,0.5708851877992333,-0.26052442143324056,0.5,-0.2667368384988032,-0.12331349179771703,0.5,1,C153C1
0.5681515070685517,0.31452634759398823,0.3450245417083754,0.637162638275823,-0.46085209410960204,-0.6958253859640303,1.3888757830267542,-0.7941769762770442,-0.9567662887100536,0.5,0.27629398222958695,-1.3735170494079927,0.5,0.5703623119088721,-0.046771360790578975,0.5,-0.2644236466489135,0.3094148873676282,0.5,1,C153C1
0.5761536409709256,0.31558110702184844,0.01562860464396701,0.5,-0.46618505911416763,-0.9350369067504207,1.2808754950260504,-0.7994743755537662,-0.83990826267695,0.5,0.263827159853816,-1.3514814390221084,0.5,0.570136846026584,-0.3065782561735217,0.5,-0.26178620030092115,0.23765198711337213,0.5,1,C153C1
0.5841557748732996,0.3147764052682917,0.2814922071598148,0.5,-0.4710521461210818,-0.8002608451199058,1.7211158009513023,-0.8076155084798754,-0.9704743575414815,0.5,0.2546702792052332,-1.0236662505711118,0.5,0.5654570598100958,-0.4429631085738142,0.5,-0.26062121485509954,0.13411781293060782,0.5,1,C153C1
0.5921579087756735,0.3200849823364055,0.24820494827232364,0.7661808858789562,-0.47451699157438354,-0.956120559167861,1.1998937180224096,-0.8150019652744299,-0.9980300226883204,0.5,0.2474484998446782,-1.1283264355686755,0.5,0.563049436289403,-0.5490345834714901,0.5,-0.2596403152940314,-0.021256806689205765,0.5,1,C153C1
0.6001600426780476,0.3187476844406489,-0.12968647330952043,0.6092472306436093,-0.483261092027654,-0.9722661953932024,1.9355933354264456,-0.8235839888428885,-0.9051430754634243,0.6205005530708111,0.2366170562361344,-1.430508048422022,0.5,0.5566725064745519,-0.5092085041567898,0.5,-0.26096132376212683,-0.09980092987249209,0.5,1,C153C1
0.6081621765804215,0.31800999876345315,0.215312666618412,0.5,-0.48912381646241976,-0.42558392088343466,1.539483872330704,-0.8294842544818447,-1.3079759426557895,0.5,0.22456037106992585,-1.7418816190867408,0.5,0.5549021002228943,-0.22202674520209464,0.5,-0.2612371301719913,0.04868156352084638,0.5,1,C153C1
0.6161643104827954,0.3221926871065435,0.4538999987763019,0.5,-0.491493003939594,-0.5803072682273351,0.9307847556629865,-0.8445116039253812,-1.360378502443492,0.5496040684226902,0.20874695033074656,-1.2174293342367275,0.5,0.5531200785513184,-0.345686700784234,0.5,-0.2601824187457933,0.12186481947860234,0.5,1,C153C1
0.6241664443851694,0.325272398743874,0.35231314127955743,0.5,-0.501855010799361,-0.5449089016864477,1.0782772317704525,-0.8512503105209406,-1.0702724421056824,0.5,0.2050815017221382,-1.1539817499889478,0.5,0.5493711130103466,-0.5340103450905894,0.5,-0.25928729306033366,0.19974494064145532,0.5,1,C153C1
0.6321685782875434,0.3278296973670164,0.17311343134271406,0.5,-0.5048377642207408,-0.4804069297949711,1.4160315379386565,-0.8616359629990721,-1.124706703814482,0.5,0.1902832423309234,-1.648474083806653,0.5,0.544575913029869,-0.360796082396031,0.5,-0.25698649969553,-0.03413846397868833,0.5,1,C153C1
0.6401707121899174,0.3280422136453574,-0.05670868028831086,0.7815350676526195,-0.5142150198634164,-0.6379862037950226,0.6273233902857323,-0.8692456177819723,-0.956366392343519,0.5,0.17870591638123176,-1.4471397482879023,0.5,0.5435983756920101,0.004125600487618619,0.5,-0.25983350848399267,0.040273756585745835,0.5,0,
0.6481728460922913,0.3269223584824034,0.3485406910058719,0.5,-0.5150455434814611,-0.5155578813027181,2.441907378899952,-0.8769378252765684,-1.2209819318400525,0.5,0.16712900635831696,-1.3632727451471076,0.5,0.5446419226376709,-0.26957845023398846,0.5,-0.25634211959015807,0.2109577623545765,0.5,0,
0.6561749799946653,0.33361886470145136,0.48712078873358944,0.707802251531642,-0.5224639459642599,-1.0562611779762892,1.0141311261579344,-0.8887813286914131,-1.1644157670622906,0.5261101054278344,0.15689355245887804,-1.7011974582562226,0.5,0.5392851204882663,-0.7195159312362517,0.5,-0.25645818428631945,-0.07536719221020241,0.5,0,
0.6641771138970393,0.33471629110214085,0.08941103863597741,0.5,-0.5319457223290818,-0.8573704888831662,0.5,-0.895568477549565,-0.864448963294663,0.5,0.1399098470262174,-1.6248595099052545,0.5,0.5331296677378908,-0.595347797949848,0.5,-0.2575479946655213,0.0479317965650268,0.5,0,
0.6721792477994132,0.335049441319627,-0.032845140630819586,0.5,-0.5361818737863906,-0.8328195593426054,0.783083124157884,-0.9026125121041277,-0.929246751976788,0.8231419226634561,0.13089580030039397,-1.603263957865116,0.5,0.5297595557210687,-0.5374658749075917,0.5,-0.255691275541279,0.42526867089625814,0.5,0,
0.6801813817017872,0.33419076885204774,0.1919244306397387,0.5,-0.5452708352785635,-0.698517526844189,0.6827129177602811,-0.9104364255811936,-1.4950108979495669,0.5,0.11425762370037554,-1.7426322772412066,0.5,0.5245302137393694,-0.1896900835292037,0.5,-0.2507436959311812,0.20652080940160994,0.5,0,
0.6881835156041611,0.3381202322098628,0.2999730374468358,0.5,-0.5473581542158976,-0.5685175697569267,1.6279522412298162,-0.9265326864713208,-1.4756389748583203,0.6828053678954119,0.10301368386453466,-1.6319282481388102,0.5,0.5267245143846014,-0.054340532330339475,0.5,-0.25238694259085326,-0.33777465866697415,0.5,0,
0.6961856495065352,0.3389903374511971,0.1427487642065503,0.5,-0.5543671163946743,-0.9376310067949062,0.5,-0.9340466491789268,-1.111688631040511,0.5,0.08814677173015457,-1.9050710184795299,0.5,0.5236607652220839,-0.4298356636494305,0.5,-0.25614809046985276,-0.1845166673730865,0.5,0,
0.7041877834089091,0.3404042124371676,0.36759922511879484,0.5,-0.5623602503246161,-0.9582845668362829,1.7601959053764193,-0.944319704567969,-1.1607701818721894,0.5,0.07253254756886218,-1.7463957063080648,0.5,0.5198471437662106,-0.42814546048910995,0.5,-0.25533920926882264,0.21339190784642678,0.5,0,
0.7121899173112831,0.3448719250530978,0.1454210988007104,0.5,-0.5696996694640548,-0.5787673378281413,0.5,-0.9526189720888818,-1.2364162199048554,0.5,0.060204440429225535,-1.450860950308501,0.5,0.5168104378542582,-0.38767987986383645,0.5,-0.25273381994430993,0.38640507365968885,0.5,0,
0.720192051213657,0.342730950017979,-0.11819267166253422,1.2884496242390142,-0.5716205277298664,-0.6104009216155795,1.931119008866789,-0.9641023640864467,-1.1870152202552788,0.5454145607506969,0.049318772363926164,-1.7267123793098222,0.5,0.5136442656883892,-0.3248998583801066,0.5,-0.24915672809026762,0.022188918648479578,0.5,0,
0.728194185116031,0.3429808423064973,0.5397313350956334,0.5,-0.5794660842099041,-1.0352022070072089,0.5,-0.9716112156129663,-1.527521119944468,0.5,0.03257704236026838,-1.546511474703006,0.5,0.5116120401201765,-0.48836458126349375,0.5,-0.25237879724593426,-0.0030836337277344306,0.5,0,
0.736196319018405,0.3513666513795091,0.35546007611442915,0.8510966859889094,-0.5881837630419817,-1.0144509630986425,1.226399192310322,-0.9885427020055582,-1.2887818221225187,0.7080357184575699,0.024574588768678067,-1.323362808962902,0.5,0.5058304323881733,-0.6276330679298309,0.5,-0.24920606622991137,-0.058033058398805626,0.5,0,
0.7441984529207789,0.34866820352432815,-0.08096330525223655,0.6750915213066435,-0.5956972996194824,-0.777328842848285,0.5,-0.9922317247669266,-0.8629736448722558,0.6772195926566328,0.011403237416861948,-1.7812735648540077,0.5,0.5015699110332992,-0.28854101390185516,0.5,-0.25330732618031515,0.24852690096244764,0.5,0,
0.7522005868231529,0.35007123849547334,0.24816921090510535,0.5,-0.6006210245275543,-0.721165605862821,0.7013789590336444,-1.0023502803235143,-1.221632393157132,0.5,-0.003925788268986055,-1.7004628028768225,0.5,0.5012137761657436,-0.4607703798323696,0.5,-0.2452296358145122,0.005058333291115685,0.5,0,
0.7602027207255269,0.35263891089880983,0.29845558834257213,0.5,-0.6072359493132875,-0.8538966427972735,0.5,-1.0117778430574407,-1.1581352045578057,0.5,-0.015804167429167213,-1.7925896257860006,0.5,0.49419758495598126,-0.460706625754273,0.5,-0.2532263928476573,0.07888072976862566,0.5,0,
0.7682048546279008,0.3548465279089545,0.3102606434942645,0.5802294749811959,-0.6142833708123107,-0.8227201251733082,0.5,-1.0208804435964391,-1.2751977111184198,0.5,-0.032607222281562064,-1.6068807963612035,0.5,0.4938424701536752,-0.1974033641714973,0.5,-0.2439675441382142,0.26380274711681334,0.5,0,
0.7762069885302748,0.35760308119471806,0.04923944221050039,0.5,-0.6203994713160604,-0.8555352123161136,1.050778291731737,-1.0321810064353354,-1.2680735746638527,0.5,-0.04151426017094647,-1.5126824351071118,0.5,0.4910391311292373,-0.6657593629259794,0.5,-0.2490055488937883,-0.08076659134127404,0.5,0,
0.7842091224326487,0.3556343589843225,0.09980999230747162,0.9386710793989869,-0.6279719342093685,-0.635752969903855,2.4372040658695213,-1.0411696207910608,-1.2640984936369837,0.5,-0.05681014124327585,-1.685072878624194,0.5,0.48319032034685955,-0.40324740068408205,0.5,-0.24525980959967458,0.09447000383302519,0.5,0,
0.7922112563350228,0.3592000410716376,0.5733925563883892,0.7987868931944139,-0.6305715188345221,-1.187259394253952,0.9382803095791319,-1.0524065823335271,-1.3512823699207976,0.5727452801913773,-0.06847542622893357,-1.5757979250640854,0.5,0.484587172718292,-0.3364369607790907,0.5,-0.24749402883245988,-0.3657456825409966,0.5,0,
0.8002133902373967,0.3648086398865367,0.1660516137797427,0.5299200606899853,-0.6469680845174317,-1.0229186082519117,2.6912462289328047,-1.0627901387097936,-1.1354365168298601,0.5,-0.08202290804430122,-1.898666600000912,0.5,0.4778073289743941,-0.6151042625279282,0.5,-0.25111174052033053,0.0678208007822128,0.5,0,
0.8082155241397707,0.3618568668921135,-0.11505505945011776,0.5097534357916051,-0.6469382165665527,-0.44648085344385635,2.0505894393856465,-1.070573566602805,-1.2409819144379997,0.5,-0.09885409182894817,-1.7197683144019862,0.5,0.47474550451784514,-0.3362948559414748,0.5,-0.24640889601994448,0.27629874897130113,0.5,0,
0.8162176580421446,0.36296775893533484,0.14881389992668984,0.5,-0.6541117781725334,-0.900254892332343,1.8310599618188421,-1.0826458493408015,-1.242635041661222,0.5,-0.109539201074733,-1.3227872659699689,0.5,0.4724266112793305,-0.13236359902444456,0.5,-0.2466909605367897,-0.07618171591294333,0.5,0,
0.8242197919445186,0.36423788929094053,0.20710875906366707,0.5,-0.6613422948438702,-0.5216738602024512,0.5,-1.0904557272693844,-1.0732682493532346,0.5,-0.12001868808446767,-1.723074539478772,0.5,0.472627686933454,-0.3049253958573687,0.5,-0.24762780347455157,0.2893720070025457,0.5,0,
0.8322219258468926,0.3662814990803535,0.30765598044401804,0.5,-0.6624585599357726,-0.5478969976107501,2.7689469292254154,-1.0998181413304533,-1.3087698127969698,0.5,-0.13710839370639336,-1.6194686872107507,0.5,0.4675478049456126,-0.5793584670034032,0.5,-0.24206100842474898,0.20753018214504126,0.5,0,
0.8402240597492665,0.3691603849780448,0.2654611074002361,0.5,-0.6701086468056422,-1.165854625699715,1.2663660924137656,-1.111396044274136,-1.3971944024327858,0.6085041188965095,-0.14593018707983968,-1.620725631500718,0.5,0.4633579514613996,-0.2291141623405532,0.5,-0.2443073205602309,-0.12763854410834974,0.5,0,
0.8482261936516405,0.3705288767987573,0.17556913669956875,0.5,-0.6811122339469681,-0.9269535636764192,0.5,-1.1221732517693779,-1.054217731117968,0.5,-0.16304000381040484,-1.6679991117575597,0.5,0.46388197834816375,-0.2110425814883625,0.5,-0.24410322513048258,-0.030892970231056333,0.5,0,
0.8562283275540145,0.3719694911652379,0.0810902203020672,0.5,-0.6849399038244649,-0.9540368082702616,1.362916925408937,-1.1282635279720235,-0.9405755667326876,0.5128339596352032,-0.17261817286796063,-1.4190201174040482,0.5,0.4599812701575858,-0.47991144481272785,0.5,-0.2448016080839278,0.10320681949266969,0.5,0,
0.8642304614563885,0.37182632032359036,0.010200985571494348,0.5,-0.6963768228792923,-0.6893856073306378,1.0100744321327284,-1.1372224608371009,-1.1922253577559132,0.5,-0.18574432568886962,-1.3298992339838225,0.5,0.4562033952311601,-0.5061769644469013,0.5,-0.24245191601859986,0.13187093804489963,0.5,0,
0.8722325953587624,0.37213270693438183,0.21606460085828172,0.5,-0.6959700735417551,-0.4902395231006912,2.314016327331829,-1.147339133696118,-1.0672463148510973,0.5,-0.1938965606117018,-1.4735226586978545,0.5,0.45188243872643535,-0.4856401249455633,0.5,-0.24269167307520942,0.022696733947577194,0.5,0,
0.8802347292611363,0.37528335393732287,0.18972249630934412,0.5,-0.7042206552489033,-1.010367327191633,2.0743974920265402,-1.1542984018747184,-1.0839611978911283,0.5,-0.2093206882280353,-1.6024869948455447,0.5,0.4484331532320311,-0.3657663621091864,0.5,-0.24208876827543863,0.10692902178939881,0.5,0,
0.8882368631635104,0.37516826687533134,0.23647089276528782,0.5,-0.7121359507768212,-0.5647325652018628,0.5467833464625921,-1.1646825128623761,-1.0364917178920101,0.5,-0.2195363525292305,-1.3301201528381577,0.5,0.44603017693268837,-0.4272960595610095,0.5,-0.24098080872657904,0.2352315269928129,0.5,0,
0.8962389970658843,0.3790668882215675,0.38181027823406405,0.5,-0.7132563762921331,-0.4689767709308984,1.6042556117105315,-1.1708822693609906,-0.8671352380322517,0.5,-0.2306026106734458,-1.462285822752065,0.5,0.44159641627905494,-0.41844285050682967,0.5,-0.23832506384355362,0.05759742367263468,0.5,0,
0.9042411309682583,0.38127723132707636,0.32963075395504166,0.5,-0.7196395791117156,-0.8262019429808448,0.5,-1.1785566766708921,-1.0428434453573359,0.5,-0.24293292569326355,-1.0389098890385382,0.5,0.4393350913245791,-0.39066474793199646,0.5,-0.24005924994781688,-0.008462340603447235,0.5,0,
0.9122432648706322,0.38434098028484814,0.24527469851771955,0.5,-0.7264756073798266,-0.8609938479732793,1.0319452846142427,-1.187567764486708,-1.1435680818474707,0.5,-0.24722516889806243,-1.022549296115451,0.5,0.435345780312143,-0.29596181529019727,0.5,-0.23846046129320878,0.321108890150466,0.5,0,
0.9202453987730063,0.3852016265033599,0.0987786470563086,0.5,-0.7334154806792881,-0.6716998577671746,0.5,-1.1968537659804517,-1.06745119738208,0.6443358145131222,-0.25929371443111077,-1.6098470032342802,0.5,0.43459970227993594,-0.08939820261956097,0.5,-0.23492150770540943,0.14023726970670106,0.5,0,
0.9282475326753802,0.3859214386377491,0.297403280385293,0.5,-0.7372228051041014,-0.6069214284246394,0.5,-1.2046469836448213,-0.7184716075126635,0.5,-0.2729827209498109,-1.5185050707111936,0.5,0.43391540907023,-0.1636870970896237,0.5,-0.23621666497790156,-0.19607705131904732,0.5,0,
0.9362496665777541,0.38996007898952456,0.23831548874173394,0.6930241336037387,-0.7431262235340823,-0.6009189126641584,0.6553434507990614,-1.2083493117006543,-0.7713661439402025,0.5,-0.28358979556248987,-1.347498289616323,0.5,0.43198070872650196,-0.4553734324085172,0.5,-0.23805874052651418,-0.2152298387432614,0.5,0,
0.9442518004801281,0.3897344864576168,-0.08704821073690291,0.5,-0.746837507706728,-0.4823435128308226,0.9008449977871574,-1.2169888419478645,-0.8218512411781731,0.5,-0.2945426935836721,-1.2388495054823645,0.5,0.42662943415169374,-0.4144676206295182,0.5,-0.23966034239779374,0.07784055647028047,0.5,0,
0.952253934382502,0.3885673076177341,-0.007935919000393726,0.8196925631935433,-0.7508437197393755,-0.6645053141973445,0.6188872450040461,-1.221498931559505,-0.9540344651010474,0.5,-0.3034113876502077,-0.7052905254425861,0.5,0.42534922679642967,-0.20556236272973455,0.5,-0.2368132916229897,0.2191829149244262,0.5,0,
0.9602560682848761,0.3896075117536105,0.4108127327911437,0.5,-0.7574695927338855,-0.7716986798757471,1.5797905332374629,-1.2322533933894813,-1.0170283631171784,0.5711515021437755,-0.30582734199075345,-0.9533935677714308,0.5,0.423340436348018,-0.23491884222899204,0.5,-0.23615341575900292,0.04028786989172979,0.5,0,
0.96825820218725,0.3951403113423924,0.28652007215177605,0.5,-0.7631908986173874,-0.4329157022421315,1.2429792844612364,-1.23777138536938,-0.7200535882718462,0.5,-0.3186656847345506,-1.2348338748722314,0.5,0.4215905253207658,-0.2949571093307755,0.5,-0.23616868570472202,0.13731534487060845,0.5,0,
0.9762603360896239,0.39419183290803894,0.035952114115903044,0.5717932920843096,-0.7643962439697596,-0.187886520158366,0.6104602933045049,-1.2437742508018308,-0.7375627576370059,0.5,-0.32558468398870916,-0.7521693297656701,0.5,0.4186211225987256,-0.2802788863238495,0.5,-0.23395637024107319,0.1619327855272544,0.5,0,
0.984262469991998,0.39571554516824686,0.3627805674584379,0.5,-0.7661970829399213,-0.30369669968076385,1.1624964915069997,-1.249572389491572,-0.6931533472749052,0.5,-0.3307003940108013,-0.9731834668501617,0.5,0.4171060631395842,-0.13389352116579753,0.5,-0.23357776113628595,0.06361474088013505,0.5,0,
0.9922646038943719,0.39999632198737395,0.4697796051638878,0.8793210847192203,-0.7692553911646518,-0.5259744174592601,1.5900959627100895,-1.2548647043582293,-0.8084678048428662,0.5292318995187145,-0.34115561945831174,-0.869889050889562,0.5,0.4164788262600728,-0.13087650361484626,0.5,-0.23293853438699103,0.08809970705067789,0.5,0,
1.0002667377967458,0.40323201885086907,0.02118645373787309,0.5,-0.7746126736192694,-0.1701354741789063,0.7208042237413949,-1.2625078743690579,-0.46251380283700294,0.5,-0.3446186188250343,-0.485559927065695,0.5,0.41501203908174666,-0.685659377338551,0.5,-0.2321681658234751,-0.09690779227228795,0.5,0,
1.00826887169912,0.4003353052471799,-0.01181626609531028,0.6505905080432388,-0.7719775587515143,-0.3021478359512553,1.5526050592924074,-1.2622649252036213,-0.5646798914416967,0.5,-0.34892457829136286,-0.9080120651761072,0.5,0.405508276222656,-0.20007253386119042,0.5,-0.23448905906334763,0.10484029007789067,0.5,0,
1.0162710056014939,0.4030429585933441,0.3386385853204089,0.5,-0.7794470389944895,-0.6337887443712137,1.2260052459393755,-1.271542752632125,-0.7889824904775272,0.6052232585543535,-0.359146811867852,-0.9006471501893584,0.5,0.4118108785399676,0.10311849154270164,0.5,-0.23049072118222885,-0.0057365895093242775,0.5,0,
1.0242731395038678,0.40575352261230646,0.4456734947734034,0.5,-0.7821181786614537,-0.3630724288106735,0.5611146992734045,-1.2748886450512618,-0.40060332913148533,0.5,-0.3633349326943926,-0.6401065303559202,0.5,0.40715817208733923,-0.37934827957517014,0.5,-0.23458084449549682,-0.3031299438513088,0.5,0,
1.0322752734062417,0.41017373450971856,0.2865240356470268,0.6995912927854102,-0.7852561978554603,-0.27556217466993826,0.513937478716801,-1.2779524058982288,-0.36834241777382315,0.5,-0.36938851635354675,-0.778347296591493,0.5,0.4057413060667649,-0.07548696493284851,0.5,-0.2353408002838498,-0.009243946024977898,0.5,0,
1.0402774073086156,0.4103379071826589,-0.06803252170432816,0.5,-0.7865271734561727,-0.3762882873964146,0.7685021617560219,-1.280782123735643,-0.5124933152439032,0.5,-0.3757884894398565,-0.712301822293409,0.5,0.40595038064841366,-0.3107985264775188,0.5,-0.23472874763189647,0.3808586396818001,0.5,0,
1.0482795412109898,0.4090852141624493,-0.03781963321957543,0.669916498075581,-0.7912768104538029,-0.5233610588817328,2.2196115410682973,-1.2861522989421312,-0.5519865012246494,0.5,-0.3807853455102413,-0.6097299288755561,0.5,0.4007685296431246,-0.07957002088906581,0.5,-0.229247062048941,0.4531301005095117,0.5,0,
1.0562816751133637,0.4097327930511457,0.37170264418833615,0.5,-0.7949009503982805,-0.01937287425007872,0.5,-1.2896139077552373,-0.4171241941573339,0.5,-0.3855441683018654,-0.34407689285905274,0.5,0.4046772603141886,-0.015483990986889934,0.5,-0.22747866602374428,-0.12025333456004011,0.5,0,
1.0642838090157376,0.4150324564694627,0.45079741402030343,0.7973045979581369,-0.7915867764418042,0.01857675860762742,1.125089649537626,-1.2928262860486486,-0.41504197172960444,0.5,-0.38629057579598614,-0.4147597658410752,0.5,0.40052078578733435,-0.004609909586669042,0.5,-0.23117111540190163,0.057841666597974184,0.5,0,
1.0722859429181115,0.41694555167547054,0.06922137339236342,0.5,-0.7946037222605584,-0.23937605988759436,0.8626367964284024,-1.296254579302911,-0.08770709653328768,0.5,-0.3921803245553226,-0.6358294457707824,0.5,0.4046035017608019,-0.03829919963604586,0.5,-0.2265531993581767,0.1733133484762804,0.5,0,
1.0802880768204854,0.4161399984437405,0.04487935357866055,0.5,-0.7954167934000057,-0.42120428105352214,0.915276238558637,-1.2942295995931812,-0.06336122741529282,0.5,-0.39646384692831865,-0.07430714971931943,0.5,0.3999079985931576,-0.3137511390447385,0.5,-0.22839810182628115,-0.08061173994071587,0.5,0,
1.0882902107228596,0.4176636213327291,0.10064630779751255,0.5,-0.8013429907574148,-0.2328967467161852,1.5466132273966695,-1.2972683589415557,-0.3535859248155887,0.5,-0.3933692389508317,-0.09477352241975615,0.5,0.3995834835360861,0.20845158259073793,0.5,-0.22784298719722815,0.021918116861193576,0.5,0,
1.0962923446252335,0.4177503393685007,0.20663468399340773,0.5,-0.7991431413474647,0.10280560207034245,0.5,-1.2998869743902306,-0.08550527371607719,0.5,-0.39798022328703475,-0.32600014397934224,0.5,0.4032432239146094,0.16653935510717657,0.5,-0.22804741195650205,0.30176402837660093,0.5,0,
1.1042944785276074,0.42096977627662363,0.389307195600673,0.5,-0.7996981011242893,0.03810197595066622,0.5,-1.298636443321013,-0.20183338195402245,0.5,-0.3985852412545012,-0.12571329801404005,0.5,0.4022481132178009,-0.24249980394835946,0.5,-0.22301476274320253,0.1586230421647145,0.5,0,
1.1122966124299813,0.42397925449811147,0.13955991134882717,0.5,-0.798533509732254,0.03132187241867285,0.5,-1.303116308501495,-0.18488210567506325,0.7658174815701012,-0.3999916360552594,-0.06726190166854093,0.5,0.3993632270514357,-0.31194857667043646,0.5,-0.22550944328186662,0.036098687880540756,0.5,0,
1.1202987463323555,0.42320273485820487,0.0946874526602734,0.5,-0.7991969511655905,-0.053089183898062664,0.5137566427700643,-1.301594557011814,0.3708128895310303,0.5454267312920138,-0.39966143168119783,0.03350633100529868,0.5,0.3972569359910739,-0.2047279467897109,0.5,-0.22243718373711388,-0.028755164618194176,0.5,0,
1.1283008802347294,0.42549425374067584,0.29358896573858373,0.5,-0.799382936674623,0.038670796121229034,1.1549966570745824,-1.2971833022689985,0.0321157773571501,0.5,-0.3994555347591746,0.18522199125923025,0.5,0.3960875799028003,0.07695676768269474,0.5,-0.22596952591575772,-0.2314512174916277,0.5,0,
1.1363030141371033,0.4279001583100222,0.23092632031085011,0.5,-0.7985782184276509,-0.19431889449825213,1.058730019288564,-1.3010807045740995,-0.1736560571399537,0.7130169713362055,-0.39669787982105015,-0.055794627100348715,0.5,0.39848824427399704,0.2013176187065993,0.5,-0.22614040321697992,-0.008136199964110108,0.5,0,
1.1443051480394772,0.42918907486564944,0.09673262548570011,0.5,-0.802492038986595,0.029829905143177737,1.6325335346996679,-1.2999617991832377,0.4011387230541674,0.5,-0.4003482487927802,-0.14383481171363968,0.5,0.3993086618021059,0.1408009188057016,0.5,-0.22609970511518349,0.1232699881208929,0.5,0,
1.1523072819418512,0.4294478803177934,0.043526675307315604,0.5464541843416869,-0.79810093994536,0.4067576442084511,0.9305821386019972,-1.2946624850052328,0.1180672110633052,0.5,-0.3989992368084684,0.17170514937086406,0.5,0.40074105897488826,0.1822848495184777,0.5,-0.22416808340704564,0.2807606081298153,0.5,0,
1.1603094158442253,0.4298855016705665,0.3455116665192041,0.5,-0.7959839166792598,0.21510637717286202,0.9495480739106608,-1.2980727238062248,0.20596126573793616,0.5,-0.39760096640284637,0.40992572216030226,0.5,0.40222521939440153,0.16952344064171884,0.5,-0.22160753538510644,0.0005766022037959062,0.5,0,
1.1683115497465992,0.4349760669821007,0.33988438094681783,0.5,-0.7946592379105942,0.03192084500889397,0.9124866764415754,-1.2913671047534259,0.24071844071620052,0.5,-0.39244042525390355,0.4414294367386766,0.5,0.40345343402515577,0.08980026045481149,0.5,-0.2241588577717849,0.15051625563917806,0.5,0,
1.1763136836489732,0.4353236517657156,0.15184228233824232,0.5,-0.7954731831591175,0.2370762942363394,0.5,-1.2942212287547656,0.08987961367498687,0.5,-0.39053809541502754,0.4520204253778588,0.5,0.4036620235616785,-0.007340759825724685,0.5,-0.2191992752948796,-0.058550043156120266,0.5,0,
1.184315817551347,0.43740554349951255,0.05815251362699045,0.5,-0.7908660172028128,0.28033986072863865,0.5427363035003706,-1.289929030934626,0.29337370020612874,0.5,-0.3852080984478578,0.49310125701145996,0.5,0.40333598186794417,-0.04890026128704164,0.5,-0.22509565846228283,0.03594740461557687,0.5,0,
1.192317951453721,0.4362540919837474,0.1832655512639704,0.5,-0.7909877453874593,0.1853967783560298,0.6993410446537833,-1.2895272495514676,0.30084628434602634,0.5,-0.3826484753028442,0.3692617486725225,0.5,0.40287961938108585,0.25224512213479,0.5,-0.21862411682103036,0.46490501426372544,0.5,0,
1.2003200853560951,0.4403377923197361,0.2888284884680972,0.5,-0.7878996687491163,0.02822079086192003,0.5,-1.2851154903850897,0.45451261726923986,0.5,-0.37929991046909745,0.4508774964187279,0.5,0.4073719038221008,0.2759200010067214,0.5,-0.21765717823406322,0.007730436280701733,0.5,0,
1.208322219258469,0.440875347799237,0.05788401900522558,0.8755249988538588,-0.7905362127336686,0.04081417204703647,1.2977720109311628,-1.2822550476751597,0.45227721819701694,0.5,-0.37543443536014454,0.590461264770633,0.5,0.4072943393971934,-0.09372021039471753,0.5,-0.21850042984053913,-0.04833251994538178,0.5,0,
1.216324353160843,0.4412639366238197,0.5073345284351654,0.5,-0.7872466419963637,0.3058359739500707,1.2247400662217378,-1.2778790548939374,0.6132359099463303,0.5,-0.3698525302327673,0.7629690069838948,0.5,0.40587238045578533,0.0917642877088995,0.5,-0.21843049855318933,-0.09301616543306787,0.5,0,
1.224326487063217,0.44899270025419963,0.3308936822480658,0.9827415548179056,-0.7856428371504675,0.5771028737502278,0.5,-1.2724432731160185,0.3612066222025284,0.5,-0.3632269312484022,0.7756930305463754,0.5,0.4087625680005358,0.028920824243636872,0.5,-0.21998868848746822,-0.2027944890175704,0.5,0,
1.2323286209655908,0.44655823553978874,-0.20316724610670855,0.7413776092664688,-0.7780129960163601,0.5395877192551357,0.8086862820622164,-1.272099748938697,0.5835486968932546,0.5,-0.3574414417440253,0.3991737729959303,0.5,0.4063351136436835,0.2334414876941568,0.5,-0.22167521037747046,0.06552869137109452,0.5,0,
1.240330754867965,0.4457420243164923,0.18825210066212433,0.5,-0.7770094336423853,0.38745705437164685,0.5,-1.2631064939657264,0.7394691692669958,0.5,-0.35684015088046733,0.21513933801294363,0.712142610587323,0.4124976318036423,0.32113980275108933,0.5,-0.2189402294255307,0.3393126410093337,0.5,0,
1.2483328887703389,0.44957026915038273,0.2909254259222463,0.5,-0.7718136831464137,0.34026199350063735,0.5,-1.260268242230425,0.6877679215987198,0.5,-0.3539992123358182,1.2969064877441372,0.5,0.41147335048770095,0.07371791963583715,0.5,-0.21624620812132112,0.2187723520839773,0.5,0,
1.2563350226727128,0.45039683113124823,0.10388434916764819,0.5,-0.7715652417463751,0.42638517787393915,1.548621182819835,-1.2521022072201469,0.5732521866065876,0.5,-0.33608964707656114,1.2394750939564887,0.6060457830052859,0.4136771185178157,0.4472628138016167,0.5,-0.21543987179218707,0.14452001459607475,0.5,0,
1.2643371565750867,0.4512324187370651,0.14107804207123473,0.5,-0.7649915203004307,0.7593833377778982,1.5609547533151034,-1.2510962072447196,0.554307959844888,0.5,-0.3341676108325144,0.6413419180035483,0.5,0.4186295555085268,0.17437288186232525,0.5,-0.21393388788778392,0.03184604198209866,0.5,0,
1.2723392904774609,0.452654079804388,0.2463951125964807,0.5,-0.7594151083419287,0.43358612059883617,0.974130934435289,-1.2432332798626287,0.7151860841548008,0.5,-0.32582817638850436,0.8531481987494489,0.5,0.4164670846276129,0.10838067206175514,0.5,-0.2149303351204735,-0.12566875298401953,0.5,0,
1.2803414243798348,0.4551747405386088,0.27305500826925105,0.5,-0.7580541423708493,0.22966933504162124,1.4446708328320659,-1.2396532298982428,0.6858803059486968,0.5,-0.3205172396525232,1.038216135934609,0.5,0.4203636462615149,0.19769477252134723,0.5,-0.21594458793552823,0.14372236791159418,0.5,0,
1.2883435582822087,0.457022959936696,0.2419457289033998,0.5,-0.7557403989812628,0.5284767810620274,0.5,-1.2322591949674495,0.7617175369365597,0.5,-0.3092167182135506,1.2050646077904452,0.5,0.41963020098795445,0.48723994264307513,0.5,-0.21263077723388799,0.24448015009020593,0.5,0,
1.2963456921845826,0.4590458722010632,0.26153992203696225,0.5,-0.7495985138738569,0.5222212929727049,0.5891818335570934,-1.2274657493072578,0.49372588307985965,0.7557575087811474,-0.3012362059278761,1.0996964012749688,0.5,0.4281594853438041,0.4275264591732941,0.5,-0.21203290553408494,0.14395991414210135,0.5,0,
1.3043478260869565,0.4612075986892874,0.24999019343061035,0.5,-0.7473848582936995,0.43628472613670144,0.6649595497977068,-1.2243595808381718,1.084439504031323,0.5,-0.2916215757931511,1.0344626951420584,0.5,0.42647062433472716,0.3170314136469905,0.5,-0.21032741860761436,-0.004326846407479504,0.5,0,
1.3123499599893307,0.46304571529595295,0.11946271324610527,0.5,-0.7426179582556697,0.5602159026692893,0.5,-1.2101147172427567,1.1565965535609013,0.639584391668193,-0.28468480280560315,1.3176120337150057,0.5,0.43323198796215595,0.2925768162445573,0.5,-0.2121021350766046,-0.25276479897104465,0.5,0,
1.3203520938917046,0.4631190021012251,0.2439358447437999,0.5,-0.7384214038509909,0.5841550147820118,1.054965781425172,-1.2058540359811973,0.7553240089460123,0.5,-0.27053978325371103,1.2726882159381954,0.5,0.43115185339464007,0.020707150424844473,0.5,-0.21437165539115108,-0.06677781502612348,0.5,0,
1.3283542277940785,0.46694868881185375,0.4334327514608667,0.9432984894606478,-0.7332714780191575,0.7819310373017654,0.623206410004941,-1.1980295330996205,1.0350697772894684,0.5,-0.26432179135059203,1.235554277449393,0.5,0.43356330236895346,0.338240646604402,0.5,-0.21317058011702258,0.07071063158956177,0.5,0,
1.3363563616964524,0.47005392612459895,-0.03256917034160159,0.5,-0.7259105072541626,0.9030726868699546,1.0742632411909196,-1.1892929195445658,1.0980259833228978,0.5,-0.25077091481452074,1.2213701684961227,0.5,0.4365637037403105,0.2301608708089077,0.5,-0.2132402852857181,0.31889542616175476,0.5,0,
1.3443584955988264,0.4664275820863881,-0.08973088576949909,0.7858556119706247,-0.7188223150292382,0.7061489403540413,0.7065972793489559,-1.180461117366454,0.9115070088395183,0.5,-0.24477986865465406,1.1699927019098704,0.5,0.437245876301896,0.2792147900148693,0.5,-0.2080682532984345,0.10631755314976545,0.5,0,
1.3523606295012005,0.46861823195228697,0.36061186677145,0.5,-0.714612124208498,0.5741819855238292,0.5,-1.1747088074031335,0.9421850774652824,0.5,-0.2320510315839628,1.547448116388843,0.5,0.4410311403805484,0.6499506787633579,0.5,-0.21153920443532184,-0.04273631699683485,0.5,0,
1.3603627634035744,0.4721973719547313,0.25012536791921974,0.5,-0.709635403260857,0.6080178383729914,1.1103917643562573,-1.1653861561270096,1.1436933581110142,0.6089275700690263,-0.22002069879243258,1.4126187308533718,0.5,0.4476450871621097,0.48762738159631447,0.5,-0.20875203437038387,0.2577685354435109,0.5,0,
1.3683648973059483,0.4726202378389945,0.3547656152665529,0.5,-0.7048838387945301,0.8440279241640619,1.282494826097797,-1.1564097136733573,0.8222521415298251,0.5034400305365897,-0.20944913189030887,1.477890623675454,0.5,0.44883317848608945,0.2184981849493138,0.5,-0.20741490786822567,0.024153979490021057,0.5,0,
1.3763670312083223,0.4778736217989962,0.36724893828293453,0.5483416050883954,-0.696130956474232,0.5793510003780228,0.5,-1.1522301218625324,1.093249451932801,0.5294114550372578,-0.1963744488136253,1.3553671955414437,0.5,0.45114105812129873,0.4102223194755242,0.5,-0.20836557069854353,-0.12335986172790428,0.5,0,
1.3843691651106962,0.47849622085152144,0.094553587543518,0.5,-0.6956142227884817,0.5341174817757866,2.950431106963619,-1.1389177224424325,1.2908292507165102,0.5,-0.18776325676164576,1.4376941683468936,0.5,0.45539673559769783,0.2729544332710984,0.5,-0.20938866565587214,0.1549745742769424,0.5,0,
1.3923712990130703,0.47938647919969246,0.0915624020458132,0.5,-0.6875850767658194,1.201292791020693,2.166447031046533,-1.1315768538510682,1.1265431269462527,0.5,-0.17337134212007502,1.7129058180512056,0.5,0.4555083290536363,0.10566480594280739,0.5,-0.20588597751011245,0.06717356363947387,0.5,0,
1.4003734329154442,0.47996121928425445,0.11008142928660078,0.5,-0.6763935381321506,0.7405361420006057,1.5651860164961025,-1.1208930324112925,1.2026718815907194,0.5,-0.16035676367282647,1.461458007352135,0.5,0.45708737249278275,0.5147664581133456,0.5,-0.20831388863764055,0.062419000912928777,0.5,0,
1.4083755668178182,0.4811477820682781,-0.03542114386024045,0.7624032730433329,-0.6757364984938097,0.4260192592335024,0.7015164968267306,-1.1123341037456167,1.1694114763405594,0.5,-0.14998801400244086,1.4274558610978607,0.5,0.46374459238344984,0.4498210718633447,0.5,-0.2048872734955056,0.12645761991174514,0.5,0,
1.416377700720192,0.4793944809824906,0.3585271163108368,0.5,-0.6695772299844146,0.5415886703854857,1.1468591539340054,-1.1021824487898435,1.1763224030210129,0.5,-0.1375174698952607,1.5481129006224577,0.5,0.46428450964259627,0.3334336892666656,0.5,-0.20629056671905263,-0.03118148392027703,0.5,0,
1.4243798346225662,0.48688421592925146,0.6161805937383684,1.2001457696502618,-0.6670710797676419,0.7524293833891249,1.2715955396994438,-1.0935129452972805,1.081845964772468,0.5,-0.12521820759248153,1.5416646741778834,0.5,0.4690795314117165,0.3612558383720536,0.5,-0.20538617723823002,0.13945120774634667,0.5,0,
1.4323819685249402,0.4892533704823045,-0.014536630544421253,0.5,-0.6575383598501886,1.0127238508602225,0.6463152797241518,-1.084872913353484,1.2546773089714414,0.5,-0.11285083510841457,1.600102588309534,0.5,0.4700646030565491,0.3567863167400105,0.5,-0.20405934739511108,0.07418850081497737,0.5,0,
1.440384102427314,0.4866516298405407,0.03805813540849398,0.5630576474464198,-0.6508674981538783,0.9149410837365826,0.5531042338643126,-1.0734381083537374,1.2336729814824836,0.5,-0.09961656617952899,1.7655099653889372,0.5,0.47478811247955666,0.7331855168625708,0.5,-0.20419916122519038,0.11555460663666833,0.5,0,
1.448386236329688,0.4898623006488404,0.33519569167372865,0.5,-0.6428993025104033,1.0113826597915112,0.8271465728316864,-1.0651341456497643,1.2120803903652166,0.5,-0.08460267566219157,1.7688497529929113,0.5,0.48179557132635026,0.4197850810555223,0.5,-0.2022104736889244,0.0854600087454617,0.5,0,
1.456388370232062,0.4920147609073204,0.11148783327293021,0.5,-0.6346853755972142,0.8704416664805578,0.5,-1.054044822107894,1.3368224498195025,0.6261121840580456,-0.07131497013164241,1.7945911951792837,0.5,0.481504673776445,0.20615447997437628,0.5,-0.202831801085263,-0.00862470279837553,0.5,0,
1.464390504134436,0.4916461059812073,0.05584399996717143,0.5,-0.6289722358467144,0.8102779213728234,0.6497115273867781,-1.0437449864526522,0.9746670997684836,0.5,-0.05588921653932303,1.373832292226959,0.5,0.4850940430059403,0.5156331838156794,0.5,-0.2023484689336984,-0.058464464183885165,0.5,0,
1.47239263803681,0.4929082649067951,0.3098916596243513,0.5,-0.621720928855249,0.9417053038178885,0.8562667692952262,-1.0384501485115982,1.035993104547203,0.8268280606199634,-0.04933365345601107,1.4258355456859277,0.5,0.4897548047174959,0.3401170545295519,0.5,-0.20376723251220516,0.07043028297921625,0.5,0,
1.480394771939184,0.4966043725351969,0.36005445453431495,0.5,-0.6139049509856281,0.7656470952214014,0.5710988584887625,-1.027169096779897,1.56935157803674,0.664887310807333,-0.033075847808348185,1.9452640085882098,0.5,0.4905359158784131,0.4352347458358753,0.5,-0.20122158440603094,0.15194123471709564,0.5,0,
1.4883969058415578,0.49866913617934416,0.22401802955828234,0.5,-0.6094705753317066,0.6832937942798725,0.5,-1.0133405232630104,1.199732305092252,0.5,-0.01820942931859971,1.7386390025971843,0.5,0.4967185606508699,0.5740019442823479,0.5,-0.20133617275673163,0.0956077657220944,0.5,0,
1.4963990397439317,0.5001886610081294,0.12389579912135129,0.5,-0.6029722502771502,0.6839538836740724,2.0838442074762775,-1.007973379898421,0.9913416731521657,0.6964382541968499,-0.005257623766793235,1.6623486157096947,0.5,0.4997199469869307,0.21209274709243706,0.5,-0.19969186015447743,-0.014633959326961626,0.5,0,
1.5044011736463059,0.5006514689652858,0.17252064512841836,0.5,-0.5985273131929214,1.1427972270172948,0.5,-0.9974790564925757,1.4254319004707166,0.538338136706025,0.008388148532755407,1.7117386170241045,0.5,0.5001120446043489,0.16116112278694028,0.5,-0.20157031610596302,0.06585432561756477,0.5,0,
1.5124033075486798,0.5029489913301841,0.19835477107308513,0.5,-0.5846874946448735,1.0707541339281188,2.38813657271359,-0.9851664694908895,1.2057419876872963,0.5075190716910706,0.022130194105592436,1.5025729024343721,0.5,0.5022985249515217,0.5485470741668497,0.5,-0.1986381909445964,0.20479240569586282,0.5,0,
1.5204054414510537,0.5038251453024551,0.11293808323382948,0.5,-0.5813952470500715,0.5585676116602323,1.098059800586956,-0.978187184689579,1.39097285194284,0.5,0.03242931497170536,1.52191613860691,0.5,0.5088887977910185,0.749885453029668,0.5,-0.1982936376148292,0.13950042289022357,0.5,0,
1.5284075753534276,0.5047560006619254,0.12943555787569422,0.5,-0.5757504128583097,0.7820379772731506,1.012247289151864,-0.962910903859804,1.3517564452398336,0.6974816783521031,0.046480852323303,1.803499412637203,0.5,0.5142966921999964,0.3618506632830712,0.5,-0.19640618417835282,0.05975865086630533,0.5,0,
1.5364097092558016,0.5058961142284663,0.1891008928806906,0.5,-0.5688826394137011,0.9767535604749202,0.5,-0.9565590815657417,0.9658227592500845,0.8596546242211051,0.06128530557390061,2.018341150230454,0.5076263942396732,0.5146784084035476,0.17339804867048253,0.5,-0.19733749920096832,-0.08986933035626254,0.5,0,
1.5444118431581757,0.5077816149480164,0.28793155738435217,0.5,-0.560122355890711,0.9594252352522689,0.8524517876723033,-0.9474577397118027,1.5795077530891612,0.6067462531274403,0.07877431072699026,1.551170492710988,0.5,0.5170710609787241,0.44367167752632636,0.5,-0.19784409346405302,0.12465858452119331,0.5,0,
1.5524139770605496,0.5105030191466159,0.39569238938452767,0.5,-0.5535318356496648,0.8089780837505153,1.6141480984552903,-0.9312869575163151,1.3006791086830825,0.6227138765259241,0.08610403345727642,1.2580710782916096,0.5,0.5217771552439688,0.5509703708345067,0.5,-0.19534296184862923,0.12329102687711618,0.5,0,
1.5604161109629235,0.5141126931781689,0.26929570349001203,0.5,-0.5471787065507028,0.4705542495720347,0.5,-0.9266468739728734,0.9223017266101127,0.8885189398224964,0.09890344797965601,1.6273966287227697,0.5,0.5258865869120762,0.7103761803459452,0.5,-0.19587143703401916,-0.08870315560274324,0.5,0,
1.5684182448652975,0.5148117504024561,0.12413054398092982,0.5,-0.5460029676565122,0.5265057465551892,2.274767036115125,-0.9165301298905533,1.5700554456198612,0.5397873141615672,0.11214237951684074,1.634651323315619,0.5,0.533143174129504,0.3022422632245267,0.5,-0.19676221233827312,0.08951129145475835,0.5,0,
1.5764203787676716,0.5160987818818638,0.2627729015663785,0.5,-0.5387546146058197,1.0372277794415963,0.6890331421892739,-0.9015259868429556,1.2746872832562552,0.6287280336012896,0.12505786915270592,1.6016120068546276,0.5,0.5307224631236687,0.1731317172805752,0.5,-0.19443925637074302,0.038051922182836054,0.5,0,
1.5844225126700455,0.5190161168275181,0.13334089349998496,0.5,-0.5294073231854467,0.9172194389395205,1.9661412567747252,-0.8961351333584532,0.8845365390557081,0.7138959735238268,0.13776817162651478,1.6831321492910452,0.5,0.5359132816059932,0.49957038322324954,0.5,-0.19615338158334775,0.2157616880006114,0.5,0,
1.5924246465724194,0.5182322361778635,0.07655247980478674,0.5,-0.5240791035827874,0.49675747328070674,1.2225244204901973,-0.8873734022180643,1.2805060465335347,0.5,0.15198798354136264,1.3937685141527534,0.5,0.5387155892552407,0.49770833179019897,0.5,-0.19098706936273324,0.321949325787562,0.5,0,
1.6004267804747934,0.5202409565043947,0.0132704345859741,0.7027809134162866,-0.5214592036129554,0.7570712997659947,0.5,-0.8756470366139166,1.2596680750070823,0.5,0.16006846785295883,1.6021593560113894,0.5,0.5438766149146363,0.33522404773166786,0.5,-0.19100219237074675,-0.2613175211642737,0.5,0,
1.6084289143771673,0.5184445631312391,0.36535964365938534,0.5,-0.5119659627865315,0.772911343939725,0.7339345287570691,-0.867218713017951,1.1050531387532467,0.5,0.17762253323754487,1.6891891333968185,0.5,0.5440791740189473,0.22284509858135765,0.5,-0.19516814970136162,-0.036276062887150365,0.5,0,
1.6164310482795414,0.5260867108029449,0.5772082970582556,0.8400870541380328,-0.5090926221099198,0.9016566427206759,0.663663817520997,-0.8579661863938647,1.0028055964809781,0.5140325767632121,0.18709549398730793,1.1636472140180623,0.5,0.5474421364919381,0.46522171967987996,0.5,-0.19158260937694116,0.32925631526481597,0.5,0,
1.6244331821819153,0.5276798958841712,0.11379631416045394,0.5,-0.4975394565030007,1.0210926586805453,1.5887553627998197,-0.8511738234742553,0.7374937500889341,0.5,0.19624088866183387,1.4679367912212182,0.5,0.5515227215338254,0.2161481948810065,0.5,-0.18990004865712456,0.1787063798729168,0.5,0,
1.6324353160842893,0.5279074518295122,0.03551268793814538,0.6863775422992371,-0.49275513957103106,0.6900277105876297,0.5,-0.8461662863924417,0.7331066569302227,0.6455716766737463,0.21058248264684742,1.5883729124575359,0.5,0.5509005076100342,0.2924572622598348,0.5,-0.1887233072989745,-0.031087767195245655,0.5,0,
1.6404374499866632,0.5282480988911815,0.39010814163644575,0.5112830904879926,-0.4864990131335986,0.7538380741605837,1.1564718020966276,-0.8394441169633717,1.1748448973980112,0.6985617735726305,0.22165485526115444,1.437576829430135,0.5,0.5562020377299828,0.44549089827457256,0.5,-0.1903974529322485,-0.13802801469760434,0.5,0,
1.648439583889037,0.5341491820956953,0.15521825572425985,0.8946116787074685,-0.4806937303844617,0.5203781510653912,0.5702106006302682,-0.8273687680340736,1.5558693317234626,0.8992662273666349,0.2335837119177296,1.5026643629221583,0.5,0.5580283619824273,0.40125662151808267,0.5,-0.19093175553413616,0.01746092538671036,0.5,0,
1.6564417177914113,0.5307315909827697,-0.29032307759377374,1.1055903970727932,-0.47817296271655235,0.41635423504843283,1.0463403959308892,-0.8145502076557963,1.0020010733967701,0.5393127881037684,0.24569748506790898,1.1332368428191644,0.5,0.5626221436742721,0.2584088300640469,0.5,-0.19011807812606113,0.03890213676967409,0.5,0,
1.6644438516937852,0.5295040128541949,0.31778981974098924,0.5,-0.4740320626236868,0.6475532661253496,1.2746273696443222,-0.8113367508597252,0.6794078117672853,0.8172366669496129,0.2517155014028362,1.1780386631037465,0.5,0.5621629032634521,0.13487624314850732,0.5,-0.19030932134582138,-0.005774490937278734,0.5,0,
1.672445985596159,0.5358162280986255,0.4383805273586103,0.6397899625241109,-0.46781211045854676,0.9137102906841034,1.9861519962278367,-0.8036796826675198,1.2875008165220414,0.5767181312003897,0.2645461036775689,1.2489559056624542,0.5,0.5647801635646482,0.43453278768682685,0.5,-0.1902104699810576,0.18527385866652646,0.5,0,
1.680448119498533,0.5365181012919327,0.09785847287874239,0.5,-0.45941269797274115,0.488394360113005,0.5,-0.7907367377953726,0.987832765316568,0.5,0.2716987958934355,0.9787430477722868,0.5234479478227474,0.5691154278664413,0.30150542784362216,0.5,-0.18734493960715695,0.36370694842146817,0.5,0,
1.6884502534009072,0.5373819636646854,0.25694581389024834,0.5,-0.4599978006967387,0.37531904759852824,2.870155079855669,-0.7878743584224547,0.852566479196723,0.5,0.2802059924419255,1.6933425407345408,0.5525540717079771,0.5696042504101462,0.3636828155892183,0.5,-0.1843911588063141,0.17814849082103262,0.5,0,
1.696452387303281,0.5406292343141766,0.1801414410141991,0.5,-0.4534075932111647,1.0277268156829549,2.636984800283494,-0.777095674128225,0.9941966658579062,0.5,0.29879227654518814,1.1645995552028756,0.5,0.5749343529158688,0.3244721945691517,0.5,-0.18449456375402043,0.0786754340883003,0.5,0,
1.704454521205655,0.5402642267209126,0.1476356847734811,0.5,-0.4435541716458114,0.43956914311995415,1.228504476700896,-0.7719672117687282,0.8895213639019475,0.5859931108158772,0.2988395853251715,1.0351683015937565,0.5,0.5747958055232526,0.1768093099414822,0.5,-0.1831323518609013,-0.046963840971907256,0.5,0,
1.712456655108029,0.5429914052705523,0.11781673836462614,0.5,-0.44637448692124543,0.19533182622832185,1.7756010231756776,-0.7628633323057938,0.5382772329948632,0.5,0.31535496937068824,1.3211843717920793,0.5,0.5777633018749325,0.5378997028442841,0.5,-0.18524598520957095,-0.4129173302366198,0.5,0,
1.7204587890104028,0.5421492945347466,0.11247033074695406,0.6192426756287277,-0.44042886242615825,0.5927594391746324,0.8669289262171119,-0.7633547760408104,0.5646571479332452,0.5992418313501259,0.3199785352738448,0.8027659876009875,0.5,0.5834022007687611,0.1441875050344002,0.5,-0.1897390291446872,-0.06830798250492126,0.5,0,
1.728460922912777,0.5447909305625036,0.3750341883651323,0.5,-0.4368903358944513,0.42788972138231224,0.5,-0.7538288179388619,0.9767454953016826,0.5597525355304713,0.32819922517230404,1.0927968421278709,0.5,0.5800703019554829,-0.121707474648583,0.5,-0.18633891292964969,0.28837144245591995,0.5,0,
1.736463056815151,0.5481498415485887,0.2705396038746172,0.5,-0.43358262688404126,0.4245931374902215,1.0697820829309574,-0.7477268481159834,0.6430086911917293,0.5093073202490942,0.3374632847478907,0.9338654868752995,0.5,0.5814548811743838,0.26215512397394225,0.5,-0.1851250860653925,0.18432401860793596,0.5,0,
1.7444651907175248,0.5491195642244975,0.14109228670970003,0.6513900706676036,-0.43009684569460777,0.6631631363572046,0.610156702927255,-0.7435406788797942,0.32293735449358957,0.5,0.34314107296230884,0.6712137310379805,0.5,0.584264783939066,0.5111373867577734,0.5,-0.1833897286319227,0.020741769048921235,0.5,0,
1.7524673246198987,0.5504073181359439,-0.16358192338696703,0.5761136581046298,-0.422972016702326,0.5688819635019451,1.545104680561841,-0.742559850444086,0.5252319084283197,0.5,0.3482027044444984,0.9209543851423085,0.5,0.5896330793625082,0.1848382870550183,0.5,-0.18479321776060975,0.29034805794516877,0.5,0,
1.7604694585222727,0.546502253450306,0.10154552873752748,0.7046702195360278,-0.42099473427857664,0.2370219661043428,1.247007808436795,-0.7351369683449411,0.6605376006647151,0.5,0.35787634312458577,0.834984957146595,0.5,0.5872221965319463,0.04379248318578388,0.5,-0.1787441597048,0.2233818934451702,0.5,0,
1.7684715924246468,0.5520320465957443,0.4735313257928572,0.5,-0.4191796652446565,0.5037150055372738,0.747883357230638,-0.7319912488334506,1.009598217853215,0.8795920237965491,0.36156246375884393,0.5585700938098015,0.5,0.5903337590934807,0.3128761104883304,0.5,-0.18121910746548703,-0.37831545461294686,0.5,0,
1.7764737263270207,0.5540787546629917,0.3313011952048098,0.5,-0.41293529418998026,0.37463515318802637,1.4067962170686297,-0.7189833968592897,0.44081482753524637,0.710089802789963,0.3668134646255426,0.706384410641886,0.5,0.5922282142997596,0.09690038020533642,0.5,-0.18479720697860716,0.10947430756750622,0.5,0,
1.7844758602293946,0.5573328657190213,0.2455807178396857,0.5,-0.4131855027936481,0.07387496195308818,1.0745520009554157,-0.7249382115928866,-0.06367640768552979,1.0311101810874281,0.3728646143291141,0.4326371878165154,0.5,0.5918841651767661,0.1377920251039444,0.5,-0.17946751854440693,0.3769405565266018,0.5,0,
1.7924779941317686,0.5580080461484267,0.2669225849519785,0.5,-0.41175329479873085,0.31777592535818866,0.7484598325759191,-0.7200022193822582,0.7274578636108849,0.5,0.37373565963060684,0.23460959338527862,0.5,0.5944328867014227,0.21419576885005343,0.5,-0.17876615807418153,0.10297610380975361,0.5,0,
1.8004801280341425,0.561603627078253,0.2360992222987593,0.5269029880245113,-0.40810108798791705,0.46198588709321986,0.6497740291754853,-0.7132988857751125,0.6178782564830732,0.8379380755218826,0.37661836782327857,0.8168295056683039,0.5,0.595311297478367,0.17775671607897503,0.5,-0.17781990088345087,-0.1864440017128842,0.5,0,
1.8084822619365166,0.5617856337052068,-0.025475499543285707,0.5,-0.40436152060523933,0.34851390714176617,0.5,-0.710116167278529,-0.047444218059557175,0.5930204400356487,0.3868049317212997,0.790143033307416,0.5,0.5972769941586863,0.1802564437295151,0.5,-0.18174926210158768,-0.1515156973265451,0.5,0,
1.8164843958388905,0.5611960190855604,0.11751502456536222,0.6028008969888632,-0.4025248654736488,0.268072342454264,2.045282198470845,-0.7140579932640654,0.3160830020980457,0.6087186858666936,0.3892606563561972,0.34380121389415014,0.5,0.5981954005780392,-0.126285667582951,0.5,-0.1802441520406756,0.22690855587332442,0.5,0,
1.8244865297412645,0.5636658740982526,0.4414666917955598,0.5042725631623377,-0.4000723631259711,-0.19298818483906577,0.566265332119373,-0.7050588392449603,0.7647171372837033,1.0194127618971789,0.3923057511436061,0.38474587166527,0.5,0.5952564234773591,-0.025082027275920293,0.5,-0.1781187252076145,0.09503953320916074,0.5,0,
1.8324886636436384,0.5682594861542893,0.21714265611456202,0.5,-0.40561267643107385,-0.30524045767565955,3.2701477975140576,-0.7018225190675261,0.03152627117349732,0.5,0.39541659030284154,0.05072073741662492,0.5,0.5977940881416245,0.360101427311188,0.5,-0.17872351950932902,0.053638909351833367,0.5,0,
1.8404907975460125,0.5671401565960856,0.27048220475862916,0.5,-0.40495621044878166,0.44536463514692826,1.4575965059473175,-0.7045544189061843,-0.22398318180735094,0.6616371736417742,0.3931172829422721,0.2874980837600481,0.5,0.6010180463143381,0.08369687890136951,0.5,-0.17726050265798515,0.16315926380257478,0.5,0,
1.8484929314483864,0.5725872014304274,0.33770980448805804,0.6640143363921733,-0.398486842268723,0.14673213554495385,1.877547711694467,-0.7054062499764437,0.32920110232526056,0.5,0.4000165596430023,0.10771548332878106,0.5,0.5991332382040464,-0.2554551298153476,0.5,-0.17611297128848782,0.004637266257340872,0.5,0,
1.8564950653507604,0.5725435134678946,0.02590585517096844,0.5,-0.4026084962800624,-0.2783472010970539,2.5626240580175774,-0.6992872012689801,0.37357946785236684,0.8728261251851335,0.3948407306755326,0.28971750259692075,0.5,0.5969307642372925,0.1551953280438667,0.5,-0.1771863063978677,0.1932259552579335,0.5,0,
1.8644971992531343,0.5730016951131629,-0.012775177075444177,0.8146377705236133,-0.40294039748627586,0.31828444543034046,1.039749690407362,-0.6994289784908059,-0.29789379305549674,0.5,0.40465203968455304,0.3731033233221187,0.5020943799413712,0.6016163634527483,0.30005386138153706,0.5,-0.1730213560043609,-0.011969367561008235,0.5,0,
1.8724993331555082,0.5723391106346875,0.4107380288077625,0.5,-0.39751594515317695,0.09148305818049846,1.5484005577970863,-0.7040535019578681,-0.061924458956530426,0.6259948347749537,0.4008103838486865,-0.3315354466064471,0.5,0.6017316260193971,-0.13401675278793684,0.5,-0.17737781627884383,0.13575365312735316,0.5,0,
1.8805014670578823,0.5795735035740871,0.3327306237847008,0.8783892429432401,-0.4014766685553879,-0.2457860672684803,1.9888002267284108,-0.7004197698341104,0.3904850643110455,0.5,0.3993474725388499,0.10858772968824412,0.5,0.5994720954081413,-0.21796183490541826,0.5,-0.17084929755432324,-0.0528821146690648,0.5,0,
1.8885036009602563,0.5776628006152427,-0.05781420323693054,0.5,-0.40144852222947264,0.20262365722511014,1.1859737128545482,-0.6978057409288914,0.1415444265442517,0.5745552439633997,0.4025477875236984,-0.09082843695614948,0.5,0.5982442366609104,0.0024373532215779536,0.5,-0.17822393011354887,-0.07455856204807883,0.5,0,
1.8965057348626302,0.5786484763222962,0.11207681302926459,0.5,-0.3982346900397861,-0.06833021341871859,1.8440828993265155,-0.6981550590094023,-0.2822049526366374,0.5,0.3978942175475515,-0.5038343133490358,0.5,0.5995110930596865,-0.07278777471049491,0.5,-0.1720422345470925,0.2857324275913654,0.5,0,
1.904507868765004,0.5794560296237109,0.28884639072879886,0.5,-0.40254180564417213,-0.4939065357191727,1.549487933096459,-0.7023210201710776,-0.40654175096777045,0.5,0.39448643851011383,-0.14888831101293742,0.5,0.5970796322655425,-0.2443707655836458,0.5,-0.17365221127208702,-0.10047667760758154,0.5,0,
1.912510002667378,0.583270018573957,0.43413388223959015,0.5,-0.4061371946112929,-0.16177807311659048,0.9873585321983477,-0.7046597270248867,-0.34368498080596804,0.7058335027305672,0.3955120045713445,0.0744959886580937,0.5,0.5956011608103482,0.08054304656181926,0.5,-0.1736498613888138,-0.009197520314748603,0.5,0,
1.9205121365697522,0.5864021717395443,0.27450734415238737,0.5954382294110737,-0.4051302548140376,0.04110527235158187,0.516879610631128,-0.707819979863973,0.16907015928838143,0.5,0.39567837432864333,-0.355812207062961,0.5,0.5983683210105316,0.13650081665404074,0.5,-0.173799371597123,0.1142002738316189,0.5,0,
1.928514270472126,0.5876621360803952,-0.061277697438556766,0.5,-0.4054795102536676,-0.047554127896667214,0.5,-0.7019546044762726,-0.01089219459258356,0.9285830869416997,0.3898190092583371,-0.6389332186525591,0.5,0.5977851738768128,-0.007508704265947463,0.5,-0.1718226570075079,0.07975442653890101,0.5,0,
1.9365164043745,0.5854217285805274,0.025839176875930292,0.9237194715861562,-0.40589112086038426,-0.12382641534573052,0.5,-0.7079942549774544,-0.7200558654986977,0.64131908408465,0.3854554428302024,-0.3989398110891724,0.5,0.5982481817422765,-0.3242955899456154,0.5,-0.17252330077250058,0.07349948361315417,0.5,0,
1.944518538276874,0.5880755629104101,0.4631362794687427,0.5,-0.40746073289919926,-0.10695820083793384,1.336523795943187,-0.7134754983242517,-0.2927855553642167,0.5,0.38343597228091036,-0.3062065995961469,0.5,0.592596444437683,-0.1988254584750701,0.5,-0.17064666526969743,0.1971245076398398,0.5,0,
1.9525206721792479,0.5928319090520273,0.2696978561168503,0.5,-0.4076024520737912,-0.4220357322351348,0.5,-0.7126788238632819,-0.3723711313153716,0.5,0.38055613723666404,-0.642298717866252,0.5,0.5950669744066753,-0.15246860583319893,0.5,-0.16936930865026315,0.0614495768327724,0.5,0,
1.960522806081622,0.5923907286082797,0.12645248187457409,0.5,-0.4142133046149614,-0.45018348137758346,1.7028053719954863,-0.7194334364252977,-0.5454888945878172,0.5,0.37315919279505033,-0.4984148197344183,0.5,0.5901569467443518,-0.18166054076206722,0.5,-0.16966347204037308,0.019470799170140385,0.5,0,
1.968524939983996,0.5948551487620205,0.1216641665758994,0.5,-0.41480538777583253,-0.07477898755257548,1.7111504578393089,-0.7214066461766869,-0.3804795733969024,0.5,0.37258150012091334,-0.5783174456504072,0.5,0.5921604057544823,0.08599721811547445,0.5,-0.1690577758635409,0.13665407069837243,0.5,0,
1.9765270738863698,0.5943373552734941,0.03509862004549835,0.5,-0.4154097684158026,-0.44072917144824875,0.5,-0.7255211095996481,-0.7546282484067746,0.5,0.3639061136646438,-0.6945519686356316,0.5,0.5915329022341994,0.01220950687175898,0.5,-0.16747700690919912,0.07783133016310909,0.5,0,
1.9845292077887438,0.5954167266827485,0.2021520147261549,0.5,-0.4218570545190045,-0.4009634257434412,0.5,-0.7334806981511953,-0.5481626383864319,0.5,0.36146866862274324,-0.7637080010717834,0.5,0.5923557578644304,-0.2658750058866302,0.5,-0.16781247458093115,0.23190995949683157,0.5,0,
1.992531341691118,0.5975717875091126,0.3038352395956928,0.6003260453930578,-0.4218251832276977,-0.43729678159054597,1.0310478463735895,-0.734291711813831,-0.6669891589901819,0.5,0.3516867856474953,-0.9133897314161609,0.5,0.5872789021400133,-0.3517619532439967,0.5,-0.1637664475572498,-0.007215885336229327,0.5,0,
2.0005334755934916,0.6002780905162796,0.010899593756157067,0.5,-0.42885380302445325,-0.6582824881343867,1.7772529041509086,-0.7441525246950382,-0.7291328478677556,0.5,0.34685443292008467,-0.6021887823695788,0.5,0.5867275666125265,-0.11181886031390309,0.5,-0.16792792874631082,-0.09432792190048819,0.5,0,
2.0085356094958655,0.5977461810092111,0.02899515861711638,0.636286646576171,-0.4323577030378479,-0.27076922258217545,0.5,-0.7459578373797151,-0.7757751852576003,0.5,0.342051765129582,-1.0461082536188695,0.5,0.5854898003749909,-0.19838624359623525,0.5,-0.16527569430765762,0.11837772664277484,0.5,0,
2.01653774339824,0.6007420130541534,0.3429288665502822,0.5,-0.43318611058576806,-0.31513961678829305,1.501685784649113,-0.7565649276591598,-0.659132824336793,0.5,0.33011670086218275,-0.9256471253205646,0.5,0.5835533867149867,-0.422314417021695,0.5,-0.16603388512002643,-0.08973092472087073,0.5,0,
2.024539877300614,0.6032330428740156,0.11275770310750777,0.6107502223471618,-0.43739993690646056,-0.6488030345678554,0.8268956449827867,-0.7565039625691038,-0.6482380793003256,0.5,0.327241411124453,-0.9573879978635527,0.5,0.5787327697026438,-0.5022344350680898,0.5,-0.16671138910319155,0.07089479439247905,0.5,0,
2.0325420112029877,0.6025461363038735,0.4419814898889776,0.5,-0.44356695913885374,-0.5113021927721055,0.6611223209663866,-0.766936736927965,-0.611892000592959,0.5,0.3147984928963659,-1.239673548061055,0.5,0.5755176357538972,-0.08313847847125216,0.5,-0.16489956840974676,0.3680995562811481,0.5,0,
2.0405441451053616,0.6103047467122392,0.407044119171307,0.9172352814107864,-0.44558077199081425,-0.3720280919212344,0.5,-0.7662942345785911,-0.5407260032293595,0.6796889989372958,0.3074066343554761,-1.2460403420943775,0.5,0.5774025540471037,-0.16177415803528966,0.5,-0.16082179620269318,0.2825181144184702,0.5,0,
2.0485462790077356,0.6090588422106145,-0.06780238214374595,0.9750630156858515,-0.4495194086095935,-0.40414945413245335,1.11019977918242,-0.7755883529796348,-1.0579338116844181,0.5,0.29486184742285587,-0.966556480038759,0.5,0.5729292492253326,-0.06565152269131375,0.5,-0.16037927857905124,-0.028199055584160124,0.5,0,
2.0565484129101095,0.6092199085979393,0.46018325666229154,0.5,-0.4520471632569335,-0.6544222953000985,0.5795352162517191,-0.7832211755655418,-0.9262076464628191,0.5,0.29194173067485596,-0.9446262023737745,0.5,0.5763521296840427,-0.06845042387092215,0.5,-0.16127298109203975,-0.24109153080536896,0.5,0,
2.0645505468124834,0.6164217743172111,0.40815865676495366,0.6488122752608315,-0.4599901653343951,-0.7556584446486436,1.1494528207239785,-0.7904076753230399,-0.9389623403514707,0.5,0.2797478281848755,-1.4522936732655929,0.5,0.5718340424433979,-0.541749405452055,0.5,-0.16423674307193714,-0.07618010648200585,0.5,0,
2.0725526807148573,0.6157504471061785,0.06633209998375272,0.5,-0.4641376983713118,-0.5461306025689345,1.1544699377377472,-0.7982445730111654,-0.8836174380934744,0.5,0.2687050319026065,-1.1904493547278614,0.5,0.5676841391968098,-0.38591989967359797,0.5,-0.16249186279575184,0.08344697216181723,0.5,0,
2.0805548146172312,0.6174830879169512,0.09642111092614952,0.5,-0.468728254975498,-0.7839405274906314,0.5,-0.8045455543325355,-0.8486728045027438,0.5,0.2607006385092297,-1.191423386573567,0.5,0.5656593240486203,-0.2149906833289958,0.5,-0.16290159151734807,0.18904135786469883,0.5,0,
2.0885569485196056,0.6172931848809969,0.01599983342031458,0.5500231961620952,-0.4766807468111619,-0.7430260097106879,1.754503659263511,-0.8118233378832093,-0.906098062373177,0.5,0.2496422577174294,-1.2628921119957042,0.5,0.5642442882635459,-0.2064210653394266,0.5,-0.15946720106991666,0.2244310701264192,0.5,0,
2.0965590824219795,0.6177390852516762,0.2711073729424057,0.5,-0.48061667113086903,-0.36116290634051473,1.1196254937189645,-0.8190431233305063,-1.0419080870320423,0.5,0.24049436471729843,-1.248104082343089,0.5,0.5623565870031895,-0.3108332214263737,0.5,-0.15931069439532536,-0.02581715637648037,0.5,0,
2.1045612163243534,0.6216309028480754,0.27191469551793995,0.5,-0.48245935331261014,-0.5912415380408785,2.1754836521333765,-0.8284938672757219,-0.9251300377747032,0.5,0.22967259239993998,-1.5455152338279474,0.5,0.5592709567207239,-0.30037226335676015,0.5,-0.15988027557194034,0.19986612992426397,0.5,0,
2.1125633502267274,0.6220897203799632,0.13389910917788878,0.5,-0.4900765357395231,-1.0904813474995994,1.5571733400638996,-0.8338452039349016,-1.137462252898777,0.5,0.21576612097605127,-1.4451285390012953,0.5,0.5575506307894813,-0.6463458896037513,0.5,-0.15611283631653713,0.0643114772385673,0.5,0,
2.1205654841291013,0.6237732885949216,0.2541666567414738,0.5,-0.49990705487260373,-0.7534063573772336,0.5,-0.8466932633221024,-1.2643422157746775,0.5,0.20655053577591925,-1.281598952618635,0.5,0.5489294224870639,-0.44827099088066286,0.5,-0.15885129193612327,-0.2039570626085306,0.5,0,
2.128567618031475,0.6261563868878268,0.3874461696146206,0.5956036639052528,-0.5021310374575588,-0.6782817844338574,0.7160655352214728,-0.8540746793872964,-1.199003339320534,0.5816644209050529,0.1952605377341531,-1.6381162406425773,0.5,0.5503782949353907,-0.1185804332634044,0.5,-0.15937614931827362,0.26181637793372053,0.5,0,
2.136569751933849,0.6299724273087556,0.08813544784955912,0.5,-0.5107595634235454,-0.8078367977198408,1.3313823305423003,-0.8658773167512309,-0.916796928693446,0.5,0.18034067592563802,-1.6947214204197907,0.5,0.5470321355548494,-0.5485005804089227,0.5,-0.15466222988918374,-0.015881537905689316,0.5,0,
2.144571885836223,0.6275665540534198,-0.15210421489173648,1.1464833641967587,-0.5150564262210763,-0.5428498368101816,0.5359393232885579,-0.8687434302463916,-1.1280926760811119,0.5,0.16814499500743646,-1.5263267453005882,0.5,0.5416022856488479,-0.45948212564939084,0.5,-0.15963025392476465,-0.1248370146674626,0.5,0,
2.152574019738597,0.6275387598704878,0.4836290692412648,0.5,-0.5194451608125084,-0.6366801216506762,1.1219997174021965,-0.8839267995685287,-1.293074688527504,0.5,0.1559194480008286,-1.518447542244181,0.5,0.5396804215444592,-0.299873988060452,0.5,-0.15665962212386314,0.09021641626253546,0.5,0,
2.160576153640971,0.63530461916128,0.5109236213395318,0.9960376714049426,-0.5252433081674871,-0.8774577198480821,0.65726641759351,-0.8894326252628316,-1.2332058195363287,0.5,0.14384983433152956,-1.235279803683327,0.5,0.5368043018398807,-0.35277440490670553,0.5,-0.1581867912645641,-0.023347752705828173,0.5,0,
2.1685782875433453,0.6357135378119203,-0.01989654568564786,0.5,-0.5334844843300777,-0.760883371438259,0.7785960732901778,-0.90365809268111,-1.3849315436171918,0.6529634719898681,0.13615497114189537,-1.5319227828516695,0.5,0.5340360310659519,-0.4962400681539844,0.5,-0.1570331861671564,0.4837292777807329,0.5,0,
2.176580421445719,0.6349862744303096,-0.11991302956080446,0.6792201457189553,-0.5374174421104992,-0.6336030700798481,1.7078694210186827,-0.9115915299607067,-1.1218863261246368,0.5,0.11933906980590285,-1.6137842722861693,0.5,0.528864460749417,-0.6189232530405542,0.5,-0.15044712282007236,0.16247264361077957,0.5,0,
2.184582555348093,0.6337949293389474,0.23767714042301907,0.5,-0.5436221334513552,-0.9942819519937057,0.5792376918993944,-0.9216082738991042,-0.972434902701165,0.5,0.11033442278531666,-1.5101776834881642,0.5,0.524133259017303,-0.3972774024855394,0.5,-0.15443362386938392,-0.2448323483364486,0.5,0,
2.192584689250467,0.6387891086770779,0.4237914894446512,0.542461968741959,-0.5533259533423985,-0.8942606688977713,1.9381641721908107,-0.9271504884039253,-1.0349862484868786,0.5,0.09517622687009222,-1.7458921489895356,0.5,0.5225080223096483,-0.14527328088663471,0.5,-0.15436444039345554,0.16458453336019688,0.5,0,
2.200586823152841,0.6405755931700619,0.12908992734149416,0.5,-0.5579303041537196,-0.5038482433317517,1.6573737801880724,-0.9381680538748942,-1.2854038499379021,0.5,0.08240014840148409,-1.6832928326633978,0.5,0.5218088865231169,-0.2495071953510647,0.5,-0.15180027133562077,0.09382407220852491,0.5,0,
2.208588957055215,0.6408545475145419,0.10823522787901246,0.5,-0.5613875252357066,-0.8615124298607946,1.1155270928394871,-0.9477169500029318,-1.435622610548956,0.5,0.06824354154747786,-1.876753843361821,0.5,0.5185159071840313,-0.43241547619916193,0.5,-0.15286325523811914,-0.2455843757752374,0.5,0,
2.2165910909575888,0.642307356816126,0.289475533167563,0.5,-0.5717145030314923,-1.0746405994211254,0.7428612284725086,-0.9611380156436775,-1.3002544015599458,0.5,0.05237208690769495,-1.6228163304256429,0.5,0.5148902389039303,-0.3012587210808118,0.5,-0.15572962134802457,0.007543998132559723,0.5,0,
2.2245932248599627,0.6454861560452229,0.3674756873639773,0.5573563756037884,-0.5785817748264446,-0.9518495413134986,0.5432699472629575,-0.9685210204278909,-1.3382472137964674,0.5,0.04227848026066757,-1.6676433894365987,0.5,0.5136957676467383,-0.22669080054023294,0.5,-0.15274255126799818,0.19836708220841853,0.5,0,
2.2325953587623366,0.6481869678139497,0.04164532992067399,0.5,-0.5869440956925083,-0.8622452731792685,0.5,-0.982549971064421,-1.2961356990190132,0.7855734777962143,0.025689792676709372,-1.759225757335248,0.501906170469205,0.5112631860952865,-0.5115580546168133,0.5,-0.15255574803268987,0.019567243559876976,0.5,0,
2.240597492664711,0.6461524813239536,-0.009818368781125408,1.0411689112695126,-0.5923776991973129,-0.86056853461558,0.5,-0.9892591916121951,-0.8055351804919438,0.8956179581327237,0.0141308681433036,-1.3884785730072522,0.5,0.5055108387728693,-0.6582308791364052,0.5,-0.15242947537104015,0.24155849794999482,0.5,0,
2.248599626567085,0.6480298739134517,0.5208703427303368,0.5672639481762025,-0.6007131922463576,-0.9425884738637202,2.155532241246471,-0.9954385339522921,-1.3957393200433599,0.5,0.0034741355085933356,-1.7717657740963821,0.5,0.500731492029104,-0.3403130449030553,0.5,-0.14869081206548995,0.2539721873306058,0.5,0,
2.256601760469459,0.654486406807639,0.2491003416975196,0.5,-0.6074591147791324,-0.4787904457399586,1.4869759923906802,-1.0115910207328889,-1.41579824201684,0.7403861402893136,-0.014217384242238517,-1.6101835233486195,0.5,0.5000658300544204,-0.3644494763428256,0.5,-0.14836592037375046,0.15878174080698193,0.5,0,
2.2646038943718327,0.652015479380612,0.30728154189978846,0.5,-0.6083738393781969,-0.8124193444411093,1.0826711913184535,-1.0180913058245615,-0.932095472792438,0.5,-0.022288800864984575,-1.5610050360895433,0.5,0.49490030040761884,-0.48926746506062,0.5,-0.14615030421257824,0.05978633589655974,0.5,0,
2.2726060282742067,0.6594029114780356,0.2581790068552428,0.7259715818059633,-0.6204578242901901,-1.0304043119958652,0.8680006370748151,-1.0265045482975679,-1.1992102223031402,0.5,-0.03919346481967121,-2.0920818995984907,0.5986596806658061,0.4922375506134505,-0.39777743059499215,0.5,-0.1474093389994055,-0.12250937621923613,0.5,0,
2.2806081621765806,0.6561463434902959,-0.10676390623357707,0.5,-0.6248603083701307,-0.8709103723919531,0.5,-1.0372786693814118,-1.3658346382385693,0.5,-0.055762111258560426,-1.5166527447842715,0.5,0.48853586151809897,-0.2317752439545094,0.5,-0.14811045423208602,0.07926700128104563,0.5,0,
2.2886102960789545,0.6576946889782984,0.09051529184871121,0.5,-0.6343923902484614,-0.9091325839422001,0.8967277028715931,-1.048357902509385,-1.5451925979182295,0.5356507130945352,-0.06345990873621955,-1.3573860496680739,0.5,0.48852914671017833,-0.47834301195926604,0.5,-0.14614106697890877,0.10239508239656518,0.5,0,
2.2966124299813284,0.6575945881598753,0.035882301919691606,0.5,-0.6394064297132059,-0.7268283114194237,0.5970429464184825,-1.0620017509481035,-1.3488061263568774,0.7223649493586345,-0.07748028805324961,-1.6722272693058484,0.5,0.4808823733267507,-0.6389855698477678,0.5,-0.14647213291374098,-0.03485316524087269,0.5,0,
2.3046145638837023,0.6582688058090135,0.20703671152080133,0.5,-0.6460216432311722,-0.8159148935468902,0.896018841929864,-1.069938800531095,-0.9792548668628581,0.5,-0.09021554504511313,-1.494032739215386,0.5,0.47830537759261404,-0.4361991848602087,0.5,-0.14669871762276274,0.12148390670522168,0.5,0,
2.3126166977860763,0.6609071755442081,0.3860905355770189,0.5,-0.6524610680099562,-0.6429747086200005,0.5,-1.0776698288179092,-1.1037725780173173,0.5,-0.10138481188069579,-1.7424974909085482,0.5,0.4739031863689874,-0.45038836860163134,0.5,-0.14452839040645743,0.2369700563619806,0.5,0,
2.3206188316884506,0.6644462543782458,0.2763758221924484,0.5,-0.6563092385690922,-0.7062964233356395,0.5,-1.087599161779372,-1.063288784807062,0.5,-0.1180955048996499,-1.6399711437615343,0.5,0.47109916369498794,-0.5445634629738446,0.5,-0.14290719672097105,-0.041201380836802456,0.5,0,
2.3286209655908245,0.6653291886992873,0.3126106303276213,0.5586476525379334,-0.6637618107833264,-0.7195008732988963,1.010935797352647,-1.0946824493748222,-1.2575532070354112,0.5,-0.12762435018088034,-1.40040523825072,0.5,0.46519017096140586,-0.5600465604691414,0.5,-0.14518761249984627,0.07423699844643153,0.5,0,
2.3366230994931985,0.6694480244634877,0.0441960585029072,0.5,-0.6678212525418745,-0.9149849985432973,0.8833714227448429,-1.1077200130919387,-1.3670935691592057,0.5,-0.14050198871166142,-1.7770846027880833,0.5,0.4621384187274817,-0.1887333225303496,0.5,-0.14171940474582814,-4.884837147452192e-05,0.5,0,
2.3446252333955724,0.6660363256353338,0.03319266338779048,0.8101795417623843,-0.6784015707600192,-1.0875982391432697,2.397161511692445,-1.1165559464813695,-1.2517568627557207,0.5757582534649471,-0.15605770382548967,-1.557730659166475,0.5,0.46217043780092026,-0.1526819387769919,0.5,-0.14518839407378986,0.17341756792678234,0.5,0,
2.3526273672979463,0.6699791070776924,0.4790627781950385,0.5299561219715584,-0.6852228243681668,-0.55666150603665,0.5154839508516909,-1.1277481228960302,-0.917528139090712,0.5,-0.16542567925832502,-1.2990872544961454,0.5,0.4596955077070498,-0.44111239491366816,0.5,-0.13894472365899962,0.31892265341622317,0.5,0,
2.3606295012003202,0.6737013300864544,0.2456459671358116,0.5800559612240624,-0.6873081548566056,-0.4661147926766293,1.5986204388448548,-1.1312363967068209,-0.8668370574260592,0.5929083537141191,-0.176843099897428,-1.4535806585162236,0.5,0.4551126394823016,-0.259102444934399,0.5,-0.1400856316191303,-0.15286306816591175,0.5,0,
2.368631635102694,0.6739094425518654,-0.041795556465336337,0.5,-0.6926806610509929,-0.8171697186282051,0.5,-1.1416175158148472,-1.2043319286600962,0.5,-0.1886829697945846,-1.616734653226183,0.5,0.4555498685880994,-0.4309031737232231,0.5,-0.1413905327496542,-0.0128542044979911,0.5,0,
2.376633769005068,0.673032601183009,0.0691662510674887,0.6800091649871924,-0.7003828703546569,-0.7920527809222588,0.6226173418063148,-1.1505057075653824,-1.3445279705940616,0.5,-0.20271085434904693,-1.5245019625106122,0.5,0.44821818870273,-0.617703543183308,0.5,-0.14029129889109815,0.023236578266907712,0.5,0,
2.384635902907442,0.6750161025689452,0.43297226154276336,0.6796367445104371,-0.705353505545749,-0.6918279637985469,1.9688602063298066,-1.1631299633443521,-1.27913824231507,0.7597730531096251,-0.2130750011947544,-1.4191768272256224,0.5,0.4456666118971665,-0.2508713168378647,0.5,-0.1410187474973837,-0.03918894684594096,0.5,0,
2.3926380368098163,0.6799601573676932,0.10030708696361773,0.5114880445085238,-0.7114521177754336,-1.1414610447530726,2.011852741915609,-1.1709719194424235,-0.7949089374297003,0.5,-0.22541768358465689,-1.4463933745297777,0.5,0.44420424763332417,-0.15550608743119046,0.5,-0.1409183220406332,0.0857453414191238,0.5,0,
2.4006401707121903,0.6766210159603631,-0.1293707836962435,0.7991962700194498,-0.7236168822617982,-0.7063660448446002,2.22085742599991,-1.1758485063432274,-0.6920304122838006,0.6132183240070573,-0.23621729518723084,-1.1458981757948608,0.5,0.44317851449826745,-0.32045768756733956,0.5,-0.1396468220346777,-0.014463261520247447,0.5,0,
2.408642304614564,0.6778902248285533,0.29106572174478207,0.5,-0.7227539744929472,-0.21919660862230322,1.526879273526983,-1.1820444060389643,-1.059565335073731,0.5736230474099396,-0.24375205439737466,-1.238225381648663,0.5,0.43907692463224673,-0.5316359777250631,0.5,-0.14114973422495716,-0.2208267527114855,0.5,0,
2.416644438516938,0.6812780675082796,0.2257680229327888,0.5,-0.7271240279997551,-0.5656065154750339,0.9467196105651109,-1.192801551704407,-1.3507727941821646,0.667979268789968,-0.25602890129360945,-1.3995818207723516,0.5,0.43467233885466644,-0.29477454349663074,0.5,-0.14318005007806148,0.058062889388704395,0.5,0,
2.424646572419312,0.6815025131954779,0.4388253726646321,0.5,-0.7318036787405477,-0.7444795923809768,0.5,-1.203656770745879,-1.0057461718504523,0.5697311090910944,-0.2661453635297323,-1.2621224818470944,0.5,0.43436053193630064,-0.36783227252901174,0.5,-0.1402207279947379,0.33177875675291163,0.5,0,
2.432648706321686,0.6882992734709137,0.2968405896410023,0.5,-0.7390357014778507,-0.7263914933907725,0.5,-1.2088934904540143,-0.6794064638987601,0.5,-0.27622286100316296,-1.189182119242911,0.5,0.42878702249420225,-0.4543905092564172,0.5,-0.1378715899700149,0.2434827204522271,0.5,0,
2.44065084022406,0.686251962629734,0.11005800872355281,0.5,-0.7434259426348001,-0.7868053793860726,1.2686585965752013,-1.2145272741682591,-0.7869442251624281,0.5,-0.28517227743761886,-1.1586619383971084,0.5,0.42709028378819797,-0.1110801967802201,0.5,-0.13632500446750226,-0.22209385808362458,0.5,0,
2.448652974126434,0.6900602016104905,0.2225535249611027,0.5,-0.7516245875480279,-0.5263478955695039,0.6112061307735926,-1.2214845980566131,-0.9804769846070566,0.5485152876279575,-0.2947614520175167,-1.178177358424265,0.5,0.42700973934571873,-0.13942589914215514,0.5,-0.14142509169935288,-0.010246119729523384,0.5,0,
2.4566551080288077,0.6898128190291116,0.008016079883134408,0.8143647865605022,-0.7518475089639122,-0.4323571802510376,1.2505040428186975,-1.230214905921972,-0.6836175340139555,0.5,-0.3040231151724071,-1.2296661399496533,0.5,0.4248594694019235,-0.5338817861447221,0.5,-0.13648894238317463,0.523926773501467,0.5,0,
2.4646572419311816,0.6901884588886207,0.4456077707197942,0.5,-0.7585423024320445,-0.7029060740754295,1.5202669471920995,-1.2324224786008364,-0.6684894009412468,0.5,-0.31443611025671114,-1.1141791467390514,0.5,0.4184676307674032,-0.2715602062823806,0.5,-0.1330422633233294,0.1099749080838465,0.5,0,
2.472659375833556,0.6969425433606283,0.403526651163888,0.8710015633621091,-0.763094006149119,-0.36829197770394534,0.7882453040156623,-1.240910736337032,-0.7953483012660412,0.5,-0.3218499815202319,-0.8953779707139287,0.5,0.4205145061014054,-0.07017022719352575,0.5,-0.1347293438538331,0.14744347233250701,0.5,0,
2.48066150973593,0.6966448853072429,-0.028726370853326966,0.5,-0.7644349740753076,-0.20753023254337782,1.240948674194884,-1.245148051421093,-0.8030665436282308,0.5,-0.328762157788134,-0.70567974660821,0.5,0.41734490713230676,-0.4336082979677844,0.5,-0.1306831677660093,0.02831812990234696,0.5,0,
2.488663643638304,0.6964829214269751,0.11612330183634334,0.5,-0.7664144898698131,-0.470621022951985,0.5,-1.2537598010350837,-0.7613170987084972,0.8815560799024855,-0.3331408574659633,-0.8346171534677829,0.5,0.41357677333392084,-0.24172685829206356,0.5,-0.13427625377539554,-0.234093550294771,0.5,0,
2.4966657775406778,0.6985028581366244,0.22917130349540266,0.5,-0.7719649104425393,-0.47441883507602645,1.023358567633559,-1.257329125000429,-0.21891654283477668,0.5736330014318888,-0.34211603224361853,-0.9773466456883089,0.5,0.41347727739963375,-0.16036483236252924,0.5,-0.13442866457072564,-0.01690680701854977,0.5,0,
2.5046679114430517,0.7001496622829015,0.25310235791633356,0.5,-0.7740051912310295,-0.6820895916270775,1.6981372612064725,-1.25726246572044,-0.6947704117083314,0.5980350160237701,-0.3487784037969762,-0.8280883631600274,0.5,0.4110109360161204,0.08028109655641019,0.5,-0.13454676268769233,-0.03729211830384195,0.5,0,
2.5126700453454256,0.7025524958632857,0.3112018249598475,0.5,-0.7828783439085726,-0.3255837513724824,1.4730869380822569,-1.2684454515877623,-1.046801562370886,0.8788263198390606,-0.35536544605417897,-0.5829466121515317,0.5,0.4147617749445363,-0.11563950292848083,0.5,-0.1350253384635871,0.07898671029665794,0.5,0,
2.5206721792477995,0.7051288914822591,0.13523006954482136,0.5,-0.7792145312529892,-0.003249155485066102,2.17950348393658,-1.2740112907183743,-0.48881531297333136,0.5,-0.35810554959140073,-0.9207323661741297,0.5,0.4091607039692647,-0.4856600383293351,0.5,-0.1332829753229458,0.17633760453570657,0.5,0,
2.5286743131501734,0.7047161769760029,0.14185606108999688,0.5,-0.7829303303963336,-0.5014715162365082,0.5740864353879676,-1.2762664965953356,-0.2883419955346661,0.5,-0.37009716391296504,-0.9409929417257684,0.5,0.40699121433126695,-0.19131946350676304,0.5,-0.1322039367910158,0.2266970641932476,0.5,0,
2.5366764470525474,0.707398588459699,0.2484716273940049,0.5,-0.7872380755127734,-0.3978563026608914,0.5,-1.278624762646929,-0.327378145986032,0.5,-0.373161436659013,-0.4316686767634331,0.5,0.4060995925531565,-0.20504322623383572,0.5,-0.12965582229585385,0.03188281749523167,0.5,0,
2.5446785809549217,0.7086917230143069,0.09214377163962312,0.5,-0.7892960312389079,-0.4080650814128478,0.5643018270444803,-1.2815045469311122,-0.6109419120726017,0.5,-0.37700386274118,-0.519502952891205,0.5,0.4037105227115256,-0.3142760687203129,0.5,-0.1316938117110921,-0.2710685119555311,0.5,0,
2.5526807148572956,0.708872888805933,0.11116486795211683,0.5,-0.7937671168153789,-0.30459916091188366,0.5088558853570847,-1.2883998332400906,-0.5112532930380415,0.5,-0.3814734839052723,-0.4239203325623331,0.5,0.40107117545363147,-0.05716511330644894,0.5,-0.13399291848714234,-0.140055223926034,0.5,0,
2.5606828487596696,0.7104703609015408,0.3128853086208083,0.5,-0.794169617813498,-0.22511403698471932,0.5,-1.2896845996197208,-0.3277799076271265,0.5,-0.3837865880621773,-0.408132255253095,0.5,0.4027958808986224,0.10511350824159507,0.5,-0.13393469529390864,0.22095330296949614,0.5,0,
2.5686849826620435,0.713879053743866,0.1423568082553478,0.5,-0.7973689414071344,-0.20775603570782203,0.5,-1.2936443117621246,-0.20567196837603663,0.5,-0.3880035999893218,-0.5090040682611957,0.5,0.402752991585497,-0.1712594603770802,0.5,-0.1304576656396304,0.37500601080802526,0.5,0,
2.5766871165644174,0.7127480698336264,-0.01877244200423206,0.8689336802789513,-0.7974937143848232,-0.13706875404604496,0.9790981324534707,-1.2929753511137374,-0.02181808325710244,0.5,-0.39193065315435643,-0.5927658449531303,0.5,0.4000557295325891,-0.28812326243371833,0.5,-0.12793459912098024,0.1889229129003727,0.5,0,
2.5846892504667913,0.7135786946717982,0.4378836465668695,0.5,-0.7995620414718712,0.05806636342266247,0.8203250532396544,-1.2939934010942382,-0.20372352829614582,0.5,-0.3974878535085719,-0.22424626728443156,0.5,0.3981430193865575,0.05918282518830795,0.5,-0.12743489903322444,0.012061591462050186,0.5,0,
2.5926913843691652,0.7197542081786963,0.2381071429515616,0.5,-0.7965646525700606,-0.09671708428386772,0.5239420134599323,-1.2962349275664757,-0.3787612264621876,0.5409191129506156,-0.39551859343090734,0.05483600463572838,0.5,0.40100265473560204,0.20490374762273736,0.5,-0.12774161365758743,0.056075040632661347,0.5,0,
