samirx20/RADAR/web/public/data/datasets/vibration_j5_late.csv
timestamp,actual_q_0,actual_qd_0,actual_current_0,actual_q_1,actual_qd_1,actual_current_1,actual_q_2,actual_qd_2,actual_current_2,actual_q_3,actual_qd_3,actual_current_3,actual_q_4,actual_qd_4,actual_current_4,actual_q_5,actual_qd_5,actual_current_5,protective_stop,fault_code
0.0,0.0022520971882271966,0.20525309294394342,0.7780575274520933,-0.9005591600247508,0.3203782200960348,1.0823039311718066,-1.400047106189412,0.6990489863360483,0.5314724497664358,-0.10369145344428302,0.6624159317153779,0.5,0.5999129688072291,0.38205940313018605,0.5,-0.0004055266340461128,0.3569923547082876,0.5,0,
0.008002133902373967,0.003894121931778744,0.606286305663198,0.5,-0.8979961342639825,0.5251223319383547,0.5,-1.3944547142987236,0.42584554483560133,0.5,-0.09839212599055999,0.4212109210430552,0.5,0.6029694440322706,0.12509662156721946,0.5,0.0024504122036201883,0.2497524984980534,0.5,0,
0.016004267804747934,0.011952678078838366,0.5614462044460746,0.5383665201113316,-0.8921572027137371,0.5602309859520163,0.5,-1.3932335774720424,0.17866842495271873,0.5,-0.09695207870759413,-0.13999253335065553,0.5,0.6019145147523046,0.17237409099235546,0.5,0.0035905133419227415,0.26270965039756855,0.5,0,
0.0240064017071219,0.012877261202915937,0.28095067231151305,0.5,-0.8890324384887502,0.5293349938844185,0.5,-1.39159601949948,0.29937193707450793,0.5,-0.10063200652417048,-0.3420948295366254,0.5,0.6057274294881483,0.24664633813364922,0.5,0.006653766609981285,0.344845907315274,0.5,0,
0.03200853560949587,0.016447888835822575,0.44973235376875353,0.5,-0.8836878428115864,0.542726679247589,0.8991613026463874,-1.3884436264788502,0.6447846053660583,0.5,-0.10242559598018014,0.288101472508683,0.5,0.605860856162443,0.07927132979314994,0.5,0.009108047858967126,0.5107804140466072,0.5,0,
0.04001066951186984,0.020072978863215993,0.3465316666619491,0.5,-0.8803488116207888,0.715920604086713,1.2724199780294665,-1.3812794658136232,0.2697904182996508,0.5,-0.09602238296403155,0.09689007752962907,0.5,0.6069957707648387,0.41218939821165146,0.5,0.014826253234727003,0.21411186283223904,0.5,0,
0.0480128034142438,0.02199239550241376,0.4708520404387434,0.5,-0.872233113146199,0.4353853988479303,0.9251080706450645,-1.3841269797860558,0.06404825541683756,0.6861011124649801,-0.10087535473970607,-0.5506562059906144,0.5,0.6124558865338294,0.5271382608016267,0.5,0.01253383766428295,-0.12083303652984781,0.5,0,
0.05601493731661777,0.027606611510235888,0.6385960981410244,0.5,-0.8733826452392219,0.2433045609610482,1.2251357970394092,-1.3802546937269538,0.5348153234634723,0.5,-0.10483288225988138,-0.02001800878179919,0.5,0.6154299829376647,0.26894700577204805,0.5,0.012892924650249438,0.2421314467751434,0.5,0,
0.06401707121899174,0.03220993307267015,0.5808725148013546,0.5,-0.8683402401708222,0.5193719141093484,0.5,-1.3755699346106403,0.37815322158631093,0.5,-0.10119564288021486,0.20253712410925329,0.5,0.6167590386261822,0.05416855203279475,0.5,0.016407940812685245,0.4192849422474821,0.5,0,
0.0720192051213657,0.03690057174705756,0.4818376699292229,0.5,-0.8650726946134724,0.5676247164485837,1.0090443416447,-1.3742042421815728,0.35771112125827786,0.5,-0.10159228827413333,0.031157731944799448,0.5,0.6162966797701894,0.4078152544753008,0.5,0.01960148372620915,0.21141285256494985,0.5,0,
0.08002133902373967,0.03991933579153772,0.4996358130372105,0.5,-0.8592582447076449,0.7514840728605615,1.5531872707309258,-1.3698465566705078,0.4743379402972897,0.5,-0.10069711916909807,0.12267654559482317,0.5,0.623284082697787,0.3458513275973879,0.5,0.019790546453724443,0.07589165725133151,0.5,0,
0.08802347292611364,0.04489474475565293,0.45868089141169005,0.5,-0.8530489494477034,0.40516277836587233,0.5,-1.3666148351368161,0.2738531629509766,0.5,-0.09962946354461616,0.10058135397466444,0.5,0.6218303010117476,0.14302891072443674,0.5,0.020815750242230455,0.1820663721033976,0.5,0,
0.0960256068284876,0.04725823005412476,0.4164342886497966,0.5,-0.8527756402537909,0.33142085785050485,0.9536969972570173,-1.3654649060632922,0.5190929561884328,0.5,-0.09908781750550344,-0.22570808374094106,0.5,0.625572545269378,0.1392397107810861,0.5,0.022703608407378804,-0.06426385439910914,0.5,0,
0.10402774073086157,0.051557693374049675,0.2533821628165618,1.255096546640188,-0.8477462157220953,0.5404704517024891,0.8742443210305085,-1.3583093478378012,0.4625271427247529,0.5,-0.10324079288447122,-0.28206148324472474,0.5,0.624058136384245,0.1864870474079447,0.5,0.01978752857184471,0.2358412908443294,0.5,0,
0.11202987463323553,0.05131234465918975,0.883582525830011,0.5,-0.8441281130265511,0.36612812209545903,0.5,-1.3580644717796961,0.3703919786936377,0.5,-0.10360080123741904,0.14159591898038615,0.5,0.6285563380279051,0.3067275518643109,0.5,0.026477069060888075,0.3836362854483385,0.5,0,
0.12003200853560951,0.06569501378732985,0.8037896883769176,1.0198766848958267,-0.841888165768568,0.2899591026216605,1.7911017333217605,-1.352383076178703,0.3318205892312437,0.5,-0.10097525818078504,-0.19349977367805365,0.5,0.628965777214074,0.24632837389491208,0.5,0.025925709139018125,0.2040980771468694,0.5,0,
0.12803414243798347,0.06417297967322043,0.32590972489467995,0.5,-0.8394887673846045,0.6826684776344988,0.5,-1.3527553423519962,0.4028642429621254,0.5,-0.1066967976162679,-0.30676012141532366,0.5,0.6324975920102237,0.2989242167083517,0.5,0.029742638295237985,0.6146647513088322,0.5,0,
0.13603627634035745,0.07090956938564473,0.4355446048102552,0.5,-0.830965470126416,0.7133586354019713,1.5332711754426065,-1.345937248291309,0.4427614705152516,0.6771919511218054,-0.10588342012343022,0.09170947962362092,0.5,0.6337485646814076,0.18103356624617206,0.5,0.03576034515995944,0.29895009933950956,0.5,0,
0.1440384102427314,0.07114169335018451,0.2524255959885629,0.5068129775259008,-0.828075029218173,0.3802401250453391,1.1627416862765874,-1.3456711588237522,0.060681487899588715,0.5985293369316826,-0.10522944594228996,-0.2826054540635073,0.5,0.6353941290701625,0.3445905293848889,0.5,0.03452583988467014,0.3454751687174762,0.5,0,
0.15204054414510537,0.07494837892146174,0.5136781392515478,0.5,-0.8248816281256905,0.619578155170622,0.5,-1.3449663444849156,0.5255122764115938,0.5,-0.11040510738844633,-0.07262872719800834,0.5,0.6392620131515658,0.11474296251728217,0.5,0.04128794785943906,0.4924805156732064,0.5,0,
0.16004267804747935,0.07936054357820928,0.7356837288820155,0.5294649857442895,-0.818161778735443,0.6233323602207463,2.120267166705472,-1.3372629624011667,0.40571604724526367,0.5,-0.10639150557745809,0.4105261558293976,0.5,0.637230016470439,0.27090683354691336,0.5,0.04240552813544144,0.03983680367898286,0.5,0,
0.1680448119498533,0.08671931858357398,0.4569769440629281,0.5,-0.8149083103621586,0.13985139818490505,1.0167070593034446,-1.3384748877289914,0.21654517873442858,0.5,-0.10383668889517597,-0.08870137439153693,0.5,0.6435965224883164,0.28946187726699296,0.5,0.041925336718302786,-0.061799470373932915,0.5,0,
0.17604694585222727,0.08667217468321613,0.4492577997825525,0.5,-0.8159241563644846,0.362643500960623,0.685173864787198,-1.3337982395414159,0.4193094465147762,0.5,-0.10781072756772268,-0.13393381443521993,0.5,0.6418614065067109,0.31641255387580836,0.5,0.041416736609458514,0.0738658780160455,0.5,0,
0.18404907975460125,0.09390744338009482,0.5825450628050948,0.5,-0.8091060143467886,0.4983110176662864,0.9012482183328876,-1.331765936584755,0.4522076870711461,0.5,-0.10597962992613949,-0.22531472502386463,0.5,0.6486591233503294,0.1959161076894103,0.5,0.043107190766559514,0.38798041617717083,0.5,0,
0.1920512136569752,0.09599289568809764,0.5573278956058288,0.5,-0.807951180081824,0.6621759793635148,0.8351757724084804,-1.3265629165482775,0.6013477012202645,0.5772576565880577,-0.11141576316810452,-0.12621718641827281,0.5,0.6449960642297414,0.19538553037568018,0.5,0.04762442326829325,0.37094819104616744,0.5,0,
0.20005334755934917,0.10282468970978809,0.33369496409029265,0.5,-0.7985111986769724,0.8233793642945381,2.0486362506871956,-1.3221443733652307,0.2386051226277025,0.5,-0.10799910490883186,0.16314778722096007,0.5,0.6517852918363403,0.5233927693599899,0.5,0.04904236182329819,0.10051847390664131,0.5,0,
0.20805548146172315,0.10133201511354233,0.45436366900178465,0.5,-0.7947771102531114,0.39465687856837794,0.7631497184220062,-1.3227452345862343,0.035403791684471275,0.5032309935831629,-0.10880539857256916,-0.15292936340496713,0.5,0.6533703485395013,0.15469112574918037,0.5,0.04923271885079951,0.5023137810171536,0.5,0,
0.21605761536409712,0.11009450841381664,0.6302661692004817,0.5,-0.7921966886198784,0.5412072519258639,0.6147513071303234,-1.3215779126982792,0.33317119393713734,0.5,-0.11044597472331133,-0.06325921815829218,0.5,0.6542603498483271,0.03690370066718185,0.5,0.05707938231957265,0.44300342544000526,0.5,0,
0.22405974926647107,0.11141627382075003,0.4904453682705173,0.5,-0.7861177942222976,0.43581683142213806,1.0167767293469507,-1.31741449548324,0.48355154495005603,0.5,-0.10981754606310183,-0.05512751704089911,0.5,0.6539608077501762,0.18449302861654748,0.5,0.05632077365783959,-0.12425101934932523,0.5,0,
0.23206188316884505,0.11794163430614492,0.3073283898516318,0.5,-0.7852236193171241,0.23503361730203148,1.8303912612988051,-1.3138410879790783,0.3727246095118486,0.5,-0.11132801499596572,-0.21220026982854065,0.5,0.6572122383061919,0.48333589626180923,0.5,0.05509136600998345,-0.0668174452639449,0.5,0,
0.24006401707121902,0.11633352805837614,0.37003276423310494,1.056195053284614,-0.782357256345465,0.626525922527453,0.5581897888897588,-1.3114509017310505,0.2890927178648972,0.5,-0.11321275038035848,-0.24990049604445894,0.5,0.6616941820903651,0.20846154972295472,0.5,0.055251694533616474,0.13521621532213823,0.5,0,
0.24806615097359297,0.1238621585338746,0.8630333219036669,0.8396080005425285,-0.7751992045566849,0.53032128015712,1.3115017332437593,-1.30921560449324,0.557795738515568,0.5001410280546976,-0.11532642293267706,-0.09823433215231779,0.5,0.6605476231017592,0.2579054309835016,0.5,0.05725482545513766,0.24545756060972587,0.5,0,
0.25606828487596694,0.13014206120883481,0.4632426114334906,0.5,-0.7738721158629511,0.24597324464438464,1.372078088083641,-1.3025261699148014,0.3212268745571012,0.5,-0.11478449969479557,-0.11560896455834954,0.5,0.6658206689861011,0.015585445524046726,0.5,0.05917901550337209,0.19778813865367226,0.5,0,
0.2640704187783409,0.13127404031681045,0.3242955593534772,0.7738732810536044,-0.7712636326423747,0.5385525987462655,0.7094409652318749,-1.3040759745003263,0.1436141900501009,0.6012991367226229,-0.11717616636561065,-0.04089130565222091,0.5,0.6607969902301439,-0.15643065702010406,0.5,0.060419435673596415,0.27810918307374616,0.5,0,
0.2720725526807149,0.13533079015849045,0.7288158311723383,0.535803034881038,-0.7652552742830109,0.6664203744232918,0.721072313574933,-1.3002283428739998,0.554311585139744,0.5,-0.1154387605852311,-0.14174883262246893,0.5,0.6633177784737795,0.44323465408056123,0.5,0.06362876243255203,0.33502501329756756,0.5,0,
0.28007468658308887,0.14293509361556786,0.44673975654386383,0.5,-0.7606009066516021,0.5461802449008221,0.9565555200720792,-1.2952069891380904,0.3965772197572215,0.5,-0.11944414768757015,-0.30040564463655517,0.5,0.6678887446954329,0.5297087012659726,0.5,0.0657798358863575,0.01830476672927666,0.5,0,
0.2880768204854628,0.14247862626319227,0.1997970627405192,0.5,-0.7565163903645977,0.3598126773656507,0.5,-1.2938831073578843,0.4609120410879741,0.5,-0.12024525089941598,-0.03185571416317121,0.5,0.671793117694035,0.26407839731380084,0.5,0.06392163870022045,0.15317594097541148,0.5,0,
0.29607895438783677,0.14613184661941617,0.27252229917283305,0.5,-0.7548439038137517,0.3443234872688161,1.041471183568509,-1.2878323964806828,0.5004944972876874,0.5,-0.1199538391141809,-0.03692610602898123,0.5,0.6721139990524537,0.03130747744842233,0.5,0.06823065094196408,0.4767160440255491,0.5,0,
0.30408108829021074,0.1468389830499576,0.4731871331325882,0.5,-0.7510072145682967,0.5612993336460356,1.2419354625113812,-1.2858751954012813,0.2938460451078484,0.5,-0.12083606859587968,-0.12368403744137789,0.5,0.6722940373332098,0.46511935289686446,0.5,0.07154909540462924,0.05621190443400037,0.5,0,
0.3120832221925847,0.15370284074953758,0.6239265040377026,0.5772904922617328,-0.7458631144754151,0.31520124131082655,0.798368799708016,-1.2831308597589572,0.3626989515996548,0.5,-0.12193278371324294,-0.2706637738252781,0.5,0.6795559086988036,0.44035796229593277,0.5,0.06913004141290809,0.1835059873557766,0.5,0,
0.3200853560949587,0.15682180711456084,0.3287281350476019,0.5,-0.7459639947073234,0.4880631791165796,1.160042089587327,-1.2800720121756868,0.05264280768857432,0.5,-0.12516668897708413,-0.2518927298217717,0.5,0.6793397647299447,-0.01247674364834167,0.5,0.07448519120232167,0.32048170261594033,0.5,0,
0.32808748999733267,0.1589624909102992,0.42891091902554945,0.5,-0.7380541036095498,0.7261326173997884,2.032346199828765,-1.28228857483594,0.1531882800639428,0.6868967150407177,-0.1259630673903913,0.08681214267981882,0.5,0.6793562808004301,0.10237528141106289,0.5,0.07425774865476313,-0.07422599704981231,0.5,0,
0.3360896238997066,0.16368438181896963,0.586996600436731,0.5,-0.7343458728289268,0.2837726750246697,0.8411758000305559,-1.2776209996946637,0.5851061384618828,0.5,-0.12377769469420703,-0.1261571212385678,0.5,0.6809777692325217,0.29090753997573077,0.5,0.07329757524952467,0.13183505934181908,0.5,0,
0.34409175780208057,0.1683544365172869,0.6408053771008778,0.5,-0.7335137408091551,0.448703514046446,0.8621450598158883,-1.27292687662055,0.31345230752284625,0.5,-0.12798158133020837,-0.2757575436886763,0.5,0.6840108014400418,0.0992231745662181,0.5,0.07636710960423224,-0.00033906562968422094,0.5,0,
0.35209389170445454,0.17393726785258368,0.47430209493552755,0.5,-0.7271666166041837,0.596902380479547,1.1962817336518512,-1.2726057627742982,0.2532806240997387,0.5,-0.12818981539322585,-0.20940886138317605,0.5,0.6825653400255812,0.27162186612939704,0.5,0.07329215019944972,0.41225388801905805,0.5,0,
0.3600960256068285,0.17594327003625534,0.42289144844505355,0.5,-0.7239633027214823,0.38181346870778954,0.6185704858095292,-1.268874386634954,0.41461190705206763,0.5,-0.1313321231123392,-0.4656334029677182,0.5,0.6883567512981121,0.4962657096914333,0.5,0.08296317181253716,0.21016036605603622,0.5,0,
0.3680981595092025,0.18070353102770453,0.48250828369333226,0.5,-0.7210576011048591,0.26354206743619407,1.056469274109533,-1.265971972261465,0.40219074228951823,0.5,-0.13563994984070935,0.006059507985153173,0.5,0.6905055913806442,0.24455177827330948,0.5,0.0766547160563463,0.012079189893470649,0.5,0,
0.37610029341157647,0.18366340257534866,0.27752250153434754,0.5,-0.7197466296425032,0.4822745933129313,0.7152690728769139,-1.2624393347583218,0.16910085988822154,0.5,-0.13123517098457674,-0.040801740626707564,0.5,0.6922695797504851,-0.08806835541046165,0.5,0.0831564388508327,0.49028883973826953,0.5,0,
0.3841024273139504,0.1851438910522541,0.49901393156364693,0.5,-0.7133412076118522,0.6226804137675762,0.7239029998009441,-1.2632663585032535,0.2643345387330909,0.6324559434475839,-0.13629277769073667,-0.43474812664421114,0.5,0.6890964976940768,0.09193843073593971,0.5,0.08449933749215861,0.045149543149478055,0.5,0,
0.39210456121632437,0.191647625480367,0.4994354091479372,0.624193993003091,-0.709783743022222,0.5060593087411885,0.5,-1.2582099821385924,0.6574210002538161,0.5,-0.13819114101088412,-0.14325430107463635,0.5,0.6937405946422601,0.5673588308468327,0.5,0.08387883154122434,0.05861990618536046,0.5,0,
0.40010669511869834,0.1931348575986211,0.20390480488833782,0.5,-0.7052442586719931,0.5110119300575089,1.2584955572507694,-1.2527476224991925,0.4551931916024349,0.5078403727427264,-0.13858484650793085,-0.23311033698780737,0.5,0.6981742389876261,0.4164623585117197,0.5,0.08543725599112438,-0.019162728311238227,0.5,0,
0.4081088290210723,0.19491010235858042,0.27817837015988756,0.5,-0.7016075521413019,0.265507584712478,0.5,-1.2509268910729534,0.16798355118595454,0.5,-0.14192090640268903,-0.12991259721615958,0.5,0.7004039923784476,0.15004700069325833,0.5,0.08357222788824453,0.23340820929117298,0.5,0,
0.4161109629234463,0.1975857115211793,0.3426659304407772,0.5,-0.7009961373165935,0.30090785973986567,0.5,-1.2500598856802172,0.40692197503272576,0.5,-0.1406634480633894,0.04202008325988535,0.5,0.7005749909987182,0.056711993984534526,0.5,0.08917178733978315,0.2846153839631063,0.5,0,
0.42411309682582027,0.20039275724563285,0.4904552451528207,0.5,-0.696793026385464,0.3163653196900096,0.608764973391975,-1.2444161394724298,0.31085320654575255,0.5,-0.14124858507053087,-0.0902656235104854,0.5,0.7013113842822002,0.3967792033908943,0.5,0.08812607403165423,-0.12173124817822702,0.5,0,
0.43211523072819424,0.20543299544362442,0.5419834287400289,0.5,-0.6959342922015533,0.42756792741257404,0.5,-1.2450862343754852,0.211120845940313,0.5,-0.14210769803955717,-0.27855357510281686,0.5,0.7069234582529725,0.23053391218885722,0.5,0.08722408736893152,0.0013764632171226268,0.5,0,
0.44011736463056816,0.20906449210547332,0.48625175543584065,0.5,-0.6899519395468628,0.4010046337501183,1.1934712786810755,-1.2410382059373848,0.388421062327976,0.5,-0.14570544227217594,-0.42439532890397796,0.5,0.7049999268772219,-0.05023706718344095,0.5,0.0881480974431282,0.254646876013476,0.5,0,
0.44811949853294214,0.21321302353059787,0.4233969709456897,0.5,-0.6895182180615514,0.6654625108540729,0.5,-1.2388714973782375,0.06948106953783006,0.5,-0.14889802330202082,-0.01998948905065044,0.5,0.7061196651780375,0.3575231763182085,0.5,0.09129843738514713,0.23605660737667858,0.5,0,
0.4561216324353161,0.21583884364060435,0.4150560943347592,0.5,-0.6793045393731977,0.6518158601927295,2.1283229989460186,-1.2399265088247795,0.2206723908145941,0.5,-0.14602527409698635,-0.17184820669864825,0.5,0.7107202976983132,0.20996463823105133,0.5,0.09192500316115505,0.10232269364132511,0.5,0,
0.4641237663376901,0.21985392103995402,0.43581396386201465,0.5,-0.6790891642984678,0.19148452145913847,1.0111160203166434,-1.235340739125204,0.5137926304683849,0.6143255321150827,-0.1516475946091992,-0.46076133576525635,0.5,0.7094790993897343,-0.08643667666989596,0.5,0.09293560048340833,0.1310992862150577,0.5,0,
0.47212590024006407,0.22281186706239658,0.4753048600383905,0.5,-0.6762407870298515,0.4146850478493544,0.8475239920584002,-1.2317058267372853,0.0989956353928817,0.5,-0.15339745546923045,-0.14728818381243639,0.5,0.7093373108715949,0.3350552646879945,0.5,0.09402259174059598,-0.1764143068665267,0.5,0,
0.48012803414243804,0.22745879880056827,0.2703056207435106,0.5,-0.6724542035328781,0.24977037692357207,0.9563395192410057,-1.233756808958918,0.34069846498437084,0.5,-0.15400420555019817,-0.11407185835166089,0.5,0.7148399836247422,0.45642305889535134,0.5,0.0901129715735439,0.1013756521844409,0.5,0,
0.48813016804481196,0.22713675699429275,0.5074581625395831,0.5254409215517322,-0.6722444609990743,0.45246398736240034,1.0122433397725212,-1.2262546512975354,0.5275867538116069,0.6550199620894375,-0.15522260520285702,-0.2537434482073886,0.5,0.7166400798139205,0.12586508985228811,0.5,0.09564460217554703,0.1573188243057938,0.5,0,
0.49613230194718594,0.2355781294012016,0.7371226056882008,0.6356840541977478,-0.6652147797350797,0.6637351935568983,1.367372967920369,-1.2253154208979322,0.11645720891938216,0.5,-0.1580641007215164,-0.09523946965944545,0.5,0.7168538250623788,-0.04846778004317931,0.5,0.09263007276243661,-0.03343758155837165,0.5,0,
0.50413443584956,0.23893071868530397,0.3797521663049079,0.5178112107224846,-0.6616246979021639,0.4020580612680083,1.562618313231118,-1.2243913359548253,0.45043620930615424,0.5,-0.15674643671740815,-0.08091934397108994,0.5,0.7158645953332297,0.11529501856273605,0.5,0.09510960087061308,-0.035597709399360494,0.5,0,
0.5121365697519339,0.24165416406208012,0.10489540085262955,0.5,-0.6587818507547916,0.06078272242746735,1.2005434810290496,-1.2181084415490337,0.5157746659852636,0.5,-0.15935881022505383,-0.3618934181658009,0.5,0.7186985453593826,0.2748970510432214,0.5,0.09206050941204684,0.1165172966351262,0.5,0,
0.5201387036543078,0.24060904509894604,0.3425686626170477,0.5271794112682009,-0.6606521743433245,0.3222701345615142,1.6656979250046193,-1.216138941299061,0.27788850714088875,0.5,-0.16253673140806096,-0.2378061714410056,0.5,0.7202629481499212,0.26383639561138733,0.5,0.0969738776167751,0.3287507738909063,0.5,0,
0.5281408375566818,0.2471352626639529,0.6146811363965283,0.5,-0.6536255286018073,0.6915002803538836,1.4278960635245637,-1.2136622254347795,0.3138600150364296,0.5,-0.16316370896810992,-0.10067775235668257,0.5,0.7229199276891648,0.1684534805520277,0.5,0.09732052179430134,0.15343587821054805,0.5,0,
0.5361429714590558,0.2504439432812905,0.43640566472297715,0.5,-0.6495881698576623,0.3787419777880538,0.7934776770065496,-1.2111171810584782,0.34215796179294655,0.5222286082714318,-0.16414757544576788,-0.22888618768995492,0.5,0.7229582038387536,0.09314870691989191,0.5,0.09942885166814387,0.10162199443068762,0.5,0,
0.5441451053614298,0.2541177532995205,0.342410811858488,0.5,-0.6475656569571985,0.22267516066397375,1.6092337213304975,-1.2081876980460924,0.03242254488551588,0.5310982950945481,-0.1668258879711492,-0.3377804524902234,0.5,0.7244103069998831,0.3278885892419592,0.5,0.09894647370519234,0.008768194078335144,0.5,0,
0.5521472392638037,0.2559225162710263,0.158405700074412,0.5699506858831023,-0.6460253672870387,0.5738212343403271,0.6754701667380253,-1.21059842034031,0.4002914646625416,0.5,-0.16955206268561146,-0.4051132720039232,0.5,0.728204421266625,0.2019826766499616,0.5,0.09956914277339723,-0.30176590105153095,0.5,0,
0.5601493731661777,0.2566522445007111,0.42064944855156255,0.5,-0.6383845172077532,0.4593071256764683,1.5589802017242878,-1.2017830346114917,0.27636769021856245,0.7228991232373188,-0.17330770032321197,-0.27323304103223783,0.5,0.7276420298262825,0.3025724184029521,0.5,0.09411821928836785,-0.1623096166399893,0.5,0,
0.5681515070685517,0.2626529074478513,0.5624262294585471,0.5694791865908719,-0.6386764532762153,0.11570936175080149,1.1167107845280115,-1.206176537296813,-0.16087278164343688,0.7745286898672828,-0.17392379134212727,-0.3722955522014754,0.5,0.7330455799610722,0.27714074869896604,0.5,0.0969721889071574,0.31293721257744883,0.5,0,
0.5761536409709256,0.26565106417204787,0.2832408994724797,0.5,-0.6365331674197404,0.3302901411201195,1.3540460066306907,-1.2043569991177867,0.4243000230304411,0.5,-0.17926442915843557,-0.34844310544531254,0.5,0.7320762818054659,0.24247855501723786,0.5,0.09912521468960703,0.2645779364691481,0.5,0,
0.5841557748732996,0.267184761839411,0.28538252209640846,0.5,-0.6333918110182933,0.031263288399731304,2.2252153248797795,-1.199387736928326,0.5457561627333768,0.5,-0.17949888102925227,0.059924526724007554,0.5,0.736925236841348,0.3894613896369484,0.5,0.10120543589066378,-0.09341883494323917,0.5,0,
0.5921579087756735,0.2702171845255904,0.48899898640988176,0.5279564830837675,-0.6360329548053447,0.5331276154810562,1.4926528097694058,-1.1956249005140527,0.3987967147043997,0.5,-0.17830563673085145,-0.21493350422323482,0.5,0.7383076640396571,-0.07845869987659765,0.5,0.0976305133305152,-0.06924745479474063,0.5,0,
0.6001600426780476,0.2750087456219691,0.24020648079034826,0.5,-0.6248617691705964,0.8429907668822747,2.3460438576359404,-1.1930069894930555,0.1781694487946045,0.5,-0.18293781709682402,-0.09593839542035992,0.5,0.7356698976433225,-0.04703018756791605,0.5,0.10009747661394792,0.15324437690330486,0.5,0,
0.6081621765804215,0.274060488218236,0.2644943511735144,0.5,-0.6225451025352283,0.33511796381351794,0.5,-1.192774189333339,0.11574379393818057,0.5,-0.1798406510575772,-0.06596256695461794,0.5,0.7375551810385704,0.2994724350487976,0.5,0.10008242336096808,0.06835127290473475,0.5,0,
0.6161643104827954,0.2792406552407453,0.4726802509693352,0.5,-0.6194998817495802,0.37665607406427853,0.9374349450497916,-1.1911550887900446,0.09155550267890555,0.5,-0.1839932181680979,-0.3538432623226839,0.5,0.7404614566041032,0.21649746773615142,0.5,0.10119109698042368,0.11493052795506602,0.5,0,
0.6241664443851694,0.28162337223374534,0.3619286278720782,0.5,-0.6165186053501999,0.18288304119489646,0.6172001406600347,-1.1913093012904765,0.2958647411690912,0.5,-0.18550214325474015,-0.46078590198899216,0.5,0.7410191405223489,0.22234200094124745,0.5,0.10192131180824913,-0.012229480296311289,0.5,0,
0.6321685782875434,0.28503151328669857,0.2627938204728293,0.5,-0.6165737530904618,0.2702742780828632,1.4002372534428476,-1.1864212529313392,0.46488008431726235,0.5,-0.19136579259992179,-0.37455917438232106,0.5,0.7440189286191632,0.09357734191487582,0.5,0.1009954252956827,-0.2644850541023295,0.5,0,
0.6401707121899174,0.2858280733613106,0.3750713893582828,0.5,-0.612194216900874,0.5790270739888942,0.74910415260243,-1.1838712199414003,0.16768049171225763,0.5,-0.1914950900448573,-0.12039875774123854,0.5,0.7425163779929869,-0.022326096963835862,0.5,0.09768955094261186,-0.15372067435893197,0.5,0,
0.6481728460922913,0.2910326555164311,0.541830958375112,0.5,-0.6073093199066395,0.4305641157699505,0.6940688524960188,-1.183738365063943,0.06542253674908516,0.5,-0.1932921727237816,-0.22760094448640195,0.5,0.7436617110677418,0.05750775849718698,0.5,0.09853589450593979,0.043672983883595064,0.5,0,
0.6561749799946653,0.2944973686953124,0.4081968345802933,0.5,-0.6053051910485548,0.2892941645076877,0.5,-1.182824459353415,0.17576294936892667,0.5,-0.19513670515663972,-0.3451335213794579,0.5,0.7434365021289419,0.1380436162239304,0.5,0.09838831868474938,0.03235211109500324,0.5,0,
0.6641771138970393,0.2975638048697158,0.35179952674493226,0.5,-0.6026806132745165,0.32575740173432927,0.5,-1.1809261578740402,0.3534354238500237,0.5,-0.19881430906585293,-0.33491941698008537,0.5,0.7458704089273247,0.19214021092529843,0.5,0.09905352828345984,0.028669539872040566,0.5,0,
0.6721792477994132,0.3001261611232313,0.08971700162224705,0.5,-0.6000930726208056,0.28768560776007424,0.5,-1.1771694925718146,0.47439565038953635,0.5,-0.2004954158283211,-0.26408175613220825,0.5,0.7465107455037466,0.30345199052278504,0.5,0.09884703132270203,0.23876155302234198,0.5,0,
0.6801813817017872,0.29899927689567174,0.32065774356565546,0.5,-0.5980776435503553,0.26597872093289676,0.7627185823683983,-1.1733358274678076,0.3288239795736503,0.5,-0.20303961716396826,-0.18499877008098553,0.5,0.7507256407756893,0.5333900681538245,0.5,0.10287371313181731,0.01987065495310473,0.5,0,
0.6881835156041611,0.3052566850202818,0.2432709005191734,0.5,-0.5958374130858792,0.41345664617183087,0.5,-1.1719083088986362,0.2163237156606046,0.5,-0.20345539614961686,-0.507895838810923,0.5,0.7550449865942078,0.05115500070808354,0.5,0.09916496180195171,-0.108698974696321,0.5,0,
0.6961856495065352,0.3028916113039785,0.4025433347383776,0.5,-0.591462337211606,0.342649967737807,1.1748540568667754,-1.169874648017238,0.10174323011111208,0.5,-0.21116595058494303,-0.38854071410643687,0.5,0.7515441207870186,0.16653246179627879,0.5,0.10113452953667618,-0.08415526364038364,0.5,0,
0.7041877834089091,0.31169737837609585,0.5828432421694854,0.6511676029629245,-0.5903550136020743,0.09800183269968732,0.6695716453404722,-1.1702804172168584,0.20617633967422166,0.5,-0.20967204757531985,-0.14033640379898688,0.5,0.7577095059829483,0.11801839454410323,0.5,0.09781847758370557,-0.41525453451335836,0.5,0,
0.7121899173112831,0.3122171031786903,0.21023354679509595,0.5,-0.589894307888411,0.22767306815473648,0.8652935820811406,-1.1665758265824504,0.22680794078444588,0.5,-0.21341133304572682,-0.31879948440596306,0.5,0.7534324150997243,-0.14342745106121074,0.5,0.09449045698446244,0.001653192525602129,0.5,0,
0.720192051213657,0.3150611151248174,0.14430384224122308,0.5,-0.5867122445115985,0.4120703322282593,0.5,-1.1666514901643072,0.18879099128042698,0.5,-0.21477283932581526,-0.22018010760424533,0.5,0.7554146667659689,0.17729568482844488,0.5,0.0978449286641152,0.08248327418534147,0.5,0,
0.728194185116031,0.31452596465454985,0.3074047589086207,0.5,-0.5833011825727589,0.4239589911892924,0.8722294304197963,-1.1635551707219636,0.503360293484037,0.5,-0.21693421476739475,-0.24711649569827965,0.5,0.7562691460569794,0.4312853540140854,0.5,0.0958101893714279,0.10323122924856247,0.5,0,
0.736196319018405,0.3199795912673553,0.46630986735391244,0.5,-0.5799289006525699,0.250718825001231,0.6040629056198185,-1.1585977254685627,0.2889409596984194,0.5,-0.21872670325698773,-0.5022301733679686,0.5,0.7623152324301943,0.1764170335792209,0.5,0.0994966283320922,0.15380797640439717,0.5,0,
0.7441984529207789,0.32198692253221245,0.3590775623266568,0.5,-0.5792896813727392,0.3534958533182725,0.5,-1.1589321153667889,0.2659226685610139,0.5,-0.22496989754128224,-0.37910783053811054,0.5,0.7590918185942469,0.00021542373632166267,0.5,0.09827111699389826,-0.23154547612149345,0.5,0,
0.7522005868231529,0.3257248322645818,0.3569167319066833,0.510066313800452,-0.5742729669994775,0.39744201759592257,1.0014321671725346,-1.1543429627715864,0.39123258932241556,0.5,-0.2247924285455975,-0.01227655680109338,0.5,0.7623186792099754,0.2276614307961944,0.5,0.09579190071414831,-0.19879144415732575,0.5,0,
0.7602027207255269,0.3276975902427194,0.11649234038366499,0.5262750713605322,-0.5729306090912044,0.19329133468152376,0.5,-1.1526723939376302,0.0846278872279893,0.5,-0.22516632245009974,-0.31548675161122836,0.5,0.762734401486986,0.13209110703255728,0.5,0.09509045388738105,0.08685472312481429,0.5,0,
0.7682048546279008,0.32758870971072046,0.3917191518288607,0.5,-0.5711803056445731,0.2514667837526449,0.5,-1.1529889165759386,0.15586150488075545,0.5,-0.22984021657137715,-0.33253937141630197,0.5,0.7644321369224963,0.25353267848973043,0.5,0.09718157628414534,-0.1061433695775096,0.5,0,
0.7762069885302748,0.33396509667198115,0.22301507476489915,0.5,-0.5689071405511621,0.2363199324303608,0.5,-1.1501786098595381,0.1653930468179382,0.5,-0.23048695239276057,-0.13919105003914675,0.5,0.7667909243428217,0.0007088627923881874,0.5,0.0933921599741409,-0.28023300812642876,0.5,0,
0.7842091224326487,0.33115695090695885,0.1262987463244991,0.9316795605617103,-0.5673991867256873,0.2390974859703479,0.5,-1.1503426278268516,-0.026825773676075748,0.5,-0.2320672733720035,-0.4767039283842429,0.5,0.7644434787271746,0.05742590120816349,0.5,0.09269784815412248,-0.1382737742257915,0.5,0,
0.7922112563350228,0.33598587661317314,0.6268839583195955,0.9031412549833439,-0.5650815807756365,0.23527012643349832,0.5,-1.1506078222383553,0.2566305122231466,0.5,-0.23811421524690846,-0.493052913784495,0.5,0.7677097387621523,0.4269031673411888,0.5,0.09117977958652823,-0.13233084464998532,0.5,0,
0.8002133902373967,0.3411870942400724,0.22828728323304875,0.5,-0.5636348647027514,0.2397005383526843,0.8561979442656221,-1.1462365396312812,0.3910873526816183,0.5,-0.23995611999255542,-0.29622160743653436,0.5,0.7712739294046336,0.49957712716577896,0.5,0.09058055463972271,-0.1870598575533211,0.6574249122223572,1,C153C5
0.8082155241397707,0.3396384731449019,0.21120434101753668,0.5,-0.5612463721619936,0.4118369173332012,1.079385981957022,-1.1443504245954494,0.34765419450125123,0.5,-0.242853760965893,-0.40359964402282394,0.5,0.7757029727968048,-0.1362832517622023,0.5,0.08944622116345395,-0.2737992097625135,0.6394242569932908,1,C153C5
0.8162176580421446,0.34456636369635296,0.3503401777658031,0.6094348502103173,-0.5570454740254202,0.21372001971785987,0.8932281502154954,-1.1406740725192612,0.15686376907392274,0.5,-0.2464137142969206,-0.3439994868578572,0.5,0.7690933973764383,-0.16467524124112037,0.5,0.08508437322757617,-0.07776203342922136,0.9021375055060248,1,C153C5
0.8242197919445186,0.34524391598915477,0.0012105236020937271,0.5,-0.5578268518465078,0.019984814872496537,1.41054116031781,-1.1418406042902667,0.05494183401817676,0.5,-0.24835775275561872,-0.16550948409212346,0.5,0.7730681689369469,0.23027335639586727,0.5,0.08498492858453821,0.5273792903192919,1.0663934676350717,1,C153C5
0.8322219258468926,0.34458573207398646,0.17257661816785091,0.5,-0.5567257169874602,0.34377952270812917,0.5813499947963574,-1.1397950031749704,0.17565648012324298,0.5,-0.24906186604239458,-0.2339085096113476,0.5,0.7727777710787722,-0.010856216460589097,0.5,0.08899129413160427,0.5043995839569348,1.0919765552242913,1,C153C5
0.8402240597492665,0.3480051418798404,0.12258956649002783,0.5,-0.5523263794831778,0.45838321494582474,1.3950905755970837,-1.1390301006082948,0.2964658738405235,0.5,-0.2521002889094003,-0.3986660380180477,0.5,0.7728944694735774,0.11016097901085653,0.5,0.08831950948605484,-0.18143972546488704,0.9726231361904707,1,C153C5
0.8482261936516405,0.3465471651378269,0.15717191272038994,0.5,-0.549391585548327,0.15744102181918657,0.7829655015276529,-1.135051549193522,0.2858261917070143,0.5,-0.25544052265068334,-0.11739027130136873,0.5,0.7745403467429459,-0.0018996086016270786,0.5,0.08230727343464231,-0.13075370614105042,0.7375550901091005,1,C153C5
0.8562283275540145,0.3505198924833666,0.2573498303889282,0.5,-0.5498073231340708,0.34347771439516284,0.5,-1.1344568815409826,0.15336977342790548,0.5,-0.2539785332502222,-0.37465922011939085,0.5,0.7728640757359514,0.2037516672178663,0.5,0.08432700946692523,-0.1695471328515202,0.5556747270543853,1,C153C5
0.8642304614563885,0.35066476242404976,0.25628252671373863,0.5,-0.5438959421180044,0.3772788185734885,1.2257588185462496,-1.1325976328186755,0.10387588753373034,0.5,-0.2614350701725936,-0.5821988272567066,0.5,0.7778003734184318,0.34222543061386557,0.5,0.08003991712545307,-0.2504598052094139,0.8352734293109698,1,C153C5
0.8722325953587624,0.35462041291078644,0.4806924368767583,0.5543856822417699,-0.543770862036895,0.10853079788995107,0.7003904346799945,-1.1327948673404429,0.18109559388658492,0.5,-0.2632937144863295,-0.14220856454333006,0.5,0.7783396826257732,-0.11112425688686312,0.5,0.08300184001806236,-0.44781423875731596,1.0327855030025979,1,C153C5
0.8802347292611363,0.3583558414140779,0.2490218915363676,0.6882694685864843,-0.5421594493517652,-0.05067186979302446,0.9148270175807613,-1.1297001033164902,0.09877963701604431,0.5,-0.2637104072052869,-0.18768645904112397,0.5,0.776022385308242,-0.04990823755651047,0.5,0.0771371733293568,-0.5336942651418114,1.099853104015172,1,C153C5
0.8882368631635104,0.3586047631753683,-0.09689657354687575,0.7921456697841909,-0.5445816119535833,0.1688305288126829,1.7865454496119544,-1.1312143931481862,-0.07608766907422904,0.596410813760144,-0.26629669783098747,-0.570167040058498,0.5,0.7775411508248691,0.2939337974109807,0.5,0.07926155660791476,-0.1404359997202587,1.0200557445564555,1,C153C5
0.8962389970658843,0.3568054962373279,0.3467199223401197,0.5,-0.5394581608907623,0.5622705071180595,0.9485540216175028,-1.1309175060216778,0.34928666366507155,0.5,-0.27283307984622285,-0.3059754767067088,0.5,0.7807253260668177,0.16611299037287697,0.5,0.0790506432902843,-0.5453046668568182,0.8129306012521471,1,C153C5
0.9042411309682583,0.36415228193281024,0.5200404238321875,0.7314010430274418,-0.5355852838396944,0.36634527212071194,1.7806403783379243,-1.125625806529545,0.3277683330517728,0.6400158057220785,-0.2711923054582948,-0.2972520943240395,0.5,0.7801989586708351,0.04669239275215814,0.5,0.07304012674822284,-0.28676262539849223,0.5291891329250523,1,C153C5
0.9122432648706322,0.3651261430186429,0.19604150509689583,0.5,-0.5335966365368309,-0.0066865408510710655,0.6587717624784988,-1.1256732126928495,-0.13046509663294792,0.5,-0.2775891133554075,-0.3102003339852874,0.5,0.7814724043508522,0.1964005066219937,0.5,0.07469595434730884,0.11742439875280719,0.761698853148695,1,C153C5
0.9202453987730063,0.3672889460143606,0.23808304463400487,0.5,-0.5356922684933115,-0.12894778804776325,1.9259477181449838,-1.1277132480756722,0.045047351850430184,0.5,-0.2761555108020594,-0.3791668516484048,0.5,0.783341366776787,0.1638193710529548,0.5,0.0728253263030782,-0.028876823659240214,0.9885138329050607,1,C153C5
0.9282475326753802,0.36893547173278696,0.20774116565552836,0.5,-0.5356598011455951,0.30698281279833983,1.1388338250265544,-1.1249524550632426,0.2375065247994801,0.5,-0.28365578298178196,-0.4687869546472732,0.5,0.7840935142876995,-0.03628963153735204,0.5,0.07032581450552051,-0.056724011578029754,1.0957235888507224,1,C153C5
0.9362496665777541,0.370612804664849,0.00788582270594071,0.5,-0.5307805434885381,0.5404792590844517,1.525104282035452,-1.1239131436788805,0.32255525121416273,0.5,-0.2836561020764158,-0.14215117280053438,0.5,0.7827607326721894,0.25527910451449143,0.5,0.06715195340702394,0.0077951409091262525,1.057079433659227,1,C153C5
0.9442518004801281,0.369061644896082,0.04848617388442111,0.5,-0.5270121330002439,0.2000385091320417,0.6138798787040519,-1.119791571043816,0.09360113749351529,0.5,-0.2859302017465905,-0.3705349062067473,0.5,0.7881779799599313,0.1922254922986505,0.5,0.06599390129079272,0.11290665921689146,0.8820428042834827,1,C153C5
0.952253934382502,0.37138858344699976,0.19222250738342925,0.5,-0.5275799273424254,0.32492946637429493,0.7273701422858112,-1.1224155254789843,0.23311396891696756,0.5,-0.28958466057572374,-0.39913879493739046,0.5,0.7858363405489678,-0.13864559193908083,0.5,0.06590211752022634,-0.014950859813992474,0.6134687722105349,1,C153C5
0.9602560682848761,0.3721372050142169,0.08772230037164958,0.5,-0.5218132615382551,0.18150386227790832,1.4273148890061977,-1.1160617475411445,0.26694954140027427,0.5192694078348921,-0.29231642246558875,-0.5040870039758477,0.5,0.785959650488906,0.35265184469935457,0.5,0.06484693735608456,-0.2241972643859873,0.68288637266133,1,C153C5
0.96825820218725,0.37279214025294616,0.2864260648820713,0.5,-0.5246758655459789,-0.13106059083668742,1.5077714763988679,-1.1181443328165799,-0.09736394424599004,0.5,-0.2976500526393373,-0.40695526613202315,0.5,0.7914787700641575,0.08081406949866227,0.5,0.06377805227134119,-0.4633334499494791,0.9344645551204698,1,C153C5
0.9762603360896239,0.37672002205233,0.43244401733928683,0.5,-0.5239102309916421,0.2092188406479581,0.5,-1.1176195706490804,0.12808296032250366,0.5,-0.2988277067237011,-0.4449359103912559,0.5,0.7872526756008846,-0.0680078880503851,0.5,0.06090931859785665,-0.34925140180700476,1.0796706620050358,1,C153C5
0.984262469991998,0.37971124453037475,0.15977437299586825,0.5,-0.5213283640956116,0.25594498586837405,1.2310039577302927,-1.1160950054514198,0.12534616887009686,0.5,-0.3047690272055974,-0.14421397961247862,0.5,0.7903906438553513,0.18569807424798773,0.5,0.0628273951384694,-0.38161279900416734,1.0829531741096656,1,C153C5
0.9922646038943719,0.3792764120202639,-0.03199980043899417,0.5,-0.5198151112177481,0.013717048409404853,0.5,-1.1156140319471588,-0.051477750482614715,0.5,-0.3011351303975008,-0.34542256002756744,0.5,0.7902238447888524,0.18417317673324884,0.5,0.0594671392066673,-0.4557044843996282,0.9435084179895337,1,C153C5
1.0002667377967458,0.37919924772335084,0.1849973809691305,0.5,-0.5211088913210611,-0.04167929246815666,1.477355258786251,-1.1169186494591417,0.13111232657365968,0.505824206935626,-0.3102957881660385,-0.40049189363555376,0.5,0.7933374146830833,0.06054200808861682,0.5,0.059084190731991615,-0.32432280052229007,0.6954773332487371,1,C153C5
1.00826887169912,0.38223637011577,0.2476123367724757,0.5,-0.5204819798972387,0.2963050693570446,0.5,-1.1135162347219802,0.5322098793851815,0.5,-0.30754300069566964,-0.23081049151997893,0.5,0.7911925169182703,0.08904013124992616,0.5,0.05584179306430055,-0.21961486006354122,0.6004134201816842,1,C153C5
1.0162710056014939,0.38316104511171045,0.16963453853141575,0.5,-0.5163680102113484,0.23324281764444676,0.5216355331499821,-1.1084032913889788,0.26123858777321596,0.6918930876323506,-0.31398875603035814,-0.6075874348171473,0.5,0.7947620567830821,0.06239571643935904,0.5,0.05476704560952148,0.1430395683742537,0.8717194663111707,1,C153C5
1.0242731395038678,0.38495052273227265,0.06142206371463274,0.5496464719381345,-0.5167500948149275,0.1535613154871815,0.5320780447771023,-1.1093364173176088,-0.26523698682710817,0.5,-0.317264399652744,-0.30136712824592804,0.5,0.7921908483813,-0.059829107848033414,0.5,0.055156670427799245,-0.07513129248837541,1.0520156229180744,1,C153C5
1.0322752734062417,0.3841437981311446,0.2902535702926055,0.5,-0.5139110291635535,0.06502579529779617,0.9090246577385807,-1.1126470831782125,-0.15984915809046096,0.5,-0.318810630082293,-0.12947019204918517,0.5,0.7938047910575136,0.09895064713665025,0.5,0.04914881994636288,-0.029793862319494324,1.0971591028167365,1,C153C5
1.0402774073086156,0.38959457985695434,0.3534864395336699,0.9109648832191671,-0.5157096820901628,-0.1360208265784174,1.5800042551108338,-1.1118940038470562,0.15454374960539863,0.5,-0.31933592272553096,-0.4107348370413072,0.5,0.7937740587354865,-0.1827171658408122,0.5,0.049902695808153444,0.30916349852583136,0.996097207694062,1,C153C5
1.0482795412109898,0.3897995811636833,-0.13034893524160526,0.5,-0.5160873623888081,0.21196190463280973,0.7117830505853935,-1.110174383184526,-0.14717589301420364,0.5,-0.3253823874749539,-0.546134867158949,0.5,0.7908813164040606,0.14689943668341754,0.5,0.050126658261223686,-0.10744777059335042,0.773573414132894,1,C153C5
1.0562816751133637,0.38750899689308865,0.020884419656672787,0.5,-0.5123182916160378,0.33560216269512555,1.2239780496315953,-1.1142488181352834,-0.12655317413945433,0.5,-0.32807408060007415,-0.2143918455307682,0.5,0.7961244497224211,0.1549679950830149,0.5,0.045994944165596685,-0.3459327900691886,0.51593069241438,1,C153C5
1.0642838090157376,0.39013373187819006,0.01411061983621828,0.5,-0.5107177277856861,0.09776101852441987,0.6279985892583146,-1.1121992339707574,0.23930069532571152,0.5,-0.3288126570034462,-0.35481129967906283,0.5,0.7933608043253888,-0.29702903757038157,0.5,0.04471917915943171,-0.23315452700062356,0.8015344098562924,1,C153C5
1.0722859429181115,0.38773476681046815,0.06103283828262293,0.5756512709750887,-0.5107541153196471,0.23889864099739533,0.6115711708501679,-1.110420007010072,0.21350930469925256,0.5,-0.33375106139493915,-0.47827851578131214,0.5,0.791371985121295,0.19457521577435216,0.5,0.04467674701243705,-0.5924165623106118,1.0133119873851935,1,C153C5
1.0802880768204854,0.391110257290712,0.389245750718685,0.8083659550678138,-0.5068953495297278,0.12056035399620607,0.5288492483191988,-1.1087830850955693,0.16635792326089027,0.5,-0.3364651132559472,-0.28168145486319807,0.5,0.7964740077777784,0.4509677087168734,0.5,0.039347010061543466,-0.5385730612602129,1.099412888020781,1,C153C5
1.0882902107228596,0.3939626988219671,-0.07017078458881887,0.5,-0.5088251496557078,0.013812969829982147,0.9220287025522512,-1.1077582802378978,0.3373350598415009,0.5,-0.3382579646727503,-0.2888256333640066,0.5,0.798587468460765,0.04328850677839946,0.5,0.04085488113643989,-0.5612897454818526,1.0387566084135749,1,C153C5
1.0962923446252335,0.3899875247372909,-0.05551165447759826,0.5,-0.5066743420124481,0.21557673349534984,0.5,-1.1033857241381053,0.05298644201338909,0.5,-0.3410863233897713,-0.41194298384191264,0.5,0.7971666238862328,-0.28893101373882873,0.5,0.03467642700114242,-0.46946429383588084,0.8461939212731255,1,C153C5
1.1042944785276074,0.39307451235032553,0.15375173712535786,0.5,-0.5053759219197822,0.21906713114787368,0.5402411126873893,-1.1069104971656836,-0.09364301088965465,0.5,-0.3448490524142209,-0.34353019364822407,0.5,0.7939645722409437,0.06916275094280555,0.5,0.0361130038052508,-0.16070872145047838,0.5688708882699123,1,C153C5
1.1122966124299813,0.39244755253129665,-0.028308563504355483,0.5,-0.5031692679140821,0.11680504319485502,0.7763523020831257,-1.1048840123123398,0.10458080591296826,0.5,-0.3465828064881429,-0.416706035570584,0.5,0.7982732279013177,0.3346055060889641,0.5,0.03265605456409407,-0.38343456357922945,0.725314140137975,1,C153C5
1.1202987463323555,0.39262157533425585,0.15993625631769912,0.5,-0.5035070412286645,-0.0475696036021378,1.1503806825468057,-1.105237204271076,0.2684890365193121,0.5,-0.35151634898335027,-0.5463691266937958,0.5,0.7993182603383672,0.13222867138834582,0.5,0.02817553766687933,0.17744852017365817,0.9643344089347334,1,C153C5
1.1283008802347294,0.39500653263237984,0.12945024637662714,0.5,-0.5039303815717163,-0.28673272744002276,0.9490343218238482,-1.1005881877280308,0.23496366493910847,0.7037889147633016,-0.3553247125152436,-0.3698600931996143,0.5,0.8003888866435312,-0.022872767150891593,0.5,0.03178055561539473,0.2991689671086852,1.0896694201956156,1,C153C5
1.1363030141371033,0.3946927792762819,-0.13036849131839792,0.6140337761135787,-0.5080947648677049,-0.07829127998712493,2.45056083225266,-1.1014777856320503,-0.26382396906576844,0.5,-0.3574341104745441,-0.2399286616680263,0.5,0.7989522960639529,-0.07823960721501516,0.5,0.028244885779053368,-0.01322863283923531,1.0706327919526246,1,C153C5
1.1443051480394772,0.39292063677128547,0.12887759166408178,0.5,-0.5051830420515103,0.4923339981578109,2.2003284548777957,-1.104809371233083,-0.0687976335375512,0.5,-0.35916357110193203,-0.0702983099721069,0.5,0.799137052928091,0.08302519094634253,0.5,0.027003835154345967,-0.38109529875283105,0.9118853547252653,1,C153C5
1.1523072819418512,0.3967548207429072,0.27754236684398786,0.5,-0.5002174208971799,-0.026104554335229513,1.1486389006758502,-1.1025785477686512,0.14916787595371794,0.5,-0.3585588834340978,-0.31603555061830363,0.5,0.8002806991190944,-0.052793120561597795,0.5,0.018852278161205948,-0.3908434170244026,0.6522940176572217,1,C153C5
1.1603094158442253,0.3973613146407893,0.00807264150647427,0.5,-0.505600714920874,0.22578219476199549,0.974234666680659,-1.1024226852178236,-0.008093080955742793,0.5621727083821524,-0.3642201399118249,-0.5154224814800379,0.5,0.7982923629991054,-0.33461085616479785,0.5,0.01953198834069775,0.13993923348824633,0.6445842063728606,1,C153C5
1.1683115497465992,0.3968839830070108,-0.09125376033622054,0.5,-0.496604905780988,0.007924565114107718,1.148614820257666,-1.102708037063943,0.3213596813796682,0.5180638173185591,-0.3668056431377784,-0.530741275230135,0.5,0.7949269254204576,-0.07688250906972421,0.5,0.022247979548000774,-0.4166694879367933,0.9060631741323846,1,C153C5
1.1763136836489732,0.39590125447540975,0.2001895665918567,0.5,-0.5054739218790483,-0.23962929855108825,2.7374242962109783,-1.097280930315749,-0.025436391380750933,0.5,-0.37271200031550705,-0.330418056066737,0.5,0.7970622428539899,0.4469824386817006,0.5,0.016113781926768135,-0.6919275689633241,1.0681237149160085,1,C153C5
1.184315817551347,0.4000870160724805,0.2553585740454507,0.5,-0.5004389745578054,0.37471253674448146,2.255381908851959,-1.103115019326035,-0.3000297345696623,0.7215503476640703,-0.3720923320348462,-0.15909110139476074,0.5,0.8020786444393648,0.1380726517560965,0.5,0.015722128163915657,-0.28376633257442513,1.0910877562809485,1,C153C5
1.192317951453721,0.39998699166013696,0.043107959612504604,0.5,-0.49947852129113657,-0.1010127156563928,0.5,-1.1020814060688635,0.178358218737254,0.5,-0.3752574579378232,-0.39638614188743093,0.5,0.7992714052820874,-0.04488157668168513,0.5,0.01630222265582492,-0.40392769501126546,0.9693329000021254,1,C153C5
1.2003200853560951,0.40077674342628056,-0.053023361521232354,0.5,-0.5020551780083077,-0.009564410360873854,0.6967012563173401,-1.100261287826239,0.24419852933331432,0.5,-0.3784345103050451,-0.8044659608951316,0.5,0.8013605392124579,-0.09388960602484814,0.5,0.013013948243752413,-0.4590620963110648,0.7326689812456583,1,C153C5
1.208322219258469,0.39913861787579724,-0.07047512398487485,0.5,-0.49963155185691055,0.11566591590144587,0.5,-1.0981742295995305,-0.06774373268361722,0.5,-0.38812891331214533,-0.45901182416797565,0.5,0.7977691715856898,-0.013202213658372597,0.5,0.010818580964813149,0.19176377636724423,0.5609604187341497,1,C153C5
1.216324353160843,0.39964914144252256,-0.011627242466109855,0.5,-0.5002045233538845,0.07830055280970763,0.6037875769071089,-1.1013451875491769,-0.18720130261573598,0.5,-0.3857786994917327,-0.19267800333792537,0.5,0.8011493037939239,0.12043636499042137,0.5,0.015594485315755123,-0.13299895071219955,0.8396645821389082,1,C153C5
1.224326487063217,0.3989525819963395,0.11279020535520656,0.5,-0.4983787430119552,-0.020833201166824133,1.3240428578560675,-1.1011694504413823,0.022320885178631067,0.5,-0.39121176136555214,-0.37276820656986787,0.5,0.7996961534255366,-0.011869430710173545,0.5,0.0059732810963066905,-0.30872209273158663,1.0352070096196222,1,C153C5
1.2323286209655908,0.40145378472820586,0.25474480385130266,1.0189961473490308,-0.5005378545725537,-0.30844374591079343,1.2961406271577451,-1.1009880533863188,0.22278883176679587,0.5571909979341445,-0.3917429907968506,-0.5419957352854992,0.5,0.8009593929025611,0.1289327228302939,0.5,0.0063732757550927594,-0.10773854783882919,1.0997120951484387,1,C153C5
1.240330754867965,0.4030284988579603,-0.28434419253320353,0.6539640434063916,-0.5033138429465279,-0.0341338112411077,0.6758048603092205,-1.0976048291331135,-0.13863570788059942,0.5,-0.3998836931301201,-0.41790858389667906,0.5,0.8017590769908213,-0.07194373747823612,0.5,-0.0005482324303020861,-0.20948384259274078,1.0173867440943973,1,C153C5
1.2483328887703389,0.3969042776476746,0.03667850371302794,0.5,-0.5010839955524115,0.11324980915439903,0.6496582876321315,-1.1032062247124084,-0.11436739700192156,0.5644894588793425,-0.39842952813919746,-0.20083320816498967,0.5,0.7998082931029094,-0.10133313706097574,0.5,-0.0011175596791462724,0.339575122117483,0.8083870735925212,1,C153C5
1.2563350226727128,0.4036153549173688,0.09038982230671899,0.6494978741339497,-0.5015018460000575,-0.012765179086875189,0.5,-1.0994347074851443,0.2674860385643574,0.5024360214969992,-0.40309702446075996,-0.3080800539710382,0.5,0.8001377467978457,-0.21582148118375055,0.5,0.0024178729348374732,0.03994287945535615,0.5238834921000018,1,C153C5
1.2643371565750867,0.3983505148045821,-0.229911771344498,0.5,-0.5012882384178015,-0.01670773634183942,0.5,-1.0989264480953786,-0.022609166605916386,0.5,-0.4033588090027341,-0.34473593546228976,0.5,0.7963551494039693,-0.0753333362157535,0.5,-0.0006695415446605884,-0.5487060354468707,0.7664676012245051,1,C153C5
1.2723392904774609,0.3999367665758568,-0.01598879978591955,0.5,-0.501769169781527,-0.022763650944931935,0.5,-1.099796454150839,-0.08188444056761446,0.5,-0.4086127994281566,-0.37505406599688124,0.5,0.7989324134183936,0.349488976682473,0.5,-0.004229682822516418,-0.6043240082445452,0.9915781323867685,1,C153C5
1.2803414243798348,0.3980946940080074,-0.08959424801356641,0.5,-0.5016524568329204,0.05296367509523281,0.5,-1.1002365991444605,0.035270473543291825,0.5,-0.4093596740586842,-0.27383726327216695,0.5,0.8019469730308889,-0.08337610604664675,0.5,-0.006406100617479165,-0.665154542723867,1.0963331923540252,1,C153C5
1.2883435582822087,0.39850325860763974,0.15716066657399733,0.5,-0.5009217509800032,-0.024321357697337787,0.6088260105045202,-1.0992321265741463,-0.03005653820993548,0.5,-0.41299419564051126,-0.41556525783646714,0.5,0.7975983957216473,-0.18217005744601555,0.5,-0.010101489967266088,-0.6903046093425961,1.0550850889858512,1,C153C5
1.2963456921845826,0.40060926467319136,0.021613971156880796,0.5,-0.5020415985560778,0.11168823081889045,0.5,-1.1007175037558194,-0.3308923459445362,0.5,-0.41600871818406765,-0.3381513928733988,0.5,0.7990322521117527,-0.0042978677811111865,0.5,-0.013010293655073894,-0.29279143818442704,0.5,0,
1.3043478260869565,0.39884908214614984,-0.17367294138021655,0.5,-0.499134739286901,0.1631420841984553,1.7293075065550778,-1.1045264041092588,-0.10820879744122269,0.6505952642710052,-0.41840461792648564,-0.650638378371246,0.5,0.7975296298371495,-0.033608518737307524,0.5,-0.014786152978216921,-0.11243633857394822,0.5,0,
1.3123499599893307,0.3978304976111079,-0.057179859377771286,0.5,-0.4994313252089025,-0.2223967211773606,0.5,-1.102448844514879,0.42825801270660047,0.5,-0.4264189322380076,-0.8430519732827678,0.5,0.7984945158119557,0.13236995464309398,0.5,-0.014809275072257065,-0.13560633835863203,0.5,0,
1.3203520938917046,0.3979342043961055,0.14924687050796998,0.5,-0.5026930868257388,-0.2513566157519055,2.544520750490367,-1.0976742759059532,0.2030461240811604,0.7987370405264926,-0.43189344949900993,-0.3134880672956523,0.5,0.799647549111439,-0.2275828480226491,0.5,-0.016955854391955034,-0.21818698072326234,0.5,0,
1.3283542277940785,0.4002184475392354,0.017513950114820404,0.5,-0.503453031060933,0.32030445482653797,0.6704329964072445,-1.0992001065295804,-0.4215194667840094,0.5,-0.431434741314738,-0.08960098178461759,0.5,0.7948531902435934,0.002037089044587548,0.5,-0.018300266763829263,-0.4468595483852959,0.5,0,
1.3363563616964524,0.3982144275979426,-0.09956425959459572,0.5,-0.49756821554851416,0.19518974824998814,2.743052539457446,-1.1044185873744974,-0.2999621869123753,0.636676875290051,-0.4333270652075638,-0.26824932891832826,0.5,0.7996801425361524,0.12125672539337745,0.5,-0.02410560716611977,-0.371156310907501,0.5,0,
1.3443584955988264,0.3986254193857219,0.0036313484207579905,0.5,-0.5003299950889332,-0.43298315607352006,1.9527901634190972,-1.1039995015201785,0.11537864118314756,0.5,-0.4357267305774313,-0.4227088609880872,0.5,0.7967932978498874,-0.09774653806100819,0.5,-0.02423876773834928,0.0586314950117529,0.5,0,
1.3523606295012005,0.39827252917267475,-0.2062835816903398,0.5,-0.5044959460456905,-0.02270283176788318,0.5,-1.102572529115567,-0.07293984977957413,0.5,-0.4400904069833732,-0.4319701914514834,0.5,0.7981161979271763,0.0696890383564408,0.5,-0.023167503245931722,-0.4823217961769772,0.5,0,
1.3603627634035744,0.39532488207867644,-0.25635428263474574,0.5,-0.5006932403972193,-0.011935330766418839,1.7219815834557886,-1.1051665391166516,-0.15110884092892074,0.5,-0.442638253640655,-0.27946410989102694,0.5,0.7979083224635904,0.15329397273314976,0.5,-0.031955916477180914,-0.23705934540381032,0.5,0,
1.3683648973059483,0.3941708606505188,-0.17879472635722732,0.5,-0.5046869113379532,-0.427201633847199,2.9023554660920783,-1.1049902705704298,0.015336900947723886,0.5,-0.44456183274162964,-0.3993282601296617,0.5,0.8005689014909066,-0.010353835585397153,0.5,-0.026960452772392687,-0.010200009242112423,0.5,0,
1.3763670312083223,0.3924641664569608,0.0709485005627869,0.5,-0.5075284665387745,0.2390592016677795,0.544614007911503,-1.104921148701488,0.0624868133479034,0.5,-0.4490275058027296,-0.3688131679388702,0.5,0.7977426610942241,-0.11444624700145817,0.5,-0.03211911662505471,-0.49781325962299644,0.5,0,
1.3843691651106962,0.3953060366595234,0.14608716224450216,1.242300223909222,-0.5008619641112687,0.13083909424407847,3.5902885480022633,-1.1039904815568633,-0.22433636971380677,0.5,-0.45046284342865156,-0.44644398104506583,0.5,0.7987377615388833,-0.13310073230635155,0.5,-0.03492546492636063,-0.0832083293206675,0.5,0,
1.3923712990130703,0.39480156105287284,-0.4988549567317944,0.7266906406644611,-0.5054350410308692,-0.6847462707961216,1.5712353677040867,-1.108510530616909,-0.1715336297749559,0.5,-0.45617060949945065,-0.20882198525392845,0.5,0.7956130493773225,0.02387694891207298,0.5,-0.03345044989418539,0.052360457426262226,0.5,0,
1.4003734329154442,0.3873243573518147,-0.16184111698957712,0.6792372267178228,-0.5118179044440067,-0.3370890048860625,2.8354994833676406,-1.1067350196332626,0.15245962870566454,0.5,-0.4538039951927144,-0.14026932871952225,0.5,0.7991197927214765,0.24000308516933244,0.5,-0.034087697607540435,-0.09253910630317892,0.5,0,
1.4083755668178182,0.3922121031810396,0.1805371597502145,0.548624665504116,-0.5108284651090462,0.31220152296410064,0.5,-1.1060711765576183,0.34025772278933886,0.6399615036061823,-0.458414918758963,-0.5020066140162122,0.5,0.7994530987400318,-0.27851647442374977,0.5,-0.034931075595036255,-0.37948165558585306,0.5,0,
1.416377700720192,0.39021295190781813,-0.10890625659039366,0.5,-0.506822680076581,0.2846073585911005,2.4771883358028894,-1.1012908960686332,-0.06776214782090728,0.5,-0.4618361010169738,-0.3836983484342277,0.5,0.7946635291306965,-0.3134733943727652,0.5,-0.040159404096914084,-0.3407220810866651,0.5,0,
1.4243798346225662,0.3904696030755933,0.0870941994453589,0.5,-0.5062747473715886,-0.26709936239208837,0.7665670970802231,-1.1071553709227528,-0.28941397747569986,0.5,-0.46455409233391065,-0.299115448678295,0.5,0.7944375244300675,0.03632307665103057,0.5,-0.040382628892422896,-0.12997886808719522,0.5,0,
1.4323819685249402,0.39160645909894387,0.049781568004256954,0.5955640589375688,-0.5110962698748545,-0.42121527895035843,1.6812846146611782,-1.1059215197082444,-0.12120186048543424,0.5,-0.46662194819582653,-0.5205733091746475,0.5,0.795244698357113,-0.27344278978812947,0.5,-0.04223906598630921,-0.39390696141343134,0.5,0,
1.440384102427314,0.3912661081636614,-0.23947132194433035,0.5,-0.5130141918347944,-0.05663679073545508,0.5,-1.1090946006905198,-0.12863118757999725,0.5,-0.472883265280705,-0.4466376241849812,0.5,0.7900624397934575,-0.17167959615198986,0.5,-0.0466851402750378,-0.25027074730638854,0.5,0,
1.448386236329688,0.3877749179478346,-0.3129820414343801,0.5,-0.5120024585266217,-0.07445810579653073,0.5,-1.1079796187095243,-0.06332077851405049,0.5,-0.47376815018278623,-0.3451766901307086,0.5,0.7924978248186811,0.3291166305307014,0.5,-0.046243397943211424,-0.04882724529616748,0.5,0,
1.456388370232062,0.38625839550071134,-0.1025377843550078,0.5,-0.5142055215275388,-0.09105528006982111,0.6310191323229267,-1.1101077331467446,-0.17601618472119773,0.5,-0.47840609232279635,-0.48028231997765747,0.5,0.7953283058819487,-0.16054158239860172,0.5,-0.04746637619977648,-0.23771206831611116,0.5,0,
1.464390504134436,0.38613431339815446,-0.026596376966902396,0.5,-0.5134593430077389,0.0336892989277679,0.883051853602196,-1.1107958776650635,-0.17344297715037038,0.5,-0.48145266730242875,0.009222076428852533,0.5,0.7899291595003035,-0.3160973087323396,0.5,-0.0500467910362692,-0.2917892044167064,0.5,0,
1.47239263803681,0.3858328534692409,-0.21389423276657257,0.5,-0.5136664927446946,-0.15389489868521816,0.9232357822505747,-1.1128828207811505,-0.14798626496405343,0.5,-0.4782585390999347,-0.26731586025498244,0.5,0.7902707489422313,0.3076443076562088,0.5,-0.05213500347044378,-0.1853504553901244,0.5,0,
1.480394771939184,0.3827120056738893,-0.2394664327134352,0.5,-0.5159216613867024,-0.3562068490167644,1.7063192430073073,-1.1131636579044883,-0.14217778160259542,0.5,-0.48572972106650847,-0.9089023414078946,0.5,0.7948514684228029,0.19915851510330512,0.5,-0.053012398322511194,-0.3228989041884874,0.5,0,
1.4883969058415578,0.38200139054582594,-0.10167288543364017,0.5,-0.5193658023289628,0.017577555761219554,0.5,-1.115157665286792,0.05871462276249573,0.5,-0.492800976562461,-0.3683300667300868,0.5,0.7934572851838841,-0.5021973477303612,0.5,-0.05730138593745958,-0.4250188846252165,0.5,0,
1.4963990397439317,0.38108523950695106,0.062282722118164185,0.6478843234372715,-0.5156404204945229,0.07024928125560354,2.108952434882124,-1.1122242239402884,-0.004764625954292723,0.5,-0.49162300213418986,0.049315064655382906,0.5,0.7868163108591171,-0.2772688409061336,0.5,-0.05981270047651466,-0.06722793208084567,0.5,0,
1.5044011736463059,0.38299791409971656,-0.31198950364116557,0.5,-0.5182418138288731,-0.3950050089340032,1.9544012713037207,-1.1152338993020607,-0.35483902099621434,0.6298592115381344,-0.4920119355279749,-0.22046918784152797,0.5,0.789020983729386,0.4110066581187455,0.5,-0.05837703285075311,0.0013191550716756123,0.5,0,
1.5124033075486798,0.3760934074486924,-0.39508212918972285,0.5284905247090609,-0.5219605006374669,0.0334831061454266,1.3487499796339255,-1.1179016482762278,0.10056917168724255,0.5,-0.4951505091396543,-0.4136647044772554,0.5,0.793392417389017,-0.06044104786751686,0.5,-0.05979159399536785,-0.15676775531494508,0.5,0,
1.5204054414510537,0.376676600032681,-0.12279028722520652,0.5,-0.5177060841305463,-0.23652341271641897,0.6580055305673794,-1.1136247925550649,0.11821073743788213,0.5,-0.498630570799611,-0.6432641127640734,0.5,0.7880539269635057,-0.5050962243251175,0.5,-0.06088531693579223,-0.40148260515080175,0.5,0,
1.5284075753534276,0.3741287628530891,-0.10527598216485481,0.5,-0.5257448752409296,-0.3845064434748052,1.4258209542823732,-1.1160102764772217,-0.20119833685837418,0.5,-0.5054427349438795,-0.5614549002202173,0.5,0.7853108777998151,-0.05631181869458768,0.5,-0.06621531567778068,-0.30687560354525445,0.5,0,
1.5364097092558016,0.3749921843180433,-0.1020683167035491,0.5,-0.5238581872261432,-0.07426546217432356,2.0387206082295593,-1.1168439659447988,-0.35102806361346495,0.5,-0.5076138492031345,-0.3705740311096828,0.5,0.7871529378643923,-0.018659552940850088,0.5,-0.0657953265925163,-0.03194951487089145,0.5,0,
1.5444118431581757,0.3724956697858323,-0.11479682216116241,0.5,-0.5269331226357188,-0.5419373395596019,1.0615872300133693,-1.1216267254950372,-0.45341744090190983,0.7565082138220773,-0.5113719194416344,-0.5034315879656817,0.5,0.7850123249527615,-0.3264280925891344,0.5,-0.06672650791571494,0.11828592741010886,0.5,0,
1.5524139770605496,0.3731554351634647,-0.1294371310440745,0.5,-0.5325291846590968,-0.31151398558604965,1.765095559937826,-1.1240986449992294,0.057771715917365185,0.5,-0.5156687546105854,-0.42957975082756616,0.5,0.7819300883829662,-0.05268849566891082,0.5,-0.06390275175395456,-0.39963557833619723,0.5,0,
1.5604161109629235,0.3704246756891271,-0.33443837172936197,0.5,-0.5319173464050956,0.06722622436027004,1.129386988020606,-1.1207023780403593,0.05441653827972792,0.6029166748356236,-0.5182451954548755,0.011880144440742924,0.5,0.784169309022059,0.3147752211536889,0.5,-0.0731206771690941,-0.5685223119035552,0.5,0,
1.5684182448652975,0.36780442121579493,-0.3056170627021709,0.5,-0.5314535650693325,-0.177838205072417,0.922123851072592,-1.1232279803867538,-0.4060265014758646,0.5,-0.5154786722995335,-0.06872572715449499,0.5,0.7869664919214252,0.1666445646293785,0.5,-0.07299910874441144,-0.2163987365057414,0.5,0,
1.5764203787676716,0.3655348026858924,-0.1638347484177842,0.5,-0.5347627576862543,-0.3550764557936903,0.5,-1.1271988020639732,-0.26885899509385136,0.5444158185163519,-0.5193448070893474,-0.26868664018681043,0.5,0.786835622056129,-0.22593729047292593,0.5,-0.07658305695318596,-0.08123015716520778,0.5,0,
1.5844225126700455,0.3651830652411104,0.0072099208740274146,0.5,-0.5371347883620315,-0.34186490852213675,0.7814179612011322,-1.1275297243082554,0.10602908514058262,0.5274899444343557,-0.5197776585425224,-0.47083679330537503,0.5,0.7833514952738584,-0.1701620260647907,0.5,-0.07429879125905477,0.12604096115894065,0.5,0,
1.5924246465724194,0.36565016141987683,-0.20771812701953635,0.5,-0.5402325962226084,-0.178074287554085,1.1478621881395314,-1.1255023367017238,-0.30183576939118995,0.5,-0.5268781957822334,-0.48141452174152444,0.5,0.7841130296390924,-0.27476132434782474,0.5,-0.07456640157464291,-0.2417294720043475,0.5,0,
1.6004267804747934,0.3618595752087978,-0.30030550965245983,0.5,-0.5399839769628969,0.08239587253506403,1.1773067737114578,-1.1323590966185144,-0.31481167461791526,0.5340021864798575,-0.5274802908903868,-0.06768381530997125,0.5,0.7789553140842932,-0.0936758020153236,0.5,-0.07816646281112433,-0.11328741372800162,0.5,0,
1.6084289143771673,0.36084527326543747,-0.2695627832485781,0.5,-0.5389142622620474,-0.17200722517839162,0.5,-1.1305393234956105,0.05705621570183117,0.5,-0.5279611368271929,-0.39251791292466837,0.5,0.7826142168068472,-0.07127483385330896,0.5,-0.07637900019429093,-0.10998281962686096,0.5,0,
1.6164310482795414,0.35754657067682055,-0.36700805578766815,0.5,-0.5427360925657512,-0.15679462929864274,0.5,-1.1314461971672851,-0.0644819428443355,0.5,-0.5337605774971815,-0.562602567846647,0.5,0.7778149167426402,-0.4302465602856881,0.5,-0.0799261879251541,-0.227114721384869,0.5,0,
1.6244331821819153,0.3549731443728348,-0.2922462628064358,0.5,-0.5414229763308257,-0.24512261812393438,0.6634139729387328,-1.1315710345811199,-0.18026228917061848,0.5,-0.5369627779127393,-0.31015282979807157,0.5,0.7757302718422762,-0.04496491396512037,0.5,-0.08001283573644884,-0.22576320010387912,0.5,0,
1.6324353160842893,0.3528706304719176,-0.197492724207049,0.5,-0.5466580544557341,-0.3653265235107686,1.271688799032618,-1.134330393794015,-0.3683977027525015,0.5,-0.5387230227739507,-0.30997389670125997,0.5,0.7770954781191983,-0.0748722773279975,0.5,-0.08353839912681617,-0.5169658620830884,0.5,0,
1.6404374499866632,0.351813260785522,-0.2415920641115031,0.5,-0.547268200706998,-0.10626706698774191,0.5,-1.1374653978251599,-0.11705725402817724,0.5,-0.5419223602599594,-0.36435686980955395,0.5,0.7745323154050282,-0.05074263506404941,0.5,-0.08828428952977825,0.13701956154593772,0.5,0,
1.648439583889037,0.34900515744613353,-0.16304254660648096,0.5,-0.548358327527538,-0.12493003205793496,0.8612079000509587,-1.1362033098584658,0.022783194505271442,0.5,-0.5445527326909035,-0.12473470148414989,0.5,0.7762835959581735,-0.010841042031195514,0.5,-0.08134608614208116,0.09436746650898394,0.5,0,
1.6564417177914113,0.3492045800398183,-0.11478353826428755,0.5,-0.549267081219925,-0.3056592325078114,0.5,-1.1371008667130755,-0.32462086118370537,0.5,-0.5439181154837058,-0.30815818007633167,0.5,0.7743588587325291,-0.419003030491423,0.5,-0.08677441006563451,-0.3314695499558361,0.5,0,
1.6644438516937852,0.34716862083390493,-0.15549369380252892,0.5,-0.553248875247663,-0.32098111647035216,0.7254259577970095,-1.1413972436374051,-0.2203833026189067,0.5,-0.5494832635721248,-0.7122635057757731,0.5,0.7695795474703108,-0.0788526152260341,0.5,-0.08664959894137454,-0.10727275315028285,0.5,0,
1.672445985596159,0.34671668093897784,-0.1743182086102607,0.7300374411801046,-0.5544027790834506,-0.18958454009195685,1.4285964993753526,-1.140626999554978,-0.1306934511213914,0.5,-0.5553143315761182,-0.20937034007459387,0.5,0.7730972168889125,0.19294076108281044,0.5,-0.08849077411603903,-0.22024215340548345,0.5,0,
1.680448119498533,0.34437952949614076,-0.5514399324305607,0.5651168240424544,-0.5562822278891343,-0.5093322280779258,1.3184920323762004,-1.1434883388553474,-0.4255782880920739,0.5,-0.5528331890133183,0.09301356182808695,0.5,0.7726665996476357,-0.17111316328560083,0.5,-0.09017347339586228,-0.25464569337519183,0.5,0,
1.6884502534009072,0.33789364202008887,-0.2863925319940702,0.5,-0.5625520947326974,-0.2332715968222307,0.567187461551533,-1.1474362521644512,-0.20724906022281941,0.5,-0.5538261145868688,-0.27460678262223454,0.5,0.7703594062763429,-0.20768461342625388,0.5,-0.0925651052100421,0.21681907265253852,0.5,0,
1.696452387303281,0.33979724898423563,-0.1536107066648154,0.5309258513743584,-0.56001457343829,-0.14103227235890553,0.5,-1.1468043238189125,-0.03604602446911909,0.5,-0.5572268975352741,-0.7417373090153403,0.5,0.7693436458328157,-0.2885879790588339,0.5,-0.08670436823342166,0.048762648720166064,0.5,0,
1.704454521205655,0.3354358707134518,-0.4256788991149861,0.5,-0.5648086110904399,-0.15099883215744653,0.5,-1.1480129885559571,-0.3752044360733203,0.5,-0.5656939115311143,-0.5581148704193947,0.5,0.7657419986114016,0.05275589616669796,0.5,-0.09178490283051945,-0.36749259909645177,0.5,0,
1.712456655108029,0.33298638659839586,-0.340998124362675,0.5,-0.5624305547528091,-0.09813784970755246,2.482397561138625,-1.1528075947960856,-0.1846474476045329,0.5,-0.5661567354619844,-0.16367477561461674,0.5,0.7701877401714828,0.07658343822396912,0.5,-0.09258424981896489,0.16398399607182693,0.5,0,
1.7204587890104028,0.329979900723649,-0.0898243772941773,0.5,-0.5663788166857607,-0.6384918157014765,1.5196926272746314,-1.1509673477176297,0.23495979295663771,0.8778062720536328,-0.5683127079409481,-0.4435675534726069,0.5,0.7669673336229851,-0.22027660553843031,0.5,-0.08916115889337022,0.04105290753167977,0.5,0,
1.728460922912777,0.331549196561689,-0.05981531125071396,0.5878287349096677,-0.5726464238040327,-0.31423102635631806,0.998474251851638,-1.1490482381087794,-0.4045586039154586,0.5,-0.5732538163175461,-0.31556379967092457,0.5,0.766663314482868,-0.07171470432485588,0.5,-0.09192740329845801,-0.3107258663251101,0.5,0,
1.736463056815151,0.3290228557436376,-0.3398607721445332,0.5,-0.5714065131074618,-0.09713041847959902,0.6494224617782539,-1.157440285380277,-0.2031131560920746,0.5,-0.5733617287356829,0.020574004125875622,0.5,0.7658198983537874,-0.166978348910711,0.5,-0.09413277275457198,-0.08729887272650952,0.5,0,
1.7444651907175248,0.3261114242073765,-0.40310421643500666,0.5,-0.5742005104997063,-0.22726946727114755,0.5,-1.1522980486062526,0.03660309412671647,0.6422464424106327,-0.5729246322515321,-0.2630700654162807,0.5,0.7639916609002966,-0.37871793794049674,0.5,-0.09332418526208217,-0.11283005919294174,0.5,0,
1.7524673246198987,0.3225731882806775,-0.2458881267319371,0.5,-0.5750428245838002,-0.27739713437894414,0.5059256998071661,-1.1568546358742495,-0.4008552909854357,0.5,-0.5775708497823434,-0.49779005576198326,0.5,0.7597604113467394,-0.412014170382502,0.5,-0.09593805370165905,-0.13279937791517687,0.5,0,
1.7604694585222727,0.3221772141796655,-0.3763343027173328,0.5,-0.5786388646497694,-0.36836136442260775,0.5,-1.1587117332620196,-0.128822074196705,0.5,-0.5808892731437238,-0.05552092803304265,0.5,0.7573994341741765,0.018030073774065458,0.5,-0.095448975308725,0.08555163203485555,0.5,0,
1.7684715924246468,0.31655183943720017,-0.3613130696987765,0.5,-0.5809366064145619,-0.3175905676917265,0.5,-1.1589157890613968,-0.39595101003904454,0.5,-0.5784591846308721,-0.25026983950784953,0.5,0.7600488925271245,0.17832842154068274,0.5,-0.09456922758910136,-0.06402184464967316,0.5,0,
1.7764737263270207,0.31639620506448507,-0.1971032307938117,0.5,-0.5837203137328371,-0.2955834037675423,0.9312522409117424,-1.1650469494226443,-0.48434069886105213,0.5,-0.5848935905758494,-0.6646337721189013,0.5,0.7602526889188275,-0.041626181128628925,0.5,-0.09647332482311977,0.05845815528248387,0.5,0,
1.7844758602293946,0.3133981877444992,-0.3626353935098428,0.5,-0.5856659408748426,-0.4818567441672236,1.0534736277578296,-1.1666652402431736,-0.26085530315089756,0.60524321676811,-0.5890933249847745,-0.37856348479073376,0.5,0.7593828736290664,-0.20346465169773786,0.5,-0.09363389710458161,0.015858499490795618,0.5,0,
1.7924779941317686,0.3105940387683276,-0.46688942534192646,0.5132082177825147,-0.5914300216395126,-0.25690450514972984,0.5,-1.1692206342730587,0.20926888941991129,0.5,-0.5909506063325012,-0.15177664719989714,0.5,0.7569972544916637,-0.3235116530345139,0.5,-0.09621958883126704,-0.18557936535386169,0.5,0,
1.8004801280341425,0.30592795693902836,-0.19842879133886993,0.5,-0.5897764129572383,-0.3121052357295956,0.9083243868569248,-1.163316938012455,-0.07058958753383693,0.58932133080274,-0.5915217513399729,-0.06509812333686804,0.5,0.7542066871805142,-0.11378099571848072,0.5,-0.0966031669502434,-0.12394123132168557,0.5,0,
1.8084822619365166,0.30741917810690567,-0.20408227208646226,0.5,-0.5964237054111862,-0.49227334409604473,1.466015198601339,-1.1703500676736,-0.5247601907235749,0.5,-0.5919921763058911,-0.4247427473220433,0.5,0.755176758560168,-0.11660949376159774,0.5,-0.098202648532414,-0.15711023890163134,0.5,0,
1.8164843958388905,0.30266264058564496,-0.3846264766732138,0.5,-0.597652786462775,-0.1978208936152942,1.228532795772662,-1.1717131010640323,-0.2835039069619266,0.5,-0.5983176352971256,-0.33534213981718797,0.5,0.7523409352803286,-0.1824368621659439,0.5,-0.0991169307726695,-0.12282821258712776,0.5,0,
1.8244865297412645,0.30126515448013425,-0.4891879099756802,0.5,-0.5995888397090309,-0.4582890604179768,0.9941604427381041,-1.1748861301849909,-0.24417727031027237,0.5,-0.5973576505429661,-0.16602802857163673,0.5,0.7522577687655129,-0.05648493697348739,0.5,-0.10016789993380805,-0.01235109615757915,0.5,0,
1.8324886636436384,0.2948356340260341,-0.36312640393149076,0.5,-0.6049854114294626,-0.2546727463227094,0.5,-1.1756199373889966,-0.21421503271012998,0.5,-0.6009740837542717,-0.2930961693860465,0.5,0.7514371762887528,-0.1679172699867032,0.5,-0.09931454831119077,0.04820545625377516,0.5,0,
1.8404907975460125,0.2954551320172304,-0.34674579961281593,0.5,-0.6036636036501942,-0.19529781804482338,1.5975177591569176,-1.178313570708353,-0.17962770824601904,0.5,-0.6020471892531428,-0.20473619570219453,0.5,0.7495710924457256,-0.19527946245368605,0.5,-0.09939661263374765,-0.14389521642659778,0.5,0,
1.8484929314483864,0.289287701232229,-0.33799291639947937,0.5478358041609921,-0.6081101765181798,-0.5424031514383171,0.5,-1.178493980720933,-0.3401797022858505,0.5,-0.6042498628855069,-0.253450053157446,0.5,0.7483127048894939,-0.21696423948128207,0.5,-0.10161687177401633,-0.0740646312938735,0.5,0,
1.8564950653507604,0.2900472453548387,-0.0639187374796811,0.5213180494155806,-0.6123420540732073,-0.6106313445719754,1.4673150485838282,-1.1837564459449266,-0.4734668527042879,0.5,-0.606102390103662,-0.19254905026427904,0.5,0.7460996646140251,-0.3326397272901335,0.5,-0.10058164673444962,-0.02951740982624993,0.5,0,
1.8644971992531343,0.2882650014325541,-0.3095536520587999,0.5,-0.6178802780313314,-0.29485259322533514,0.8117724974089352,-1.1860694503642015,-0.27291266876794396,0.5,-0.6073306476897353,-0.25969085073974246,0.5,0.7429904692528517,-0.07718624553339215,0.5,-0.10208915033123633,-0.010680661323216566,0.5,0,
1.8724993331555082,0.2850943869218979,-0.4416060173896459,0.5,-0.6170596955648127,-0.12222445764936002,0.5,-1.1881230486452137,-0.19943456082481548,0.5,-0.6102574437154978,-0.42930938002031654,0.5,0.7448646846854908,-0.2514401990891327,0.5,-0.10075253731562109,0.2447853335118726,0.5,0,
1.8805014670578823,0.2811993051543198,-0.40726592040481524,0.5,-0.6198358693537211,-0.12954453332028604,0.7358774972403382,-1.1892604033373986,-0.2382975935194681,0.5,-0.6141995977700604,-0.32621542635087597,0.5,0.7389674260674256,-0.298463955539896,0.5,-0.09817258499504637,-0.04235951524805739,0.5,0,
1.8885036009602563,0.2785781321954209,-0.44669513249491477,0.5,-0.6191324080979372,-0.28726006639853696,1.3558177735527643,-1.1919358101415252,-0.44617115053961764,0.5,-0.6154768905371119,-0.12023063479964236,0.5,0.7400892613968525,-0.03203746066186147,0.5,-0.10143028955959,-0.1998309838223836,0.5,0,
1.8965057348626302,0.27405218303440115,-0.24696345164315278,0.5,-0.6244320304160977,-0.5910997929033032,1.3163432075715324,-1.1963991417460325,-0.23297443208263047,0.5,-0.6161232879268547,-0.1263129001713853,0.5,0.7384548266968358,-0.29379472917003685,0.5,-0.10136988073620451,0.08522644109673107,0.5,0,
1.904507868765004,0.27462671696913044,-0.2668526080538622,0.5,-0.6285900047843901,-0.3211763157824066,0.8186000677149617,-1.1956634010548473,-0.15801344913740634,0.5,-0.617497896939854,-0.423097663843644,0.5,0.7353885457301319,-0.4835575741924669,0.5,-0.10006666650204231,0.14345254161189733,0.5,0,
1.912510002667378,0.26978254130553936,-0.5363698209952874,0.7004570019889294,-0.6295708514686162,-0.17387851492463302,0.5,-1.198927356932231,-0.40386556450401623,0.5,-0.622892850548353,-0.25012880298228707,0.5,0.7307179055097563,-0.24204838326605943,0.5,-0.09907464007041415,0.019289372520699642,0.5,0,
1.9205121365697522,0.26604479983320584,-0.22288900559525385,0.5,-0.6313720610231842,-0.2438850535204165,1.4151632695726972,-1.2021252500869115,-0.4034542424445342,0.5,-0.6214999577875706,-0.11142517518262368,0.5,0.731515771597875,-0.04741861796874608,0.5,-0.09975803654171111,-0.013097870483455391,0.5,0,
1.928514270472126,0.2662163172160153,-0.27303165132915724,0.7749780397506596,-0.6334730123249429,-0.5560811628802509,0.5,-1.2053826248113435,-0.215495968163254,0.5,-0.624675653351275,-0.3319586501693214,0.5,0.7299592076222564,0.0953789238641728,0.5,-0.09928420599814944,-0.031693869136348134,0.5,0,
1.9365164043745,0.2616762934119393,-0.6709608977481691,0.6405919829508604,-0.6402693596292682,-0.5926929349463413,0.9944822169931785,-1.2055731855775236,-0.08398995213135252,0.5167963561207098,-0.6268112961902798,-0.22127914563146306,0.5,0.7330418343797017,-0.0010138865079306614,0.5,-0.10026513844789268,0.07462664914783916,0.5,0,
1.944518538276874,0.2554809428520446,-0.3315078774517345,0.5,-0.6429560992840844,-0.3835009306036308,0.5,-1.2067264640454451,-0.4245871522168404,0.5,-0.6282161196813784,-0.20240906421320481,0.5,0.7299429854381295,-0.25503058484059593,0.5,-0.09809017961178401,0.040805907792269835,0.5,0,
1.9525206721792479,0.25637216737271157,-0.2566018913530872,0.8767442500410396,-0.6464053745189263,-0.44493516641145453,0.52154340044664,-1.212366580012993,-0.3696943525788726,0.5,-0.630049841217691,-0.27133379547856357,0.5,0.7289613450222522,-0.4708321659830095,0.5,-0.09961224392321637,-0.02356247869594527,0.5,0,
1.960522806081622,0.2513753125903952,-0.7126498653492134,0.5,-0.6500750619466676,-0.5022668055340296,1.2599793997380984,-1.212641573686707,-0.14227054912471782,0.5,-0.6325574604090354,-0.3946472408187518,0.5,0.7224096707824014,-0.1731046092268429,0.5,-0.09846717927091914,0.2998762134552987,0.5,0,
1.968524939983996,0.24496976952712415,-0.5337871804274742,0.668779211248684,-0.6544416434074708,-0.2392382110015523,0.5,-1.2146429087989885,-0.4455082162196644,0.5,-0.6363641970707911,-0.4381418867936415,0.5,0.7261916712746227,0.10991767267060082,0.5,-0.09481422450793159,-0.001647033071623151,0.5,0,
1.9765270738863698,0.2428347177035556,-0.2023712818099068,0.5,-0.6539028733226925,-0.2755778141532439,0.5,-1.2197697051462217,-0.21971090962918938,0.5,-0.6395677305977336,-0.12775406621734486,0.5,0.724168353545131,-0.2612826420560349,0.5,-0.0984935318000651,-0.10019360825073813,0.5,0,
1.9845292077887438,0.24173182901816564,-0.2570910123018827,0.5,-0.6588508884339227,-0.3460766728256154,0.5,-1.2181582833530555,-0.06802117579986222,0.5,-0.6384082621302686,-0.15430731396604697,0.5,0.7220111490017261,-0.27341402229877354,0.5,-0.0964173222399434,0.078812381673698,0.5,0,
1.992531341691118,0.23872126150672549,-0.45144453817865493,0.5,-0.6594401000879023,-0.3736261829151988,1.285406973956755,-1.2208580439590195,-0.12876479397679053,0.5183510009219692,-0.6420366476211904,-0.356739020965377,0.5,0.7197937291883506,-0.16705848102577942,0.5,-0.09723253369328594,-0.011613462207714538,0.5,0,
2.0005334755934916,0.23450871640730717,-0.45752763848775146,0.5,-0.6648289073605659,-0.6502483973847561,1.0564111184901006,-1.2202185200566842,-0.45775038625420206,0.5,-0.6441160864657146,-0.14379846842273863,0.5,0.7193382133053137,-0.29213242401737033,0.5,-0.09660313763526683,0.029108591459929556,0.5,0,
2.0085356094958655,0.23140081929092146,-0.2776960501338632,0.5860721062813474,-0.6698440744460584,-0.4511971457578645,0.5,-1.2281820501390868,-0.46342076552381706,0.6143481659253428,-0.6443374231159542,-0.0695952691961571,0.5,0.7151196104040727,-0.4030442572262871,0.5,-0.09676679622992707,0.0017909965933449526,0.5,0,
2.01653774339824,0.23006557960516535,-0.5476454523067331,0.5,-0.6720480616926917,-0.4044794498753654,1.0754727304559313,-1.2276332523050653,-0.0530566450959169,0.5,-0.6452296107728531,0.08951829374853615,0.5,0.7128895051896931,0.04609057818507484,0.5,-0.09657448168977331,0.3677956596159189,0.5,0,
2.024539877300614,0.22263849205401373,-0.35280908253408455,0.5,-0.6763157456440643,-0.1775310363965263,0.8428857145537532,-1.2290309564606214,-0.44980534246258363,0.5,-0.6429051304159776,-0.45227190887046215,0.5,0.7158570596550339,-0.08749943961005452,0.5,-0.09088206567607236,0.3995327510604562,0.5,0,
2.0325420112029877,0.22442063428462,-0.3323110651753079,0.5,-0.6748885582750361,-0.3522370052077631,0.5676314253035415,-1.2348301377844666,-0.27711537047937773,0.5146563501649205,-0.6524659613147805,-0.4764513623067429,0.5,0.7114895141559322,-0.4037206879401248,0.5,-0.09018195767280601,-0.27497125218981994,0.5,0,
2.0405441451053616,0.2173215150112088,-0.5036860430177644,0.5,-0.6819515377273885,-0.49345965796471214,0.5,-1.2334648023882915,0.04061732875633439,0.5,-0.6505283522128855,0.0991690279739249,0.5,0.7093975286479919,-0.3824993948403979,0.5,-0.09528160571110948,-0.13125196669229802,0.5,0,
2.0485462790077356,0.21636165759633577,-0.4050953593841,0.5,-0.6827839128024715,-0.4505576123747593,0.5,-1.2341802605243652,-0.19967354392891323,0.6060434725252979,-0.6508792568671977,-0.36786333087408113,0.5,0.7053695238384858,-0.18744235346309507,0.5,-0.09228198913988278,0.1923393759702295,0.5,0,
2.0565484129101095,0.2108399892610632,-0.4499516691553757,0.5,-0.6891604595253846,-0.5104601601635741,0.7624720165335406,-1.236659579091154,-0.5431859186629945,0.5,-0.6564141655068708,-0.34276603034369413,0.5,0.7063984509925824,-0.039012969191239144,0.5,-0.09220417569558581,0.10573814154235094,0.5,0,
2.0645505468124834,0.20916243088984976,-0.39241435219017695,0.5,-0.6909512753650887,-0.35598061516608354,0.6822672538017113,-1.2428712352229732,-0.5851971128692929,0.7106954815990784,-0.6563635133526968,-0.009892293005769881,0.5,0.704745316331426,-0.20263011540491704,0.5,-0.09059017887520517,0.24190273170888316,0.5,0,
2.0725526807148573,0.20456135962602037,-0.42575814097821524,0.5,-0.694856149368042,-0.24057962547213707,0.5476742126903946,-1.2460227328970628,-0.13910542297872197,0.5,-0.6565724421949631,-0.35261590366478246,0.5,0.7031563691461037,-0.33721732714535324,0.5,-0.08833373198824368,0.25126642290906626,0.5,0,
2.0805548146172312,0.20235030063419832,-0.26881686161119367,0.5376323006169822,-0.6948005493726429,-0.34748362678990036,1.4054718779686577,-1.2450969219906327,-0.4145772710278661,0.5,-0.6620053678113333,-0.18462156177791178,0.5,0.6993498390971004,-0.10280935013423642,0.5,-0.0865699161086601,0.16263662154728573,0.5,0,
2.0885569485196056,0.20026028984024127,-0.5524796233110588,0.5,-0.7004158873966804,-0.6584978582638151,1.6354179611606208,-1.2526559692335086,-0.5953000707741157,0.5224860717560467,-0.6595263871834097,-0.053634448467461404,0.5,0.7015114195439559,0.18742735460790944,0.5,-0.08573154604348711,0.19664163370840868,0.5,0,
2.0965590824219795,0.19351062666122137,-0.7357634783681996,0.5,-0.705336515104864,-0.31181546130300275,0.9655522352255465,-1.2546217231230186,-0.31124202681195867,0.5,-0.6628635189868127,-0.22677364934513278,0.5,0.7023486767708269,-0.36010709108177247,0.5,-0.08342364996932557,0.08897677489902618,0.5,0,
2.1045612163243534,0.18848807418635008,-0.5088178100001762,0.5,-0.7054049347775284,-0.4985724701368696,0.7188140613250726,-1.2576358416625,-0.23193872743990096,0.5,-0.6631547655729318,-0.17881814818440644,0.5,0.6957497060866475,-0.28673447170387417,0.5,-0.08430791764510269,-0.11751542791515415,0.5,0,
2.1125633502267274,0.18536954170121855,-0.4618369357303857,0.5,-0.7133136746270539,-0.6149957627506683,1.0238949404403115,-1.258332742762057,-0.24671936392170468,0.5,-0.6657246093577632,-0.12996614195292383,0.5,0.6977609252235649,-0.39188978846721456,0.5,-0.08530389681596803,0.12120540842863302,0.5,0,
2.1205654841291013,0.1810986832146639,-0.29224456110238384,0.5,-0.7152448669815391,-0.4080230506049512,0.9823530208172836,-1.2615833514852473,-0.37441521120232246,0.5,-0.6652342238441786,-0.23684997119867435,0.5,0.6894794694711721,-0.3331051091216425,0.5,-0.08236863111024456,0.31018307247520327,0.5,0,
2.128567618031475,0.1806936287235804,-0.13653269789865896,0.6578573065146537,-0.7198420434367331,-0.6025877111700828,0.5,-1.2643233861412941,-0.5438898293630284,0.5,-0.669514208896942,-0.5912956991393908,0.5,0.6924312434776186,-0.0009945014515649886,0.5,-0.08034096765636478,0.05784904766863944,0.5,0,
2.136569751933849,0.17891416004828536,-0.5095451189082844,0.5694207085838131,-0.7248862703602604,-0.5218664969611625,0.5,-1.2702855887550557,-0.40619858909408946,0.5,-0.6746949550304089,-0.10247219590801826,0.5,0.6894635574479471,-0.4207091736803184,0.5,-0.08144304634754633,0.09540925653772278,0.5,0,
2.144571885836223,0.17254090682104786,-0.8147601466160885,0.720449065984433,-0.7281919073881117,-0.4697265149519944,0.9197673030077091,-1.2708225635667996,-0.21320986679945753,0.5650628832990424,-0.6711537640314703,0.2571984034081126,0.5,0.6856998966987335,-0.18281967092204088,0.5,-0.07881441955176122,0.1304788993122096,0.5,0,
2.152574019738597,0.16587799770242795,-0.4553168659804478,0.5,-0.7324018945994923,-0.28028489818998636,0.5,-1.273696946623847,-0.6265670913417343,0.9447432833637855,-0.6705797805758791,-0.00815672199611095,0.5,0.6865384427131944,-0.22059952619126605,0.5,-0.07935538395855098,0.15798925345426093,0.5,0,
2.160576153640971,0.1652558369653607,-0.29499550515632056,0.5,-0.7326764657591515,-0.36589001905936586,1.4029079446184407,-1.2808476370282673,0.04993993591106971,0.5,-0.6712842715834081,-0.09450585982186122,0.5,0.6821703042796733,-0.6337543456050101,0.5,-0.07628659149649304,0.25644535616628233,0.5,0,
2.1685782875433453,0.16115806961992682,-0.4862338774458165,0.5,-0.7382561349044422,-0.6857431112989587,2.306647760551059,-1.27289790764927,-0.10303611543371893,0.8338675218997235,-0.6720918743330289,-0.20472256761343288,0.5,0.6763983731835143,-0.04699263065906928,0.5,-0.07525225825989046,0.0396012109324358,0.5,0,
2.176580421445719,0.15747609492622763,-0.635665479554428,0.5,-0.7436483555399348,-0.18197040543035947,0.5,-1.2824962148752068,-0.7344354544961545,0.8248986979526297,-0.674559832665223,-0.307820562222845,0.5,0.6814184221891282,0.2592198985888611,0.5,-0.07565297212157407,0.3063610498218452,0.5,0,
2.184582555348093,0.15098742194705597,-0.4835547060495285,0.5,-0.741167661391328,-0.23572210152494194,2.5872143088339485,-1.2846488749212084,-0.21464992776316916,0.5,-0.6770170033285944,-0.1578917366662838,0.5,0.680545891560936,-0.2441557144748363,0.5,-0.07035048146274094,0.48204935569261687,0.5,0,
2.192584689250467,0.14973921962943518,-0.2669434377546055,0.7244335505586394,-0.7474199091643339,-0.8055014908577435,0.9890938762962538,-1.2859306137194175,-0.2715669871478643,0.5,-0.6770861004518836,0.043597448242664594,0.5,0.6775119307575308,-0.41567683017388474,0.5,-0.0679401824304922,0.12318290829206167,0.5,0,
2.200586823152841,0.14671632694298228,-0.5864230116738416,0.83663119022975,-0.7540556852450518,-0.5941478261687407,0.8377481663427145,-1.2889939467155742,-0.39240389762409955,0.5,-0.6763194441567117,-0.0017031438751674566,0.5,0.6738950622781539,-0.4106004808294081,0.5,-0.06837955493006795,0.039622069676651175,0.5,0,
2.208588957055215,0.1403564514426537,-0.1778988883161369,0.5,-0.7569262743830337,-0.45014280417330493,0.5,-1.2922090760814031,-0.3567740875654729,0.5,-0.6771133507538862,-0.10751306320486848,0.5,0.6709423230642603,-0.24438099184937584,0.5,-0.06730622931566578,0.08845876445290074,0.5,0,
2.2165910909575888,0.1438699447299241,-0.07886199173760128,1.3171210153157131,-0.7612579701118247,-0.3722375188276658,0.5,-1.2947023321166218,-0.41976058860890286,0.5,-0.6780396531679896,-0.09764834870542444,0.5,0.6699849664085639,-0.22935615446241508,0.5,-0.06696421469882154,0.0674846836299578,0.5,0,
2.2245932248599627,0.1390946595748521,-0.8072482752364049,0.5,-0.7628820746842764,-0.4350250394644928,0.5,-1.2989252454991456,-0.5193975854000388,0.5,-0.678675724333173,-0.31751649118398617,0.5,0.6672726245928616,-0.16548057198698118,0.5,-0.06622647437758646,0.39802811795728144,0.5,0,
2.2325953587623366,0.13095397232614162,-0.6310020952675441,0.602081127762706,-0.7682183707432566,-0.4791290178068619,1.3566857047727052,-1.3030126934830224,-0.40264861661384876,0.5,-0.6831199170269334,-0.29172775319854377,0.5,0.6673372772567722,-0.27581695467105566,0.5,-0.06059576481150503,0.43547059459124937,0.5,0,
2.240597492664711,0.12899862605057139,-0.3634178706243465,0.5,-0.7705481389691862,-0.7567228877348522,0.84666152386717,-1.3053676233649671,-0.31331872452985965,0.5,-0.6833433683843497,-0.23292822503440808,0.5,0.6628595533181247,-0.2819443465769608,0.5,-0.059258944864126466,0.097025520166257,0.5,0,
2.248599626567085,0.12513928639615207,-0.5240775995976558,0.5,-0.7803259369470142,-0.6102464884002873,2.80357261308625,-1.3080257930755002,-0.19855687682880652,0.5,-0.686846768627484,-0.0367655990612184,0.5,0.6628261677115408,0.03650941557160198,0.5,-0.05904335648884492,0.2902314371497944,0.5,0,
2.256601760469459,0.1206133844570089,-0.6693616875441868,0.5912483984412912,-0.7803120827835908,0.014344245142378087,1.2876549149529948,-1.308544533394228,-0.3201968111213732,0.5,-0.6839316179693292,-0.03906684060409754,0.5,0.6634437039672704,-0.32805303971121524,0.5,-0.054615241869729755,0.21734001547437903,0.5,0,
2.2646038943718327,0.11442949939544508,-0.38328214155701046,0.5,-0.7800964290247362,-0.2659787257313431,2.216387719608764,-1.3131489420534421,-0.5266441538755301,0.5724086089848044,-0.6874718380771495,-0.23214130339156008,0.5,0.6575773190761613,-0.575028663262235,0.5,-0.055565916241254856,0.07173448502193142,0.5,0,
2.2726060282742067,0.11448087019209673,-0.1993613178079938,0.8366238570830339,-0.7845677423952923,-0.7496687688366976,1.5971098568296203,-1.3169708398562365,-0.11906072523704125,0.5,-0.6876458788235942,0.034127872847337926,0.5,0.6542432453550746,-0.09075577215706537,0.5,-0.05346749010937885,0.057680922715238905,0.5,0,
2.2806081621765806,0.11123971831051718,-0.6184010497661289,0.5,-0.7920911293261234,-0.41112568897903184,0.5,-1.3150539136572348,-0.3676295744201169,0.5,-0.6869257921115921,-0.13034673000223568,0.5,0.6561252267216483,-0.09243218849748491,0.5,-0.054643021477811034,0.14360920599130197,0.5,0,
2.2886102960789545,0.10458645339583866,-0.4748503449198962,0.5,-0.7911457534189568,-0.3789148070945103,1.0968064719907473,-1.3228529130469584,-0.5856675788036697,0.5663283995474954,-0.68973142650363,-0.2342711980370185,0.5,0.6527643303391149,-0.26826621972544235,0.5,-0.05116974281351802,0.5116704920828538,0.5,0,
2.2966124299813284,0.10364211279179884,-0.5315985152086382,0.5,-0.7981537662396355,-0.6019029189800115,0.5,-1.3244245949180935,-0.2759965015975696,0.5,-0.6906741312801844,-0.027379884791324527,0.5,0.6518329672060412,-0.3024791867054302,0.5,-0.046456293604485374,0.11415124624829112,0.5,0,
2.3046145638837023,0.09608087715250045,-0.5078269917128632,0.5,-0.800776200122637,-0.5980177779783269,1.0327876980126893,-1.3272688570725195,-0.05164273799414254,0.5254920589916179,-0.6901695046602911,0.12201718182537624,0.5,0.647924663351828,-0.09351842625057033,0.5,-0.04934332287354536,0.21141815369879555,0.5,0,
2.3126166977860763,0.09551688092439303,-0.5547790374181788,0.5,-0.8077220506872888,-0.39592546477364154,0.894252007350717,-1.3252508787259998,-0.4376941115298988,0.5,-0.6887218563709784,-0.2239998688099848,0.5,0.6503366723860321,-0.10296842965565323,0.5,-0.043073603145304645,0.2139252293558826,0.5,0,
2.3206188316884506,0.08720441255380959,-0.6757490563719459,0.8615348407766761,-0.8071110075590152,-0.5749577885283824,0.7081476443515914,-1.334271962856998,-0.6946308677411445,0.5,-0.6937535025612509,-0.420306378419541,0.5266585627829243,0.6462771684773375,-0.4924335121178694,0.5,-0.04592051920385124,0.19258262453862715,0.5,0,
2.3286209655908245,0.0847048960224419,-0.23059806654200393,0.5,-0.8169213753037429,-0.7192165406606568,0.8444114546651147,-1.336364972609858,-0.5752222919914174,0.5128958850131669,-0.695446758425691,0.26407451978772284,0.5,0.6424577361921462,-0.3260490621385323,0.5,-0.03999228115268661,0.3394150169761683,0.5,0,
2.3366230994931985,0.08351484348913753,-0.33838019866904656,0.5699048530352004,-0.8186184722095857,-0.5612173551314616,0.9219216504303013,-1.3434755195288606,-0.33737938773674425,0.7352131381696572,-0.6895283102446473,0.1508784950830025,0.5,0.641060383483121,-0.26728314573366135,0.5,-0.04048987893223255,0.0876258582353448,0.5,0,
2.3446252333955724,0.07929081284373715,-0.584630188709031,0.5,-0.8259008529858463,-0.3842193737702282,0.5,-1.341763042813646,0.17099100435002956,0.8205753885259462,-0.693032702504363,-0.2990659433335374,0.5,0.6381812058604076,-0.44780741529279466,0.5,-0.038590267420921094,0.31727575739556607,0.5,0,
2.3526273672979463,0.07416076046979303,-0.4846510041311659,0.5473912870713219,-0.8247659821899094,-0.3657731378562054,0.5164289265299632,-1.34073966345926,-0.4268883609511026,0.5,-0.6943133653379839,-0.3971799506874221,0.5,0.6338954648384363,-0.31670370284620636,0.5,-0.03541346681390349,0.23351679663748126,0.5,0,
2.3606295012003202,0.0715363967776385,-0.7205686490514337,0.5002324352802624,-0.8317532231915455,-0.46939438077422957,0.7854347767854724,-1.3485932565888636,-0.5827882418928121,0.5,-0.6993875817153618,-0.37328166417524566,0.5,0.6331139466148683,0.1789036917635642,0.5,-0.034853998674721394,0.18495196715669504,0.5,0,
2.368631635102694,0.06263166208497009,-0.5177129595377783,0.5,-0.832276292282297,-0.3182793838404502,2.1314422269979407,-1.350064275329545,-0.3332167322294688,0.5,-0.7002858719647879,0.06063463689785081,0.5,0.6367579239066533,-0.29295104919400267,0.5,-0.03245423533939637,0.17906318636317936,0.5,0,
2.376633769005068,0.06325298942503405,-0.42423383635704437,0.5,-0.8368456933329927,-0.7931198110683463,2.039852733513446,-1.3539247243045351,-0.37602262885697013,0.5,-0.6984174275249961,0.19755849906196582,0.5,0.6284267298277643,-0.3594710961486308,0.5,-0.031988987692910524,0.23231282794178015,0.5,0,
2.384635902907442,0.05584392070325738,-0.5618626251671305,0.5,-0.8449662092593906,-0.36966842847926257,0.5,-1.3560806373912566,-0.4539652553899737,0.5,-0.6971249359797964,0.20598748452386323,0.5,0.6310063863682752,-0.10573793337224219,0.5,-0.028737230092327887,0.32808331958150067,0.5,0,
2.3926380368098163,0.05426318742235996,-0.5718559163231849,0.5,-0.842760388188661,-0.2944863540564821,1.1265312884236185,-1.3611881683907747,-0.35852661905827476,0.5,-0.6951216277726143,0.02475168870155059,0.5,0.6267349228938084,-0.34279935113593757,0.5,-0.026739654579606514,-0.0006777633352144079,0.5,0,
2.4006401707121903,0.04669422604208642,-0.5689769017942982,0.5,-0.8496779909242943,-0.5219215203488142,0.5775043228958446,-1.361817063296189,-0.4665614074733093,0.5,-0.6967289089605716,-0.3722452318327893,0.5,0.6255215967501002,-0.15009362551527544,0.5,-0.028748074305691318,0.203401802317879,0.5,0,
2.408642304614564,0.045159556993651186,-0.4281322961665526,0.5,-0.851111132514242,-0.41927478404121116,1.2294544022387381,-1.3686531509103477,-0.7152865876969283,0.6655414103597173,-0.701077551481939,-0.11222550135920467,0.5,0.624333424885564,-0.4667509184120844,0.5,-0.02348522574252045,0.5175998606984735,0.5,0,
2.416644438516938,0.03984410930342158,-0.46499874207443476,0.5,-0.8563863874689537,-0.6822378366770839,0.5,-1.3732616486993399,-0.2861140171610682,0.5,-0.6985245169823189,0.12220972439979522,0.5,0.6180535820555069,-0.3716207860577775,0.5,-0.02046647653451574,0.3539427601834983,0.5,0,
2.424646572419312,0.03771957712046023,-0.47679531687802895,0.5,-0.8620269379010753,-0.6035908536562509,1.1667165784179536,-1.3732309751849248,-0.14989701171437553,0.5,-0.6991221958915422,0.23638959845292268,0.5,0.6183874923086395,-0.23063270833879185,0.5,-0.017822141579584477,0.19455662478472854,0.5,0,
2.432648706321686,0.03221538423337312,-0.5281786781397898,0.5,-0.8660438411274537,-0.37250872899049353,1.5702508036485596,-1.3756600008867699,-0.38652324738334964,0.5,-0.6947422834070721,0.18380264427717008,0.5,0.6143634587220862,-0.28377923600769045,0.5,-0.017353570537960085,0.023607024764176095,0.5,0,
2.44065084022406,0.029268718270223593,-0.6281136150880005,0.5,-0.8679870775649232,-0.7085333592640741,0.5,-1.3794153471430584,-0.19739544388384933,0.5,-0.6961813535831075,-0.2651703266599373,0.5,0.6138470245325165,0.005691795119222576,0.5,-0.01744442918335766,0.2607927238245729,0.5,0,
2.448652974126434,0.02216556639196511,-0.36720900683339547,0.5,-0.8773803748756789,-0.7135840144671598,1.844197881374911,-1.3788183279889115,-0.2025911832776034,0.5,-0.6989850086336311,-0.07483301134100784,0.5,0.6144545274439938,-0.22579951869100556,0.5,-0.013180886956766918,0.3246469383625719,0.5,0,
2.4566551080288077,0.023393374160889265,-0.41183597035350733,0.5,-0.8794044217963978,-0.318591211457539,1.597982635622795,-1.3826568060755,-0.5300615850489659,0.5,-0.6973786817645636,0.10526198242775953,0.5,0.6102342322334604,-0.4152738943039025,0.5,-0.012250078169556509,0.30093215695849923,0.5,0,
2.4646572419311816,0.015576190866308993,-0.5552765086616133,0.5,-0.8824778342589995,-0.6731777784320033,0.5,-1.387299313349695,-0.428052593959255,0.5,-0.697300816914787,-0.10295436391843937,0.5,0.6078101451351313,-0.37822193378993924,0.5,-0.008365972445430931,0.17980039212324309,0.5,0,
2.472659375833556,0.014508950022303452,-0.4431844220473308,0.5,-0.8901752662513098,-0.6553676787609194,1.7451612514691728,-1.389505647578848,-0.24561066327435932,0.5,-0.6990259515872587,-0.28726084813165964,0.5,0.6041826812928214,-0.034930778673648855,0.5,-0.00937327189558462,0.2409546718709041,0.5,0,
2.48066150973593,0.0084852401135517,-0.44317863822484055,0.5,-0.8929637171191742,-0.25570345685600737,0.6649693748723208,-1.3912290839620847,-0.37205976139435826,0.5,-0.7018969904848935,0.12659197334020933,0.5,0.6072512526763529,-0.04656196133403373,0.5,-0.004510697695496465,0.41712824889001743,0.5,0,
2.488663643638304,0.007418091810706003,-0.4067547683720516,0.611068321881731,-0.894266521561006,-0.3910832072969578,0.5,-1.3954586037611578,-0.36142802661268125,0.5,-0.6970004800138153,0.26437010967218094,0.5,0.6034376899114768,-0.46834504084432294,0.5,-0.0026992199133443404,0.25845069551150746,0.5,0,
2.4966657775406778,0.001977163819598875,-0.710259238223741,0.5,-0.8992210484359255,-0.4511237379996383,0.5093053908150713,-1.3970119323878876,-0.655682169823632,0.5,-0.6976670687301386,0.004895353281547665,0.5,0.5997577320228438,-0.2682100420345751,0.5,-0.00037548656731234626,0.21658870080141504,0.5,0,
2.5046679114430517,-0.003946056000873855,-0.638447726272216,0.5,-0.9014845013690002,-0.5332464098093542,1.0504127512938157,-1.405949518478336,-0.5266979520768267,0.6728491948303803,-0.6969221543613106,-0.4511359505609616,0.5,0.5991463292389236,-0.14917402558187187,0.5,0.0007661992994783002,0.14754804792081302,0.5,0,
2.5126700453454256,-0.008237999800756582,-0.396660650580523,0.5,-0.9077529909928752,-0.7236320766762783,1.5935814943519975,-1.4054390996211168,-0.08685756678393497,0.5,-0.704885243939114,-0.05600422502528846,0.5,0.5973709476135338,-0.2737219155918083,0.5,0.001985282199420662,0.40390564590258676,0.5,0,
2.5206721792477995,-0.010292626410162223,-0.3763377389016016,0.5,-0.9130626145958206,-0.36747823611241875,1.8308229135433987,-1.407339239546879,-0.4295210416629808,0.5,-0.6978182219617152,0.15858328371895491,0.5,0.5947667785894547,-0.39427905974200733,0.5,0.007228689633919688,0.43662798989956886,0.5,0,
2.5286743131501734,-0.014259403623182208,-0.4457155823393078,0.5,-0.9136326427706739,0.03531575759142813,2.2383767206398266,-1.4123114362877245,-0.30215470532793387,0.5,-0.7023479113996107,-0.19738949399193684,0.5,0.5910624826576617,-0.1299560047077694,0.5,0.008971330037813764,0.02241938715196102,0.5,0,
2.5366764470525474,-0.017424075727591148,-0.5317412670200413,0.5,-0.9124975624743578,-0.46487112850369244,1.8328377205017614,-1.4121737148321258,-0.3634539477002513,0.5026168059784638,-0.7009764538655862,0.25061900154178807,0.5,0.5926874825141304,-0.2247389018295992,0.5,0.007587399828351065,0.11929162217981103,0.5,0,
2.5446785809549217,-0.02276726389550287,-0.6211718732240662,0.5,-0.921070580826733,-0.8541963307005102,0.5,-1.4181266994509285,-0.7152194310538623,0.5,-0.6983380073749421,0.0671988941148699,0.5,0.5874666602283881,-0.2965711427560039,0.5,0.01087999599269074,0.4268331901793968,0.5,0,
2.5526807148572956,-0.027362825699176207,-0.5255574751294424,0.5,-0.9261647037655659,-0.8768841300159715,1.1541273962325658,-1.4236172257289876,-0.44399701694651517,0.5,-0.6999012715597482,0.07744391598710904,0.5,0.5879423442300343,-0.09536669833645761,0.5,0.014416730871221414,0.48951911151639227,0.5,0,
2.5606828487596696,-0.031176183497573947,-0.45883304041036155,0.5,-0.9351007269069885,-0.6505380070856644,1.100308231776427,-1.4252306517220727,-0.28474806550105036,0.5,-0.6970989047191484,-0.03251879366854976,0.5,0.5859407930550048,-0.32309507494379663,0.5,0.018712301776953016,-0.21345181852746936,0.5,0,
2.5686849826620435,-0.03470415434574199,-0.30744116433420604,0.5,-0.9365733118789366,-0.4054537448986359,0.6476515511164547,-1.4281731947770044,-0.11768297140263284,0.5,-0.700421572258445,-0.10803974699698932,0.5,0.5827728230309336,-0.3714547916440214,0.5,0.011001501774781904,-0.05434552363091588,0.5,0,
2.5766871165644174,-0.036095242126921244,-0.47719286558782537,0.575528039372793,-0.9415879868253667,-0.5279110363436076,1.3238417982549946,-1.4271135792645149,-0.16530537249100086,0.6907888933914708,-0.6988275406711002,-0.18410880153504894,0.5,0.5799975163887005,-0.18322114856626076,0.5,0.017842773398858362,0.581421425906046,0.5,0,
2.5846892504667913,-0.0423392401951472,-0.7850458394381863,0.7789070914635267,-0.9450198884604343,-0.2576812364588621,0.816080795967268,-1.4308180807368605,-0.7156350466926142,0.5,-0.7033673130830058,0.02544346896726085,0.5,0.5798412846538734,-0.29273001394931886,0.5,0.02030424458927864,0.07667102326774879,0.5,0,
