samirx20/RADAR/web/public/data/datasets/vibration_j1_65.csv
timestamp,actual_q_0,actual_qd_0,actual_current_0,actual_q_1,actual_qd_1,actual_current_1,actual_q_2,actual_qd_2,actual_current_2,actual_q_3,actual_qd_3,actual_current_3,actual_q_4,actual_qd_4,actual_current_4,actual_q_5,actual_qd_5,actual_current_5,protective_stop,fault_code
0.0,0.20134756174522636,0.16977014661440776,0.2,-0.603118251468339,0.9900485948444865,0.2,-1.0022533360939643,1.2726827363883502,0.2,0.0001493096331600482,1.833104312574297,0.2,0.5027248414067709,-0.14855020575367528,0.2,-0.3023719611585075,0.3613060823377881,0.2,0,
0.008002133902373967,0.20270572291814162,0.16219461749079553,0.2,-0.5951978627095831,0.9718216276869903,0.2,-0.9920718742028575,1.2867556824142505,0.2,0.014814144133754426,1.4893795258598475,0.2,0.5015364397607415,0.3166588385189184,0.2,-0.2994815124998052,0.14365740115373712,0.2,0,
0.016004267804747934,0.2039426756250791,-0.010163593403894264,0.2,-0.5875691054253471,0.9054704119884557,0.2,-0.9816652451753363,1.492769843139362,0.2,0.02397938204691761,1.602033311165577,0.2,0.5077913828230736,0.457162738037184,0.2,-0.3000734427400477,0.08871794216608678,0.2,0,
0.0240064017071219,0.20254310542367931,0.04826968724439863,0.2,-0.5807103361177678,0.8704391022576474,0.2,-0.9681875567126277,1.4437826086010561,0.2,0.040446677112403656,2.021457686008373,0.2,0.5088510435693364,0.5602399682502757,0.2,-0.2980620254251478,-0.017975578473494735,0.2,0,
0.03200853560949587,0.20471499062098947,0.23718072362777057,0.2,-0.5736420797892248,0.870644656895729,0.2,-0.9585647234377194,1.1135090720289786,0.2,0.05632270502305158,1.757970861511039,0.2,0.516755222315078,0.48936954013348993,0.2,-0.30036105199562363,0.1848472239929337,0.2,0,
0.04001066951186984,0.20633799700172364,0.3800780784579405,0.2,-0.5667800216074361,0.9882503146311991,0.2,-0.950371411560164,1.3104187629164321,0.2,0.06857421089658028,1.4649950259377533,0.2,0.5166809562114723,0.07113115753033111,0.2,-0.2951044698412609,0.04191165935637717,0.2,0,
0.0480128034142438,0.21079623987631652,0.11804030935335351,0.2,-0.5578300747551256,1.0609816048468557,0.2,-0.9375980232310565,1.269143892964092,0.2,0.07976262543805564,1.5289053785772855,0.2,0.5178933208355633,0.39410318515605697,0.2,-0.2996904654459216,0.0993889838241599,0.2,0,
0.05601493731661777,0.2082266419513773,0.03523200699573695,0.2,-0.5498043159298864,0.7254618014410005,0.2,-0.9300651092727386,1.1977705965803345,0.2,0.09303669695381685,1.8325471326908136,0.2,0.5229866071739692,0.6890661871169559,0.2,-0.2935142461000743,0.34627898792071937,0.2,0,
0.06401707121899174,0.2113599519882483,0.42880599600747527,0.2,-0.5462226859320696,0.6134573746182787,0.2,-0.9184336936857711,1.3562541755743271,0.2,0.10908337956110865,1.4176317088570936,0.2,0.5289183798294346,0.3960077644324586,0.2,-0.2941500016391901,-0.20480502983873106,0.2,0,
0.0720192051213657,0.2150875378874969,0.004780815408288869,0.2,-0.539988997935994,0.5720924125323031,0.2,-0.9083650424635493,1.1000612620770054,0.2,0.11571880429553034,1.3779885912083594,0.2,0.5293227314048885,0.2427232928642123,0.2,-0.296791126577494,0.06266058753192152,0.2,0,
0.08002133902373967,0.21143644503478093,0.3039551642899027,0.2,-0.5370692073315527,0.8175904046212462,0.2,-0.900832713492539,1.1196154761722796,0.2,0.1311311970204424,1.9795296648442906,0.2,0.532801952515262,0.3606299264758833,0.2,-0.29314743223867934,0.2997471723648615,0.2,0,
0.08802347292611364,0.21995082051613535,0.5389434719217674,0.2,-0.526907551462054,0.8116484200896001,0.2,-0.8904511948447928,1.1497826937724789,0.2,0.147391278933039,1.5206321342852003,0.2,0.5350928102285026,0.4548560831351689,0.2,-0.29199517181965623,-0.2017149214485793,0.2,0,
0.0960256068284876,0.2200595405855292,0.16183979565848222,0.2,-0.5240828326101191,0.7574068459319724,0.2,-0.8824361903921794,0.9602352030400121,0.2,0.1554613111690056,1.3718941488142424,0.2,0.5400796498454247,0.37047341468395695,0.2,-0.2963748709818566,-0.13273688237728717,0.2,0,
0.10402774073086157,0.22254025724667106,0.29622271921148946,0.2,-0.5147890419271425,0.9643777342850309,0.2,-0.8750874315961527,1.059524831074056,0.2,0.16934158531406687,1.5710229174608625,0.2,0.541020384863446,0.37111024991527686,0.2,-0.2941189619376928,0.29152754282160337,0.2,0,
0.11202987463323553,0.22479910409291304,0.07051287922445366,0.2,-0.5086527888615586,0.5953124275652685,0.2,-0.8654837930949945,1.1217494976272848,0.2,0.1805976778483794,1.399145658044056,0.2,0.5460174138440691,0.5874989211632972,0.2,-0.29171043029671095,0.0255926707042331,0.2,0,
0.12003200853560951,0.22366846331426232,0.0038030322010856876,0.2,-0.5052640430860982,0.633051517993543,0.2,-0.8571394396341161,1.2160991327075446,0.2,0.19172791584277177,1.3898917216845756,0.2,0.5504203676020587,0.5063220326879877,0.2,-0.2937094792064251,-0.250145475946404,0.2,0,
0.12803414243798347,0.2248599526081304,0.24103362778511717,0.2,-0.49852396457366194,0.5435068886577299,0.2,-0.8460262069716737,1.3564580352035809,0.2,0.20283594539533262,1.6116728342900586,0.2,0.5541185663670769,0.18775826487862218,0.2,-0.2957127579118534,0.2320864378878365,0.2,0,
0.13603627634035745,0.2275250013588242,0.23826173476450446,0.2,-0.4965679328675745,0.73932966963847,0.2,-0.8354361110708588,1.1163004271135257,0.2,0.2175146811914127,1.6536497968354502,0.2,0.5534244998401167,0.14149393888648193,0.2,-0.2899960962002197,0.42800670466469276,0.2,0,
0.1440384102427314,0.22867214036436248,0.10911511684216779,0.2,-0.4866946898594464,0.963391954680582,0.2,-0.8281654001378573,0.8538736687612111,0.2,0.22929434214469982,1.2008665197769872,0.2,0.5563824693892606,0.3388188454873167,0.2,-0.28886465063721833,0.026671582919669812,0.2,0,
0.15204054414510537,0.22927084322829888,0.14195202422511224,0.2,-0.4811536615926852,0.5424532662830841,0.2,-0.8217741323706794,0.8794174736223223,0.2,0.2367285455078445,1.1596471666943646,0.2,0.5588456013679137,0.4450251308256853,0.2,-0.289569350873505,-0.06539249050024898,0.2,0,
0.16004267804747935,0.23094337275196428,0.16658199492116005,0.2,-0.47801543759891707,0.7214873528594256,0.2,-0.8140947205599002,1.0994230155006515,0.2,0.24784869681180965,1.2673405405303693,0.2,0.5635028714824716,0.2614110717826801,0.2,-0.2899109304852223,0.09900543623996005,0.2,0,
0.1680448119498533,0.23193615514703744,0.08999361762586713,0.2,-0.4696098639469344,0.7118846688475496,0.2,-0.804183364122669,1.2116047880322625,0.2,0.2570059941563304,1.3102832098976225,0.2,0.5630281785164366,0.18862949952432734,0.2,-0.28798526389366563,0.16218025135912237,0.2,0,
0.17604694585222727,0.23238327063397815,0.2969379101858214,0.2,-0.4666252828973563,0.6591847151965063,0.2,-0.794709043951384,0.8910455360230385,0.2,0.2688132281701716,1.4277750331351189,0.2,0.5665209434748608,0.2762720547719172,0.2,-0.28731604646347636,0.046716806129453586,0.2,0,
0.18404907975460125,0.23668716171001059,0.3686854377254051,0.2,-0.4590629085037903,0.5993009348308244,0.2,-0.7899266355463004,0.6319956960950875,0.2,0.2798503946864923,1.1172898596453067,0.2,0.5674485313927873,0.34868054500614143,0.2,-0.2872377949955944,0.04711684358731441,0.2,0,
0.1920512136569752,0.23828223763758463,0.06646491329252192,0.2,-0.4570364679400631,0.4574020824140677,0.2,-0.7845971128138626,0.9914722552823441,0.2,0.2866898659244965,1.1475096694181472,0.2,0.5720998321949591,0.34519316497784447,0.2,-0.28656217696607933,0.010225276887907558,0.2,0,
0.20005334755934917,0.23775060032269094,0.21447839222765025,0.2,-0.4517444751851652,0.5270835749737814,0.2,-0.7740630794617829,0.6421425149350374,0.2,0.29821054939718267,1.3638883301549143,0.2,0.5729716220324328,0.3677168259473562,0.2,-0.28707419056538785,0.0535095785974965,0.2,0,
0.20805548146172315,0.24171389191322704,0.2507625919812417,0.2,-0.4486031307404826,0.5852022570119603,0.2,-0.774322832574902,0.6705783933282846,0.2,0.30851207920697515,0.8456801617348526,0.2,0.5779833014101168,0.38882769347747814,0.2,-0.2857060237085194,0.1098873920243569,0.2,0,
0.21605761536409712,0.2417628017943908,0.23971964371973137,0.2,-0.44238123907297383,0.57902754028262,0.2,-0.7633338251685303,1.073634560387171,0.2,0.3117414319849403,0.7668842390623244,0.2,0.5791928651280724,0.2780223211116678,0.2,-0.28531599229299814,-0.11311007172203416,0.2,0,
0.22405974926647107,0.24554940621274274,0.347733473095746,0.2,-0.43933869009596066,0.22445689240235822,0.2,-0.7571446796087072,0.819146210234746,0.2,0.32078222703197234,1.1923463233601514,0.2,0.5824316585479035,0.18261136465697742,0.2,-0.28751578485607193,0.2477979318858438,0.2,0,
0.23206188316884505,0.24732653736392274,0.3771409082824889,0.2,-0.4387899287945361,0.6187040796553529,0.2,-0.7502274858047744,0.7845537606342503,0.2,0.33081897315870273,1.080772821481831,0.2,0.5821146469625841,-0.04701317669643379,0.2,-0.28135122538282464,-0.0359868807012359,0.2,0,
0.24006401707121902,0.25158366074526256,0.17781554831365967,0.2,-0.429439424821475,0.5621739362507878,0.2,-0.7445918194385592,0.6226607472066548,0.2,0.33807459217568164,0.8730832862192811,0.2,0.5816794477207605,0.1589547812540712,0.2,-0.2880915749472917,-0.24309702953740145,0.2,0,
0.24806615097359297,0.2501715861369413,0.08024657000186772,0.2,-0.4297951458145235,0.4105102892708427,0.2,-0.7402649138494679,0.40418978779235837,0.2,0.34478830573821123,0.8894155524716181,0.2,0.5846579234626492,0.5329821005074092,0.2,-0.28524077785542307,0.37152271812137744,0.2,0,
0.25606828487596694,0.25286760586529244,0.10207248513121117,0.2,-0.42287126019314153,0.5173276218796257,0.2,-0.7381247828338815,0.6136602048746331,0.2,0.35230524101522753,0.6998770034317598,0.2,0.5902071613288791,0.4181005715435254,0.2,-0.28214721145734967,-0.004589701354952569,0.2,0,
0.2640704187783409,0.25180474589904067,-0.029065134275921972,0.2,-0.4215179038644495,0.30838953658103574,0.2,-0.7304463505714738,0.8293147275514057,0.2,0.3559863377931194,0.6949615279514404,0.2,0.5913475326073456,-0.030320934491005758,0.2,-0.2853142130771023,-0.22359694976637964,0.2,0,
0.2720725526807149,0.2524025637168777,0.2217383420567015,0.2,-0.41793702760784496,0.445354163582292,0.2,-0.724855747193059,0.3919712031526315,0.2,0.3634246254624506,0.7492647815345795,0.2,0.589722026377023,0.07951054152194326,0.2,-0.28572476265361174,0.3640761955825029,0.2,0,
0.28007468658308887,0.2553525593719479,0.23632940753448226,0.2,-0.4143922372471328,0.3519554497289565,0.2,-0.7241748113210317,0.46784750724428864,0.2,0.36797457429767266,0.518483657754365,0.2,0.5926197012716967,0.08807799128772442,0.2,-0.27948899394778226,0.3926393807132736,0.2,0,
0.2880768204854628,0.2561838342374294,0.24070934320812726,0.2,-0.41230574041218165,0.10376876371636506,0.2,-0.7173701870771504,0.4586672662002522,0.2,0.3717203639865204,0.7003743891725,0.2,0.5911312742376266,0.30463068589827585,0.2,-0.27944253256219936,-0.1245124011053575,0.2,0,
0.29607895438783677,0.25920390886327793,0.324809858448221,0.2,-0.41273193702767097,0.2674577841799558,0.2,-0.7168361350618276,0.37829383227064306,0.2,0.37918056452443266,0.6588851680977142,0.2,0.5974937922460691,0.35342714394134833,0.2,-0.281481192365468,0.0029788041678961708,0.2,0,
0.30408108829021074,0.26138079197260095,0.1383091601035967,0.2,-0.40802641586530236,0.40338654411800967,0.2,-0.7113174857608201,0.3164068423191918,0.2,0.38226252667608385,0.2080390842764887,0.2,0.5967861085406881,0.07381299386991641,0.2,-0.279394871695513,0.1760138553843528,0.2,0,
0.3120832221925847,0.2614168554249355,0.22700889960441256,0.2,-0.4062777523217828,0.29740719937896076,0.2,-0.7117736255847206,0.45791341942195973,0.2,0.3825091898728565,0.22928105665686108,0.2,0.5986748001479878,0.15308083931830918,0.2,-0.27866497067931834,0.12654016773739826,0.2,0,
0.3200853560949587,0.26501293436627155,0.2069732685166109,0.2,-0.403267900675239,0.10162938596610521,0.2,-0.7039908710500687,0.2965543563532916,0.2,0.3859310235825936,0.8559721679271756,0.2,0.5992354019697811,0.08931000733321953,0.2,-0.27737022901171465,-0.10165338923734737,0.2,0,
0.32808748999733267,0.26472842772120125,0.07933086160404404,0.2,-0.40465168214632513,0.006521031064563032,0.2,-0.7070287558830679,-0.11889234620567068,0.2,0.3962047445596913,0.6168921311545638,0.2,0.6001037602653193,0.007875711280927455,0.2,-0.2802914249071159,-0.007564925378997223,0.2,0,
0.3360896238997066,0.26628222815193625,0.005263388519017448,0.2,-0.403163564178206,-0.11469935324454408,0.2,-0.7058931485893595,0.27313402064494535,0.2,0.39580129768106664,-0.10053077234947749,0.2,0.5993614133502759,0.13566488678899008,0.2,-0.2774912678177786,0.12263524210887403,0.2,0,
0.34409175780208057,0.26481264193750553,0.24450190439864739,0.2,-0.40648687179823784,0.045404302522936146,0.2,-0.7026586115527488,0.1869044829174646,0.2,0.39459625220209965,0.0035150500743118263,0.2,0.6022743984539431,-0.09022480539114253,0.2,-0.2783292610333739,-0.07526318295796378,0.2,0,
0.35209389170445454,0.2701942586223146,0.427781132025129,0.2,-0.402437095337839,0.30167539250820424,0.2,-0.70290267686268,0.23732970956512334,0.2,0.39585753848225563,0.10228059984853516,0.2,0.5979178164640176,-0.10160138249241946,0.2,-0.27869547874510603,0.07956981724155376,0.2,0,
0.3600960256068285,0.2716571400499076,0.3171137105425145,0.2,-0.40166006551810657,0.21668606289241416,0.2,-0.6988613361997068,-0.039196563400609175,0.2,0.3962327417996762,0.21273369046771393,0.2,0.6006487763340644,0.08996281140755125,0.2,-0.27705614395750905,0.19132436838305983,0.2,0,
0.3680981595092025,0.27526807799099484,0.29568616574621176,0.2,-0.3989701183315604,0.04221613886344622,0.2,-0.7035298218770898,0.16272561759621967,0.2,0.39926127752973906,0.3140448656692822,0.2,0.5993572214465385,-0.06123507202610706,0.2,-0.27563428885097707,-0.008057716857648445,0.2,0,
0.37610029341157647,0.276388118701847,0.04317047111589492,0.2,-0.40098460729629143,-0.019634551220532037,0.2,-0.6962577263181673,-0.0076693634255484144,0.2,0.40125745965038473,0.08514356465741738,0.2,0.5996690151816467,0.09164945728051127,0.2,-0.2771850674272314,-0.10121474293474722,0.2,0,
0.3841024273139504,0.27595880552884916,0.034079363557131676,0.2,-0.3992842711510889,-0.10176703071294521,0.2,-0.7036525316918986,-0.1408620508956751,0.2,0.40062357456425773,-0.21735418164736328,0.2,0.6008236127630266,-0.09409252063610762,0.2,-0.277253724737933,0.02110668819361311,0.2,0,
0.39210456121632437,0.2769333885187611,0.2614948001659796,0.2,-0.40261287978769855,-0.1364940207039811,0.2,-0.6985115191324981,0.12458991683001602,0.2,0.3977797927440269,-0.44699828164222394,0.2,0.598163534851469,0.0013166365566488758,0.2,-0.2768473604161336,0.12348412373750992,0.2,0,
0.40010669511869834,0.28014272233150483,0.24581728337029485,0.2,-0.4014681754823526,0.09914896297700398,0.2,-0.7016590930226183,-0.18712849463838055,0.2,0.39347160205798215,-0.1590279329488943,0.2,0.600844678947933,0.13496984977396514,0.2,-0.27527797875813287,0.060530100332554376,0.2,0,
0.4081088290210723,0.2808664650526858,0.2520810558380368,0.2,-0.4010264963800665,-0.01955362352862311,0.2,-0.7015055750467122,-0.1275510025709331,0.2,0.3952353458168446,0.0952989339746968,0.2,0.6003230524478524,-0.048571246027341586,0.2,-0.27587887881081274,0.3183629720552722,0.2,0,
0.4161109629234463,0.2841760192249134,0.45002167968194795,0.2,-0.40178103345881055,-0.4052879378979926,0.2,-0.7036999090637532,-0.2902765532673268,0.2,0.3949963850015773,-0.1227906254502864,0.2,0.6000675390114956,-0.2589720358286973,0.2,-0.2701841712052485,0.14968549808729026,0.2,0,
0.42411309682582027,0.288066811927597,0.16008732822190078,0.2,-0.40751110338643437,-0.45664577285853614,0.2,-0.7061499998989894,-0.10602963923492248,0.2,0.39327069580964,-0.2018199637185518,0.2,0.5961794998745933,0.10993434183696749,0.2,-0.2734839108414161,0.08743163975843266,0.2,0,
0.43211523072819424,0.28673741647646384,0.09528699846621941,0.2,-0.40908736582454713,-0.14756462709853216,0.2,-0.705396383291512,-0.08988129172139009,0.2,0.39176726558208047,-0.4318402123413556,0.2,0.601826488480887,-0.16243387883729116,0.2,-0.2687852649691136,0.4191470356896161,0.2,0,
0.44011736463056816,0.2895914039030565,0.2682605062884688,0.2,-0.4098721374200109,-0.04027696228510111,0.2,-0.7075881005665317,-0.4919051410434139,0.2,0.38636125241217834,-0.7805146201944925,0.2,0.5935805578131966,-0.4008087111186734,0.2,-0.26677755827038224,-0.24966208158000783,0.2,0,
0.44811949853294214,0.29102958457707934,-0.06428056477516403,0.2,-0.40973179722110875,-0.09732328301748777,0.2,-0.7132668655482066,-0.6793028203406978,0.2,0.3792790316589686,-0.6615064330034691,0.2,0.5954135491029883,0.12065563000448337,0.2,-0.2727798582743937,-0.17687551004016977,0.2,0,
0.4561216324353161,0.28856291486665386,0.04775821064902791,0.2,-0.4114293099482907,-0.04234595234706151,0.2,-0.7184569456919828,-0.34812725074893913,0.2,0.37577714948412283,-0.31454303457389626,0.2,0.5955110478932684,-0.18533852507116033,0.2,-0.26960756643102496,0.18351914909840034,0.2,0,
0.4641237663376901,0.2917937159474638,0.2608044553367751,0.2,-0.41040933245866174,-0.33335999555225704,0.2,-0.7188369015601896,-0.4807177612658822,0.2,0.37424634310578625,-0.49364190331779856,0.2,0.5924481327018497,-0.1762627211198478,0.2,-0.2698435518888193,-0.050337777411528506,0.2,0,
0.47212590024006407,0.29273578615204227,0.33265625785381875,0.2,-0.4167630698771268,-0.5060446153365601,0.2,-0.7261484298722369,-0.6494222797584076,0.2,0.36787887903103805,-0.7555288158048422,0.2,0.5926908443553508,-0.10676530105355186,0.2,-0.2704129708696094,0.20799144139417233,0.2,0,
0.48012803414243804,0.2971162160731249,0.4689415888944441,0.2,-0.4185060463040467,-0.5276532629336257,0.2,-0.7292276580363242,-0.43264591097180033,0.2,0.3621578820529088,-0.7116350294901486,0.2,0.5907398878849929,-0.31358082596320835,0.2,-0.26651568882651255,0.25568865902688903,0.2,0,
0.48813016804481196,0.30023885157435337,0.0031495788881293063,0.2,-0.4252055220840648,-0.4587198365932424,0.2,-0.7330707644477857,-0.356947225602873,0.2,0.3564927185591957,-1.0052086697132228,0.2,0.5876735511399395,-0.21452200967465168,0.2,-0.2663219523251792,-0.2194653167080507,0.2,0,
0.49613230194718594,0.29716660933533495,0.0021992316092921127,0.2,-0.4258455636895386,-0.19065472378152273,0.2,-0.7349388136459701,-0.4853296342733626,0.2,0.3460745433374972,-0.932064135236478,0.2,0.5873075357301984,-0.2076379488379146,0.2,-0.27002713389384136,0.06063420262303679,0.2,0,
0.50413443584956,0.30027403928010205,0.3039465786740143,0.2,-0.4282559976645692,-0.6612951905221355,0.2,-0.7408360385961595,-0.789566954207746,0.2,0.341579692395412,-0.6204558515238955,0.2,0.5843513439585328,-0.2885235634111291,0.2,-0.2653518050832106,0.04097784608558808,0.2,0,
0.5121365697519339,0.3020297545941192,0.29234031783302233,0.2,-0.43642628673789274,-0.6270638357114555,0.2,-0.7475718849132941,-0.6681521664047632,0.2,0.3361472497131149,-0.831674937571969,0.2,0.5826911587156204,0.005602726841073824,0.2,-0.26937148835647196,0.28878930805072145,0.2,0,
0.5201387036543078,0.3049514843654304,0.029734088848504953,0.2,-0.43828901903595247,-0.2383671602436896,0.2,-0.7515264732586358,-0.5970564520853955,0.2,0.3282728933942605,-1.0563448891482279,0.2,0.58444098758799,0.043649634208144106,0.2,-0.26073117615439906,0.44969915508837055,0.2,0,
0.5281408375566818,0.30250550001569526,0.16710920176226524,0.2,-0.4402401613017918,-0.35940054592127624,0.2,-0.7571247881466604,-0.9135058899617451,0.2,0.31924573148674323,-0.9169394814886739,0.2,0.5833895528629507,-0.36005282184326665,0.2,-0.262176301875058,-0.413654883570317,0.2,0,
0.5361429714590558,0.30762523159362665,0.22699655917031783,0.2,-0.4440394277706929,-0.5886351500831305,0.2,-0.7661425674980237,-1.0451166705898323,0.2,0.31360186169044174,-0.8793475248616185,0.2,0.5786801424384977,-0.5916312435198523,0.2,-0.26734965429152413,-0.0005805305429255891,0.2,0,
0.5441451053614298,0.30613744496242035,0.2963740091351703,0.2,-0.44965832370312186,-0.7010768852601518,0.2,-0.7738466548760977,-0.6709518827246949,0.2,0.30517617108895734,-0.912357994615063,0.2,0.573923452966633,-0.16508845236436198,0.2,-0.26218559036374484,0.41430944674968395,0.2,0,
0.5521472392638037,0.3123672157397894,0.6134391838380423,0.2,-0.4552566579348553,-0.48054405042531956,0.2,-0.7768777976216188,-0.7293109361892549,0.2,0.29900413377660073,-1.1846367726388516,0.2,0.576038727200668,-0.09437280230745193,0.2,-0.2607207031435292,-0.144759973588076,0.2,0,
0.5601493731661777,0.315952471903829,0.06548499321842871,0.2,-0.457347028509927,-0.41785711095248046,0.2,-0.7855156298551258,-1.120225491872448,0.2,0.2862219827267357,-1.2450714881465894,0.2,0.5724134881297138,-0.44049476207641547,0.2,-0.26450174994115405,0.10587271056071434,0.2,0,
0.5681515070685517,0.31341497563128423,-0.0854549796933668,0.2,-0.461942371710095,-0.5617459476956292,0.2,-0.794801405491578,-0.9962115004542929,0.2,0.2790829899662553,-1.188648352719375,0.2,0.5689908110074453,-0.14177966357659805,0.2,-0.25902673977455776,0.2350850553706832,0.2,0,
0.5761536409709256,0.31458519222873516,0.21970311259576422,0.2,-0.46633496367305705,-0.794770776474215,0.2,-0.8014550138623945,-0.8113986908376072,0.2,0.2672036090832257,-1.5171847896805029,0.2,0.5701450135124883,-0.1814640898505568,0.2,-0.2607403890552231,-0.0058300336674282915,0.2,0,
0.5841557748732996,0.31693022543281646,0.3431837055171936,0.2,-0.47465870413368244,-0.6167799989431795,0.2,-0.8077837845449797,-0.8471772916282468,0.2,0.25480803333136726,-1.33389405383795,0.2,0.5660873855698364,-0.45798681043413697,0.2,-0.2591200203132366,0.20107084262304883,0.2,0,
0.5921579087756735,0.32007613151701025,0.39583209794932445,0.2,-0.4762034436561479,-0.5623029906345195,0.2,-0.8150098505284464,-0.7881965540454672,0.2,0.2458613042218185,-1.1467121735230166,0.2,0.5628172245455421,-0.6629193434811859,0.2,-0.25752325557325434,-0.34025165645756167,0.2,0,
0.6001600426780476,0.32326353900000565,-0.017070542125255384,0.2,-0.48365555198383475,-0.7147263354327326,0.2,-0.8203949294097072,-1.2961413812282718,0.2,0.236460638554999,-1.2468062099917145,0.2,0.5554806760741374,-0.5439783995952047,0.2,-0.2645640468165576,-0.19310498608126475,0.2,0,
0.6081621765804215,0.31980300284300617,-0.01996479651139582,0.2,-0.48763906502307164,-0.4333760150880862,0.2,-0.8357481126280988,-1.1494957949980886,0.2,0.22591240486195108,-1.4692699630498938,0.2,0.5541135701520188,-0.19331584755886283,0.2,-0.2606129353505546,0.3738130163427368,0.2,0,
0.6161643104827954,0.3229441022558233,0.28039980391452585,0.2,-0.49058956822524413,-0.8543835748114764,0.2,-0.8387868621296766,-0.8864225759584177,0.2,0.2129523191462007,-1.5547224375761868,0.2,0.5523876225131956,-0.30786581454391587,0.2,-0.2585830385550738,0.13678657724350632,0.2,0,
0.6241664443851694,0.3242893997056386,0.2820916707930339,0.2,-0.5013092022200553,-0.9136638643229902,0.2,-0.8499308738434335,-1.1004093986259413,0.2,0.2010368458607321,-1.4242017885618512,0.2,0.5491877171193161,-0.13498382193855019,0.2,-0.2584243501146585,-0.10478691883079524,0.2,0,
0.6321685782875434,0.32745756898851186,0.3123846324816562,0.2,-0.505208190054412,-0.7892279092519896,0.2,-0.8563934125076916,-0.9434294221890224,0.2,0.19016509052921107,-1.5549313917490506,0.2,0.5502278813621788,-0.38972610489904774,0.2,-0.26025962925636653,0.18579225791923518,0.2,0,
0.6401707121899174,0.3292875538253451,0.0397317535698917,0.2,-0.5139368487680871,-0.6600817522561531,0.2,-0.8650257445984578,-1.0882707783870653,0.2,0.17615794359274728,-1.365545300172584,0.2,0.5429520994409314,-0.7441797452759774,0.2,-0.2554516739879507,0.1309821249390608,0.2,0,
0.6481728460922913,0.3280932770456301,0.32370209731349964,0.2,-0.5157694980905104,-0.4999267300681235,0.26683023536968414,-0.8738057449618847,-1.2754380608878402,0.2,0.16831636572644973,-1.2489949725494018,0.2,0.5383210054377632,-0.4725669443597577,0.2,-0.25816391525734156,0.015011251157395766,0.2,1,C153C1
0.6561749799946653,0.3344667873823611,0.22633526272962737,0.2,-0.523004960215092,-0.7941713849122326,0.2318038926821448,-0.8854327535726633,-1.4380881923064803,0.2,0.15617402403195685,-1.6933327955545932,0.2,0.5353910283311752,-0.3760469038652514,0.2,-0.2552114939694324,0.025798456442502338,0.2,1,C153C1
0.6641771138970393,0.33171464124930417,0.2430815693311543,0.2,-0.5279678863201208,-0.9964104752297148,0.323125325820253,-0.8968151560387884,-1.2871500268758496,0.2,0.14122304099757624,-1.9770131323362432,0.2,0.5323042549759192,-0.2726983216116974,0.2,-0.2577511399542615,-0.22242093281419836,0.2,1,C153C1
0.6721792477994132,0.33835609249165954,0.2912816641929376,0.2,-0.5369814547517774,-1.0751600791131959,0.3846815665131796,-0.9060271540026769,-0.8620132493854654,0.2,0.12454181391457696,-1.7488824917392207,0.2,0.5310278551853881,-0.15108587574704652,0.2,-0.25877022889445955,0.18890554387054545,0.2,1,C153C1
0.6801813817017872,0.33637514787639117,0.051107896757180554,0.2,-0.5422243807223119,-0.8376239396675107,0.401214254845373,-0.9106073680289558,-1.000711360105197,0.2,0.1132409211297487,-1.263114878572469,0.2,0.5298868809639664,-0.2724816797578383,0.2,-0.2547286512523328,0.5765751845639085,0.2,1,C153C1
0.6881835156041611,0.33917381883977443,0.14917686734779168,0.2,-0.547176836115615,-1.0942137899946942,0.3684406236928609,-0.92203853576436,-1.3438501344576401,0.2,0.10433197585741745,-1.495727511223204,0.2,0.5266681483092627,-0.46328264072019454,0.2,-0.24954502594143702,0.09096304307806835,0.2,1,C153C1
0.6961856495065352,0.33876197775395583,-0.12371336853875606,0.2,-0.5570501595919924,-1.2389459918671575,0.2941595589522896,-0.932108970180278,-1.1683554321375578,0.2,0.08930928095017744,-1.814024535568232,0.2,0.5224743587124433,-0.4046233155006601,0.2,-0.2532732425630837,-0.06982094398944386,0.2,1,C153C1
0.7041877834089091,0.33719440494315434,0.2201768521742989,0.2,-0.5655024044474809,-0.8546584748943846,0.20360260197725072,-0.9407322226785609,-1.2792448651564106,0.2,0.07530758328832574,-1.6073688176833087,0.2,0.5201941752612521,-0.23841727741771845,0.2,-0.2506621610452681,-0.13756558297412305,0.2,1,C153C1
0.7121899173112831,0.3422848073887446,0.5643436953623876,0.2,-0.5707819361353235,-0.5947264215331002,0.30096610657883316,-0.9525768880227806,-1.3941314459885583,0.2,0.0635913798672445,-1.4667558773895393,0.2,0.5186596822737598,-0.4265808421447248,0.2,-0.25547429189066967,-0.19885577395497428,0.2,1,C153C1
0.720192051213657,0.34622390406895254,0.19815648763327545,0.2,-0.5766206638043729,-0.7488994218818548,0.3740304477228734,-0.9630383258143779,-1.210340537759258,0.2,0.05183948925009311,-1.8704399735050012,0.2,0.5133688817869365,-0.4557361052446307,0.2,-0.2538438534285477,0.27757620262910954,0.2,1,C153C1
0.728194185116031,0.345455311190877,0.1098395944548261,0.2,-0.5855239771962022,-0.24805318510782,0.40474108657058533,-0.9719423366269287,-1.328870054044834,0.2,0.03366434029116448,-1.645850552121331,0.2,0.5113679045898457,-0.31228210373027837,0.2,-0.2510330726486039,0.23019313852964615,0.2,1,C153C1
0.736196319018405,0.34798133758022975,0.15380694777152384,0.2,-0.5838329379196915,-0.6844407468014375,0.38535024035884996,-0.9843002466790952,-1.3485469917508472,0.2,0.025505880416151813,-1.2973545217845097,0.2,0.5083723681272521,-0.6697464112915482,0.2,-0.25016076321207337,-0.056150078062318365,0.2,1,C153C1
0.7441984529207789,0.3479162223552214,0.22944525500838073,0.2,-0.5994083662822572,-0.9893148421490692,0.3203697336815835,-0.9935190884949423,-1.2646709192479164,0.2,0.012906667942612323,-1.8160515229679064,0.2,0.5006519620091809,-0.4252498196662541,0.2,-0.251931473897601,-0.030211611176347852,0.2,1,C153C1
0.7522005868231529,0.35165246166036385,0.34705378588057584,0.2,-0.6015650541874613,-0.4677391246269952,0.22552411500421193,-1.0045349813870619,-1.192330687605672,0.2,-0.0035509439513346885,-2.0985907431848556,0.2,0.501568371012592,-0.3626340954743963,0.2,-0.25064414899089493,0.15217802406198438,0.2,1,C153C1
0.7602027207255269,0.3534690829293106,0.10025972385512699,0.2,-0.6072953372319332,-0.7492673664545986,0.2760538048253067,-1.012596379496633,-1.1196377978377885,0.2,-0.020670783948345366,-1.7452515487225582,0.2,0.4948498164815906,-0.36138311456521827,0.2,-0.24949662551260926,0.09993683764998769,0.2,1,C153C1
0.7682048546279008,0.3532566172420459,0.2932699198885044,0.2,-0.6123532720140437,-1.1069302622006651,0.3594646994143002,-1.0224491861524665,-1.2321664159785777,0.2,-0.03147496873089562,-1.4416222489450252,0.2,0.4957862411795485,-0.37640534472615367,0.2,-0.24904515958849513,-0.19935449474707198,0.2,1,C153C1
0.7762069885302748,0.3581614016475267,0.1693238582345727,0.2,-0.6224924921752928,-1.1339796079381443,0.40414590435752895,-1.0323110421522903,-1.1196617268720703,0.2,-0.04373673993146577,-1.8601260827791275,0.2,0.48882733096597214,-0.7321747403629397,0.2,-0.2526862974285624,-0.23208907424391959,0.2,1,C153C1
0.7842091224326487,0.35596579897379904,0.05077723849496174,0.2,-0.6272820496094393,-1.1259680037080593,0.3989401184553441,-1.0403637737824196,-1.197463199460305,0.2,-0.06123698605536166,-1.6278931186219616,0.2,0.48407144533374147,-0.5452814114434539,0.2,-0.25275858477639784,0.5673689276565127,0.2,1,C153C1
0.7922112563350228,0.3589738374634461,0.3192431258178217,0.2,-0.6373781455293263,-1.0728304560240853,0.34488030385239393,-1.0514704533436552,-1.3224154094899632,0.2,-0.06978302982941716,-1.3033690070211588,0.2,0.4801028283828769,-0.40135642203623434,0.2,-0.2436083945860582,0.5713823980794484,0.2,1,C153C1
0.8002133902373967,0.3610736889868842,0.1993019122670768,0.2,-0.6421702397922311,-0.8139505995488107,0.25499594704762923,-1.061522420334259,-1.1709193456313216,0.2,-0.0820908901677002,-1.6717740371538157,0.2,0.4776497425811617,-0.1340361790769483,0.2,-0.24361646640712667,-0.07360335869827962,0.2,1,C153C1
0.8082155241397707,0.3621626680597193,0.21754977900713054,0.2,-0.6495378270035969,-0.8601917290719373,0.24882637479905043,-1.0702051628737563,-1.247019853236872,0.2,-0.0965314144238782,-1.6197131302784158,0.2,0.4779582495176457,-0.29087338902326204,0.2,-0.24478604832523068,-0.08139118640258791,0.2,1,C153C1
0.8162176580421446,0.3645544854509983,0.15494186770834834,0.2,-0.6566992113757986,-0.5495911093484802,0.3411719128349945,-1.081474737986049,-1.2793389468601506,0.2,-0.10800630025215485,-1.6117366967910831,0.2,0.4729957683567895,-0.5564601282979885,0.2,-0.24491872538956808,0.08583076452451169,0.2,1,C153C1
0.8242197919445186,0.3646417379430529,0.41270376048005775,0.2,-0.6605435772167964,-0.5401981043188301,0.39931877000416793,-1.0906745860235187,-1.018063067810937,0.2,-0.12231920157253554,-1.6535973370007881,0.2,0.4690548874648779,-0.4585090916353063,0.2,-0.2434127560928385,0.0129662485565743,0.2,1,C153C1
0.8322219258468926,0.3711577456186792,0.334661683338143,0.2,-0.668462831455924,-0.6246248187942511,0.4088283135154195,-1.097763747071024,-1.367892293852646,0.2,-0.13446385764416746,-1.6937070121477074,0.2,0.4656596228906246,-0.14803654192853052,0.2,-0.2447112654126629,-0.08227594458550501,0.2,1,C153C1
0.8402240597492665,0.36999632487646317,0.04532737155252958,0.2,-0.6738037062981952,-0.4919404056722749,0.3671296235838559,-1.112560862725161,-1.5035529306364759,0.2,-0.14941851376689885,-1.748272964393541,0.2,0.4666863027940214,-0.7522857129274793,0.2,-0.24472917120620657,-0.024707057695730686,0.2,1,C153C1
0.8482261936516405,0.3718829835635197,-0.10768405831636588,0.2,-0.6789452783151781,-0.7198333179343178,0.2842083303792989,-1.1218205939612076,-0.854711014060025,0.2,-0.16243622507446412,-1.3845126770553329,0.2,0.45362305148378496,-0.6498928942828205,0.2,-0.24510657833579458,0.49714261602324705,0.2,1,C153C1
0.8562283275540145,0.3682733799434013,-0.050369608433187274,0.2,-0.686635510883748,-0.8093642279867607,0.21978334616205114,-1.1262362389501215,-0.7232086506278601,0.2,-0.17157071659978418,-1.4284772494357663,0.2,0.4562880164854963,0.07371949851544754,0.2,-0.23677488934983462,0.10218337295483763,0.2,1,C153C1
0.8642304614563885,0.3710770698285887,0.38729159752040954,0.2,-0.6915865937421156,-0.7087735033281228,0.3194236690948039,-1.1333919323712534,-1.297506480697097,0.2,-0.18529186106543638,-1.4466960358862375,0.2,0.4548025634600321,-0.22684496818062283,0.2,-0.24347164436851718,-0.14076703765783516,0.2,1,C153C1
0.8722325953587624,0.37447004550372787,0.44172475909309145,0.2,-0.6961153429199416,-0.554795063853412,0.390235681321437,-1.146996342641275,-1.4510243239029412,0.2,-0.19471785317396398,-1.633941991780111,0.2,0.4526584969946063,-0.45671687347178036,0.2,-0.23902716195235998,0.08695800108218278,0.2,1,C153C1
0.8802347292611363,0.37814466597407814,0.4127161160793306,0.2,-0.6975024481284171,-1.0406005889460088,0.4146997229156623,-1.1566083215537004,-0.9358934557858328,0.2,-0.21143493293391816,-1.600449579224247,0.2,0.44749509348448363,-0.4295485200132669,0.2,-0.24208031635120225,-0.18476366518083326,0.2,1,C153C1
0.8882368631635104,0.38107350336099716,0.23979397779520448,0.2,-0.7094265698681986,-1.5580657835083864,0.38658733355111363,-1.1619706379338484,-1.245271618242824,0.2,-0.22032504644155193,-0.8870016826054619,0.2,0.44578572067439404,-0.30259927436348044,0.2,-0.24198338059525332,-0.17741653403159466,0.2,1,C153C1
0.8962389970658843,0.3819813696188014,0.15162677973870956,0.2,-0.7195330566482233,-0.8132073992686805,0.31254460410363116,-1.1765326674455856,-0.9244045635371373,0.2,-0.22562695985560555,-1.370342923022568,0.2,0.44265350509466794,-0.6413804205332267,0.2,-0.24491898089570777,0.07772919050771931,0.2,1,C153C1
0.9042411309682583,0.3834995318368165,0.037598607629835135,0.2,-0.7206913182607089,-0.4908600263269683,0.2105230326890765,-1.1767611109504426,-0.8948200566264164,0.2,-0.24225053320991302,-1.6924163641008558,0.2,0.4355236339458624,-0.2373649818471872,0.2,-0.2407397135471298,0.47444451566300977,0.2,1,C153C1
0.9122432648706322,0.3825829473408788,0.15192836844992244,0.2,-0.7272236692758257,-0.7701280587166617,0.29457216453669355,-1.1908497883516083,-1.2651430924909002,0.2,-0.25270562168121924,-1.3710139901935736,0.2,0.43885566538511295,-0.38169244819548365,0.2,-0.2373278686450996,0.11722302117279752,0.2,1,C153C1
0.9202453987730063,0.38593038573201527,0.2138042341647134,0.2,-0.7344781829141998,-0.4447939037769519,0.3769615305627494,-1.197003400430297,-0.920091020935751,0.2,-0.2641867570530102,-1.0097724933564312,0.2,0.42941655477473467,-0.1777519153192096,0.2,-0.23886414520836505,-0.1292159902845924,0.2,1,C153C1
0.9282475326753802,0.3860038150875142,-0.013547111906150183,0.2,-0.7370786546076341,-0.09360594311536,0.41631468165655794,-1.2055712446865803,-0.731636851593262,0.2,-0.26886198157492214,-1.140505524294986,0.2,0.4360116347400056,-0.10775917791081349,0.2,-0.2393953244896531,-0.025612222854787953,0.2,1,C153C1
0.9362496665777541,0.38571363194151687,0.28081308612488975,0.2,-0.7393198730827942,-0.3388785412575712,0.40276651503586375,-1.2087095900557892,-0.7102833728356434,0.2,-0.28243484544173,-1.4427093542260967,0.2,0.42769240792816166,-0.6126036990694063,0.2,-0.23927394077404165,-0.14541315618417197,0.2,1,C153C1
0.9442518004801281,0.3904968244655124,0.3795824818112886,0.2,-0.7456322404574983,-0.6689438456042112,0.33938876285943365,-1.2169357786519506,-0.9573502420393565,0.2,-0.2919453312425397,-0.810227293001467,0.2,0.4262099755548951,-0.11226615641681675,0.2,-0.24172193498859984,0.07329474567064481,0.2,1,C153C1
0.952253934382502,0.3917869516504975,0.04329000479620995,0.2,-0.7521736209053748,-0.364461038737476,0.24149802631038125,-1.2240271939284189,-0.8779576300770447,0.2,-0.29539848212975345,-1.0823207374926793,0.2,0.4258961494254926,-0.13975905920830464,0.2,-0.23810122484331134,0.4668753190122544,0.2,1,C153C1
0.9602560682848761,0.3911894645422518,0.1880449029279252,0.2,-0.7521032783691728,-0.4334740595899025,0.2670450164183455,-1.2309831007331833,-0.8996718475162147,0.2,-0.30926246304242255,-1.148841436837019,0.2,0.4239738306075622,-0.1369516757372402,0.2,-0.23425192988440377,0.1929319651624052,0.2,1,C153C1
0.96825820218725,0.3947956700973443,0.20772379142258365,0.2,-0.7580767513230158,-0.8024759947715961,0.3596512418549353,-1.2384219434886783,-0.6346558741751607,0.2,-0.31377994511914575,-1.0959205290680083,0.2,0.42370492261369674,-0.4437833408321018,0.2,-0.23501431340071285,-0.18456114069340632,0.2,1,C153C1
0.9762603360896239,0.3945130452050131,0.12613878561829397,0.2,-0.7624867213339039,-0.6084390983553115,0.41351618147826585,-1.2411375947199859,-0.8717704260475662,0.2,-0.3267971915075107,-1.0428776200415193,0.2,0.4168732971542486,-0.3445545447486424,0.2,-0.23720490813549827,0.03275166955102847,0.2,1,C153C1
0.984262469991998,0.396813890667237,0.2834095454194649,0.2,-0.7645300680555362,-0.7932306563924606,0.4152352504966249,-1.2523702703054393,-0.8901806006278434,0.2,-0.33046598703981006,-1.0248781475721316,0.2,0.41819204989771847,-0.11814665324611992,0.2,-0.2344902866878964,0.001001047039190725,0.2,1,C153C1
0.9922646038943719,0.39904759793172456,0.13825047619624858,0.2,-0.7718734559744309,-0.7364367859681337,0.3641385478402342,-1.2553804843300314,-0.501240053900745,0.2,-0.3431952418686648,-0.8192879544989401,0.2,0.41498295070231067,-0.21739458268403913,0.2,-0.23718889138287122,0.13022556382929693,0.2,1,C153C1
1.0002667377967458,0.39902589828637697,0.16223601559488265,0.2,-0.7737951115059605,-0.3538420208037899,0.2725158353606175,-1.2603901111678513,-0.6394491825378046,0.2,-0.3435745943117931,-0.5159947236784909,0.2,0.41471373657477384,-0.2542386590065615,0.2,-0.23240667766662765,0.4378624336098917,0.2,1,C153C1
1.00826887169912,0.4016433741812427,0.31653693194056903,0.2,-0.7764235745086614,-0.46745915906955504,0.23733831190530852,-1.2656116712506362,-0.7357501579454834,0.2,-0.35145115744752065,-1.0088280722917418,0.2,0.4109151321582057,-0.2585552272938336,0.2,-0.23018309244511295,0.19076362671153688,0.2,1,C153C1
1.0162710056014939,0.4040904891974261,-0.010260178141336534,0.2,-0.7818461451233077,-0.40700873891274936,0.33854901417434236,-1.272162113694979,-0.4049585866119504,0.2,-0.35971584346846097,-0.6567151671967552,0.2,0.4105768529380725,-0.21134462319542802,0.2,-0.22935445963924306,-0.2517531862604311,0.2,1,C153C1
1.0242731395038678,0.4014792113309813,0.10793818346964065,0.2,-0.7850550109151941,-0.0018103473743024956,0.40623552079249575,-1.2720910086364274,-0.440669213179562,0.2,-0.3619586001226687,-0.7330491541953157,0.2,0.40753361818707884,-0.3823888048023749,0.2,-0.23421114342527985,-0.05585697285802847,0.2,1,C153C1
1.0322752734062417,0.4058175001329403,0.410934561054347,0.2,-0.7850267518777435,-0.23801157794280872,0.4236273256713599,-1.279212821105852,-0.6841662175895852,0.2,-0.371444629935586,-0.8368964194830075,0.2,0.4044586320612345,-0.08123081430757087,0.2,-0.2302481712049715,0.09224047608839825,0.2,1,C153C1
1.0402774073086156,0.40805416430785085,0.2398606487588814,0.2,-0.7922773538061166,-0.08896631408618619,0.386218603243365,-1.2830376681178608,-0.5183690648405542,0.2,-0.37534894283439685,-0.566870969893489,0.2,0.4062339251581577,0.13538620818374925,0.2,-0.23273529580786548,-0.0038624415059466954,0.2,1,C153C1
1.0482795412109898,0.4096552705130824,0.32030203500615567,0.2,-0.7892905347829069,0.23842257911860398,0.3029319970675014,-1.2875067261433009,-0.17931298023171616,0.2,-0.38051456545388185,-0.39351961577554007,0.2,0.4066248113921745,-0.12102539368528259,0.2,-0.23030997026906666,0.19351478777793368,0.2,1,C153C1
1.0562816751133637,0.41317899686794934,0.5913884686365063,0.2,-0.7900310801145809,-0.25931040136575645,0.20600800309788941,-1.2859066758015683,-0.0886086721135354,0.2,-0.3816452566868055,-0.5333157463119284,0.2,0.4042975188591932,-0.23780547460024518,0.2,-0.22963905920341854,0.3123927740213764,0.2,1,C153C1
1.0642838090157376,0.4191174860112665,0.2805623896412444,0.2,-0.7933480377893772,-0.5970036456541787,0.31398563556799586,-1.2889244648971174,-0.2720130524137415,0.2,-0.3890476173948727,-0.3948176875964333,0.2,0.40281992379857057,-0.4740482517775549,0.2,-0.22531168588472464,-0.07565515681205379,0.2,1,C153C1
1.0722859429181115,0.41766799510220926,-0.28531124076527564,0.2,-0.797849516611314,-0.29910922309778065,0.394496221924193,-1.2902588846401881,-0.45580085220661704,0.2,-0.3879623396883484,-0.40834499158354587,0.2,0.3967127468307523,-0.2487494462482462,0.2,-0.2308495417124114,-0.37670439846289144,0.2,1,C153C1
1.0802880768204854,0.4145525061590221,0.16674178061760678,0.2,-0.7951784771435694,-0.2532626889613979,0.42765181995859647,-1.2962172785324233,-0.40049956863166813,0.2,-0.39558113726020944,-0.42497881920552233,0.2,0.39883993265859863,0.14622326162149618,0.2,-0.2313389562601309,0.1606970872391148,0.2,1,C153C1
1.0882902107228596,0.42033586359209096,0.4975844620748737,0.2,-0.7984459045309605,-0.4353680796655036,0.40509341672703936,-1.2966668777382948,-0.25204031543235583,0.2,-0.3947620007956368,-0.01086919029164718,0.2,0.39905231901669624,0.002526197204959918,0.2,-0.22827838831658556,0.2841919164083932,0.2,1,C153C1
1.0962923446252335,0.4225138575522201,0.18086324708630266,0.2,-0.7990339449323097,-0.34693484590370616,0.332096522152344,-1.300249923579341,-0.00213508974178378,0.2,-0.3957550443048758,-0.20728571621524486,0.2,0.398880351813878,0.23538014294040288,0.2,-0.2267918855975966,-0.01171407830889877,0.2,1,C153C1
1.1042944785276074,0.4232296755454718,0.008220744557686094,0.2,-0.8019953996085661,-0.07792555870343276,0.22634021070745278,-1.2967010391741634,0.009701762041541828,0.2,-0.3980785722550807,-0.08141994028147345,0.2,0.4028184013037427,0.17548166047285513,0.2,-0.22846581356952794,0.12160904383000902,0.2,1,C153C1
1.1122966124299813,0.4226453894651431,-0.11899262752156775,0.2,-0.7998820373424074,0.26695813138570945,0.2863738752030392,-1.3000946953866763,-0.016509926741514747,0.2,-0.39705776334937937,-0.1575536619793233,0.2,0.40168805838144367,-0.26763720218100917,0.2,-0.22484614089631647,0.1827497703983591,0.2,1,C153C1
1.1202987463323555,0.4213257935051267,0.26228107245814675,0.2,-0.799030290681488,0.282899966000923,0.37841608545628647,-1.2969651980020276,-0.06336767240817942,0.2,-0.40059943084674987,-0.20721703550806436,0.2,0.39853620606884654,-0.03099924590303782,0.2,-0.2255418172431542,0.09082855577983995,0.2,1,C153C1
1.1283008802347294,0.4268418866244734,0.16064575734503136,0.2,-0.798051253908395,0.3069209984363601,0.4271013493646715,-1.3011085781452072,-0.3136829501248911,0.2,-0.4003732359175084,-0.13620138519522193,0.2,0.40119207044699506,0.12259072243623811,0.2,-0.22339288400383903,-0.1074513453910974,0.2,1,C153C1
1.1363030141371033,0.4238961256226472,0.14692849738515493,0.2,-0.7975474996025768,0.16325133265391292,0.42027975988456123,-1.3019841252040258,0.07406647540837696,0.2,-0.4027786530098734,0.1732375142421902,0.2,0.40049765762782635,-0.0196468272978291,0.2,-0.22726103876941176,-0.016897369880010393,0.2,1,C153C1
1.1443051480394772,0.4291927425826359,0.7231654114847642,0.2,-0.7987610762788193,0.1587794909292603,0.35936750522100913,-1.2999235145386732,0.0998005630913762,0.2,-0.39760143568963335,0.28324588679549606,0.2,0.4008777212102298,0.11840492573746142,0.2,-0.2236632419219192,0.3294567852436814,0.2,1,C153C1
1.1523072819418512,0.43546677220640345,0.14648424913961747,0.2,-0.7974080447755204,0.15546276143034168,0.25906233595745215,-1.3003873161945638,0.16891973234438307,0.2,-0.3982467188211455,0.13731283312995446,0.2,0.40239213643962574,0.20176078188060761,0.2,-0.22198973020551285,0.15160036522073733,0.2,1,C153C1
1.1603094158442253,0.4315364905688698,-0.11874088449100387,0.2,-0.7971626630416716,-0.08271695796414347,0.2562020015854911,-1.297220798821163,0.3510959347135384,0.2,-0.3954044303595541,0.07041160320170325,0.2,0.4041058937203195,0.04461849494069928,0.2,-0.2212376360783874,0.07069706939796631,0.2,1,C153C1
1.1683115497465992,0.4335669180545474,0.31778636506284497,0.2,-0.7978863732219619,0.032572157995425094,0.3582072884316537,-1.2947697812391472,0.23841664031573617,0.2,-0.39712013316991823,0.30535710430829033,0.2,0.4031060323586769,-0.1220835852814399,0.2,-0.2208585770951454,-0.11834653240239482,0.2,1,C153C1
1.1763136836489732,0.4366210724098753,0.23158564779998322,0.2,-0.7942646854011566,0.03325718512464548,0.4218587494101371,-1.2934061325761113,0.42662142892212207,0.2,-0.39051871669062144,0.5163547001761428,0.2,0.4021525563558165,-0.20330519344649578,0.2,-0.2231311805968257,0.07555980072173826,0.2,1,C153C1
1.184315817551347,0.4372722884193471,0.23051709239775217,0.2,-0.7940242957922732,-0.05559442004260137,0.4313583482883084,-1.2879438383763933,0.2698581311452869,0.2,-0.38885845796709995,0.4871991437414083,0.2,0.399853149263533,0.06490661551069102,0.2,-0.21964962028359758,0.08224848230741107,0.2,1,C153C1
1.192317951453721,0.44030934588823933,0.196624590767306,0.2,-0.7916849050509732,0.1797100800148104,0.38412492866563386,-1.2890884024777867,0.1088437292622868,0.2,-0.3827235303907589,0.6446299094900881,0.2,0.40319106220398754,0.5055264540452693,0.2,-0.22181520487990714,-0.009156018870184676,0.2,1,C153C1
1.2003200853560951,0.440418281871624,0.13169360378993342,0.2,-0.7883905086144237,0.06155619351099592,0.29148866201336676,-1.2862023387081967,0.575511903480222,0.2,-0.37854437941525854,0.4202895813698974,0.2,0.4079415725282573,0.2722146761542053,0.2,-0.21979611658552053,-0.020468940462953222,0.2,1,C153C1
1.208322219258469,0.44241644354887827,0.07461041856640649,0.2,-0.7893306714438395,0.044673446581671064,0.2240255170301073,-1.2798802120221031,0.5444168387889747,0.2,-0.37599889708884054,0.5467118837246682,0.2,0.4075464970224548,-0.17130636746321218,0.2,-0.2221427079273144,-0.1667332754463433,0.2,1,C153C1
1.216324353160843,0.4416120485686865,0.3890023129777681,0.2,-0.7880349935368569,0.46339472615627775,0.3341744730688026,-1.277491669287573,0.27110382337960925,0.2,-0.36979698927566385,0.6863507648183047,0.2,0.4052006706488459,0.0034092076447618525,0.2,-0.22246384899266203,0.33390995022677084,0.2,1,C153C1
1.224326487063217,0.44864048055652256,0.19916042296330358,0.2,-0.7839208297460681,0.503135758506937,0.41190201368598556,-1.2755425508480294,0.7130241937786663,0.2,-0.36501728485174767,0.8893683024804588,0.2,0.407601044344771,0.4911107214163636,0.2,-0.21680014872368605,-0.001185531931895134,0.2,1,C153C1
1.2323286209655908,0.4447986153360994,-0.05834884899040896,0.2,-0.7831475380229248,0.8878004729986809,0.43798445038186595,-1.2660832821871144,0.7074640558654699,0.2,-0.3555670964359765,0.4250613795938746,0.2,0.4130584421915077,0.12959233627859654,0.2,-0.22248281750357235,0.14008887160530184,0.2,1,C153C1
1.240330754867965,0.447706898972676,0.39033821546985076,0.2,-0.7732647185491143,0.8255451319327671,0.4057843688226175,-1.2642231259541818,0.29155868649756445,0.2,-0.3582163027782457,0.4839146423161883,0.2,0.40967452172522856,0.05609996571576473,0.2,-0.21455872677800122,0.5105793112912884,0.2,1,C153C1
1.2483328887703389,0.451044026783617,0.24624761017851687,0.2,-0.7730045048330079,0.38685361606113855,0.3229372219415186,-1.2614183432031534,0.5780719447596033,0.2,-0.3478244621589175,1.057332368544859,0.2,0.41395604164295996,0.10993456547575206,0.2,-0.21431354852291173,-0.3455803260720945,0.2,1,C153C1
1.2563350226727128,0.4516468607355323,0.010089767134176947,0.2,-0.7689048239954517,0.32244380698190256,0.2095427607248522,-1.2549739748380282,0.614525425117779,0.2,-0.34129898488152793,0.7702649832407072,0.2,0.4114334747728406,0.17539912655114773,0.2,-0.22008801199515474,-0.10919142808689039,0.2,1,C153C1
1.2643371565750867,0.4512054630577638,0.1534231693526844,0.2,-0.7679873037090276,0.18012553291941769,0.3067108146905708,-1.251585936401269,0.7557110700945058,0.2,-0.3355002224270662,0.7263825791342555,0.2,0.4167624276677783,0.4964686901139867,0.2,-0.21606061137230198,0.2986397531742797,0.2,1,C153C1
1.2723392904774609,0.45410163144517524,0.2668901072055661,0.2,-0.7644375108865227,0.3300427443452984,0.39730733674611673,-1.242882597716516,0.7573748864962149,0.2,-0.32967686361537984,1.113582304842233,0.2,0.4193769738146644,0.3912466054975978,0.2,-0.21530977594436626,0.10045817020640571,0.2,1,C153C1
1.2803414243798348,0.4554757047730529,-0.05272689524795163,0.2,-0.7597781250054974,0.43282537292201506,0.4398971903413891,-1.2394679382173295,0.49782635052320057,0.2,-0.31768290554959044,0.8877043076181979,0.2,0.4230223733557399,0.2883803089517543,0.2,-0.2144532806489995,0.07622611693103472,0.2,1,C153C1
1.2883435582822087,0.453258001121208,0.008335327574122281,0.2,-0.7539549786496479,0.35897804970615865,0.4238103078790952,-1.234917376108145,0.7792011892336914,0.2,-0.3154735946934887,0.7582480333098787,0.2,0.42399105875789245,0.11609712964894339,0.2,-0.2140901580734697,0.028382412206061358,0.2,1,C153C1
1.2963456921845826,0.45560907001423884,0.4557211813296345,0.2,-0.7507187679453233,0.40255933906407315,0.35272787116213655,-1.2270007191895904,1.0715972583257016,0.2,-0.3055509370166324,1.4009576557276262,0.2,0.424879927430123,0.04881131130636887,0.2,-0.2139991620537025,0.13320338511398597,0.2,1,C153C1
1.3043478260869565,0.46054954002248216,0.24020556559860295,0.2,-0.7452534871907706,0.7033999872182973,0.2438440998930818,-1.2177718199749337,0.8524045744024572,0.2,-0.29305827220184666,1.663443128816066,0.2,0.42477203973879435,0.5509045256907943,0.2,-0.21195890391164593,0.17076144703950627,0.2,1,C153C1
1.3123499599893307,0.4594523590638165,0.11230076137329001,0.2,-0.7388160265617628,0.7440700617309938,0.27629210088224454,-1.213362245999151,0.8392475097065144,0.2,-0.27893584695557533,1.2189768548524562,0.2,0.4336943998411757,0.523731384587986,0.2,-0.2112669789010704,-0.031778955985576826,0.2,1,C153C1
1.3203520938917046,0.4623463522044548,0.31397715162879286,0.2,-0.7344754886537819,0.6872996298430153,0.3782501471081219,-1.2043438598196294,1.134555259721684,0.2,-0.27355464252420736,0.9558502417694598,0.2,0.4331517418922021,0.1754083725882434,0.2,-0.21246736720741516,0.08124955781616677,0.2,1,C153C1
1.3283542277940785,0.46447599348987717,0.20194524649775822,0.2,-0.7304502309655753,0.8325723765298041,0.4369273117862296,-1.1952093618436042,0.8099299282812306,0.2,-0.26364224308726397,1.4108483783499581,0.2,0.4365009338025876,0.22042886698160624,0.2,-0.20996698597601174,0.07518666341833034,0.2,1,C153C1
1.3363563616964524,0.46557747614841893,0.34875627197385184,0.2,-0.7246481896049545,0.7256475243825483,0.4377287560698739,-1.1913849809671297,0.5906937842661275,0.2,-0.250981068470608,1.199402028327556,0.2,0.4366786037639078,0.3228529198690891,0.2,-0.21126438059272187,-0.2583233454596309,0.2,1,C153C1
1.3443584955988264,0.4700560938414588,0.3914971764318806,0.2,-0.7223423200203145,0.6838580668691301,0.38019669819763713,-1.1857582612953461,0.8435809772395497,0.2,-0.24445181063402308,1.2164336489888932,0.2,0.441666580520493,0.5049979878552386,0.2,-0.21410015950336583,-0.007411085521555685,0.2,1,C153C1
1.3523606295012005,0.471841430971329,0.28146968729772165,0.2,-0.7163588498369455,0.7303250569082944,0.27818653290361334,-1.177887685331297,1.4091860763006807,0.2,-0.23151813008678573,1.4651592265282603,0.2,0.44475857156959164,0.14695728720363552,0.2,-0.21138295796106676,0.09307882083380535,0.2,1,C153C1
1.3603627634035744,0.47455960883822235,-0.12017961865909768,0.2,-0.7118069210642467,0.7337793829690291,0.24346889757311338,-1.1632112840745352,1.3450424226798123,0.2,-0.2210092630095709,1.107609323565158,0.2,0.4440178971157512,0.3703828663749846,0.2,-0.21261089837002495,0.09386232228079071,0.2,1,C153C1
1.3683648973059483,0.46991855707278346,-0.05991517957910572,0.2,-0.7039797182207636,0.6952522683644259,0.3550040565984257,-1.15636700656842,0.9579753254122525,0.2,-0.2137963809097432,1.5186389332530366,0.2,0.4506846974315914,0.39491187708544373,0.2,-0.2098811608045741,0.36107550866789834,0.2,1,C153C1
1.3763670312083223,0.47360096596495665,0.3981869433926123,0.2,-0.6984075958662188,0.6005987736879839,0.4290031965593889,-1.1478836788679392,0.9570679546098138,0.2,-0.19671104007752233,1.6720364564425971,0.2,0.4503364871491183,0.11352142897514197,0.2,-0.20683369023133857,0.10572128231389408,0.2,1,C153C1
1.3843691651106962,0.47628954816706526,0.2647639645522795,0.2,-0.6910117041616914,0.44597048963845554,0.4471388961850026,-1.141053919294663,1.1646226501351302,0.2,-0.18704379760666165,1.1583185417310873,0.2,0.45250104029519367,0.3684374939091073,0.2,-0.2081896202875518,0.14130613501049138,0.2,1,C153C1
1.3923712990130703,0.4778371893977931,0.34149405514259307,0.2,-0.6876509853040181,0.4874275213990141,0.4047104674702038,-1.129249716465777,1.3962055762601344,0.2,-0.17817794340982493,1.403571473833515,0.2,0.456231487051664,0.3623546263880756,0.2,-0.2045727920711707,-0.09172634927573017,0.2,1,C153C1
1.4003734329154442,0.48175345304934675,-0.014649820162564858,0.2,-0.6802161872598166,0.7943651175955071,0.3118585727992047,-1.1187146300745008,0.9987740394467037,0.2,-0.1645866540253254,1.8414864820878105,0.2,0.4582987143174029,0.4854227786629875,0.2,-0.2096572418759635,0.01767495783970216,0.2,1,C153C1
1.4083755668178182,0.4776027922751921,-0.09626445304772996,0.2,-0.6733051862334706,0.7171620032227162,0.20885692083123242,-1.1132693318346298,0.8878508513504302,0.2,-0.14871415969641996,1.6068275175503897,0.2,0.4639982515102718,0.2918803896090234,0.2,-0.20428999274573548,0.10341641517265347,0.2,1,C153C1
1.416377700720192,0.48021322180058307,0.5439158183063487,0.2,-0.6688710114030474,0.9857753726446183,0.32793769531856054,-1.104509016452894,1.1248552043936626,0.2,-0.13887741374451917,1.648439285308766,0.2,0.46296880055114725,0.26478081494530487,0.2,-0.20800257923320103,0.10933108375954861,0.2,1,C153C1
1.4243798346225662,0.48630544536809367,0.35665542762311137,0.2,-0.6594004838524495,1.0456411660143725,0.41615496525618145,-1.0952716485643312,1.2089142773528683,0.2,-0.1223391311314797,1.8110912889279518,0.2,0.4682347445493967,0.5486025447268527,0.2,-0.2025406954055827,0.3837308161801969,0.2,1,C153C1
1.4323819685249402,0.48591970864255285,0.006117118484028072,0.2,-0.6552934231607636,0.9507694694931903,0.45172347630252035,-1.085166388015248,1.19825177587915,0.2,-0.10989995312167194,1.603697507059072,0.2,0.4717464412667769,0.2834146248279906,0.2,-0.20186288617431788,-0.4028030793081904,0.2,1,C153C1
1.440384102427314,0.4864033192638381,0.4122549957366293,0.2,-0.647856273998883,0.8620943561597391,0.4256807859583239,-1.0760996201502648,1.2981123352590052,0.2,-0.09667997101853455,1.4323665583169405,0.2,0.4727693785466445,0.3854493119882056,0.2,-0.20898554467451375,-0.10483783426875476,0.2,1,C153C1
1.448386236329688,0.4925157885743389,0.04282890733049716,0.2,-0.6447855300002725,1.0435303411015595,0.34414370074709166,-1.064396590651104,1.3846003068134909,0.2,-0.0869820881886009,1.3791208447643393,0.2,0.4779136302585882,0.36621502802448164,0.2,-0.20354029152261796,0.32446698239134775,0.2,1,C153C1
1.456388370232062,0.4870885817811261,-0.05006159493491438,0.2,-0.6332564241884885,0.9660392701125536,0.22687422527587686,-1.053946015241249,1.1128485166677498,0.2,-0.07461403750230512,1.7432229166438533,0.2,0.47862881899503623,0.46565606141545435,0.2,-0.20379407295625218,0.01030536902206676,0.2,1,C153C1
1.464390504134436,0.4917148030553803,0.5732156289435069,0.2,-0.6297194444617723,0.5745397029050988,0.2975094462509461,-1.04659101438442,1.1019660814969994,0.2,-0.059090521522299246,1.7724105042671778,0.2,0.48536412724123545,0.5442123541064652,0.2,-0.2033754056182649,0.16477239456912096,0.2,1,C153C1
1.47239263803681,0.4962600318442222,0.3919435076273035,0.2,-0.622648043805877,0.6337915061877937,0.3985165231681411,-1.036314557937297,1.1727450533591115,0.2,-0.04625546943403028,1.5722977662922122,0.2,0.4873362166607397,0.4312433941996985,0.2,-0.20115771464314625,0.19954180205566593,0.2,1,C153C1
1.480394771939184,0.49798589917741715,-0.16887038957701106,0.2,-0.616699120915179,0.4973001967051327,0.4512576968188328,-1.0278270935306741,1.3503923973131882,0.2,-0.03393375726162385,1.796726382935799,0.2,0.49226402154843063,0.7506216611955323,0.2,-0.20018273678537424,0.1824524563105029,0.2,1,C153C1
1.4883969058415578,0.49355810561099,0.286953497630079,0.2,-0.6110498247626698,0.6212259565372502,0.4425776838529121,-1.014708279580286,1.4325765628000613,0.2,-0.017507847307057494,1.79390383857396,0.2,0.4993461632398682,0.352289753907397,0.2,-0.1982384753421782,0.039630662690757004,0.2,1,C153C1
1.4963990397439317,0.5025771551394984,0.3498558282979645,0.2,-0.6032470685593191,0.7319093075537406,0.3743353344669377,-1.0049058685258732,1.1241298322054727,0.2,-0.005231295844440488,1.3600200590323734,0.2,0.497900657610949,0.02976400998672482,0.2,-0.19954864618232213,-0.03603208898932987,0.2,1,C153C1
1.5044011736463059,0.49915579886375744,-0.14847676548272737,0.2,-0.5968172456867729,0.7927650386754489,0.2630137453105361,-0.9967222022649984,1.5326496119605486,0.2,0.004252473637460479,1.4748857990895219,0.2,0.4998223873996558,0.40765143058480235,0.2,-0.19881498876600748,0.15048237182159474,0.2,1,C153C1
1.5124033075486798,0.5002015268917748,0.32308953579011573,0.2,-0.5896520601672792,1.0878442643406165,0.26426013903232964,-0.9803834747345044,1.56349803463917,0.2,0.018366876940991865,1.7507588576627886,0.2,0.5044230805003058,0.42710912226406883,0.2,-0.1971409282331766,0.15253498575195507,0.2,1,C153C1
1.5204054414510537,0.5043252314363993,0.2969480697206303,0.2,-0.5803396817032772,1.0635209871706897,0.37632545613017676,-0.9717062337107717,1.2362328665154951,0.2,0.0322646153600651,1.7669376063633506,0.2,0.5066561333558809,0.3589862570338165,0.2,-0.1963744289939762,-0.049390976530656536,0.2,1,C153C1
1.5284075753534276,0.5049526960073049,0.23692770073899944,0.2,-0.5751796443888537,0.6771226169003368,0.44561636397792287,-0.9606037488702565,1.1653663937926244,0.2,0.046637878642805476,1.7881059422162675,0.2,0.5101668606128469,0.5730875683280858,0.2,-0.19793118385766711,0.07070416948266878,0.2,1,C153C1
1.5364097092558016,0.5081160746482233,0.19118853316139883,0.2,-0.5730461358902113,0.9050357345453792,0.4549423043419241,-0.9530603714100897,1.1877010063180635,0.2,0.06087431043552538,1.8500498357919355,0.2,0.5158255344491303,0.6101830117922549,0.2,-0.1952431622822535,0.18907278348152118,0.2,1,C153C1
1.5444118431581757,0.5080117125378872,0.040758457875475496,0.2,-0.564370608972285,1.0613500528382394,0.4017519699266767,-0.9416005327691674,1.2156801679404707,0.2,0.07623867601547644,1.5544291935061585,0.2,0.519929788801523,0.441015857191647,0.2,-0.19490601932196278,0.15374100831937013,0.2,1,C153C1
1.5524139770605496,0.5087682099742309,0.33184620597769,0.2,-0.5589674410869099,1.0811882918320892,0.29882354842645203,-0.9336094887230422,1.0104083042097243,0.2,0.08574517753162392,1.6737338497530136,0.2,0.5228817881641966,0.3374849565223395,0.2,-0.19278330614914357,0.06054646710636734,0.2,1,C153C1
1.5604161109629235,0.5133212518335303,0.08984292788651038,0.2,-0.5484922403055081,0.9796385093685742,0.22880380773072878,-0.9254339999018119,1.0094812143848984,0.2,0.10301841761152467,1.8332914153119444,0.2,0.5253295481058804,0.23953891918624542,0.2,-0.1939372758482609,-0.09471797683981674,0.2,1,C153C1
1.5684182448652975,0.5102056968204151,-0.11198299656037941,0.2,-0.542879525723645,0.6501557312302415,0.34992072461465595,-0.9174577892928838,1.1725039802766082,0.2,0.11507784017661503,1.3075114126811278,0.2,0.5267144108711765,0.5560836992595866,0.2,-0.19429879377858064,-0.0007880330953335957,0.2,1,C153C1
1.5764203787676716,0.5115295238885642,0.6122748551661977,0.2,-0.5359384198221162,0.44878393473631023,0.43477911377082445,-0.9066739362173861,1.331915319457623,0.2,0.12393860021442271,1.3578609628845602,0.2,0.5342268872940338,0.7573798257885025,0.2,-0.19394988437778624,0.10456883243966167,0.2,1,C153C1
1.5844225126700455,0.5200020945030742,0.6112108488633278,0.2,-0.5323329739682823,0.647809374482128,0.46239840934312554,-0.8961471441815618,1.1582493825696636,0.2,0.136803615582768,1.8300148460913042,0.2,0.5388324880837926,0.14674564175788662,0.2,-0.19262569245954606,-0.23552833605480597,0.2,1,C153C1
1.5924246465724194,0.5213088974703775,0.02443474475347096,0.2,-0.5218148534029268,0.7882733302917352,0.425752177431596,-0.8881419460962715,1.2544533019532358,0.2,0.15321883775188358,1.584753077400117,0.2,0.53657481756216,0.08841563796260776,0.2,-0.19771833775466313,-0.1231857899026325,0.2,1,C153C1
1.6004267804747934,0.5203930504191298,0.27523810144113037,0.2,-0.5164898002910335,0.26577939878090223,0.33355307702110903,-0.87607589135031,1.1193550500907534,0.2,0.16215966482116986,1.4821279532024316,0.2,0.5402471382911943,0.30827670359031417,0.2,-0.19459666509798818,0.15383628724926698,0.2,1,C153C1
1.6084289143771673,0.5257127070934355,0.45189302735011705,0.2,-0.5156527769166792,0.4927843885129662,0.2081833384201543,-0.8702322652948195,1.0452645222246564,0.2,0.1769328850031225,1.5923410219371263,0.2,0.541507244819605,0.33325908258002856,0.2,-0.19525695715867486,0.1853469348691121,0.2,1,C153C1
1.6164310482795414,0.5276233388567316,-0.13069550363845744,0.2,-0.5084883452402524,1.4147014577680337,0.3197381504249838,-0.8593516589947156,0.8851985776593893,0.2,0.18763712117216388,1.2902969146028602,0.2,0.5455792836124748,0.36564881223449114,0.2,-0.19163111414008238,0.4587847095017094,0.2,1,C153C1
1.6244331821819153,0.5236215790352202,-0.2677690022184209,0.2,-0.4947265726885546,1.1955861212130496,0.41883354672888096,-0.8560690880522692,1.1694711286553903,0.2,0.19757763563676825,1.2377144220646843,0.2,0.5473576258153569,0.5185412872342754,0.2,-0.1879164018066475,0.20081795355634915,0.2,1,C153C1
1.6324353160842893,0.5233390348212369,0.18924803557864717,0.2,-0.49247958828806476,0.6565315616984575,0.4646624262981617,-0.8406401209362293,1.504031005781642,0.2,0.20744055192519884,1.4054739390254798,0.2,0.5538759442082232,0.7264619401256001,0.2,-0.1884180268831808,-0.08581208583350805,0.2,1,C153C1
1.6404374499866632,0.5266495476044786,0.46497568003833756,0.2,-0.48799285917134416,0.5327563368641501,0.4457491286215729,-0.832004591959763,0.9000555668651905,0.2,0.22006521866117593,1.8410076926580163,0.2,0.5589810168573665,0.23320230634401445,0.2,-0.18928939517998364,0.1253604067409271,0.2,1,C153C1
1.648439583889037,0.5307786457018503,0.08789464458803381,0.2,-0.4874536951348444,0.858285941628554,0.36645477496350265,-0.8262392318663863,1.1033850720861758,0.2,0.2368966750077271,1.7682749340302735,0.2,0.5576071811097274,0.02517121811036055,0.2,-0.18641226037532596,-0.07860733131249617,0.2,1,C153C1
1.6564417177914113,0.5280558619178871,0.3344755117930323,0.2,-0.4766276409047682,0.7909128062613296,0.2459755404299633,-0.8143504308063841,0.851869928821386,0.2,0.2483576176056603,1.1466348676637503,0.2,0.5593837563471322,0.3495783180199469,0.2,-0.19054711248098358,-0.3370706935301865,0.2,1,C153C1
1.6644438516937852,0.5361302538905388,0.32239516810882163,0.2,-0.4754523838819805,0.37245775332437325,0.2863037375555095,-0.8126093130052441,0.6543516172101832,0.2,0.2552428328903471,1.129616568970369,0.2,0.5632004341980466,0.24131424993210915,0.2,-0.19180539147180894,0.3104109583149609,0.2,1,C153C1
1.672445985596159,0.5332141846076283,-0.06231382040084582,0.2,-0.4694430641444903,0.5070548140328304,0.39797615508788975,-0.8038808049310212,1.1873608517248417,0.2,0.2664314827091862,1.1283467563566045,0.2,0.563244784346046,0.24118857281654055,0.2,-0.1855805371479442,0.11631930601303797,0.2,1,C153C1
1.680448119498533,0.5351332327641253,0.2551414581478395,0.2,-0.46453133444486105,0.7602362439860513,0.46155178579166894,-0.7936115393776466,1.0379919654359206,0.2,0.2732963809920528,1.214349789001,0.2,0.5670594513631112,0.24460834043935065,0.2,-0.18994428257560034,-0.08756474782741462,0.2,1,C153C1
1.6884502534009072,0.5372964479379937,0.3564175908345388,0.2,-0.4535726158858271,0.47727112683153683,0.4612243331466054,-0.7872729334840465,0.99148730074472,0.2,0.2858610793332022,1.3156311048967522,0.2,0.5671585177930756,0.32718388533278103,0.2,-0.18698157311318284,0.20881413018669462,0.2,1,C153C1
1.696452387303281,0.5408359142174779,0.4311947749385814,0.2,-0.4531962447957815,0.14923774942270399,0.39679988150463263,-0.7777477425657311,0.8831498529951256,0.2,0.2943464786704008,1.105120566087643,0.2,0.5722943935284357,0.5596936660603943,0.2,-0.18660325649261322,-0.2068575572810923,0.2,1,C153C1
1.704454521205655,0.544195564337011,-0.029292323359200734,0.2,-0.44840072869075426,0.28858102337891334,0.28381148139085316,-0.7731425358361245,0.9008865101572117,0.2,0.3035430083906045,1.2142126469262617,0.2,0.5761136164500419,0.39945838253725025,0.2,-0.1902912940296803,0.21160732722781855,0.2,1,C153C1
1.712456655108029,0.5403672370437307,0.17513679421585215,0.2,-0.4473943338437563,0.5598534765517961,0.250224916209278,-0.7633335584032157,0.8100149804874043,0.2,0.313773881021221,0.8823164004820271,0.2,0.5786857276490317,-0.026990039012318723,0.2,-0.18321753925696813,0.3665373239572032,0.2,1,C153C1
1.7204587890104028,0.5469977530444646,0.15505237239316766,0.2,-0.4401523393142472,0.8011804542857901,0.3725109682663992,-0.760182296148326,0.4209972825718264,0.2,0.31766007079831693,0.738403141700393,0.2,0.5756817758258448,0.31325782124305007,0.2,-0.18442669684636506,-0.13043267669044128,0.2,1,C153C1
1.728460922912777,0.5428480750020214,-0.007570197636273812,0.2,-0.4370094637641276,0.6515802912083895,0.4529913303776293,-0.7565976018820665,0.5640207515856116,0.2,0.3255883312884273,0.9007642100517833,0.2,0.5836978527889205,0.4605804560316659,0.2,-0.1853044620840152,-0.30280089491967543,0.2,1,C153C1
1.736463056815151,0.5468766298822842,0.3040022565541159,0.2,-0.4332934522637606,0.8718947670030678,0.47174027301869154,-0.7511579641229562,0.8097256875800942,0.2,0.33207229815914546,1.0761704669668415,0.2,0.5830510631223514,0.393657221682317,0.2,-0.18927151116507987,-0.08816445811869744,0.2,1,C153C1
1.7444651907175248,0.5477121111068872,0.2705789201273151,0.2,-0.42688647528107415,0.5563433685580444,0.42389422247703823,-0.743641990880785,0.9729323370972556,0.2,0.34280705875989675,0.8767221224455709,0.2,0.5899963683358376,0.2975285046702622,0.2,-0.18671509341391435,0.2698925950019044,0.2,1,C153C1
1.7524673246198987,0.5512058926043213,0.2334151737195811,0.2,-0.42754262464619214,0.616569686642481,0.32090938026101873,-0.7355910467294001,0.7195938405729213,0.2,0.3460998521182746,0.8602324856730805,0.2,0.5878115191970756,-0.2870538294245592,0.2,-0.1849532296450494,0.17147305161343931,0.2,1,C153C1
1.7604694585222727,0.5514467538864005,0.14622807821048495,0.2,-0.418721316432032,0.8074596828893682,0.21217984557891115,-0.7321284894316182,0.3962616304528724,0.2,0.35657077853066604,0.7411249815962375,0.2,0.5854035070650446,0.02706438096671676,0.2,-0.18397152458809932,0.14184513952810937,0.2,1,C153C1
1.7684715924246468,0.553545541855689,0.17697785281079598,0.2,-0.41445217443527166,0.015971533928367865,0.34284588969768276,-0.7292508606421542,0.416269825782814,0.2,0.3579578518238144,0.4040133263310645,0.2,0.5882445492925431,0.22313217254409795,0.2,-0.18268370741259965,0.14305552283059608,0.2,1,C153C1
1.7764737263270207,0.5542783995313733,0.293349124376896,0.2,-0.4164609172969299,-0.2567769099232864,0.4390176110541178,-0.7254681722190932,0.5767526683176579,0.2,0.3630349917519631,0.630480698515002,0.2,0.5889736218257502,0.21535181079482962,0.2,-0.18168263622280978,0.06770950866650909,0.2,1,C153C1
1.7844758602293946,0.5582391278457194,0.46658061430505243,0.2,-0.41520891193807064,0.06719003582968128,0.47695163879662456,-0.7200228179490716,0.5449950482947774,0.2,0.36804554300005443,0.8793530562347558,0.2,0.5916901782652604,0.38431182623029775,0.2,-0.1816003552739355,-0.07951876586523646,0.2,1,C153C1
1.7924779941317686,0.5617436893602541,0.25052955485885264,0.2,-0.4115056436056638,0.15485408936238687,0.4470936626197045,-0.7167482514463768,0.49595844865067684,0.2,0.37710464065171917,0.7533082986218957,0.2,0.595122611045435,0.21406706887831112,0.2,-0.18295493647665356,0.07487567201373835,0.2,1,C153C1
1.8004801280341425,0.562247600723461,0.15089835800235346,0.2,-0.4092723675914612,-0.05905132340723046,0.35648289321914917,-0.7120874827706608,0.4661903272609319,0.2,0.38009847577800476,0.7564607317057624,0.2,0.5951152513673134,0.16645729007161436,0.2,-0.1804023445217157,0.40348425308579966,0.2,1,C153C1
1.8084822619365166,0.5641580630882918,-0.1275009029131982,0.2,-0.4102618928470445,0.1958232744724836,0.22709504422732088,-0.7092892062102019,0.1807071410630176,0.2,0.38920801235901137,0.4164321698080751,0.2,0.5977859276865808,0.3908928057204872,0.2,-0.17649918842728077,0.01675631818224589,0.2,1,C153C1
1.8164843958388905,0.5602075862768499,0.029217294588594622,0.2,-0.4057605744945415,0.33222941194563016,0.30948674682239785,-0.7091961685136525,0.18335706245255906,0.2,0.38676139049493397,0.024467414466818743,0.2,0.6013695362588412,-0.028267145535360028,0.2,-0.18013424343079976,-0.11688087407517311,0.2,1,C153C1
1.8244865297412645,0.5646255398017093,0.4834490900020791,0.2,-0.4064748330317943,0.3542771168998402,0.4197809286700428,-0.7063554932109609,0.3874579419423374,0.2,0.38959949099048047,0.42667821970292924,0.2,0.597333653358015,-0.19747969135678473,0.2,-0.17836928241248354,0.21592280140589856,0.2,1,C153C1
1.8324886636436384,0.5679427717168831,0.09711579550367166,0.2,-0.4031579600301778,0.5393137090433222,0.47661489465600926,-0.7029968414425751,0.3057578963449048,0.2,0.39358824201018083,0.3462284743048806,0.2,0.5982098611971326,0.10403064263978662,0.2,-0.17667947860830538,0.10190998202085078,0.2,1,C153C1
1.8404907975460125,0.566179392529768,-0.08649929657270766,0.2,-0.40170107354293405,0.3122786716007616,0.4658188821450046,-0.7014633668694424,0.1744411556610856,0.2,0.39513914657935856,0.3308890141861462,0.2,0.5989981436402516,0.1288878933310006,0.2,-0.17673872270014993,0.10989421388183165,0.2,1,C153C1
1.8484929314483864,0.5665587829717198,0.278119859405207,0.2,-0.4018630697043394,0.2106779543368143,0.3897575039688812,-0.7002057829519978,0.1954851044350947,0.2,0.3988824662371592,0.4715600721222346,0.2,0.6002720674904286,-0.15446615500743638,0.2,-0.17492117118619607,0.018156833925137353,0.2,1,C153C1
1.8564950653507604,0.5706293102802513,0.30370751716594924,0.2,-0.4009703306765903,0.2408025210585599,0.2668190488008906,-0.6983356051984809,0.046429919256477103,0.2,0.4026841077333143,0.19429805266345593,0.2,0.5965266851601326,-0.035452748737299644,0.2,-0.17644821335734773,-0.02796585996590016,0.2,1,C153C1
1.8644971992531343,0.571418103246375,0.23782718140927944,0.2,-0.3989390780040786,-0.006258117329199245,0.2730291254717076,-0.6994629042438941,-0.16607585943510805,0.2,0.40199123507977447,-0.16155196583932802,0.2,0.5997048235106318,0.3653569272853707,0.2,-0.17536862494565048,0.10084257363949037,0.2,1,C153C1
1.8724993331555082,0.5744345451827998,0.29353447579641423,0.2,-0.40005616714452824,-0.13677494015888367,0.395545022398442,-0.7009928189494427,-0.11210068028521397,0.2,0.40009927627988506,-0.20215796436571717,0.2,0.6023723959966986,0.13524099227633923,0.2,-0.17483473217911588,0.23290869784374849,0.2,1,C153C1
1.8805014670578823,0.5761146548591176,0.13206159138597073,0.2,-0.3984139294678045,-0.37850332223489513,0.4705959286860381,-0.7012565151284575,0.17641846175651954,0.2,0.398756707649923,-0.327339408619013,0.2,0.6018686793870532,0.0024454224124975665,0.2,-0.1716420857801505,0.013995997397334148,0.2,1,C153C1
1.8885036009602563,0.5765475306449753,0.04419585278145344,0.2,-0.4023604569909481,-0.37905084426573044,0.47956914716811844,-0.6981701235613383,-0.1191506688028518,0.2,0.39486184574198085,0.05511217965748286,0.2,0.6024115227552985,-0.036071972483467385,0.2,-0.17461079622075854,0.03274835595266923,0.2,1,C153C1
1.8965057348626302,0.5768217885036209,0.11204149583549788,0.2,-0.40060592362134634,-0.14859304822350072,0.4199870664145066,-0.7031629258293032,-0.15483683402166964,0.2,0.3996385025244427,0.15841833790129767,0.2,0.6012915278273178,-0.11195662788855698,0.2,-0.1711181120849078,0.18146212793667368,0.2,1,C153C1
1.904507868765004,0.5783401945783433,0.2312398673463903,0.2,-0.4016931420751261,-0.1906846681932477,0.3061824641594124,-0.700647512905685,0.10456829947088492,0.2,0.3973965391484016,-0.34578891479151647,0.2,0.6006202167090816,-0.014008063360736178,0.2,-0.17170740217377176,-0.12985619092877215,0.2,1,C153C1
1.912510002667378,0.5805216263811631,0.11386322006737976,0.2,-0.40218849505699267,-0.12192836564660642,0.2341481088965669,-0.701489833037769,-0.26381791622160505,0.2,0.39410587988777845,-0.22370786228519124,0.2,0.601067398813546,-0.18068305280533048,0.2,-0.17319581113976815,0.06730021615212502,0.2,1,C153C1
1.9205121365697522,0.5801620060994214,0.24218997717681545,0.2,-0.404115817810053,-0.16183753566867856,0.36668435539176336,-0.7048685995652307,-0.388004708426537,0.2,0.39381721335183856,-0.35697183606835103,0.2,0.5977292878641963,-0.32813378945741045,0.2,-0.17063059871533776,0.14710767675497372,0.2,1,C153C1
1.928514270472126,0.5843966660159922,0.3474512615835104,0.2,-0.40707897387296177,0.01218820275942703,0.4588755799476777,-0.7076979083725936,-0.2708046826318672,0.2,0.38839433051068484,-0.7549133713111895,0.2,0.5958172581822274,-0.03635982450157782,0.2,-0.17084208831168857,0.10378488266193399,0.2,1,C153C1
1.9365164043745,0.5857212262847575,0.2741198896727762,0.2,-0.4074915042203529,0.3373766414386825,0.48793475736698205,-0.7092014744873406,-0.4508554361501646,0.2,0.3817385994108595,-0.1663184755646835,0.2,0.5971475306721711,-0.016217245742362885,0.2,-0.1689700405927468,0.15594537088945218,0.2,1,C153C1
1.944518538276874,0.5887825842507566,0.13949092454799278,0.2,-0.4056490407347247,-0.03911541977153571,0.446470151988277,-0.7149115953509962,-0.5374073412110075,0.2,0.3857332349016499,-0.03164320716667057,0.2,0.5955577822503496,-0.21837220872398394,0.2,-0.16834696237745733,0.11127849478487738,0.2,1,C153C1
1.9525206721792479,0.5879530810775254,0.30354989353672396,0.2,-0.4115110879692383,-0.4531219377740545,0.3443628457575969,-0.7177999919467167,-0.5247352180167211,0.2,0.3812323080961928,-0.8388519977214869,0.2,0.5936535753325873,-0.1825538710275923,0.2,-0.16718958467618877,-0.043010149246064736,0.2,1,C153C1
1.960522806081622,0.5936393825473442,0.2674757428231325,0.2,-0.41488506700318656,-0.41181804380794185,0.2064139107382399,-0.7233073588392638,-0.18671538800638793,0.2,0.3723116029381061,-0.8902491953878267,0.2,0.5926369203139081,0.10069857329315923,0.2,-0.16903512476539437,-0.035700492434152103,0.2,1,C153C1
1.968524939983996,0.5922326929626955,0.22340845080288246,0.2,-0.4181883403916532,-0.44970544831926895,0.33367899788001676,-0.7207874381548189,-0.1967854471007363,0.2,0.36698832096998757,-0.45868736245250824,0.2,0.5952647525052779,-0.22299178551457577,0.2,-0.1677607925551352,-0.03635939096576467,0.2,1,C153C1
1.9765270738863698,0.5972139177601903,0.26483414596348287,0.2,-0.420244419441462,-0.34723395371275123,0.4415528742968584,-0.7264559259928756,-0.5374760091073211,0.2,0.364972605138866,-0.7347811789067994,0.2,0.5890690517456749,-0.41410116209700254,0.2,-0.1696168750208466,-0.06816306845340049,0.2,1,C153C1
1.9845292077887438,0.5964700392981113,0.17470477676213847,0.2,-0.4204294644497281,-0.37202419340838583,0.49060787509628806,-0.7293870543005361,-0.5776234645276518,0.2,0.3552318221074788,-0.7366883538498792,0.2,0.5886391339117258,-0.06671950107171865,0.2,-0.16885140165038962,-0.006952722237035108,0.2,1,C153C1
1.992531341691118,0.6000091941883845,0.3939073273783039,0.2,-0.42221246548926045,-0.9237269220246531,0.46856584997664297,-0.735697901425318,-1.0373031278753524,0.2,0.3531855914772679,-0.41119498540655164,0.2,0.5880015397285274,-0.006573494761512311,0.2,-0.16972811857663916,0.15578124129914972,0.2,1,C153C1
2.0005334755934916,0.6027725565361641,0.026964773636922734,0.2,-0.4315301109558672,-0.7034746880022569,0.38054193010563897,-0.7459839043465417,-0.538592704023913,0.2,0.34865270234097395,-0.8127951344352701,0.2,0.5885339579955416,-0.4656462548088616,0.2,-0.16635890178960322,0.1505516789326658,0.2,1,C153C1
2.0085356094958655,0.6004406305665753,0.08882358344845104,0.2,-0.430996999007399,-0.2511660313562112,0.2478611355342809,-0.7443153846897006,-0.24097803924221645,0.2,0.3401808693263036,-1.0198427658717653,0.2,0.5805511996515856,-0.2945428275149334,0.2,-0.1673192917137165,0.1375270634585094,0.2,1,C153C1
2.01653774339824,0.6041937338713393,0.2933820712746407,0.2,-0.4348942562023969,-0.38532465364935703,0.2971071592499229,-0.7498395529744172,-0.8225183371811037,0.2,0.3323352180870257,-1.071114305058428,0.2,0.5838212727553027,0.2330196147285954,0.2,-0.16415846877426707,0.055253205595707025,0.2,1,C153C1
2.024539877300614,0.6051347437069695,0.3288161327318351,0.2,-0.4384890205776579,-0.2973710986387923,0.4188458459654438,-0.7574756780845983,-0.857474857027668,0.2,0.32304304044536875,-1.11275180134969,0.2,0.5842795134872432,-0.4616006981507173,0.2,-0.1664352404241852,0.08491863947182425,0.2,1,C153C1
2.0325420112029877,0.6094547919950487,0.42734830311135646,0.2,-0.4426398503808284,0.012714412659843244,0.48739146784969933,-0.7635591506868599,-0.5978690632156072,0.2,0.31453118926543067,-1.021028162820705,0.2,0.5764356615848912,-0.28423555971081316,0.2,-0.16279977054271788,-0.10045962443513273,0.2,1,C153C1
2.0405441451053616,0.6119723165567512,0.06226382031989525,0.2,-0.4422056781981142,-0.16734277591534244,0.48570867271112966,-0.767041583096048,-0.7380462575387811,0.2,0.30670658984023746,-0.8959025393538399,0.2,0.5797317445318702,0.046967977384571036,0.2,-0.16804259441514732,0.05838314790838385,0.2,1,C153C1
2.0485462790077356,0.610451013120167,-0.1294561659262103,0.2,-0.4492111497557619,-0.4017994924457053,0.4139228757344825,-0.7753678908074804,-1.1038935137689248,0.2,0.30019674863576923,-1.0780340613579729,0.2,0.5771871492230444,-0.39945697875427844,0.2,-0.16186564017618374,0.4628720452876326,0.2,1,C153C1
2.0565484129101095,0.6099010179019319,0.3348531109144265,0.2,-0.45154746242767246,-0.5196834400805507,0.28935972535631793,-0.7847038793163508,-0.8606055069929133,0.2,0.2894580448585099,-1.2688981847709286,0.2,0.5733404328718017,-0.39157599210905975,0.2,-0.1606366416905452,-0.010911652424831775,0.2,1,C153C1
2.0645505468124834,0.6158086628947979,0.27482389815110947,0.2,-0.4587418633733271,-0.9721922447917388,0.25763547197285014,-0.789137578919367,-0.6140759560256115,0.2,0.27989437767943437,-1.050048514712156,0.2,0.5709219333492994,-0.40321180274928425,0.2,-0.16204022661498105,0.13133267687013248,0.2,1,C153C1
2.0725526807148573,0.6142982002723496,0.03025423377382014,0.2,-0.4663190484959413,-0.9200238774501435,0.39108987053272154,-0.7945290946127606,-0.9733530722605549,0.2,0.2726572686231154,-1.112438144421253,0.2,0.5668890440278131,-0.4091264868410563,0.2,-0.15853531886062308,0.10786286062277814,0.2,1,C153C1
2.0805548146172312,0.616292730635179,0.20001298919822275,0.2,-0.47086679725588804,-0.7768734036545795,0.4782061300040478,-0.8047112280755359,-1.0819154607956265,0.2,0.2620953673686943,-1.403122350567467,0.2,0.5643759095598425,-0.2107278716409547,0.2,-0.1603144208450166,0.00605278489437637,0.2,1,C153C1
2.0885569485196056,0.6174984080995212,0.1866082099366423,0.2,-0.47497353688141647,-0.6575547041277663,0.49742222854685625,-0.8118397419854906,-0.7872791627416345,0.2,0.2502073110140359,-1.4056439412613064,0.2,0.5635173980815579,-0.3352663366029962,0.2,-0.15843847430231306,-0.024704207097249464,0.2,1,C153C1
2.0965590824219795,0.6192784619941653,0.12020769443110008,0.2,-0.47735482874502577,-0.842438974759921,0.4437474655330072,-0.817307694679402,-1.279059132183423,0.2,0.23960506430851342,-1.4231676561401885,0.2,0.5590116481741946,-0.4450714082185475,0.2,-0.1607096881585726,-0.04724723789092597,0.2,1,C153C1
2.1045612163243534,0.6194217312104188,0.24704415066925667,0.2,-0.4851503086159934,-0.7790232225468041,0.33005433030827414,-0.8323046881004253,-1.1603169243683265,0.2,0.2274366285157929,-1.2395215251809737,0.2,0.5563962555500611,-0.32444777236727285,0.2,-0.15919443010856787,-0.006869618595644819,0.2,1,C153C1
2.1125633502267274,0.6232311684048734,0.28578765445157195,0.2,-0.48805873559771,-0.6680272681587242,0.2160071805280563,-0.8358727654692952,-0.6060986995753067,0.2,0.21977271990561784,-1.1137609443335055,0.2,0.5538204838163182,-0.361086891503791,0.2,-0.1608196020561029,-0.1225001272080195,0.2,1,C153C1
2.1205654841291013,0.6239943336816439,0.1361809594255109,0.2,-0.49605524100834947,-0.658150275587044,0.35873348624414136,-0.8420022672936303,-1.03430665237194,0.2,0.20961645340645682,-1.3528629454527419,0.2,0.5506188652860005,-0.33189395116420967,0.2,-0.1611544321438962,0.2741786090277951,0.2,1,C153C1
2.128567618031475,0.6254100637556815,0.2089990403174452,0.2,-0.50073418711851,-0.5270729214368307,0.46309458959459365,-0.8524216719072463,-1.3264613967003749,0.2,0.19812691277837396,-1.7538532701675373,0.2,0.5485101805976909,-0.38051214738246686,0.2,-0.15643274431165818,0.2236673266106451,0.2,1,C153C1
2.136569751933849,0.627338318326723,0.21979852261119065,0.2,-0.5080407397627426,-0.5760689521066378,0.503331344074561,-0.8632256496408363,-1.1678126263491782,0.2,0.18155480108377622,-1.8291220007495679,0.2,0.544530670927881,-0.12916060891358938,0.2,-0.15757575491812587,-0.015817890755885286,0.2,1,C153C1
2.144571885836223,0.6289268401174606,0.2992867057865431,0.2,-0.5140434501373705,-0.5440897885853608,0.46931290510303125,-0.8711066739288331,-1.2042388389151697,0.2,0.16886096076638088,-1.4663374474252269,0.2,0.5464436108550734,-0.4375067237597577,0.2,-0.15668583056375235,-0.055103325776378886,0.2,1,C153C1
2.152574019738597,0.6321269056193077,0.36592539414142394,0.2,-0.5203763419080346,-0.6623335266743391,0.369085469281043,-0.882493471063479,-1.184951868145885,0.2,0.1580934019249726,-1.312294956385098,0.2,0.5375305633477249,-0.5908446058616318,0.2,-0.15845740813054793,0.20581689449419502,0.2,1,C153C1
2.160576153640971,0.6347816464237234,0.21899096109872368,0.2,-0.5269180319416824,-0.641226015466189,0.22697156340852476,-0.8900659038191673,-0.9884129190845525,0.2,0.1478642414642193,-1.353551233076785,0.2,0.5369900971612873,-0.23104201846860933,0.2,-0.15339276025184523,0.07828388545637333,0.2,1,C153C1
2.1685782875433453,0.6356307609968873,-0.06782530960401656,0.2,-0.53099890602306,-0.7775683476846607,0.32233173359687617,-0.8983080777688318,-1.1758678480765228,0.2,0.13643658219574403,-1.6821829689690915,0.2,0.5338338910522271,-0.38963373159142667,0.2,-0.15720486596324595,-0.2465275325291942,0.2,1,C153C1
2.176580421445719,0.6336964414700591,0.11497530476729106,0.2,-0.5377143290865277,-1.039223477789183,0.442223750730951,-0.9088797893883916,-1.1173691597180304,0.2,0.12094931396071384,-1.707953085234905,0.2,0.5307559574558245,-0.5550127858843442,0.2,-0.15733720077231234,0.04274776470342308,0.2,1,C153C1
2.184582555348093,0.637470365873164,0.19694250980353822,0.2,-0.5443724262422501,-1.2749678263505542,0.5031723427643322,-0.9161859843243203,-1.2492827385467073,0.2,0.10910933283198555,-1.476091584126535,0.2,0.5249536864780776,-0.6324326495807664,0.2,-0.15652090172799119,0.026793978972199095,0.2,1,C153C1
2.192584689250467,0.6368475216269157,0.22381630055139795,0.2,-0.5540443868884811,-1.0363875411677803,0.4899878520518735,-0.928868313205139,-1.4524868132727575,0.2,0.09733184861468928,-1.6321178853791665,0.2,0.5206370350625322,-0.3626440367213088,0.2,-0.15690849710875715,0.23149212782062714,0.2,1,C153C1
2.200586823152841,0.6410514266819863,0.30665495470699744,0.2,-0.5570654352556454,-0.8378530546327614,0.4056074063010696,-0.9394257733366844,-1.1698005428470297,0.2,0.08299544666591889,-1.8175806941490351,0.2,0.5191513818905367,-0.0570283140237382,0.2,-0.15281702768286115,0.008830285160976031,0.2,1,C153C1
2.208588957055215,0.6417540009022277,0.22189614892943743,0.2,-0.5646948276379679,-0.9813582373974498,0.2704470533517623,-0.9475851218906914,-1.216984680369404,0.2,0.06825055750830472,-1.6840441259970587,0.2,0.5197245820381524,-0.37951160723095206,0.2,-0.15676721254618153,-0.0763938658225171,0.2,1,C153C1
2.2165910909575888,0.6446017650648573,0.07047540383182949,0.2,-0.5718239429087091,-0.9155598689317371,0.282537096611006,-0.9588975282225949,-1.1982815944160883,0.2,0.05605074064996595,-1.7626522934390676,0.2,0.5130791961748414,-0.339506332661714,0.2,-0.15403932953602142,0.22101389348990785,0.2,1,C153C1
2.2245932248599627,0.6428816073635369,0.08361514630177147,0.2,-0.5804479607463741,-0.6276263391698745,0.4158841713143957,-0.9667576274013489,-1.3670878239491757,0.2,0.04004812081327964,-1.8314058876410064,0.2,0.514292480715565,-0.6613072763766228,0.2,-0.153230990250343,0.048899731422906434,0.2,1,C153C1
2.2325953587623366,0.6459396074056857,0.34483645975805916,0.2,-0.5847516341274324,-0.4857937644756307,0.4968012198240875,-0.9807709334057817,-1.285386546506513,0.2,0.026748246447709848,-1.555754075290602,0.2,0.5024982797528155,-0.686986446451647,0.2,-0.15325693383325492,0.303122482837672,0.2,1,C153C1
2.240597492664711,0.6483989907196659,0.27018794170242943,0.2,-0.5921846171692908,-0.7192848785538899,0.505227319228422,-0.9873238121454531,-0.9588620867319458,0.2,0.015156055608630006,-1.5636091094571865,0.2,0.5033006975723386,-0.26956447039246795,0.2,-0.14838103052494026,0.18402138671572837,0.2,1,C153C1
2.248599626567085,0.6502626144729245,0.29520218191324277,0.2,-0.600333284017201,-0.5713409033157351,0.4388061579294424,-0.9961127267934928,-1.1589266152160909,0.2,0.0017305006963948637,-1.6281648356278235,0.2,0.498185248226536,-0.36180665486383945,0.2,-0.15031259164580327,-0.14628046544807108,0.2,1,C153C1
2.256601760469459,0.6531222256302778,0.24112629166280625,0.2,-0.6045101537280685,-0.6804374132943294,0.3135347411943979,-1.0058666379889105,-1.4747982758947924,0.2,-0.010894581761415171,-1.6860823975254764,0.2,0.4975117910945172,-0.3418605918558276,0.2,-0.1507215179721094,0.21314888033930127,0.2,1,C153C1
2.2646038943718327,0.6541206351395294,0.11086024052592292,0.2,-0.6127328187324168,-0.9330132432825083,0.24008818210357652,-1.0197094992078095,-1.399975895345712,0.2,-0.02524681766401276,-1.6076435433573357,0.2,0.49271547875684274,-0.4650554184681861,0.2,-0.14690220956037445,0.17661153618208497,0.2,1,C153C1
2.2726060282742067,0.6548959894786925,0.15135697709629803,0.2,-0.6189047458920884,-1.2265413383055337,0.38448692799608164,-1.028266252314442,-1.2760470041072862,0.2,-0.03661687845513254,-1.6226502615231684,0.2,0.49007090439902623,-0.11960285302657983,0.2,-0.14789573339319603,0.19883263564994189,0.2,1,C153C1
2.2806081621765806,0.6565423467730702,0.1525107758738875,0.2,-0.6299037886673857,-1.0818613791447418,0.4841994919206897,-1.040126251273526,-1.317596095902207,0.2,-0.05120922184838345,-1.6519101154789388,0.2,0.49080183310841746,-0.4519843601469356,0.2,-0.14372088738997538,-0.03253988277225617,0.2,1,C153C1
2.2886102960789545,0.6573361618926747,0.38071734998997714,0.2,-0.6324377905242423,-0.8845004930918154,0.5145861108015781,-1.0493477898488772,-1.1834804474649407,0.2,-0.06304744030279556,-1.6544746323491903,0.2,0.48283915463667526,-0.5641302651890716,0.2,-0.14841637151755213,0.027274633856842756,0.2,1,C153C1
2.2966124299813284,0.6626338243729099,0.41148361155793345,0.2,-0.6398787195669583,-1.068944012260277,0.46791725391108663,-1.0590619384329651,-1.2255494509621905,0.2,-0.0776808159659705,-1.7594522602892821,0.2,0.4817757488653923,-0.18505841884034271,0.2,-0.1432844932482659,0.20733755605224605,0.2,1,C153C1
2.3046145638837023,0.6639198996776017,-0.18304680305911147,0.2,-0.6459864369570756,-0.6876589010033165,0.3553369890312721,-1.0689565810642723,-0.963493207717353,0.2,-0.09119867646742408,-1.6594171040187153,0.2,0.4798782199352298,-0.5869849543639859,0.2,-0.1450989706207162,-0.1234709743112121,0.2,1,C153C1
2.3126166977860763,0.6597050755239641,-0.003901245635651307,0.2,-0.6488221138268387,-0.6520179446102192,0.20420367556747707,-1.0744778297564428,-1.052863131420431,0.2,-0.10423148963026994,-1.4748287329480296,0.2,0.47238398959556854,-0.7354645599385347,0.2,-0.1452600288372453,0.057059843849542255,0.2,1,C153C1
2.3206188316884506,0.6638574797474313,0.20242352912513278,0.2,-0.6563630462487533,-0.8558080566109739,0.34855787476973116,-1.0858023911669992,-1.240305855718965,0.2,-0.11479593619459255,-1.4383500163716962,0.2,0.4681107869762132,-0.30527057006625447,0.2,-0.14418601311912352,-0.1308920268513914,0.2,1,C153C1
2.3286209655908245,0.6629438519899662,0.21303880155611188,0.2,-0.6644810691977224,-0.5650958296982704,0.4654775448571254,-1.0943227234479462,-1.383875164176318,0.2,-0.12724508989221708,-1.6883182458013126,0.2,0.46749966047450847,-0.31102627754278284,0.2,-0.14735430126686755,0.22083426950977347,0.2,1,C153C1
2.3366230994931985,0.667266100572329,0.3585047025002758,0.2,-0.6689150263980694,-0.4479661748002641,0.5177304736056683,-1.1079443937938203,-1.3884541827187402,0.2,-0.14180902812741356,-1.6939314477027247,0.2,0.4631343665355287,-0.3015537173038582,0.2,-0.14065266480696714,0.05762945445932956,0.2,1,C153C1
2.3446252333955724,0.6686799272299706,0.38302356240967755,0.2,-0.6758464533270541,-0.8269634068161288,0.4922428700483443,-1.116537990371446,-0.7666120071540827,0.2,-0.15434799305546068,-1.604881306206592,0.2,0.46267480099764674,-0.2509093448124118,0.2,-0.14643222999551828,-0.10162851046198983,0.2,1,C153C1
2.3526273672979463,0.6733944775708839,0.2852646699560632,0.2,-0.686004432590934,-0.638954872939411,0.3949615081758761,-1.1202101859082856,-1.207802363573901,0.2,-0.16748712902671903,-1.5824817907179218,0.2,0.4591198170185301,-0.3573973753466658,0.2,-0.14227872097435898,0.257206707186583,0.2,1,C153C1
2.3606295012003202,0.6732441619492676,-0.14922117196976975,0.2,-0.6886413587720847,-0.6143206465208024,0.24946964855562623,-1.1358628281886285,-1.229163813311132,0.2,-0.17966770170694743,-1.5902638497593478,0.2,0.4569564429921001,-0.31586086412558123,0.2,-0.14231692268053295,-0.08058518029419384,0.2,1,C153C1
2.368631635102694,0.6710069388193676,0.15402324717880833,0.2,-0.6964855517135947,-1.0164938101283296,0.308729357100507,-1.1398768069212637,-1.0926178416881953,0.2,-0.1929313506228686,-1.423811602736448,0.2,0.4540660431925208,-0.38300658349452177,0.2,-0.14356808385906608,0.02189852087238972,0.2,1,C153C1
2.376633769005068,0.6757085339041285,0.08625094322663868,0.2,-0.7034734328093576,-0.9302810062713152,0.4408753514914997,-1.1533447136556396,-1.4902654626340883,0.2,-0.2024486873507306,-1.3327507307846174,0.2,0.45082833765618774,-0.4443115030192471,0.2,-0.1419665463465747,0.13014517648425594,0.2,1,C153C1
2.384635902907442,0.6723869539109938,0.16544353752274282,0.2,-0.7082006352943108,-0.8969720853653582,0.5144476769941881,-1.163721054323409,-1.0414082844853316,0.2,-0.21425536231542247,-1.550334057168425,0.2,0.44695705914421285,-0.5014592047754806,0.2,-0.141485761035318,0.1791142487071254,0.2,1,C153C1
2.3926380368098163,0.6783556305044924,0.6381030099843407,0.2,-0.7136909164694457,-0.8156520931158882,0.5111679571083806,-1.170007246207405,-0.935262196187725,0.2,-0.2272540322654254,-1.408945759511334,0.2,0.44280499037978005,-0.3870622266522287,0.2,-0.1391007183672607,0.08494584665781103,0.2,1,C153C1
2.4006401707121903,0.6825966020707432,0.32623921201738876,0.2,-0.7171634765725606,-0.7747960514078361,0.4315401115026598,-1.1786852494624127,-0.9209169436703024,0.2,-0.23679849446760382,-1.1612791497514503,0.2,0.4407640635177772,-0.21189187457356165,0.2,-0.140126627488793,-0.05905263067016754,0.2,1,C153C1
2.408642304614564,0.6835754578967707,0.11114114018635768,0.2,-0.7230485706143316,-0.8877526647962646,0.29480020835181203,-1.1847419173061298,-0.9165123913669609,0.2,-0.2458344986614486,-1.192702678680154,0.2,0.43941472038660306,-0.30351862932703755,0.2,-0.1400455604579834,0.06896136253971459,0.2,1,C153C1
2.416644438516938,0.684374860313725,0.06901625388839455,0.2,-0.7301242377882935,-0.4574267552211894,0.265729498887027,-1.193349447724284,-0.7257360866823742,0.2,-0.2558817373264863,-1.1937147873212848,0.2,0.4359077654485446,-0.5761335201027139,0.2,-0.13902324568815758,-0.021853850689876678,0.2,1,C153C1
2.424646572419312,0.684679717958985,-0.0588730180131683,0.2,-0.7312287189126064,-0.3592925239494429,0.4107604851694928,-1.1963536946930478,-0.8355909214749768,0.2,-0.26493393525858916,-1.1434046255629908,0.2,0.43019658406495964,-0.33142518765740325,0.2,-0.1403952220690214,0.102007929849093,0.2,1,C153C1
2.432648706321686,0.6834328920255143,0.036911574322617824,0.2,-0.7386324662588102,-0.570856244214494,0.5046532720454227,-1.2067189024678837,-1.13886785699778,0.2,-0.27417621133549414,-1.3086157563718983,0.2,0.43060496244602614,-0.04426241898903421,0.2,-0.1373911188105721,0.011413232242740712,0.2,1,C153C1
2.44065084022406,0.6852703031481469,0.3171334380948493,0.2,-0.7443480707846555,0.04535104661170403,0.5241750025366032,-1.2145755804050122,-0.8695352111744575,0.2,-0.28587178736053953,-1.3145995388735425,0.2,0.4294883853611351,-0.2298929941756192,0.2,-0.14021261035313756,0.1790738770676703,0.2,1,C153C1
2.448652974126434,0.6885070270350319,0.29576116751141995,0.2,-0.7421444312455275,-0.3124135632795102,0.4642473903128672,-1.220631465846675,-0.6389258651172125,0.2,-0.2952098039574708,-1.1752380596209282,0.2,0.42692667453921623,-0.43192667468817253,0.2,-0.13452593677748936,0.26538084883229696,0.2,1,C153C1
2.4566551080288077,0.6900024818283296,0.24186038609520788,0.2,-0.7527980822828467,-0.9421361914111319,0.3392631580842162,-1.2247983942468876,-0.780976649975687,0.2,-0.3046755963144744,-0.9500318176267862,0.2,0.42257755856612433,-0.39901781754676097,0.2,-0.1359665167718208,0.024442026118008317,0.2,1,C153C1
2.4646572419311816,0.6923767932125552,0.2600348749218287,0.2,-0.7590360740351427,-0.451495026909235,0.2203692336473142,-1.233127092246286,-0.9446377212457696,0.2,-0.3104103130394994,-0.9271974130164069,0.2,0.42054238945846806,-0.2903002590524915,0.2,-0.13413486435960123,0.18162165971483124,0.2,1,C153C1
2.472659375833556,0.6941630398270788,0.2086884730195665,0.2,-0.7597563892347009,-0.11986778508553053,0.37562340966700436,-1.23991259778682,-0.8576951164046415,0.2,-0.3195107549227369,-1.1917654878548858,0.2,0.41793275442128447,-0.5902856687162762,0.2,-0.1330605702163835,0.07200370718311519,0.2,1,C153C1
2.48066150973593,0.6957158087808683,0.1737836855968955,0.2,-0.7586657057018271,-0.6216008393871962,0.4883958246892323,-1.2468502141087603,-0.8696804188039337,0.2,-0.32947856084517757,-0.9536425781512293,0.2,0.41109781875900764,-0.20152424728000704,0.2,-0.1329828050446714,-0.24757080805996692,0.2,1,C153C1
2.488663643638304,0.6969435787966292,0.13526028087339215,0.2,-0.7659474597885513,-1.0321879262443394,0.5308570827324827,-1.2538274844876829,-0.5661466443945412,0.2,-0.33476903617315656,-0.8065320048825791,0.2,0.41470836646480436,0.06295377127615853,0.2,-0.13702170314534298,-0.10936000316553833,0.2,1,C153C1
2.4966657775406778,0.6978799732748425,0.48541248710953777,0.2,-0.7708768805512327,-0.8176171102262445,0.4923189199494361,-1.255908560419073,-0.6755177299271747,0.2,-0.34238307292329884,-0.9527937233990771,0.2,0.4121050790994262,-0.09977734428892951,0.2,-0.13473256509532,0.058615640976204114,0.2,1,C153C1
2.5046679114430517,0.7047101785903818,0.06770442295062767,0.2,-0.7752298999866221,-0.6171538196060998,0.3819225516711003,-1.2646357681665177,-0.9234733299835901,0.2,-0.3500137357475418,-0.893776551032125,0.2,0.4131119289561815,0.052958637170807954,0.2,-0.13608385288972372,0.15982511344348435,0.2,1,C153C1
2.5126700453454256,0.6989632440420526,-0.09060096396858869,0.2,-0.7783887111237472,-0.48609665082342113,0.2264726970730873,-1.2706841336988104,-0.36308183968010443,0.2,-0.35668349773981284,-0.6980085236230442,0.2,0.4129524172941591,-0.10011353301463827,0.2,-0.13217536328022425,0.11435411472893002,0.2,1,C153C1
2.5206721792477995,0.7032605631668843,0.4400970074653135,0.2,-0.7826639239722466,-0.35532593282924624,0.336070083969201,-1.2704450776013994,-0.24547443576031225,0.2,-0.3611818721255105,-0.4810229191558289,0.2,0.41151011242794727,-0.2892225696242423,0.2,-0.13425418705406084,-0.16302607103645636,0.2,1,C153C1
2.5286743131501734,0.7060047961614976,0.27367179379992473,0.2,-0.7858382059059902,-0.3118583712961844,0.46585896636668567,-1.2746117246709754,-0.6145657824050271,0.2,-0.3643798644463061,-1.0493288016375293,0.2,0.4083248561801712,-0.09651210092861615,0.2,-0.13478378041680755,0.17137014864887673,0.2,1,C153C1
2.5366764470525474,0.7076393118676831,0.13525880883537983,0.2,-0.7910979846027564,0.004554674498776945,0.5309288923692037,-1.2802781301198798,-0.4584967402667811,0.2,-0.377971132951711,-0.9511762167711512,0.2,0.4099659188130894,-0.12500952410407495,0.2,-0.1315122646756788,0.2520217346456445,0.2,1,C153C1
2.5446785809549217,0.7081689371028637,0.06197991164509642,0.2,-0.7900492002708926,0.2748466966746533,0.5150685996938165,-1.2819476725152439,-0.23517318808048693,0.2,-0.3795986839146445,-0.34347652882317153,0.2,0.406324703794506,-0.4109651562284322,0.2,-0.13075143266247724,0.1911846217451489,0.2,1,C153C1
2.5526807148572956,0.7086309904540047,0.38047497958047793,0.2,-0.7907756982442409,-0.0841044045312522,0.4218581206799744,-1.2840409011291676,-0.28111294812085963,0.2,-0.3834667574128817,-0.25012933595112974,0.2,0.4033904763134345,-0.059704148582351985,0.2,-0.12845331072775643,-0.00106190977659619,0.2,1,C153C1
2.5606828487596696,0.7142565367761513,0.5701910997239836,0.2,-0.7942621808652663,0.06552909013261385,0.27386650710725213,-1.2864454796851776,-0.5204376253596932,0.2,-0.3836007532898626,-0.3706898347389832,0.2,0.4053694374171884,0.06603485796824113,0.2,-0.13076842321890278,-0.022694267938097243,0.2,1,C153C1
2.5686849826620435,0.7177540480495884,-0.04766573398394536,0.2,-0.7906811182853443,-0.2873648912074615,0.2928119779537133,-1.2923679031349227,-0.7368851361875678,0.2,-0.38939779476870545,-0.7536670148481882,0.2,0.40444703404092636,-0.30238701966919107,0.2,-0.12881641901476598,0.10289529036191895,0.2,1,C153C1
2.5766871165644174,0.7134938850324082,-0.3057566673112383,0.2,-0.7976624452155056,-0.8283199226154976,0.4373606592557832,-1.2982356418641787,-0.12056766839446675,0.2,-0.3956594255274336,-0.35316197367235913,0.2,0.40053124510248134,-0.32537244820258004,0.2,-0.12912209857311208,0.033264978089347225,0.2,1,C153C1
2.5846892504667913,0.7128619413726086,0.206067032591635,0.2,-0.8008739868069887,-0.23391201424725683,0.524235473252046,-1.2942969858292341,-0.12569484219268623,0.2,-0.3950483863474632,0.14394814278037224,0.2,0.3992410748696851,0.12513948784288395,0.2,-0.12828417936533643,0.0004744409687982426,0.2,1,C153C1
2.5926913843691652,0.7167909575538743,0.4353199442819894,0.2,-0.7972280909281374,-0.08698579487553776,0.5319047422092711,-1.3002467593392617,-0.13674395424731478,0.2,-0.39335625524294765,0.01900021966708479,0.2,0.4025334769079675,0.26367416372755426,0.2,-0.1291145075176113,-0.0023893065368100347,0.2,1,C153C1
2.600693518271539,0.7198270604811204,0.2889572600795129,0.2,-0.7979934539132931,-0.4048191975125929,0.45818481072344236,-1.2964848890971912,0.05252736195746066,0.2,-0.39474438283278984,-0.2720600565252022,0.2,0.40345986148932594,-0.35493050434013546,0.2,-0.1283224082699254,0.33887444475889666,0.2,1,C153C1
2.608695652173913,0.7214142737151465,0.2457012492515856,0.2,-0.8003844931272657,-0.1751774537259602,0.32084957670151937,-1.2994063215479423,-0.24910381621262578,0.2,-0.3977092161473509,-0.2181193262997677,0.2,0.3968545888385253,-0.06020405481659691,0.2,-0.12369251640146896,0.3300852987865458,0.2,1,C153C1
2.616697786076287,0.7237582804691458,0.2030186704757228,0.2,-0.799243206243411,0.18497235058120498,0.2466536519739082,-1.3004705501565932,-0.06678999877254843,0.2,-0.3982342920535861,-0.1110110876903353,0.2,0.4024965966122604,0.04566558469211099,0.2,-0.12304104348934065,-0.17777425306684647,0.2,1,C153C1
2.6246999199786614,0.7246625724427581,0.2137984338886345,0.2,-0.7980240193314355,0.05886480277194217,0.40334962984683337,-1.300474961528303,-0.024947708330530505,0.2,-0.39948539355039625,-0.20769660542107118,0.2,0.3975852381935991,-0.30130198973313604,0.2,-0.1265369044505385,0.021509090621483692,0.2,1,C153C1
2.6327020538810353,0.727179055411364,0.08755203368821657,0.2,-0.8009105065903586,0.42896622638199045,0.5107584078943144,-1.3008697134898817,0.12929089742429178,0.2,-0.40155743774032326,0.07716824324072516,0.2,0.3976757647765302,0.03897358324991829,0.2,-0.12269689803939691,0.22651650494219694,0.2,1,C153C1
2.640704187783409,0.7260634049817696,0.09518802617626554,0.2,-0.7951446418618149,0.45319047221330366,0.5423445459184414,-1.2984063071695144,0.13801575913645336,0.2,-0.39825070165854465,0.02296996523532338,0.2,0.3982088155255978,0.35429435846136625,0.2,-0.12291264037146335,0.16635366889878547,0.2,1,C153C1
2.648706321685783,0.7287020638301842,0.1384983710955509,0.2,-0.7980449776375839,-0.25504864376627234,0.49007201826446944,-1.2986614613436984,0.04827187512376763,0.2,-0.4011899182965581,0.20257596008602108,0.2,0.4033444745119121,0.28860133865005533,0.2,-0.12003523933701635,0.2943768323341667,0.2,1,C153C1
